Color/Polaroid/Polaroid 690 Warm 1 -- 65x.cube
TITLE "Polaroid 690 Warm 1 --"
LUT_3D_SIZE 9
DOMAIN_MIN 0.000000 0.000000 0.000000
DOMAIN_MAX 1.000000 1.000000 1.000000
0.000000 0.000000 0.000000
0.093138 0.000000 0.000000
0.256863 0.000000 0.000000
0.432353 0.000000 0.000000
0.584313 0.000000 0.000000
0.723039 0.000000 0.000000
0.838235 0.000000 0.000000
0.953921 0.000000 0.000000
1.000000 0.000000 0.000000
0.020098 0.069608 0.000000
0.113235 0.077941 0.000000
0.299020 0.038726 0.000000
0.471079 0.000000 0.000000
0.611764 0.000000 0.000000
0.745588 0.000000 0.000000
0.859313 0.000000 0.000000
0.965196 0.000000 0.000000
1.000000 0.000000 0.000000
0.000000 0.242157 0.000000
0.084804 0.243138 0.000000
0.292157 0.259804 0.000000
0.507843 0.240196 0.000000
0.682353 0.200001 0.000000
0.794118 0.095098 0.000000
0.893138 0.000000 0.000000
0.987746 0.000000 0.000000
1.000000 0.000000 0.000000
0.000000 0.397059 0.000000
0.003432 0.408824 0.000000
0.251961 0.415686 0.000000
0.467647 0.436275 0.000000
0.662255 0.426961 0.000000
0.816177 0.415196 0.000000
0.923530 0.385294 0.000000
1.000000 0.339216 0.000000
1.000000 0.328921 0.000000
0.000000 0.525490 0.000000
0.010294 0.527942 0.000000
0.236275 0.523529 0.000000
0.415196 0.539706 0.000000
0.601961 0.554902 0.000000
0.774020 0.560785 0.000000
0.908823 0.559804 0.000000
1.000000 0.566666 0.000000
1.000000 0.558823 0.000000
0.000000 0.621078 0.000000
0.123529 0.628922 0.000000
0.256863 0.621078 0.000000
0.400981 0.624019 0.000000
0.558333 0.642157 0.000000
0.724510 0.661765 0.000000
0.871078 0.673529 0.000000
0.993137 0.681372 0.000000
1.000000 0.700980 0.000000
0.187255 0.729411 0.000000
0.238725 0.732353 0.000000
0.319608 0.724510 0.000000
0.429411 0.722059 0.000000
0.565686 0.735294 0.000000
0.705392 0.750981 0.000000
0.843137 0.763725 0.000000
0.966667 0.779902 0.000000
1.000000 0.798039 0.000000
0.353431 0.847549 0.000000
0.377941 0.848039 0.000000
0.435294 0.844117 0.000000
0.522549 0.843627 0.000000
0.618627 0.842157 0.000000
0.739216 0.855392 0.000000
0.859804 0.868138 0.000000
0.969117 0.882843 0.000000
1.000000 0.895098 0.000000
0.556863 0.976471 0.149020
0.572059 0.976471 0.145098
0.607843 0.973530 0.126470
0.665196 0.974020 0.079902
0.739216 0.972549 0.000000
0.822549 0.974020 0.000000
0.906862 0.979412 0.000000
0.985294 0.984804 0.000000
1.000000 0.992157 0.000000
0.019608 0.000000 0.057844
0.100981 0.000000 0.065687
0.248039 0.000000 0.053922
0.421568 0.000000 0.054412
0.571079 0.000000 0.032843
0.701470 0.000000 0.019118
0.816667 0.000000 0.005882
0.930883 0.000000 0.000000
1.000000 0.000000 0.000000
0.031373 0.070098 0.062255
0.127941 0.077451 0.073530
0.295098 0.026961 0.061765
0.458333 0.000000 0.050000
0.603431 0.000000 0.036275
0.728431 0.000000 0.019118
0.836765 0.000000 0.000000
0.946569 0.000000 0.000000
1.000000 0.000000 0.000000
0.000000 0.256863 0.059804
0.131862 0.254902 0.049509
0.307843 0.263726 0.015686
0.513235 0.255393 0.033333
0.665196 0.207843 0.034314
0.776471 0.110294 0.005392
0.875981 0.000000 0.000000
0.975490 0.000000 0.000000
1.000000 0.000000 0.000000
0.000000 0.406373 0.000981
0.115686 0.416667 0.000000
0.280883 0.416667 0.000000
0.479412 0.437255 0.000000
0.666176 0.431863 0.000000
0.812255 0.423039 0.000000
0.913725 0.382843 0.000000
1.000000 0.338726 0.000000
1.000000 0.323530 0.000000
0.000000 0.533333 0.000000
0.122059 0.537254 0.000000
0.268137 0.527451 0.000000
0.428431 0.541176 0.000000
0.609804 0.558823 0.000000
0.771568 0.560785 0.000000
0.905392 0.560785 0.000000
1.000000 0.571079 0.036275
1.000000 0.554902 0.000000
0.076471 0.628432 0.000000
0.174510 0.634314 0.000000
0.284314 0.627451 0.000000
0.416177 0.628922 0.000000
0.565686 0.643137 0.000000
0.728431 0.664216 0.000000
0.871568 0.672549 0.000000
0.995098 0.684314 0.000000
1.000000 0.701471 0.023039
0.209804 0.733333 0.000000
0.257353 0.735294 0.000000
0.335294 0.731373 0.000000
0.438236 0.722549 0.000000
0.570098 0.735784 0.000000
0.706863 0.749510 0.000000
0.846078 0.766667 0.000000
0.966176 0.779412 0.000000
1.000000 0.799019 0.000000
0.353921 0.848039 0.000000
0.385294 0.848530 0.000000
0.439706 0.848039 0.000000
0.521079 0.844117 0.000000
0.622059 0.843627 0.000000
0.739216 0.852941 0.000000
0.857353 0.867157 0.000000
0.965686 0.882353 0.000000
1.000000 0.894608 0.000000
0.552941 0.976471 0.207353
0.568627 0.976471 0.203922
0.603432 0.975981 0.192157
0.662745 0.974020 0.161765
0.737254 0.972549 0.107353
0.821078 0.976471 0.044608
0.905392 0.979902 0.000000
0.985294 0.984804 0.000000
1.000000 0.992157 0.000000
0.000000 0.003922 0.232353
0.066667 0.000000 0.241176
0.283334 0.000000 0.255883
0.436275 0.000000 0.201961
0.575490 0.000000 0.184314
0.686275 0.000000 0.169118
0.780392 0.000000 0.153922
0.906862 0.000000 0.107353
1.000000 0.000000 0.083334
0.015196 0.077451 0.228922
0.132843 0.085295 0.245588
0.311275 0.073529 0.264216
0.448039 0.030883 0.217647
0.589216 0.000000 0.201961
0.695098 0.000000 0.183824
0.805392 0.000000 0.138725
0.922549 0.000000 0.115196
1.000000 0.000000 0.091667
0.061765 0.250981 0.247058
0.178431 0.259804 0.255883
0.330392 0.275490 0.270588
0.495098 0.244608 0.252451
0.631373 0.197059 0.228432
0.741667 0.115686 0.197059
0.847059 0.000000 0.168627
0.953921 0.000000 0.138235
1.000000 0.000000 0.107843
0.104902 0.424510 0.249509
0.205882 0.436765 0.264216
0.330392 0.432843 0.256373
0.497549 0.446569 0.244118
0.664216 0.441176 0.256373
0.794608 0.421078 0.255393
0.890686 0.370588 0.217157
0.984804 0.326961 0.176961
1.000000 0.304902 0.141667
0.158823 0.550980 0.248039
0.225000 0.554412 0.248529
0.321569 0.544118 0.230392
0.455883 0.546569 0.214706
0.619607 0.562745 0.200981
0.775490 0.566176 0.207843
0.904902 0.570588 0.245098
1.000000 0.565196 0.256373
1.000000 0.542157 0.211765
0.187255 0.640686 0.218137
0.245588 0.648529 0.221568
0.329902 0.640686 0.207353
0.437745 0.630392 0.182843
0.579412 0.647549 0.171078
0.733333 0.665686 0.152941
0.873529 0.676961 0.159314
0.991667 0.687745 0.206373
1.000000 0.707353 0.280392
0.250000 0.741176 0.197058
0.288236 0.742647 0.194608
0.359804 0.738235 0.181373
0.455392 0.731373 0.151471
0.574510 0.733333 0.127451
0.710784 0.749510 0.107843
0.846078 0.767647 0.070588
0.966176 0.782843 0.083334
1.000000 0.800980 0.159804
0.358824 0.852941 0.194607
0.388235 0.855392 0.194117
0.443627 0.852941 0.179412
0.521569 0.848039 0.147059
0.619607 0.842647 0.090687
0.738725 0.855392 0.067647
0.856373 0.867647 0.019608
0.965686 0.880882 0.000000
1.000000 0.895098 0.066177
0.538235 0.976471 0.304902
0.557843 0.977451 0.304902
0.592157 0.976471 0.293137
0.653431 0.975981 0.273529
0.727451 0.973529 0.243137
0.813235 0.974020 0.214706
0.899020 0.977451 0.186274
0.981372 0.984804 0.130392
1.000000 0.992157 0.000000
0.000000 0.003922 0.412745
0.000000 0.000000 0.423039
0.246079 0.000000 0.448529
0.475490 0.000000 0.458333
0.606373 0.000000 0.388235
0.697059 0.000000 0.335784
0.795588 0.000000 0.310785
0.894608 0.000000 0.286765
1.000000 0.000000 0.263726
0.000000 0.093138 0.408824
0.107843 0.099510 0.426961
0.292647 0.100981 0.447549
0.491177 0.080392 0.459804
0.611765 0.055883 0.399510
0.703431 0.000000 0.347059
0.800981 0.000000 0.319118
0.898529 0.000000 0.290687
1.000000 0.000000 0.263236
0.084314 0.232843 0.396568
0.183334 0.249019 0.413235
0.335294 0.280392 0.447549
0.513725 0.298040 0.473529
0.612255 0.269608 0.409314
0.714216 0.201471 0.372059
0.806373 0.085294 0.333333
0.903922 0.000000 0.289216
1.000000 0.000000 0.237255
0.152941 0.418137 0.422059
0.242157 0.437255 0.441176
0.370098 0.448039 0.454412
0.514706 0.461275 0.467647
0.637255 0.418627 0.430392
0.746569 0.373039 0.390196
0.851961 0.324020 0.354412
0.953431 0.266176 0.312745
1.000000 0.221569 0.281863
0.230392 0.566667 0.432843
0.288235 0.574510 0.441176
0.377941 0.574020 0.440686
0.487255 0.562745 0.425000
0.631373 0.572549 0.419118
0.779412 0.576470 0.430392
0.896569 0.573039 0.437745
0.985784 0.535784 0.391667
1.000000 0.509804 0.348039
0.249510 0.662745 0.407353
0.302941 0.671079 0.415196
0.380883 0.666667 0.411274
0.472549 0.653922 0.390196
0.590686 0.652451 0.374020
0.738725 0.672059 0.374510
0.877451 0.683824 0.386274
0.987745 0.693628 0.416667
1.000000 0.712745 0.456372
0.286274 0.756862 0.383334
0.323039 0.757353 0.383823
0.385294 0.752941 0.371569
0.474020 0.747059 0.354902
0.576961 0.734804 0.325981
0.711765 0.751961 0.325490
0.848530 0.770098 0.328432
0.967647 0.784804 0.339706
1.000000 0.802941 0.380882
0.351471 0.859804 0.363725
0.383333 0.862255 0.365686
0.436274 0.859314 0.353922
0.515687 0.853431 0.331863
0.613726 0.848039 0.302941
0.729902 0.854412 0.291177
0.849020 0.867157 0.291177
0.961764 0.883333 0.293137
1.000000 0.898529 0.320588
0.515196 0.980392 0.424510
0.538235 0.980392 0.425980
0.574020 0.980392 0.417647
0.635294 0.976471 0.402451
0.711765 0.976471 0.373529
0.800490 0.975491 0.347549
0.891177 0.980392 0.338235
0.976961 0.984314 0.318628
1.000000 0.992157 0.277941
0.000000 0.005882 0.570588
0.000000 0.000000 0.578431
0.225490 0.000000 0.597059
0.458823 0.000000 0.627941
0.658824 0.000000 0.635294
0.744608 0.000000 0.557353
0.814706 0.000000 0.489216
0.910294 0.000000 0.462255
1.000000 0.000000 0.450981
0.000000 0.112745 0.564705
0.088235 0.118137 0.577941
0.279902 0.124510 0.596078
0.484804 0.135784 0.631373
0.662745 0.126471 0.635785
0.745098 0.102941 0.559804
0.815196 0.099020 0.492647
0.910784 0.000000 0.465196
1.000000 0.000000 0.450981
0.129412 0.261765 0.562745
0.214706 0.276960 0.578431
0.340196 0.289216 0.597059
0.504412 0.309314 0.625981
0.665686 0.313725 0.634314
0.741667 0.281863 0.562255
0.818627 0.244118 0.506863
0.914705 0.118628 0.472549
1.000000 0.000000 0.446078
0.171078 0.389706 0.541176
0.241176 0.408824 0.560785
0.349510 0.415686 0.565686
0.502941 0.450490 0.603921
0.658334 0.465686 0.625490
0.734314 0.427941 0.561275
0.824510 0.360294 0.516177
0.915196 0.258824 0.462746
1.000000 0.027451 0.415196
0.250980 0.554902 0.570588
0.304902 0.564705 0.580392
0.397059 0.568628 0.586275
0.518138 0.580392 0.596078
0.647058 0.592156 0.611765
0.752941 0.548039 0.571078
0.853921 0.499020 0.524510
0.953921 0.448529 0.474509
1.000000 0.405882 0.431372
0.325980 0.675980 0.576470
0.368137 0.685785 0.586765
0.430883 0.683824 0.584804
0.520098 0.683824 0.584313
0.611764 0.672059 0.560785
0.746569 0.681372 0.557353
0.879412 0.693627 0.575490
0.980392 0.700490 0.592647
1.000000 0.673039 0.544118
0.328431 0.773529 0.554902
0.359314 0.776471 0.557843
0.412745 0.773529 0.551961
0.498529 0.767157 0.539215
0.591176 0.755882 0.510784
0.706863 0.752941 0.492157
0.850000 0.776471 0.506863
0.965686 0.790686 0.523039
1.000000 0.807843 0.565686
0.351471 0.873039 0.533334
0.384804 0.872059 0.534314
0.434314 0.871078 0.525490
0.509804 0.865196 0.506863
0.603921 0.859314 0.477941
0.711275 0.851961 0.446078
0.840196 0.867157 0.456372
0.955882 0.884804 0.472549
1.000000 0.900490 0.501470
0.492157 0.980392 0.566666
0.513726 0.984314 0.568628
0.550000 0.980392 0.556863
0.610294 0.980392 0.544608
0.688236 0.976471 0.519608
0.779902 0.976471 0.488726
0.876471 0.980392 0.480393
0.965196 0.988235 0.478431
1.000000 0.992157 0.462746
0.000000 0.035294 0.707353
0.000000 0.033334 0.713235
0.249510 0.031373 0.728431
0.456863 0.030392 0.749020
0.649510 0.048529 0.774020
0.795098 0.051471 0.763725
0.867647 0.025980 0.700000
0.934313 0.058333 0.643628
1.000000 0.005882 0.624020
0.000000 0.141666 0.702941
0.134804 0.151470 0.716667
0.301961 0.158333 0.729412
0.477451 0.167647 0.748530
0.656863 0.189216 0.772059
0.795588 0.191177 0.764215
0.867647 0.167647 0.703922
0.933823 0.157843 0.643137
1.000000 0.101961 0.626470
0.169118 0.282843 0.703431
0.235294 0.288235 0.712745
0.350000 0.297549 0.723039
0.497059 0.313235 0.741667
0.658824 0.334314 0.764215
0.793627 0.339215 0.762255
0.863235 0.307353 0.702941
0.931373 0.279412 0.646078
1.000000 0.205392 0.627451
0.192157 0.386765 0.664216
0.259314 0.407353 0.684804
0.366666 0.425000 0.700000
0.496569 0.441667 0.719118
0.650490 0.469608 0.747549
0.787255 0.481863 0.756863
0.852451 0.436765 0.697549
0.925000 0.392157 0.641177
1.000000 0.298039 0.620098
0.235784 0.525980 0.668137
0.283824 0.531863 0.672058
0.368137 0.535784 0.675000
0.475980 0.538235 0.682353
0.631373 0.576470 0.720588
0.775490 0.601470 0.746078
0.839216 0.550490 0.687255
0.927451 0.468627 0.632353
1.000000 0.359804 0.580882
0.319118 0.664216 0.685294
0.361765 0.671569 0.695098
0.433333 0.675000 0.698530
0.530392 0.678431 0.705882
0.645098 0.687745 0.718628
0.763725 0.704902 0.736274
0.855392 0.660785 0.692157
0.949510 0.606373 0.638726
1.000000 0.561275 0.591176
0.427941 0.787255 0.714706
0.451961 0.788235 0.717647
0.496569 0.789215 0.717647
0.560294 0.787255 0.712255
0.639706 0.783824 0.705883
0.724510 0.774510 0.681372
0.850000 0.787255 0.683823
0.961764 0.799019 0.702941
1.000000 0.817157 0.736765
0.425000 0.878921 0.700980
0.448529 0.879902 0.701470
0.486765 0.881863 0.700000
0.543137 0.878921 0.688726
0.622549 0.874510 0.672549
0.708824 0.863725 0.637745
0.827941 0.867647 0.625490
0.948530 0.887255 0.646078
0.997549 0.900000 0.677941
0.499510 0.984314 0.716667
0.511275 0.984314 0.712745
0.538725 0.985784 0.703431
0.598529 0.981863 0.697059
0.672549 0.980392 0.677451
0.756863 0.980392 0.652451
0.855883 0.980392 0.626470
0.949510 0.987255 0.630392
1.000000 0.992157 0.634314
0.059804 0.106862 0.836274
0.177451 0.109804 0.836275
0.323529 0.113725 0.843137
0.479412 0.118627 0.851961
0.643138 0.142157 0.864706
0.799510 0.189706 0.879902
0.911765 0.205883 0.871568
0.977451 0.181863 0.826470
1.000000 0.213726 0.795098
0.152941 0.183334 0.827941
0.238726 0.192157 0.836275
0.351961 0.195098 0.840196
0.497549 0.206863 0.850490
0.650490 0.226471 0.863726
0.801961 0.268627 0.882353
0.912255 0.272549 0.869118
0.973530 0.243627 0.825980
1.000000 0.259314 0.796568
0.235294 0.301960 0.823529
0.286275 0.306863 0.828431
0.382353 0.311765 0.832353
0.511275 0.327941 0.844118
0.655883 0.350000 0.860785
0.800980 0.384314 0.876961
0.908823 0.386274 0.870588
0.968137 0.350000 0.824510
1.000000 0.340196 0.795098
0.239216 0.406373 0.797058
0.299019 0.420588 0.809804
0.387255 0.427451 0.816667
0.509314 0.442647 0.829412
0.646568 0.463236 0.843627
0.790196 0.501960 0.866667
0.899020 0.506863 0.865196
0.959314 0.461765 0.819608
1.000000 0.433334 0.788725
0.201960 0.498039 0.762745
0.251960 0.507843 0.769607
0.350980 0.517648 0.782353
0.477941 0.535784 0.800490
0.628431 0.565686 0.826470
0.775490 0.603921 0.852941
0.886275 0.617647 0.860785
0.946569 0.566176 0.814216
1.000000 0.521569 0.773529
0.263725 0.637255 0.774020
0.305883 0.641177 0.778922
0.375000 0.642157 0.784314
0.469608 0.641177 0.785294
0.583333 0.641177 0.788235
0.749510 0.687745 0.828432
0.877941 0.722059 0.855883
0.930883 0.662255 0.800980
0.999019 0.586275 0.758333
0.382353 0.767647 0.796079
0.417157 0.773529 0.801961
0.471569 0.774510 0.805883
0.551961 0.775490 0.806863
0.649019 0.780392 0.814706
0.759314 0.790196 0.825490
0.867647 0.812745 0.848039
0.942156 0.760294 0.799019
1.000000 0.717647 0.755882
0.542156 0.887255 0.836275
0.558334 0.890686 0.836765
0.589216 0.890686 0.836765
0.634314 0.890686 0.836275
0.693137 0.888726 0.832844
0.758824 0.887255 0.825000
0.828432 0.875490 0.798039
0.938235 0.894118 0.805883
1.000000 0.906372 0.832843
0.589215 0.980392 0.848039
0.600981 0.983824 0.848039
0.621569 0.982353 0.845098
0.654412 0.982843 0.841177
0.697059 0.981373 0.829412
0.759314 0.984314 0.813726
0.836274 0.981372 0.786275
0.930392 0.987745 0.774020
1.000000 0.996078 0.790196
0.314706 0.196078 0.933823
0.350000 0.196568 0.933823
0.435294 0.200490 0.937745
0.548039 0.208333 0.941666
0.674509 0.225980 0.945588
0.799510 0.260785 0.950981
0.922549 0.318628 0.960784
1.000000 0.334313 0.953431
1.000000 0.322549 0.938235
0.326470 0.243627 0.926961
0.373039 0.254902 0.933823
0.449510 0.257353 0.936274
0.554412 0.264706 0.938235
0.677941 0.281373 0.944608
0.799510 0.307843 0.947550
0.919608 0.362255 0.958333
1.000000 0.373039 0.950000
1.000000 0.357353 0.937745
0.355392 0.343137 0.925490
0.391177 0.347549 0.928922
0.462255 0.350980 0.930882
0.562255 0.358823 0.933823
0.678922 0.375000 0.938235
0.799510 0.404902 0.948530
0.913235 0.447549 0.954412
1.000000 0.456373 0.950000
1.000000 0.427451 0.933333
0.336274 0.437745 0.914215
0.381862 0.445588 0.919608
0.452451 0.450000 0.922059
0.555882 0.461765 0.925980
0.672549 0.479412 0.931863
0.795098 0.511275 0.941666
0.907353 0.550490 0.951471
0.992647 0.554412 0.949510
1.000000 0.516667 0.926470
0.282843 0.527451 0.896569
0.325490 0.533334 0.901961
0.405393 0.535784 0.904902
0.521079 0.549510 0.910784
0.651471 0.569118 0.922059
0.779412 0.600000 0.932353
0.895589 0.640196 0.942156
0.978922 0.649019 0.943137
1.000000 0.604412 0.920098
0.215686 0.626470 0.875490
0.262255 0.627451 0.877451
0.325981 0.622549 0.878921
0.442647 0.624019 0.885785
0.595098 0.640686 0.899019
0.750490 0.677451 0.916666
0.879902 0.724020 0.934804
0.967647 0.742647 0.940196
1.000000 0.700000 0.914705
0.319608 0.756862 0.884804
0.349019 0.756863 0.884805
0.411275 0.758824 0.887745
0.487255 0.753921 0.887745
0.584314 0.750000 0.887745
0.686765 0.743627 0.887745
0.850000 0.791176 0.915196
0.957353 0.833824 0.938235
1.000000 0.783333 0.903922
0.482843 0.878921 0.902451
0.501961 0.878921 0.902451
0.540686 0.881373 0.904902
0.600490 0.880392 0.904412
0.680392 0.881373 0.908333
0.770588 0.887255 0.911765
0.863725 0.894608 0.919118
0.945588 0.914215 0.933823
1.000000 0.871568 0.899019
0.681863 0.980392 0.929902
0.689216 0.983334 0.932843
0.712255 0.980392 0.929902
0.744117 0.980392 0.933823
0.778922 0.982353 0.931863
0.820588 0.983334 0.928922
0.864216 0.984314 0.922549
0.918137 0.984804 0.902451
1.000000 0.996078 0.910294
0.521569 0.341176 1.000000
0.541176 0.341666 1.000000
0.584314 0.342156 1.000000
0.655882 0.349020 1.000000
0.743137 0.360784 1.000000
0.836765 0.384314 1.000000
0.926471 0.415686 1.000000
1.000000 0.467157 1.000000
1.000000 0.490196 1.000000
0.517647 0.368627 1.000000
0.545098 0.376471 1.000000
0.587745 0.376471 1.000000
0.657353 0.383824 1.000000
0.743137 0.392157 1.000000
0.834314 0.412745 1.000000
0.923530 0.443628 1.000000
1.000000 0.494117 1.000000
1.000000 0.513236 1.000000
0.530392 0.443138 1.000000
0.551961 0.445098 1.000000
0.594117 0.445098 1.000000
0.659804 0.449019 1.000000
0.743137 0.458823 1.000000
0.832843 0.476470 1.000000
0.919608 0.507843 1.000000
1.000000 0.551470 1.000000
1.000000 0.564705 1.000000
0.517647 0.514706 1.000000
0.545098 0.524020 1.000000
0.591667 0.524020 1.000000
0.657353 0.530392 1.000000
0.740686 0.539706 1.000000
0.827942 0.559314 1.000000
0.913235 0.583823 1.000000
0.992647 0.622549 1.000000
1.000000 0.633824 1.000000
0.488235 0.598040 1.000000
0.511765 0.600000 1.000000
0.561765 0.600000 0.998039
0.637745 0.609804 1.000000
0.725491 0.619607 1.000000
0.821568 0.637745 1.000000
0.906862 0.662745 1.000000
0.982843 0.700000 1.000000
1.000000 0.705882 1.000000
0.422059 0.677451 0.988235
0.452941 0.685785 0.994118
0.503432 0.681372 0.992157
0.583824 0.681372 0.992157
0.687256 0.689706 0.996568
0.797549 0.708824 0.996078
0.894608 0.738725 1.000000
0.969117 0.774020 1.000000
1.000000 0.787255 1.000000
0.443137 0.790196 0.984314
0.461765 0.790196 0.988235
0.495098 0.786275 0.987255
0.546569 0.776961 0.982844
0.624510 0.770588 0.988235
0.748039 0.778922 0.992157
0.872549 0.806863 0.996078
0.961274 0.849020 1.000000
1.000000 0.864706 0.997059
0.561274 0.902451 0.988235
0.565686 0.899019 0.988235
0.596568 0.902451 0.991667
0.635784 0.898529 0.991667
0.692647 0.895098 0.988725
0.758824 0.891176 0.992157
0.832353 0.879411 0.992157
0.945098 0.906372 0.995588
1.000000 0.937255 0.999510
0.674510 0.984314 0.988235
0.682353 0.984314 0.988235
0.701961 0.988235 0.992157
0.733333 0.985784 0.992157
0.774510 0.986274 0.992157
0.825000 0.985784 0.992157
0.879412 0.988235 0.993137
0.937745 0.992157 0.996078
1.000000 1.000000 1.000000
