Color/Polaroid/Polaroid PX-70 Warm 1 -- 65x.cube
TITLE "Polaroid PX-70 Warm 1 --"
LUT_3D_SIZE 65
DOMAIN_MIN 0.000000 0.000000 0.000000
DOMAIN_MAX 1.000000 1.000000 1.000000
0.000000 0.000000 0.000000
0.003922 0.000000 0.000000
0.007843 0.003922 0.003922
0.007843 0.001164 0.001164
0.011765 0.000000 0.000000
0.019608 0.003922 0.003922
0.029044 0.007843 0.007843
0.033885 0.006434 0.007843
0.046079 0.011275 0.011275
0.051409 0.011765 0.008272
0.062745 0.015686 0.011765
0.068934 0.015686 0.014032
0.080882 0.019608 0.015686
0.090380 0.019608 0.019608
0.101961 0.022426 0.019608
0.113848 0.023529 0.021630
0.124510 0.023529 0.023529
0.137132 0.023529 0.023529
0.153799 0.026593 0.030515
0.168260 0.025306 0.031005
0.185784 0.024755 0.035294
0.203309 0.019914 0.035294
0.224755 0.019608 0.039216
0.246201 0.015686 0.040748
0.270098 0.013235 0.043137
0.296385 0.007843 0.047059
0.326593 0.003554 0.050980
0.356801 0.000000 0.054902
0.390931 0.000000 0.056618
0.424265 0.000000 0.058824
0.455515 0.000000 0.058947
0.494363 0.000000 0.062745
0.529412 0.000000 0.066667
0.565502 0.000000 0.066667
0.599632 0.000000 0.066790
0.633763 0.000000 0.066667
0.667892 0.000000 0.070588
0.694179 0.000000 0.067954
0.724387 0.000000 0.070588
0.750123 0.000000 0.066667
0.775490 0.017647 0.066667
0.796936 0.056618 0.064277
0.822304 0.095588 0.063358
0.840135 0.122794 0.058824
0.863971 0.152696 0.058824
0.880944 0.178983 0.054902
0.896323 0.205269 0.050980
0.917708 0.231496 0.050919
0.927451 0.253921 0.044117
0.941054 0.276287 0.043137
0.954657 0.302573 0.039216
0.964706 0.321201 0.039216
0.977942 0.343382 0.039216
0.989890 0.365747 0.043137
0.998652 0.385539 0.049632
1.000000 0.403064 0.054473
1.000000 0.424019 0.059314
1.000000 0.440625 0.068076
1.000000 0.457965 0.080760
1.000000 0.476409 0.092770
1.000000 0.490686 0.106127
1.000000 0.507046 0.118811
1.000000 0.521814 0.131495
1.000000 0.538419 0.147182
1.000000 0.552941 0.160784
0.000000 0.003922 0.000000
0.003922 0.007843 0.003922
0.007843 0.003003 -0.000919
0.011765 0.004841 0.000919
0.015686 0.007843 0.003922
0.024203 0.008762 0.007843
0.033640 0.009436 0.008517
0.037807 0.010356 0.006434
0.046569 0.011765 0.007843
0.055331 0.016605 0.011765
0.064093 0.017034 0.013113
0.069853 0.021875 0.012684
0.084804 0.023529 0.021875
0.090564 0.023529 0.015870
0.101164 0.024632 0.020711
0.117770 0.027451 0.023529
0.127451 0.024448 0.023529
0.138112 0.027451 0.027451
0.154657 0.027451 0.028309
0.172181 0.027451 0.031373
0.188480 0.024448 0.034069
0.200613 0.020833 0.035294
0.228676 0.024448 0.039829
0.247120 0.018995 0.040135
0.274019 0.017157 0.047059
0.297305 0.009314 0.047059
0.326961 0.003554 0.050980
0.357720 0.000000 0.051899
0.390931 0.000000 0.054902
0.425185 0.000000 0.055821
0.459314 0.000000 0.062745
0.495404 0.000000 0.062745
0.530331 0.000000 0.063664
0.565502 0.000000 0.066667
0.600430 0.000000 0.066667
0.634682 0.000000 0.066667
0.665687 0.000000 0.069669
0.694179 0.000000 0.064952
0.721384 0.000000 0.067586
0.750674 0.002022 0.066667
0.777512 0.033272 0.067219
0.796936 0.070833 0.065748
0.819302 0.101961 0.062745
0.840135 0.131250 0.058824
0.861275 0.160539 0.057598
0.878799 0.186826 0.053983
0.896323 0.210110 0.050980
0.909988 0.231618 0.046140
0.927389 0.257782 0.043137
0.943076 0.284130 0.041238
0.952758 0.303676 0.036397
0.968259 0.328861 0.042035
0.977206 0.346569 0.035110
0.990625 0.368015 0.043872
0.998652 0.386458 0.041482
1.000000 0.410478 0.057046
1.000000 0.424509 0.062745
1.000000 0.442035 0.071078
1.000000 0.459559 0.080760
1.000000 0.477083 0.095772
1.000000 0.490686 0.102451
1.000000 0.511213 0.119056
1.000000 0.522733 0.128492
1.000000 0.542341 0.144179
1.000000 0.552941 0.160784
0.000000 0.009681 0.005760
0.000919 0.009681 0.003922
0.005760 0.009681 0.005760
0.009681 0.009681 0.003922
0.021201 0.009681 0.007598
0.025367 0.012929 0.007169
0.030882 0.013603 0.005515
0.037807 0.014277 0.005760
0.050490 0.019118 0.013358
0.057169 0.021446 0.011765
0.064093 0.021446 0.011765
0.075122 0.023713 0.014032
0.081618 0.023529 0.015686
0.094302 0.027451 0.019608
0.104902 0.027451 0.021446
0.115747 0.027267 0.021507
0.128432 0.026348 0.023529
0.144975 0.031373 0.029473
0.155515 0.028309 0.028309
0.172243 0.029289 0.031373
0.189706 0.028677 0.035294
0.207230 0.027451 0.035294
0.230515 0.028677 0.041054
0.251961 0.023835 0.043137
0.273407 0.018995 0.044975
0.300307 0.017770 0.047059
0.330515 0.007475 0.050980
0.362561 0.000000 0.054902
0.392770 0.000000 0.054534
0.426104 0.000000 0.058824
0.457599 0.000000 0.058947
0.498285 0.000000 0.065625
0.531250 0.000000 0.062622
0.566299 0.000000 0.064583
0.601349 0.000000 0.066667
0.637684 0.000000 0.069792
0.665687 0.000000 0.066667
0.698101 0.000000 0.067954
0.722304 0.000000 0.066667
0.750674 0.015012 0.066667
0.775122 0.046937 0.064829
0.798775 0.083824 0.062193
0.820220 0.110417 0.062745
0.840135 0.136397 0.058824
0.861275 0.164461 0.057598
0.878799 0.190747 0.050980
0.896323 0.214951 0.049142
0.915625 0.243015 0.043137
0.930392 0.266544 0.041299
0.943137 0.288052 0.039216
0.954657 0.305515 0.035294
0.964522 0.329044 0.031557
0.979045 0.352329 0.035294
0.990073 0.369853 0.039216
0.998652 0.392034 0.045711
1.000000 0.410907 0.052634
1.000000 0.425000 0.059314
1.000000 0.443873 0.069915
1.000000 0.463481 0.080760
1.000000 0.480331 0.092770
1.000000 0.494608 0.102451
1.000000 0.509375 0.116054
1.000000 0.525736 0.131740
1.000000 0.542341 0.146263
1.000000 0.552941 0.160784
0.000000 0.014522 0.006679
0.003922 0.017524 0.010601
0.005760 0.013603 0.007843
0.010601 0.017280 0.006679
0.019118 0.018199 0.006679
0.024203 0.015197 0.004596
0.027880 0.015686 0.007843
0.040318 0.018199 0.007843
0.050490 0.023039 0.011275
0.058088 0.022795 0.011765
0.065258 0.022120 0.010356
0.074020 0.027451 0.012929
0.084375 0.027451 0.015686
0.097059 0.030209 0.022182
0.106985 0.030209 0.019608
0.117770 0.029473 0.021630
0.128432 0.030209 0.023529
0.144975 0.031373 0.028554
0.160478 0.031373 0.027451
0.177083 0.034130 0.031373
0.192402 0.031373 0.034069
0.212010 0.031373 0.038910
0.229289 0.030209 0.039829
0.251655 0.028677 0.043137
0.276471 0.023529 0.045588
0.304228 0.019608 0.050429
0.330883 0.014155 0.051348
0.362010 0.005393 0.054902
0.392586 0.000000 0.054350
0.428187 0.000000 0.057660
0.463235 0.000000 0.062745
0.495404 0.000000 0.062745
0.532536 0.000000 0.063909
0.571263 0.000000 0.066667
0.603432 0.000000 0.066667
0.634559 0.000000 0.066667
0.665687 0.000000 0.066667
0.694179 0.000000 0.066667
0.724387 0.000000 0.066667
0.750674 0.027328 0.062745
0.776961 0.061091 0.061458
0.796569 0.092279 0.059988
0.821691 0.118566 0.058824
0.840135 0.145158 0.055208
0.861275 0.171140 0.053676
0.881557 0.197427 0.050980
0.896323 0.219791 0.047059
0.911090 0.243321 0.044241
0.929412 0.270405 0.041176
0.941054 0.290809 0.035294
0.951838 0.310356 0.032537
0.969424 0.336704 0.035294
0.977942 0.354412 0.033272
0.990993 0.374693 0.036949
0.998652 0.394792 0.044547
1.000000 0.410907 0.047059
1.000000 0.431863 0.059314
1.000000 0.445956 0.068076
1.000000 0.463481 0.076409
1.000000 0.481005 0.089522
1.000000 0.497365 0.102451
1.000000 0.509375 0.114461
1.000000 0.525736 0.129657
1.000000 0.540257 0.144179
1.000000 0.555699 0.159620
0.000000 0.019363 0.011520
0.003003 0.022366 0.014523
0.002084 0.019608 0.011765
0.011520 0.024203 0.012684
0.015441 0.023284 0.011520
0.027206 0.023284 0.011520
0.032966 0.023529 0.011765
0.036642 0.023529 0.007843
0.050490 0.027206 0.011275
0.059253 0.027206 0.011765
0.068015 0.031128 0.009437
0.076777 0.031128 0.014032
0.089216 0.035049 0.019363
0.098223 0.031373 0.019608
0.106985 0.031373 0.019608
0.118015 0.033395 0.021630
0.132353 0.036029 0.023529
0.144975 0.035049 0.027390
0.161642 0.035294 0.034192
0.176103 0.033150 0.029474
0.193627 0.035294 0.035294
0.211152 0.031679 0.035294
0.229289 0.031373 0.036153
0.255331 0.031128 0.043137
0.277941 0.027206 0.045588
0.304228 0.023835 0.047059
0.338113 0.018994 0.054902
0.364644 0.012867 0.054902
0.398530 0.001716 0.056618
0.431311 0.000000 0.062500
0.466912 0.000000 0.058947
0.501961 0.000000 0.062745
0.533333 0.000000 0.061029
0.568627 0.000000 0.066667
0.603554 0.000000 0.066667
0.634559 0.000000 0.066667
0.665932 0.000000 0.064707
0.698101 0.000000 0.066667
0.724387 0.014461 0.066667
0.750674 0.041177 0.062745
0.775490 0.074755 0.065196
0.800613 0.104718 0.064032
0.822304 0.127574 0.059437
0.840135 0.153616 0.054902
0.864951 0.179901 0.054902
0.878799 0.202267 0.047304
0.896323 0.228554 0.047059
0.913786 0.250858 0.043076
0.927451 0.273285 0.032598
0.937377 0.291973 0.031618
0.954657 0.314338 0.031373
0.968259 0.336704 0.031373
0.980883 0.355147 0.032108
0.986213 0.375858 0.033272
0.994975 0.392279 0.038113
1.000000 0.414399 0.046630
1.000000 0.435540 0.059068
1.000000 0.452145 0.064400
1.000000 0.465809 0.080515
1.000000 0.481005 0.088848
1.000000 0.501960 0.105883
1.000000 0.514644 0.118566
1.000000 0.531249 0.131495
1.000000 0.543260 0.142586
1.000000 0.556863 0.160784
0.000000 0.024877 0.012439
0.000674 0.028125 0.016360
0.003922 0.029289 0.015686
0.010601 0.030882 0.018444
0.015441 0.028125 0.012439
0.020282 0.032047 0.015686
0.029044 0.032047 0.012439
0.038480 0.034559 0.012439
0.047059 0.035294 0.015686
0.059253 0.035968 0.015686
0.068015 0.035968 0.012439
0.080698 0.035968 0.015686
0.092647 0.035968 0.018873
0.098407 0.035968 0.015870
0.110907 0.035968 0.019608
0.123591 0.037868 0.023529
0.138235 0.042157 0.026471
0.152145 0.046323 0.030638
0.162500 0.039890 0.027451
0.180025 0.039890 0.033150
0.194301 0.039890 0.034069
0.215073 0.039890 0.038910
0.236519 0.039216 0.039829
0.257966 0.034436 0.043137
0.280086 0.033517 0.047059
0.308150 0.031373 0.047059
0.335478 0.023835 0.051654
0.369853 0.019608 0.054902
0.400980 0.010233 0.054902
0.436030 0.005392 0.061949
0.470956 0.000000 0.062745
0.503247 0.000000 0.063787
0.535968 0.000000 0.064706
0.570098 0.000000 0.066667
0.607353 0.000000 0.066667
0.638480 0.000000 0.063419
0.669608 0.003431 0.066667
0.698101 0.011213 0.064032
0.724387 0.035538 0.065993
0.750674 0.061826 0.062071
0.773713 0.087316 0.058028
0.799326 0.114399 0.058824
0.822304 0.140625 0.055515
0.840503 0.162377 0.054596
0.861275 0.187439 0.049755
0.878799 0.210355 0.044914
0.896323 0.230330 0.040074
0.914460 0.255760 0.039155
0.927451 0.277145 0.034314
0.941054 0.300491 0.034620
0.955085 0.320037 0.030699
0.964522 0.337744 0.024387
0.977206 0.362255 0.030699
0.985968 0.381434 0.031373
0.998652 0.401226 0.041116
1.000000 0.415502 0.045955
1.000000 0.436274 0.055392
1.000000 0.450552 0.064154
1.000000 0.469730 0.075245
1.000000 0.482353 0.083027
1.000000 0.499203 0.102880
1.000000 0.516054 0.114889
1.000000 0.530331 0.129657
1.000000 0.543934 0.140932
1.000000 0.554289 0.154289
0.000000 0.035294 0.019608
-0.000674 0.032292 0.016605
0.003922 0.035049 0.019363
0.010601 0.036887 0.019608
0.011765 0.036887 0.019608
0.023529 0.040135 0.020527
0.029044 0.038480 0.017279
0.037807 0.038480 0.014767
0.052328 0.040809 0.015686
0.060846 0.045894 0.020772
0.067770 0.043137 0.015441
0.079044 0.045404 0.017953
0.093383 0.044730 0.019608
0.106066 0.043137 0.019608
0.116421 0.044730 0.021201
0.125184 0.044730 0.021201
0.137867 0.044730 0.022181
0.152818 0.050919 0.031312
0.164093 0.046323 0.028309
0.182169 0.047059 0.031373
0.197549 0.044730 0.032966
0.216667 0.048345 0.038910
0.240441 0.044730 0.043137
0.261888 0.043198 0.043137
0.285784 0.038358 0.047059
0.312072 0.035846 0.049387
0.342279 0.034192 0.056128
0.371446 0.029351 0.056495
0.400368 0.021201 0.059437
0.436030 0.017279 0.058824
0.472549 0.006986 0.061152
0.506679 0.001593 0.062745
0.536887 -0.000368 0.062745
0.577512 0.002880 0.067954
0.607353 0.003799 0.068873
0.638480 0.003983 0.062745
0.669608 0.016054 0.066790
0.698101 0.033578 0.062745
0.724387 0.055024 0.062745
0.752268 0.080944 0.060417
0.776961 0.105637 0.058701
0.798530 0.125613 0.056434
0.821691 0.152696 0.054902
0.838542 0.169853 0.048100
0.858579 0.193505 0.047059
0.878799 0.217647 0.045466
0.896323 0.242157 0.039216
0.915380 0.266054 0.035294
0.928063 0.285907 0.031373
0.940748 0.305025 0.027451
0.956985 0.330024 0.027451
0.964522 0.346324 0.023529
0.977206 0.367770 0.024264
0.985968 0.385294 0.027451
0.996324 0.402818 0.033946
1.000000 0.422671 0.044608
1.000000 0.440196 0.053799
1.000000 0.453615 0.064154
1.000000 0.470589 0.072917
1.000000 0.488848 0.088848
1.000000 0.502451 0.098529
1.000000 0.518811 0.114460
1.000000 0.533088 0.129657
1.000000 0.550184 0.146263
1.000000 0.560784 0.156863
0.000000 0.044240 0.022120
0.002513 0.045650 0.020527
0.003248 0.043566 0.021446
0.007843 0.045650 0.023284
0.014031 0.045650 0.022120
0.019608 0.045650 0.025367
0.027451 0.047978 0.022120
0.033885 0.048161 0.019608
0.050000 0.053003 0.022120
0.059253 0.047488 0.019608
0.069424 0.050980 0.019608
0.080453 0.053493 0.021875
0.094057 0.053493 0.024203
0.102329 0.049571 0.019608
0.120160 0.052389 0.024938
0.129534 0.050980 0.023529
0.140196 0.049571 0.023529
0.152880 0.050980 0.027451
0.164767 0.047917 0.028309
0.183946 0.053493 0.030638
0.201471 0.050796 0.035294
0.221507 0.048468 0.037807
0.241054 0.050980 0.040625
0.264400 0.049571 0.045650
0.288297 0.047120 0.047059
0.317954 0.045650 0.050429
0.348713 0.045281 0.054902
0.373774 0.039032 0.054902
0.409130 0.034191 0.058824
0.438541 0.025429 0.058824
0.471078 0.024510 0.060233
0.506128 0.016789 0.062745
0.541176 0.016789 0.062193
0.579106 0.019669 0.065625
0.611275 0.019301 0.066667
0.642402 0.028738 0.064154
0.671814 0.043137 0.062745
0.702144 0.061275 0.064154
0.726900 0.077390 0.062745
0.756556 0.100245 0.062194
0.776961 0.118199 0.056311
0.800858 0.140625 0.053799
0.823100 0.165379 0.052389
0.843750 0.183823 0.050674
0.861275 0.203677 0.044546
0.878799 0.226042 0.038480
0.896323 0.250919 0.036703
0.916299 0.273223 0.031312
0.926470 0.293688 0.027880
0.941054 0.311581 0.023529
0.951838 0.332537 0.021017
0.964522 0.352573 0.021017
0.978983 0.372610 0.023529
0.985968 0.389277 0.027451
0.994730 0.407660 0.030025
1.000000 0.426593 0.037807
1.000000 0.446139 0.048958
1.000000 0.460233 0.060233
1.000000 0.475245 0.071324
1.000000 0.492770 0.085601
1.000000 0.508640 0.098529
1.000000 0.522488 0.112132
1.000000 0.535417 0.127145
1.000000 0.549693 0.143260
1.000000 0.563297 0.159375
0.000000 0.053922 0.026961
0.000000 0.054412 0.029964
0.001838 0.052329 0.025367
0.003248 0.053248 0.026961
0.011520 0.053922 0.026961
0.019608 0.054412 0.030209
0.025122 0.060172 0.029289
0.030454 0.058334 0.023529
0.043137 0.058334 0.023529
0.052329 0.058334 0.023039
0.068015 0.061765 0.023039
0.079044 0.061765 0.023039
0.093383 0.062255 0.026961
0.102329 0.062255 0.026961
0.115931 0.064584 0.026961
0.132843 0.063664 0.028860
0.143137 0.058334 0.026471
0.156312 0.058334 0.026961
0.173407 0.061398 0.031373
0.191299 0.060110 0.033150
0.207598 0.061765 0.038726
0.226348 0.058640 0.039216
0.244975 0.055515 0.039829
0.269240 0.058334 0.046569
0.293137 0.058334 0.047059
0.319915 0.058395 0.050980
0.353555 0.054412 0.054902
0.377696 0.050490 0.052757
0.410539 0.047794 0.055392
0.443873 0.046385 0.058824
0.478432 0.045465 0.062745
0.510049 0.038236 0.062745
0.545098 0.036275 0.062745
0.580699 0.041667 0.062745
0.611397 0.045588 0.062868
0.645037 0.054228 0.062745
0.670098 0.065196 0.062745
0.701531 0.082231 0.062255
0.728309 0.100245 0.062868
0.754044 0.117770 0.055392
0.776961 0.136765 0.054902
0.800858 0.156740 0.052512
0.822304 0.174755 0.048162
0.843260 0.196017 0.046753
0.861275 0.214950 0.039706
0.878799 0.237316 0.035784
0.896691 0.260049 0.032231
0.906556 0.278125 0.027451
0.926471 0.299510 0.026471
0.939154 0.320956 0.021630
0.951225 0.337867 0.016176
0.964522 0.359926 0.019608
0.974020 0.374755 0.019608
0.985968 0.395466 0.020098
0.993872 0.416422 0.026593
1.000000 0.430515 0.035355
1.000000 0.447549 0.044118
1.000000 0.464154 0.056802
1.000000 0.479167 0.069485
1.000000 0.492770 0.081679
1.000000 0.506372 0.098284
0.997242 0.521140 0.108701
1.000000 0.537500 0.127574
1.000000 0.551103 0.139828
1.000000 0.564706 0.156863
0.000000 0.063603 0.031802
0.000000 0.063174 0.032292
0.000000 0.063174 0.031802
0.006251 0.063174 0.029045
0.007843 0.063174 0.031802
0.015257 0.066422 0.031128
0.020772 0.067096 0.032966
0.029535 0.067096 0.031373
0.035294 0.064093 0.031373
0.051409 0.070588 0.030944
0.065441 0.071017 0.027880
0.082536 0.074510 0.027451
0.089890 0.071446 0.027880
0.106066 0.071446 0.027880
0.115257 0.071017 0.027451
0.131434 0.071017 0.027880
0.144118 0.067525 0.027880
0.157230 0.067525 0.024449
0.174265 0.067096 0.031373
0.192218 0.067096 0.035294
0.212010 0.067096 0.037990
0.227268 0.067096 0.039216
0.248713 0.066912 0.043137
0.275184 0.065993 0.043566
0.301470 0.069547 0.053002
0.324265 0.063603 0.047488
0.354473 0.066728 0.054902
0.380760 0.062316 0.054902
0.416666 0.065380 0.057108
0.450919 0.063174 0.061949
0.482721 0.059682 0.062622
0.513358 0.059682 0.062316
0.549019 0.059682 0.062316
0.584068 0.066483 0.062745
0.615196 0.071323 0.058947
0.645527 0.076593 0.062316
0.672243 0.090564 0.058824
0.702022 0.104166 0.062316
0.728309 0.117770 0.054902
0.754044 0.131373 0.054473
0.781924 0.153861 0.054473
0.800858 0.170343 0.050551
0.825183 0.194670 0.049939
0.840135 0.209314 0.042831
0.862072 0.227635 0.038358
0.873161 0.247855 0.029228
0.895894 0.268444 0.027022
0.909559 0.286888 0.019240
0.926470 0.308272 0.018199
0.941054 0.327697 0.015257
0.951838 0.347242 0.011765
0.967830 0.371998 0.015074
0.973284 0.385785 0.012071
0.983701 0.401470 0.016911
0.994730 0.420833 0.023100
1.000000 0.435295 0.030944
1.000000 0.452389 0.040196
1.000000 0.469914 0.057292
1.000000 0.481189 0.065074
1.000000 0.500613 0.084497
1.000000 0.514216 0.094179
1.000000 0.527083 0.110968
1.000000 0.545343 0.129228
1.000000 0.555944 0.142831
1.000000 0.568627 0.156434
0.000000 0.071936 0.035294
0.000000 0.071936 0.036642
0.000000 0.076348 0.037132
0.000000 0.070527 0.036642
0.006251 0.071936 0.036642
0.010417 0.075858 0.039890
0.015686 0.075858 0.039216
0.024693 0.078370 0.037807
0.031373 0.077206 0.033210
0.046569 0.078860 0.031802
0.061520 0.081127 0.032721
0.075122 0.081127 0.032721
0.095221 0.083701 0.029535
0.106066 0.083701 0.031373
0.118505 0.080882 0.032721
0.133456 0.083701 0.035294
0.149633 0.080760 0.035294
0.160723 0.077267 0.035294
0.178187 0.079779 0.036642
0.195711 0.079779 0.036642
0.215931 0.077206 0.036642
0.232107 0.075858 0.039216
0.257476 0.079779 0.042402
0.276532 0.075858 0.044669
0.302819 0.075858 0.047059
0.329105 0.075858 0.053002
0.359314 0.077206 0.054902
0.389461 0.075858 0.054841
0.417157 0.077206 0.054044
0.454841 0.078983 0.060601
0.484191 0.077206 0.058824
0.517893 0.077206 0.058824
0.550367 0.080515 0.060784
0.582536 0.082475 0.058824
0.615318 0.088971 0.056373
0.650000 0.102083 0.061949
0.675735 0.107721 0.057108
0.703370 0.120404 0.053615
0.728309 0.135294 0.053554
0.754595 0.152819 0.050980
0.781005 0.170466 0.049632
0.800858 0.185478 0.044669
0.819730 0.202819 0.039829
0.839829 0.222917 0.037562
0.861275 0.243015 0.032720
0.876225 0.257966 0.025306
0.893260 0.278064 0.019117
0.908578 0.299510 0.014338
0.926470 0.319608 0.013358
0.939706 0.338480 0.010417
0.953309 0.356005 0.006495
0.960600 0.373530 0.006495
0.973284 0.391054 0.006495
0.983701 0.408579 0.012071
0.993383 0.423530 0.016911
1.000000 0.443627 0.029166
1.000000 0.457231 0.034927
1.000000 0.473345 0.048468
1.000000 0.490932 0.066054
1.000000 0.501961 0.077757
1.000000 0.518137 0.093260
1.000000 0.531924 0.106863
1.000000 0.547182 0.122304
1.000000 0.558946 0.137990
1.000000 0.571201 0.154167
0.000000 0.084620 0.043137
0.000000 0.081618 0.040135
0.000000 0.085049 0.043566
0.000000 0.082966 0.044240
0.001655 0.084620 0.045404
0.005576 0.084620 0.044730
0.011091 0.086949 0.043811
0.018199 0.086887 0.043995
0.028615 0.088542 0.041483
0.041728 0.088971 0.041483
0.055331 0.089890 0.041483
0.072855 0.092463 0.039216
0.085540 0.091544 0.039216
0.108333 0.098468 0.037561
0.119853 0.093566 0.036397
0.133456 0.094730 0.037561
0.146385 0.091789 0.037561
0.164583 0.097978 0.043076
0.181250 0.092463 0.039216
0.200123 0.092954 0.041483
0.217157 0.088113 0.041483
0.243566 0.092157 0.043137
0.262316 0.085233 0.043137
0.283762 0.089277 0.047059
0.307660 0.088542 0.047059
0.333946 0.086887 0.049326
0.362255 0.090809 0.054902
0.394363 0.090809 0.054902
0.424510 0.090748 0.054841
0.454780 0.089952 0.057169
0.490564 0.094730 0.056557
0.523039 0.096998 0.058824
0.552941 0.098652 0.056557
0.583456 0.102573 0.055944
0.619118 0.114093 0.060356
0.646323 0.119056 0.054902
0.679657 0.132292 0.057108
0.703309 0.140502 0.052267
0.727022 0.151532 0.047427
0.754595 0.166422 0.047059
0.779412 0.183946 0.043321
0.799326 0.201471 0.040870
0.823345 0.220036 0.033640
0.837868 0.234253 0.029106
0.860049 0.251777 0.023959
0.878922 0.273346 0.019117
0.894057 0.290748 0.014277
0.909927 0.314400 0.011704
0.923530 0.326777 0.005576
0.934865 0.345221 0.001655
0.952390 0.367586 0.001655
0.960600 0.382292 0.000000
0.973284 0.399816 0.001655
0.982047 0.417341 0.003309
0.993076 0.433211 0.010110
1.000000 0.450122 0.020834
1.000000 0.462071 0.031863
1.000000 0.479596 0.045098
1.000000 0.494853 0.063542
1.000000 0.508456 0.074816
1.000000 0.524081 0.090686
1.000000 0.535661 0.108210
1.000000 0.549265 0.121814
1.000000 0.565870 0.139338
1.000000 0.574816 0.152941
0.000000 0.094118 0.047059
0.000000 0.096568 0.050245
0.000000 0.092034 0.047059
0.000000 0.093383 0.047059
0.000000 0.092893 0.050245
-0.002513 0.094056 0.050245
0.006250 0.097304 0.048652
0.011091 0.097304 0.047059
0.023039 0.100736 0.050245
0.032966 0.097733 0.046324
0.052328 0.101226 0.048897
0.064093 0.101226 0.046324
0.081618 0.105147 0.046324
0.095404 0.105147 0.042402
0.121936 0.111152 0.045220
0.133456 0.108333 0.042402
0.147794 0.106127 0.043137
0.167769 0.108333 0.046324
0.185294 0.110662 0.048652
0.199632 0.105147 0.043137
0.219853 0.103921 0.045833
0.241789 0.104411 0.046324
0.264583 0.104411 0.047059
0.291789 0.100490 0.047059
0.316422 0.101226 0.050980
0.338786 0.100490 0.050245
0.368995 0.101226 0.050980
0.397304 0.107047 0.051715
0.432598 0.108333 0.054902
0.459559 0.108333 0.054902
0.493873 0.108456 0.055025
0.525736 0.113296 0.052757
0.556863 0.114951 0.054902
0.592218 0.124019 0.055944
0.622304 0.131617 0.054902
0.650245 0.137378 0.051715
0.679657 0.149264 0.053186
0.706495 0.161213 0.051531
0.728677 0.170711 0.043505
0.757781 0.187132 0.043137
0.777697 0.201471 0.038480
0.799326 0.214277 0.032108
0.821568 0.232475 0.028064
0.843750 0.253739 0.027145
0.855392 0.265687 0.016421
0.879841 0.286948 0.015319
0.892402 0.302573 0.008701
0.909927 0.320956 0.004595
0.922549 0.338480 0.000000
0.939154 0.358027 0.000000
0.950735 0.376716 0.000000
0.961152 0.391054 0.000000
0.973284 0.408578 0.000000
0.982047 0.420649 -0.001532
0.991544 0.441054 0.004657
1.000000 0.453738 0.012071
1.000000 0.470833 0.027941
1.000000 0.485172 0.038848
1.000000 0.497181 0.055637
1.000000 0.512317 0.069914
1.000000 0.525980 0.087500
1.000000 0.539583 0.104289
1.000000 0.554290 0.122916
1.000000 0.566789 0.136336
1.000000 0.579657 0.152941
0.000000 0.109804 0.054902
0.000000 0.109069 0.054167
0.000000 0.104412 0.055086
0.000000 0.109988 0.055086
0.000000 0.106250 0.058762
0.000000 0.106250 0.059498
0.000000 0.109988 0.058824
0.006434 0.110172 0.055270
0.018933 0.113420 0.058824
0.031618 0.113909 0.055086
0.045649 0.113909 0.053738
0.061520 0.116176 0.057169
0.073775 0.114093 0.048161
0.090564 0.117831 0.050980
0.112929 0.122856 0.051164
0.133272 0.119914 0.045404
0.150980 0.121937 0.047243
0.168504 0.125614 0.050980
0.182475 0.121937 0.047243
0.205331 0.121937 0.050980
0.227696 0.121937 0.053676
0.242708 0.114583 0.047243
0.268689 0.121937 0.051593
0.294792 0.121753 0.050980
0.317340 0.115747 0.047243
0.347549 0.118015 0.050980
0.373836 0.118015 0.050980
0.405147 0.119302 0.052267
0.436274 0.123959 0.050980
0.464460 0.122733 0.051777
0.498590 0.125980 0.054902
0.528799 0.133701 0.053860
0.564706 0.139400 0.054718
0.595833 0.144423 0.054718
0.623161 0.149265 0.050796
0.653370 0.158027 0.046262
0.683394 0.166790 0.046875
0.706127 0.175735 0.043137
0.732230 0.188235 0.039399
