Color/Polaroid/Polaroid 690 Cold 1 -- 65x.cube
TITLE "Polaroid 690 Cold 1 --"
LUT_3D_SIZE 5
DOMAIN_MIN 0.000000 0.000000 0.000000
DOMAIN_MAX 1.000000 1.000000 1.000000
0.000000 0.000000 0.000000
0.212745 0.000000 0.000000
0.541176 0.000000 0.000000
0.790196 0.000000 0.000000
1.000000 0.000000 0.000000
0.000000 0.267647 0.000000
0.228432 0.284314 0.000000
0.622549 0.221569 0.000000
0.846078 0.059804 0.000000
1.000000 0.000000 0.000000
0.000000 0.515686 0.000000
0.126471 0.514706 0.000000
0.547059 0.558823 0.000000
0.852941 0.594117 0.000000
1.000000 0.607843 0.103921
0.000000 0.754902 0.085294
0.233333 0.745098 0.046078
0.517647 0.752941 0.000000
0.802941 0.777451 0.000000
1.000000 0.793137 0.023530
0.490196 0.964706 0.317647
0.541176 0.965686 0.302941
0.676470 0.964706 0.264706
0.844118 0.976471 0.218627
1.000000 0.992157 0.000000
0.000000 0.034314 0.295098
0.208824 0.015686 0.322549
0.525490 0.000000 0.247059
0.731372 0.000000 0.227451
1.000000 0.000000 0.169608
0.000000 0.276470 0.314706
0.250981 0.295098 0.338235
0.571569 0.237255 0.301961
0.797059 0.118627 0.251961
1.000000 0.000000 0.207843
0.000000 0.545098 0.336274
0.234314 0.538235 0.320588
0.556863 0.568628 0.300980
0.846078 0.607843 0.337255
1.000000 0.593137 0.315686
0.048039 0.762745 0.312745
0.268628 0.757843 0.300000
0.519608 0.754902 0.269608
0.802941 0.778432 0.261765
1.000000 0.793137 0.318628
0.463726 0.968627 0.410784
0.521569 0.965686 0.400000
0.660784 0.965686 0.368627
0.834314 0.976471 0.336275
1.000000 0.992157 0.260784
0.000000 0.088235 0.607843
0.000000 0.101961 0.636275
0.592156 0.084314 0.674509
0.761764 0.109804 0.550000
0.976471 0.000000 0.525490
0.000000 0.284314 0.599020
0.233334 0.305882 0.630392
0.600980 0.322549 0.674510
0.765686 0.271569 0.566666
0.982353 0.000000 0.518628
0.025490 0.556863 0.619608
0.287255 0.571569 0.631373
0.568628 0.607843 0.662745
0.800981 0.518628 0.581373
1.000000 0.437255 0.500000
0.119608 0.789215 0.620588
0.283334 0.788235 0.613726
0.516667 0.773529 0.573529
0.799019 0.786275 0.577451
1.000000 0.797058 0.643138
0.398039 0.972549 0.641177
0.459804 0.972549 0.631373
0.609804 0.972549 0.598039
0.805883 0.977451 0.561765
1.000000 0.992157 0.545098
0.000000 0.173530 0.879412
0.208823 0.178432 0.887255
0.595098 0.193137 0.910784
0.863726 0.237255 0.918627
1.000000 0.241177 0.852941
0.000000 0.316667 0.867647
0.284314 0.323529 0.876471
0.600980 0.351961 0.907843
0.854902 0.398039 0.917647
0.995098 0.357843 0.850980
0.000000 0.507844 0.815686
0.193137 0.522549 0.833334
0.545098 0.584314 0.877451
0.817647 0.654902 0.907843
0.971569 0.559804 0.830392
0.214706 0.782353 0.856863
0.350980 0.788235 0.862745
0.577451 0.790196 0.870588
0.816667 0.812745 0.901961
0.996078 0.732353 0.818627
0.522549 0.972549 0.891177
0.552941 0.974510 0.890196
0.634314 0.976471 0.880392
0.770588 0.980392 0.848039
0.992157 0.996078 0.849020
0.462745 0.352941 1.000000
0.529412 0.357843 1.000000
0.686275 0.380392 1.000000
0.860785 0.448039 1.000000
1.000000 0.537255 1.000000
0.465687 0.449019 1.000000
0.528431 0.453921 1.000000
0.679412 0.480392 1.000000
0.849020 0.551961 1.000000
1.000000 0.609804 1.000000
0.394118 0.627451 1.000000
0.477451 0.635294 1.000000
0.650980 0.658824 1.000000
0.840196 0.697059 1.000000
1.000000 0.723529 1.000000
0.380393 0.793137 1.000000
0.437256 0.792156 1.000000
0.571568 0.781373 1.000000
0.829412 0.808823 1.000000
1.000000 0.849020 1.000000
0.631373 0.980392 0.996078
0.658824 0.980392 1.000000
0.733333 0.984314 0.998039
0.851961 0.988235 0.997059
1.000000 1.000000 1.000000
