Color/Polaroid/Polaroid 690 1 -- 65x.cube
TITLE "Polaroid 690 1 --"
LUT_3D_SIZE 65
DOMAIN_MIN 0.000000 0.000000 0.000000
DOMAIN_MAX 1.000000 1.000000 1.000000
0.000000 0.000000 0.000000
0.003922 0.000000 0.000000
0.007843 0.000000 0.000000
0.011765 0.000000 0.000000
0.015441 0.000000 0.000000
0.020282 0.000000 0.000000
0.029044 0.000000 0.000000
0.037807 0.000000 0.000000
0.050000 0.000000 0.000000
0.059253 0.000000 0.000000
0.068015 0.000000 0.000000
0.079044 0.000000 0.000000
0.092647 0.000000 0.000000
0.106250 0.000000 0.000000
0.122672 0.000000 0.000000
0.139399 0.000000 0.000000
0.154902 0.000000 0.000000
0.172426 0.000000 0.000000
0.193873 0.000000 0.000000
0.213174 0.000000 0.000000
0.235539 0.000000 0.000000
0.254289 0.000000 0.000000
0.275735 0.000000 0.000000
0.297182 0.000000 0.000000
0.318628 0.000000 0.000000
0.339522 0.000000 0.000000
0.365441 0.000000 0.000000
0.386887 0.000000 0.000000
0.406128 0.000000 0.000000
0.428983 0.000000 0.000000
0.447427 0.000000 0.000000
0.468750 0.000000 0.000000
0.490197 0.000000 0.000000
0.511642 0.000000 0.000000
0.529289 0.000000 0.000000
0.550613 0.000000 0.000000
0.573774 0.000000 0.000000
0.593505 0.000000 0.000000
0.618505 0.000000 0.000000
0.636397 0.000000 0.000000
0.657843 0.000000 0.000000
0.676899 0.000000 0.000000
0.696814 0.000000 0.000000
0.714645 0.000000 0.000000
0.735784 0.000000 0.000000
0.751532 0.000000 0.000000
0.769975 0.000000 0.000000
0.788296 0.000000 0.000000
0.802941 0.000000 0.000000
0.823407 0.000000 0.000000
0.840931 0.000000 0.000000
0.858456 0.000000 0.000000
0.875981 0.000000 0.000000
0.893505 0.000000 0.000000
0.911029 0.000000 0.000000
0.928125 0.000000 0.000000
0.942156 0.000000 0.000000
0.958272 0.000000 0.000000
0.973284 0.000000 0.000000
0.990135 0.000000 0.000000
1.000000 0.000000 0.000000
1.000000 0.000000 0.000000
1.000000 0.000000 0.000000
1.000000 0.000000 0.000000
1.000000 0.000000 0.000000
0.000000 0.000919 0.000000
0.003922 0.003922 0.000000
0.005760 0.003922 0.000000
0.010601 0.003922 0.000000
0.018443 0.003922 0.000000
0.023284 0.004841 0.000000
0.029044 0.005515 0.000000
0.037807 0.000919 0.000000
0.046569 0.001410 0.000000
0.059253 0.004412 0.000000
0.069363 0.003922 0.000000
0.079964 0.000919 0.000000
0.096568 0.003922 0.000000
0.106250 0.000000 0.000000
0.120772 0.000000 0.000000
0.141299 0.000000 0.000000
0.155821 0.000000 0.000000
0.173407 0.000000 0.000000
0.194731 0.000000 0.000000
0.217096 0.000000 0.000000
0.236458 0.000000 0.000000
0.255209 0.000000 0.000000
0.280269 0.000000 0.000000
0.302635 0.000000 0.000000
0.322549 0.000000 0.000000
0.340992 0.000000 0.000000
0.365809 0.000000 0.000000
0.387806 0.000000 0.000000
0.408334 0.000000 0.000000
0.432904 0.000000 0.000000
0.451348 0.000000 0.000000
0.473713 0.000000 0.000000
0.496078 0.000000 0.000000
0.515564 0.000000 0.000000
0.534007 0.000000 0.000000
0.555453 0.000000 0.000000
0.575980 0.000000 0.000000
0.594424 0.000000 0.000000
0.622426 0.000000 0.000000
0.640319 0.000000 0.000000
0.662317 0.000000 0.000000
0.679289 0.000000 0.000000
0.697733 0.000000 0.000000
0.718260 0.000000 0.000000
0.735784 0.000000 0.000000
0.753309 0.000000 0.000000
0.770833 0.000000 0.000000
0.788358 0.000000 0.000000
0.805821 0.000000 0.000000
0.825429 0.000000 0.000000
0.839031 0.000000 0.000000
0.862194 0.000000 0.000000
0.875981 0.000000 0.000000
0.893505 0.000000 0.000000
0.909374 0.000000 0.000000
0.928554 0.000000 0.000000
0.945588 0.000000 0.000000
0.959682 0.000000 0.000000
0.973284 0.000000 0.000000
0.990809 0.000000 0.000000
1.000000 0.000000 0.000000
1.000000 0.000000 0.000000
1.000000 0.000000 0.000000
1.000000 0.000000 0.000000
1.000000 0.000000 0.000000
0.000000 0.005760 0.000000
0.000919 0.005760 0.000000
0.005760 0.009681 0.000000
0.009681 0.005760 0.000000
0.015441 0.011520 0.000000
0.023529 0.009007 0.000000
0.029044 0.009681 0.000000
0.037807 0.007843 0.000000
0.052083 0.009681 0.000000
0.059253 0.009681 0.000000
0.069853 0.008333 0.000000
0.082966 0.005760 0.000000
0.093383 0.003922 0.000000
0.108333 0.005577 0.000000
0.123775 0.000000 0.000000
0.141115 0.000000 0.000000
0.157720 0.000000 0.000000
0.180269 0.000000 0.000000
0.198652 0.000000 0.000000
0.221078 0.000000 0.000000
0.240686 0.000000 0.000000
0.261826 0.000000 0.000000
0.285417 0.000000 0.000000
0.306863 0.000000 0.000000
0.324387 0.000000 0.000000
0.349449 0.000000 0.000000
0.371200 0.000000 0.000000
0.392647 0.000000 0.000000
0.410172 0.000000 0.000000
0.431617 0.000000 0.000000
0.453431 0.000000 0.000000
0.478432 0.000000 0.000000
0.495956 0.000000 0.000000
0.518444 0.000000 0.000000
0.537010 0.000000 0.000000
0.558456 0.000000 0.000000
0.577696 0.000000 0.000000
0.601348 0.000000 0.000000
0.620711 0.000000 0.000000
0.646078 0.000000 0.000000
0.661765 0.000000 0.000000
0.685600 0.000000 0.000000
0.699265 0.000000 0.000000
0.718260 0.000000 0.000000
0.738480 0.000000 0.000000
0.753309 0.000000 0.000000
0.770833 0.000000 0.000000
0.790196 0.000000 0.000000
0.809804 0.000000 0.000000
0.827328 0.000000 0.000000
0.843750 0.000000 0.000000
0.858640 0.000000 0.000000
0.881005 0.000000 0.000000
0.895343 0.000000 0.000000
0.913603 0.000000 0.000000
0.934129 0.000000 0.000000
0.940809 0.000000 0.000000
0.959682 0.000000 0.000000
0.977206 0.000000 0.000000
0.990809 0.000000 0.000000
1.000000 0.000000 0.000000
1.000000 0.000000 0.000000
1.000000 0.000000 0.000000
1.000000 0.000000 0.000000
1.000000 0.000000 0.000000
0.000000 0.010601 0.000000
0.006679 0.014522 0.000000
0.007843 0.009681 0.000000
0.010601 0.014522 0.000000
0.014522 0.010601 0.000000
0.020956 0.011274 0.000000
0.029044 0.011765 0.000000
0.037807 0.011765 0.000000
0.051164 0.015196 0.000000
0.062011 0.014522 0.000000
0.069179 0.011765 0.000000
0.080208 0.009007 0.000000
0.096568 0.007414 0.000000
0.112745 0.006679 0.000000
0.129350 0.005577 0.000000
0.143321 0.000000 0.000000
0.161581 0.000000 0.000000
0.184130 0.000000 0.000000
0.204473 0.000000 0.000000
0.223162 0.000000 0.000000
0.243382 0.000000 0.000000
0.265748 0.000000 0.000000
0.286948 0.000000 0.000000
0.306557 0.000000 0.000000
0.328921 0.000000 0.000000
0.354044 0.000000 0.000000
0.376042 0.000000 0.000000
0.397488 0.000000 0.000000
0.414461 0.000000 0.000000
0.436826 0.000000 0.000000
0.459069 0.000000 0.000000
0.477635 0.000000 0.000000
0.497243 0.000000 0.000000
0.521201 0.000000 0.000000
0.540931 0.000000 0.000000
0.561213 0.000000 0.000000
0.581618 0.000000 0.000000
0.603983 0.000000 0.000000
0.626348 0.000000 0.000000
0.646998 0.000000 0.000000
0.665686 0.000000 0.000000
0.682843 0.000000 0.000000
0.704044 0.000000 0.000000
0.718566 0.000000 0.000000
0.738542 0.000000 0.000000
0.757230 0.000000 0.000000
0.773591 0.000000 0.000000
0.792280 0.000000 0.000000
0.809804 0.000000 0.000000
0.827328 0.000000 0.000000
0.844853 0.000000 0.000000
0.866116 0.000000 0.000000
0.879902 0.000000 0.000000
0.898530 0.000000 0.000000
0.913603 0.000000 0.000000
0.928554 0.000000 0.000000
0.943321 0.000000 0.000000
0.959682 0.000000 0.000000
0.974449 0.000000 0.000000
0.990319 0.000000 0.000000
1.000000 0.000000 0.000000
1.000000 0.000000 0.000000
1.000000 0.000000 0.000000
1.000000 0.000000 0.000000
1.000000 0.000000 0.000000
0.000000 0.015441 0.000000
0.003922 0.018443 0.000000
0.007843 0.015686 0.000000
0.011765 0.016605 0.000000
0.015441 0.015686 0.000000
0.020282 0.019363 0.000000
0.029290 0.019363 0.000000
0.037807 0.015686 0.000000
0.050000 0.019363 0.000000
0.059253 0.015686 0.000000
0.071936 0.015686 0.000000
0.082966 0.014032 0.000000
0.100245 0.015441 0.000000
0.117586 0.015258 0.000000
0.130515 0.010416 0.000000
0.147242 0.003922 0.000000
0.166666 0.000000 0.000000
0.187806 0.000000 0.000000
0.209314 0.000000 0.000000
0.224939 0.000000 0.000000
0.248529 0.000000 0.000000
0.269730 0.000000 0.000000
0.288113 0.000000 0.000000
0.310478 0.000000 0.000000
0.332843 0.000000 0.000000
0.355515 0.000000 0.000000
0.380882 0.000000 0.000000
0.398652 0.000000 0.000000
0.421568 0.000000 0.000000
0.444424 0.000000 0.000000
0.459192 0.000000 0.000000
0.484190 0.000000 0.000000
0.501961 0.000000 0.000000
0.523407 0.000000 0.000000
0.541053 0.000000 0.000000
0.566054 0.000000 0.000000
0.585539 0.000000 0.000000
0.608946 0.000000 0.000000
0.630270 0.000000 0.000000
0.648162 0.000000 0.000000
0.671814 0.000000 0.000000
0.688419 0.000000 0.000000
0.704657 0.000000 0.000000
0.725858 0.000000 0.000000
0.746078 0.000000 0.000000
0.757230 0.000000 0.000000
0.778431 0.000000 0.000000
0.796139 0.000000 0.000000
0.810784 0.000000 0.000000
0.827328 0.000000 0.000000
0.844853 0.000000 0.000000
0.866361 0.000000 0.000000
0.883578 0.000000 0.000000
0.897427 0.000000 0.000000
0.911274 0.000000 0.000000
0.928554 0.000000 0.000000
0.949264 0.000000 0.000000
0.959682 0.000000 0.000000
0.977206 0.000000 0.000000
0.990809 0.000000 0.000000
1.000000 0.000000 0.000000
1.000000 0.000000 0.000000
1.000000 0.000000 0.000000
1.000000 0.000000 0.000000
1.000000 0.000000 0.000000
0.000000 0.020956 0.000000
0.004596 0.020956 0.000000
0.007843 0.020282 0.000000
0.014522 0.024203 0.000000
0.012439 0.020956 0.000000
0.024203 0.024203 0.000000
0.029718 0.024203 0.000000
0.040993 0.026716 0.000000
0.050490 0.024203 0.000000
0.060356 0.024203 0.000000
0.072610 0.024203 0.000000
0.087561 0.024203 0.000000
0.107598 0.024203 0.000000
0.115441 0.020772 0.000000
0.132966 0.015257 0.000000
0.153738 0.013664 0.000000
0.174204 0.007843 0.000000
0.195894 0.003922 0.000000
0.210233 0.000000 0.000000
0.233456 0.000000 0.000000
0.252573 0.000000 0.000000
0.274571 0.000000 0.000000
0.295956 0.000000 0.000000
0.317464 0.000000 0.000000
0.338909 0.000000 0.000000
0.363052 0.000000 0.000000
0.382475 0.000000 0.000000
0.403248 0.000000 0.000000
0.424694 0.000000 0.000000
0.446140 0.000000 0.000000
0.467586 0.000000 0.000000
0.485784 0.000000 0.000000
0.508517 0.000000 0.000000
0.528003 0.000000 0.000000
0.549326 0.000000 0.000000
0.568444 0.000000 0.000000
0.590809 0.000000 0.000000
0.610540 0.000000 0.000000
0.634865 0.000000 0.000000
0.649387 0.000000 0.000000
0.670956 0.000000 0.000000
0.688480 0.000000 0.000000
0.706618 0.000000 0.000000
0.723836 0.000000 0.000000
0.744301 0.000000 0.000000
0.758578 0.000000 0.000000
0.779350 0.000000 0.000000
0.797549 0.000000 0.000000
0.814400 0.000000 0.000000
0.831924 0.000000 0.000000
0.849448 0.000000 0.000000
0.863236 0.000000 0.000000
0.880514 0.000000 0.000000
0.898101 0.000000 0.000000
0.915626 0.000000 0.000000
0.929902 0.000000 0.000000
0.946752 0.000000 0.000000
0.959620 0.000000 0.000000
0.977880 0.000000 0.000000
0.988909 0.000000 0.000000
1.000000 0.000000 0.000000
1.000000 0.000000 0.000000
1.000000 0.000000 0.000000
1.000000 0.000000 0.000000
1.000000 0.000000 0.000000
0.002329 0.031373 0.000000
0.003248 0.029044 0.000000
0.007843 0.031128 0.000000
0.014522 0.031801 0.000000
0.015686 0.031373 0.000000
0.025122 0.032966 0.000000
0.032966 0.032966 0.000000
0.039399 0.032966 0.000000
0.050490 0.032966 0.000000
0.068260 0.038051 0.000000
0.077206 0.032966 0.000000
0.090809 0.032966 0.000000
0.108333 0.032966 0.000000
0.125858 0.029044 0.000000
0.141054 0.025612 0.000000
0.158578 0.020772 0.000000
0.180025 0.014338 0.000000
0.203738 0.009498 0.000000
0.218995 0.000000 0.000000
0.238664 0.000000 0.000000
0.257965 0.000000 0.000000
0.283027 0.000000 0.000000
0.304780 0.000000 0.000000
0.324633 0.000000 0.000000
0.343750 0.000000 0.000000
0.367524 0.000000 0.000000
0.390564 0.000000 0.000000
0.409375 0.000000 0.000000
0.429534 0.000000 0.000000
0.454106 0.000000 0.000000
0.472426 0.000000 0.000000
0.493873 0.000000 0.000000
0.513726 0.000000 0.000000
0.538051 0.000000 0.000000
0.556495 0.000000 0.000000
0.576532 0.000000 0.000000
0.598897 0.000000 0.000000
0.619669 0.000000 0.000000
0.634192 0.000000 0.000000
0.658149 0.000000 0.000000
0.678922 0.000000 0.000000
0.696569 0.000000 0.000000
0.719731 0.000000 0.000000
0.730331 0.000000 0.000000
0.748775 0.000000 0.000000
0.768995 0.000000 0.000000
0.784191 0.000000 0.000000
0.804045 0.000000 0.000000
0.822182 0.000000 0.000000
0.836765 0.000000 0.000000
0.856618 0.000000 0.000000
0.870220 0.000000 0.000000
0.887746 0.000000 0.000000
0.903615 0.000000 0.000000
0.920465 0.000000 0.000000
0.936397 0.000000 0.000000
0.953431 0.000000 0.000000
0.965931 0.000000 0.000000
0.980393 0.000000 0.000000
1.000307 0.000000 0.000000
1.000000 0.000000 0.000000
1.000000 0.000000 0.000000
1.000000 0.000000 0.000000
1.000000 0.000000 0.000000
1.000000 0.000000 0.000000
0.002513 0.037807 0.000000
0.004841 0.040318 0.000000
0.009681 0.037132 0.000000
0.014522 0.040318 0.000000
0.019363 0.040318 0.000000
0.026042 0.041728 0.000000
0.032966 0.041728 0.000000
0.041728 0.041728 0.000000
0.054412 0.045650 0.000000
0.063603 0.044240 0.000000
0.079779 0.043137 0.000000
0.094730 0.043995 0.000000
0.110845 0.041728 0.000000
0.125858 0.037807 0.000000
0.148713 0.039216 0.000000
0.164828 0.034375 0.000000
0.181924 0.025613 0.000000
0.202390 0.018260 0.000000
0.222182 0.009497 0.000000
0.244547 0.000000 0.000000
0.266728 0.000000 0.000000
0.286765 0.000000 0.000000
0.309620 0.000000 0.000000
0.331066 0.000000 0.000000
0.352512 0.000000 0.000000
0.373407 0.000000 0.000000
0.399325 0.000000 0.000000
0.416850 0.000000 0.000000
0.440809 0.000000 0.000000
0.455209 0.000000 0.000000
0.481188 0.000000 0.000000
0.498713 0.000000 0.000000
0.519608 0.000000 0.000000
0.541973 0.000000 0.000000
0.563051 0.000000 0.000000
0.582782 0.000000 0.000000
0.605944 0.000000 0.000000
0.627513 0.000000 0.000000
0.644914 0.000000 0.000000
0.666360 0.000000 0.000000
0.682843 0.000000 0.000000
0.702818 0.000000 0.000000
0.720344 0.000000 0.000000
0.737868 0.000000 0.000000
0.752696 0.000000 0.000000
0.770404 0.000000 0.000000
0.789032 0.000000 0.000000
0.806556 0.000000 0.000000
0.824510 0.000000 0.000000
0.841605 0.000000 0.000000
0.856618 0.000000 0.000000
0.874142 0.000000 0.000000
0.893443 0.000000 0.000000
0.905270 0.000000 0.000000
0.922794 0.000000 0.000000
0.940318 0.000000 0.000000
0.953921 0.000000 0.000000
0.967525 0.000000 0.000000
0.981128 0.000000 0.000000
0.998652 0.000000 0.000000
1.000000 0.000000 0.000000
1.000000 0.000000 0.000000
1.000000 0.000000 0.000000
1.000000 0.000000 0.000000
1.000000 0.000000 0.000000
0.000000 0.046569 0.000000
0.006924 0.049572 0.000000
0.007843 0.046569 0.000000
0.010601 0.046569 0.000000
0.015441 0.050245 0.000000
0.024203 0.050490 0.000000
0.034804 0.056250 0.000000
0.038297 0.049571 0.000000
0.050490 0.054412 0.000000
0.063174 0.050920 0.000000
0.077206 0.054412 0.000000
0.095894 0.054412 0.000000
0.112254 0.054412 0.000000
0.129780 0.053922 0.000000
0.150736 0.050000 0.000000
0.173591 0.051409 0.000000
0.189216 0.043137 0.000000
0.210662 0.038236 0.000000
0.232598 0.029534 0.000000
0.254045 0.018628 0.000000
0.274264 0.008088 0.000000
0.296936 -0.000184 0.000000
0.312255 0.000000 0.000000
0.339828 0.000000 0.000000
0.359804 0.000000 0.000000
0.382721 0.000000 0.000000
0.401103 0.000000 0.000000
0.425613 0.000000 0.000000
0.443628 0.000000 0.000000
0.468505 0.000000 0.000000
0.486152 0.000000 0.000000
0.507476 0.000000 0.000000
0.523529 0.000000 0.000000
0.549877 0.000000 0.000000
0.567892 0.000000 0.000000
0.593260 0.000000 0.000000
0.609069 0.000000 0.000000
0.632230 0.000000 0.000000
0.653799 0.000000 0.000000
0.674570 0.000000 0.000000
0.690196 0.000000 0.000000
0.706740 0.000000 0.000000
0.724265 0.000000 0.000000
0.744730 0.000000 0.000000
0.756618 0.000000 0.000000
0.775061 0.000000 0.000000
0.793872 0.000000 0.000000
0.808027 0.000000 0.000000
0.825490 0.000000 0.000000
0.843015 0.000000 0.000000
0.859436 0.000000 0.000000
0.878063 0.000000 0.000000
0.891667 0.000000 0.000000
0.909191 0.000000 0.000000
0.925368 0.000000 0.000000
0.940318 0.000000 0.000000
0.953921 0.000000 0.000000
0.970036 0.000000 0.000000
0.985049 0.000000 0.000000
0.998652 0.000000 0.000000
1.000000 0.000000 0.000000
0.997242 0.000000 0.000000
1.000000 0.000000 0.000000
1.000000 0.000000 0.000000
1.000000 0.000000 0.000000
0.000000 0.059682 0.000000
0.004412 0.060172 0.000000
0.005760 0.059682 0.000000
0.007843 0.059253 0.000000
0.015441 0.059682 0.000000
0.023100 0.063174 0.000000
0.030209 0.064767 0.000000
0.037377 0.065686 0.000000
0.046569 0.067096 0.000000
0.063174 0.067096 0.000000
0.077206 0.067525 0.000000
0.094301 0.071017 0.000000
0.108762 0.070711 0.000000
0.129963 0.067525 0.000000
0.151226 0.062929 0.000000
0.172672 0.067096 0.000000
0.190625 0.057170 0.000000
0.212071 0.056189 0.000000
0.237868 0.051838 0.000000
0.262807 0.041298 0.000000
0.283027 0.030392 0.000000
0.301777 0.021201 0.000000
0.323652 0.004412 0.000000
0.345098 -0.001103 0.000000
0.372059 0.000000 0.000000
0.390931 0.000000 0.000000
0.412929 0.000000 0.000000
0.430453 0.000000 0.000000
0.454106 0.000000 0.000000
0.476041 0.000000 0.000000
0.494792 0.000000 0.000000
0.512316 0.000000 0.000000
0.533762 0.000000 0.000000
0.558089 0.000000 0.000000
0.576654 0.000000 0.000000
0.598100 0.000000 0.000000
0.619546 0.000000 0.000000
0.640564 0.000000 0.000000
0.661642 0.000000 0.000000
0.676042 0.000000 0.000000
0.698530 0.000000 0.000000
0.714583 0.000000 0.000000
0.735417 0.000000 0.000000
0.746140 0.000000 0.000000
0.763235 0.000000 0.000000
0.779045 0.000000 0.000000
0.798284 0.000000 0.000000
0.811949 0.000000 0.000000
0.829841 0.000000 0.000000
0.847365 0.000000 0.000000
0.862072 0.000000 0.000000
0.881985 0.000000 0.000000
0.895589 0.000000 0.000000
0.909620 0.000000 0.000000
0.928064 0.000000 0.000000
0.941177 0.000000 0.000000
0.957782 0.000000 0.000000
0.975368 0.000000 0.000000
0.983149 0.000000 0.000000
0.999326 0.000000 0.000000
1.000000 0.000000 0.000000
1.000000 0.000000 0.000000
1.000000 0.000000 0.000000
1.000000 0.000000 0.000000
1.000000 0.000000 0.000000
0.000000 0.069363 0.000000
0.000000 0.068934 0.000000
0.004412 0.073774 0.000000
0.006495 0.070527 0.000000
0.011520 0.071936 0.000000
0.018260 0.076532 0.000000
0.023529 0.075613 0.000000
0.035049 0.078370 0.000000
0.042647 0.077206 0.000000
0.059682 0.080208 0.000000
0.077206 0.085049 0.000000
0.093076 0.085049 0.000000
0.112254 0.085049 0.000000
0.133701 0.085049 0.000000
0.152329 0.085049 0.000000
0.176593 0.085049 0.000000
0.199633 0.081127 0.000000
0.219424 0.077206 0.000000
0.241789 0.073284 0.000000
0.268076 0.069363 0.000000
0.290441 0.062868 0.000000
0.312807 0.051410 0.000000
0.335907 0.039461 0.000000
0.353432 0.021936 0.000000
0.374877 0.004412 0.000000
0.396323 -0.002022 0.000000
0.418137 0.000000 0.000000
0.439154 0.000000 0.000000
0.458088 0.000000 0.000000
0.481311 0.000000 0.000000
0.500980 0.000000 0.000000
0.521078 0.000000 0.000000
0.544485 0.000000 0.000000
0.566851 0.000000 0.000000
0.585417 0.000000 0.000000
0.611336 0.000000 0.000000
0.624020 0.000000 0.000000
0.645833 0.000000 0.000000
0.665932 0.000000 0.000000
0.684804 0.000000 0.000000
0.702451 0.000000 0.000000
0.719853 0.000000 0.000000
0.737377 0.000000 0.000000
0.754595 0.000000 0.000000
0.771201 0.000000 0.000000
0.786029 0.000000 0.000000
0.802206 0.000000 0.000000
0.819731 0.000000 0.000000
0.835907 0.000000 0.000000
0.855331 0.000000 0.000000
0.868382 0.000000 0.000000
0.882169 0.000000 0.000000
0.898162 0.000000 0.000000
0.914461 0.000000 0.000000
0.928064 0.000000 0.000000
0.945589 0.000000 0.000000
0.957843 0.000000 0.000000
0.971385 0.000000 0.000000
0.986642 0.000000 0.000000
0.999326 0.000000 0.000000
1.000000 0.000000 0.000000
1.000000 0.000000 0.000000
1.000000 0.000000 0.000000
1.000000 0.000000 0.000000
1.000000 0.000000 0.000000
0.000000 0.090196 0.000000
0.000000 0.090809 0.000000
0.000000 0.090809 0.000000
0.000000 0.090809 0.000000
0.005576 0.092463 0.000000
0.010172 0.090809 0.000000
0.018934 0.094730 0.000000
0.028554 0.094730 0.000000
0.041544 0.099817 0.000000
0.057414 0.099081 0.000000
0.072365 0.100000 0.000000
0.092463 0.104228 0.000000
0.112254 0.103309 0.000000
0.133701 0.108579 0.000000
0.153982 0.101409 0.000000
0.178615 0.102573 0.000000
0.200981 0.102573 0.000000
0.224999 0.104166 0.000000
0.245711 0.094730 0.000000
0.270221 0.091299 0.000000
0.294363 0.086458 0.000000
0.321998 0.082966 0.000000
0.341360 0.072856 0.000000
0.364461 0.063174 0.000000
0.383640 0.045649 0.000000
0.408456 0.030392 0.000000
0.426899 0.006802 0.000000
0.450245 0.000000 0.000000
0.469363 0.000000 0.000000
0.489216 0.000000 0.000000
0.512317 0.000000 0.000000
0.536030 0.000000 0.000000
0.555208 0.000000 0.000000
0.575000 0.000000 0.000000
0.599632 0.000000 0.000000
0.616422 0.000000 0.000000
0.637071 0.000000 0.000000
0.655882 0.000000 0.000000
0.674387 0.000000 0.000000
0.693566 0.000000 0.000000
0.711090 0.000000 0.000000
0.728615 0.000000 0.000000
0.746140 0.000000 0.000000
0.761397 0.000000 0.000000
0.779964 0.000000 0.000000
0.796569 0.000000 0.000000
0.809253 0.000000 0.000000
0.829779 0.000000 0.000000
0.843444 0.000000 0.000000
0.856679 0.000000 0.000000
0.876225 0.000000 0.000000
0.888358 0.000000 0.000000
0.906617 0.000000 0.000000
0.921568 0.000000 0.000000
0.936826 0.000000 0.000000
0.952083 0.000000 0.000000
0.961764 0.000000 0.000000
0.979290 0.000000 0.000000
0.992892 0.000000 0.000000
1.000000 0.000000 0.000000
1.000000 0.000000 0.000000
1.000000 0.000000 0.000000
1.000000 0.000000 0.000000
1.000000 0.000000 0.000000
1.000000 0.000000 0.000000
0.000000 0.104411 0.000000
0.000000 0.105331 0.000000
0.000000 0.105147 0.000000
0.000000 0.105147 0.000000
0.000000 0.104657 0.000000
0.001410 0.105086 0.000000
0.010172 0.106741 0.000000
0.018934 0.107660 0.000000
0.035049 0.112254 0.000000
0.051838 0.112683 0.000000
0.071936 0.118750 0.000000
0.087623 0.120098 0.000000
0.108333 0.123284 0.000000
0.129780 0.120098 0.000000
0.155147 0.126103 0.000000
0.176593 0.123284 0.000000
0.197794 0.121079 0.000000
0.222671 0.119424 0.000000
0.245711 0.121692 0.000000
0.271998 0.114399 0.000000
0.293872 0.111519 0.000000
0.320221 0.107169 0.000000
0.346936 0.106250 0.000000
0.374142 0.097488 0.000000
0.396324 0.088725 0.000000
0.417218 0.075306 0.000000
0.435662 0.061520 0.000000
0.457475 0.042709 0.000000
0.481373 0.020833 0.000000
0.498836 0.000000 0.000000
0.524387 0.000000 0.000000
0.543566 0.000000 0.000000
0.565932 0.000000 0.000000
0.589645 0.000000 0.000000
0.606740 0.000000 0.000000
0.628308 0.000000 0.000000
0.648039 0.000000 0.000000
0.667831 0.000000 0.000000
0.681250 0.000000 0.000000
0.702329 0.000000 0.000000
0.719853 0.000000 0.000000
0.732659 0.000000 0.000000
0.750858 0.000000 0.000000
0.772120 0.000000 0.000000
0.780147 0.000000 0.000000
0.801409 0.000000 0.000000
0.817157 0.000000 0.000000
0.831496 0.000000 0.000000
0.848284 0.000000 0.000000
0.864645 0.000000 0.000000
0.879044 0.000000 0.000000
0.893750 0.000000 0.000000
0.910539 0.000000 0.000000
0.922610 0.000000 0.000000
0.938480 0.000000 0.000000
0.952512 0.000000 0.000000
0.972304 0.000000 0.000000
0.979290 0.000000 0.000000
0.996078 0.000000 0.000000
1.000000 0.000000 0.000000
1.000000 0.000000 0.000000
1.000000 0.000000 0.000000
1.000000 0.000000 0.000000
1.000000 0.000000 0.000000
1.000000 0.000000 0.000000
0.000000 0.121937 0.000000
0.000000 0.124939 0.000000
0.000000 0.120282 0.000000
0.000000 0.123101 0.000000
0.000000 0.122120 0.000000
0.000000 0.122611 0.000000
0.000000 0.127267 0.000000
0.010171 0.126041 0.000000
0.026103 0.129780 0.000000
0.044056 0.133701 0.000000
0.061336 0.133701 0.000000
0.085049 0.139706 0.000000
0.100490 0.137623 0.000000
0.125858 0.137806 0.000000
0.152145 0.145466 0.000000
0.172672 0.139706 0.000000
0.197059 0.141727 0.000000
0.223162 0.141544 0.000000
0.245894 0.137990 0.000000
0.275735 0.141544 0.000000
0.300980 0.140319 0.000000
0.317218 0.130269 0.000000
0.350858 0.129963 0.000000
0.373223 0.124509 0.000000
0.399510 0.119670 0.000000
0.425797 0.118198 0.000000
0.447978 0.106250 0.000000
0.466973 0.093750 0.000000
0.493077 0.081066 0.000000
0.509374 0.062316 0.000000
0.533884 0.040503 0.000000
0.559130 0.015257 0.000000
0.578615 -0.004596 0.000000
0.598101 -0.002696 0.000000
0.619423 0.000000 0.000000
0.637071 0.000000 0.000000
0.658333 0.000000 0.000000
0.676041 0.000000 0.000000
0.693383 0.000000 0.000000
