Color/Polaroid/Polaroid PX-100UV+ Cold 1 -- 65x.cube
TITLE "Polaroid PX-100UV+ Cold 1 --"
LUT_3D_SIZE 5
DOMAIN_MIN 0.000000 0.000000 0.000000
DOMAIN_MAX 1.000000 1.000000 1.000000
0.000000 0.000000 0.000000
0.085295 0.100981 0.100981
0.331372 0.350981 0.354902
0.488236 0.506862 0.500000
0.639216 0.658824 0.631373
0.130392 0.146079 0.150000
0.181373 0.201961 0.204902
0.346079 0.365686 0.369608
0.494117 0.512746 0.505883
0.642157 0.661765 0.634314
0.392157 0.409804 0.411764
0.390196 0.410784 0.409804
0.441176 0.458824 0.456863
0.523529 0.540196 0.531373
0.652941 0.672549 0.643138
0.547059 0.562745 0.550981
0.543137 0.562745 0.548039
0.561764 0.581373 0.565686
0.609804 0.629412 0.605883
0.747059 0.762745 0.719608
0.815686 0.823529 0.776471
0.812745 0.824510 0.777451
0.815686 0.827451 0.780392
0.874510 0.878431 0.827451
0.941176 0.937255 0.886275
0.178431 0.198039 0.201961
0.256863 0.279412 0.283334
0.413725 0.431373 0.432353
0.532353 0.549020 0.540196
0.665687 0.685294 0.653922
0.260784 0.283334 0.287255
0.323529 0.346079 0.350000
0.437255 0.455882 0.454902
0.533333 0.552941 0.541176
0.672549 0.692157 0.656863
0.458823 0.477451 0.474510
0.453921 0.473529 0.469608
0.480392 0.500000 0.494118
0.549019 0.568628 0.553922
0.682353 0.701960 0.667647
0.578432 0.597059 0.578432
0.576471 0.596078 0.579412
0.585294 0.602941 0.585294
0.631373 0.650000 0.625490
0.764706 0.780392 0.737255
0.831373 0.839216 0.792157
0.831373 0.840196 0.792157
0.834314 0.843137 0.795098
0.879412 0.883333 0.833333
0.945098 0.941176 0.890196
0.445098 0.462746 0.460785
0.468627 0.487255 0.483333
0.507843 0.525490 0.517648
0.584314 0.602941 0.584314
0.733333 0.749020 0.709804
0.470588 0.487255 0.483333
0.491177 0.508824 0.502941
0.522549 0.542157 0.531373
0.601961 0.620588 0.600000
0.747059 0.764706 0.722549
0.503922 0.521568 0.513726
0.519608 0.538235 0.529411
0.558823 0.578431 0.562745
0.631373 0.650000 0.625490
0.764706 0.780393 0.737254
0.641177 0.660785 0.632353
0.651961 0.671569 0.643137
0.656863 0.674510 0.645098
0.690196 0.707843 0.672549
0.813726 0.824510 0.777451
0.878431 0.882353 0.831373
0.878431 0.882353 0.831373
0.878431 0.882353 0.833333
0.900980 0.902941 0.851961
0.956863 0.952941 0.901961
0.624510 0.644118 0.616667
0.635294 0.653921 0.627451
0.666667 0.684314 0.652941
0.700000 0.718628 0.680392
0.800981 0.812745 0.765686
0.636274 0.655882 0.629412
0.645098 0.664706 0.636275
0.678431 0.698039 0.664706
0.712745 0.730392 0.691176
0.817647 0.829412 0.782353
0.639216 0.657843 0.630392
0.658824 0.678431 0.646078
0.700980 0.717647 0.681372
0.741176 0.756863 0.715687
0.861765 0.868627 0.817647
0.689216 0.708823 0.672549
0.702941 0.719608 0.684314
0.732353 0.749020 0.708823
0.798039 0.809804 0.765686
0.906862 0.907843 0.856863
0.921569 0.921569 0.870588
0.926471 0.923530 0.872549
0.938235 0.935294 0.884314
0.946079 0.942157 0.891177
0.980392 0.972549 0.921569
0.909804 0.913725 0.862745
0.914706 0.914706 0.863726
0.929412 0.929412 0.878431
0.949020 0.945098 0.894118
0.964706 0.956863 0.905882
0.916666 0.916666 0.865686
0.921569 0.917647 0.870588
0.932353 0.929412 0.878431
0.950000 0.946079 0.895098
0.967647 0.960784 0.909804
0.925490 0.923530 0.872549
0.927451 0.925490 0.874510
0.941176 0.939215 0.888235
0.960784 0.951960 0.900981
0.976471 0.968627 0.917647
0.929412 0.926471 0.875490
0.933333 0.932353 0.881373
0.945098 0.941176 0.890196
0.973530 0.965686 0.914706
0.992157 0.981372 0.930392
0.972549 0.964706 0.913725
0.976471 0.968627 0.917647
0.982353 0.972549 0.923530
0.993137 0.981372 0.933333
1.000000 1.000000 0.949020
