Color/Polaroid/Polaroid 690 Warm 1 -- 65x.cube
TITLE "Polaroid 690 Warm 1 --"
LUT_3D_SIZE 5
DOMAIN_MIN 0.000000 0.000000 0.000000
DOMAIN_MAX 1.000000 1.000000 1.000000
0.000000 0.000000 0.000000
0.256863 0.000000 0.000000
0.584313 0.000000 0.000000
0.838235 0.000000 0.000000
1.000000 0.000000 0.000000
0.000000 0.242157 0.000000
0.292157 0.259804 0.000000
0.682353 0.200001 0.000000
0.893138 0.000000 0.000000
1.000000 0.000000 0.000000
0.000000 0.525490 0.000000
0.236275 0.523529 0.000000
0.601961 0.554902 0.000000
0.908823 0.559804 0.000000
1.000000 0.558823 0.000000
0.187255 0.729411 0.000000
0.319608 0.724510 0.000000
0.565686 0.735294 0.000000
0.843137 0.763725 0.000000
1.000000 0.798039 0.000000
0.556863 0.976471 0.149020
0.607843 0.973530 0.126470
0.739216 0.972549 0.000000
0.906862 0.979412 0.000000
1.000000 0.992157 0.000000
0.000000 0.003922 0.232353
0.283334 0.000000 0.255883
0.575490 0.000000 0.184314
0.780392 0.000000 0.153922
1.000000 0.000000 0.083334
0.061765 0.250981 0.247058
0.330392 0.275490 0.270588
0.631373 0.197059 0.228432
0.847059 0.000000 0.168627
1.000000 0.000000 0.107843
0.158823 0.550980 0.248039
0.321569 0.544118 0.230392
0.619607 0.562745 0.200981
0.904902 0.570588 0.245098
1.000000 0.542157 0.211765
0.250000 0.741176 0.197058
0.359804 0.738235 0.181373
0.574510 0.733333 0.127451
0.846078 0.767647 0.070588
1.000000 0.800980 0.159804
0.538235 0.976471 0.304902
0.592157 0.976471 0.293137
0.727451 0.973529 0.243137
0.899020 0.977451 0.186274
1.000000 0.992157 0.000000
0.000000 0.005882 0.570588
0.225490 0.000000 0.597059
0.658824 0.000000 0.635294
0.814706 0.000000 0.489216
1.000000 0.000000 0.450981
0.129412 0.261765 0.562745
0.340196 0.289216 0.597059
0.665686 0.313725 0.634314
0.818627 0.244118 0.506863
1.000000 0.000000 0.446078
0.250980 0.554902 0.570588
0.397059 0.568628 0.586275
0.647058 0.592156 0.611765
0.853921 0.499020 0.524510
1.000000 0.405882 0.431372
0.328431 0.773529 0.554902
0.412745 0.773529 0.551961
0.591176 0.755882 0.510784
0.850000 0.776471 0.506863
1.000000 0.807843 0.565686
0.492157 0.980392 0.566666
0.550000 0.980392 0.556863
0.688236 0.976471 0.519608
0.876471 0.980392 0.480393
1.000000 0.992157 0.462746
0.059804 0.106862 0.836274
0.323529 0.113725 0.843137
0.643138 0.142157 0.864706
0.911765 0.205883 0.871568
1.000000 0.213726 0.795098
0.235294 0.301960 0.823529
0.382353 0.311765 0.832353
0.655883 0.350000 0.860785
0.908823 0.386274 0.870588
1.000000 0.340196 0.795098
0.201960 0.498039 0.762745
0.350980 0.517648 0.782353
0.628431 0.565686 0.826470
0.886275 0.617647 0.860785
1.000000 0.521569 0.773529
0.382353 0.767647 0.796079
0.471569 0.774510 0.805883
0.649019 0.780392 0.814706
0.867647 0.812745 0.848039
1.000000 0.717647 0.755882
0.589215 0.980392 0.848039
0.621569 0.982353 0.845098
0.697059 0.981373 0.829412
0.836274 0.981372 0.786275
1.000000 0.996078 0.790196
0.521569 0.341176 1.000000
0.584314 0.342156 1.000000
0.743137 0.360784 1.000000
0.926471 0.415686 1.000000
1.000000 0.490196 1.000000
0.530392 0.443138 1.000000
0.594117 0.445098 1.000000
0.743137 0.458823 1.000000
0.919608 0.507843 1.000000
1.000000 0.564705 1.000000
0.488235 0.598040 1.000000
0.561765 0.600000 0.998039
0.725491 0.619607 1.000000
0.906862 0.662745 1.000000
1.000000 0.705882 1.000000
0.443137 0.790196 0.984314
0.495098 0.786275 0.987255
0.624510 0.770588 0.988235
0.872549 0.806863 0.996078
1.000000 0.864706 0.997059
0.674510 0.984314 0.988235
0.701961 0.988235 0.992157
0.774510 0.986274 0.992157
0.879412 0.988235 0.993137
1.000000 1.000000 1.000000
