Color/Polaroid/Polaroid PX-70 Warm 1 -- 65x.cube
TITLE "Polaroid PX-70 Warm 1 --"
LUT_3D_SIZE 5
DOMAIN_MIN 0.000000 0.000000 0.000000
DOMAIN_MAX 1.000000 1.000000 1.000000
0.000000 0.000000 0.000000
0.124510 0.023529 0.023529
0.529412 0.000000 0.066667
0.927451 0.253921 0.044117
1.000000 0.552941 0.160784
0.000000 0.148039 0.073529
0.136274 0.166666 0.066667
0.573529 0.190196 0.036275
0.921568 0.387255 0.000000
1.000000 0.595098 0.144118
0.000000 0.560785 0.062745
0.005882 0.564705 0.078431
0.613726 0.588236 0.000000
0.897059 0.629412 0.000000
1.000000 0.692157 0.031372
0.428431 0.825490 0.251961
0.509804 0.822549 0.265686
0.680392 0.823529 0.268627
0.864706 0.829412 0.229412
1.000000 0.845098 0.271569
0.788235 0.976471 0.576471
0.800981 0.973530 0.581373
0.843137 0.976471 0.605882
0.917647 0.983334 0.610784
1.000000 0.988235 0.631373
0.000000 0.031373 0.147059
0.123529 0.073529 0.148039
0.555883 0.000000 0.197059
0.930392 0.377451 0.264706
1.000000 0.610784 0.347059
0.000000 0.171568 0.179412
0.193137 0.189216 0.191176
0.623529 0.264706 0.213726
0.922549 0.454902 0.238235
1.000000 0.640196 0.333334
0.058824 0.582353 0.228432
0.275490 0.580392 0.221568
0.643138 0.600000 0.198039
0.900000 0.629412 0.168627
1.000000 0.707843 0.271568
0.501961 0.825490 0.333333
0.569608 0.826470 0.346078
0.701961 0.826470 0.357843
0.868628 0.831373 0.329411
1.000000 0.849020 0.355882
0.792157 0.976471 0.596078
0.807843 0.973530 0.603922
0.850000 0.976471 0.627451
0.915686 0.980392 0.635294
1.000000 0.991177 0.654902
0.111765 0.111765 0.376471
0.357843 0.154902 0.385294
0.649019 0.327451 0.400000
0.913725 0.326471 0.445098
1.000000 0.611765 0.500000
0.118627 0.278431 0.398039
0.381372 0.300980 0.409804
0.679412 0.460785 0.416667
0.913725 0.478431 0.453921
1.000000 0.682353 0.520588
0.241176 0.596078 0.415686
0.435294 0.602941 0.422549
0.709804 0.627451 0.445098
0.899020 0.701960 0.482353
1.000000 0.778431 0.539215
0.634314 0.824510 0.489216
0.689216 0.827451 0.502941
0.756863 0.829412 0.501961
0.880392 0.837255 0.494118
1.000000 0.850980 0.498039
0.811765 0.974510 0.660784
0.817647 0.976471 0.658824
0.858824 0.976471 0.678431
0.922549 0.981372 0.703921
1.000000 0.988235 0.719608
0.528431 0.331373 0.629412
0.657843 0.397059 0.628432
0.832353 0.584314 0.629412
0.906862 0.710784 0.637255
1.000000 0.710784 0.664706
0.519608 0.457843 0.627451
0.648039 0.502941 0.628432
0.830393 0.645098 0.638235
0.905882 0.748039 0.650000
1.000000 0.742157 0.676470
0.383333 0.657843 0.602941
0.550981 0.663726 0.614706
0.798039 0.720588 0.642157
0.904902 0.802941 0.670588
1.000000 0.796078 0.695098
0.612745 0.826470 0.626470
0.663725 0.829412 0.633334
0.767647 0.831373 0.642157
0.898039 0.848039 0.676471
1.000000 0.892157 0.744117
0.807843 0.976471 0.765686
0.825490 0.978432 0.770588
0.875490 0.977451 0.786274
0.930392 0.984314 0.808823
1.000000 0.995098 0.832353
0.796078 0.729412 0.878431
0.824510 0.746079 0.875490
0.894118 0.796078 0.874510
0.961765 0.858824 0.870588
1.000000 0.894118 0.882353
0.791176 0.754902 0.881373
0.822549 0.771568 0.881373
0.890196 0.810785 0.877451
0.961764 0.869608 0.877451
1.000000 0.900980 0.885295
0.754902 0.801961 0.884314
0.783333 0.803921 0.886275
0.868627 0.833333 0.888235
0.957843 0.887255 0.890196
1.000000 0.925490 0.903922
0.665686 0.879412 0.891177
0.690197 0.879412 0.897059
0.757843 0.875490 0.900000
0.934313 0.906862 0.914706
1.000000 0.960784 0.930392
0.792157 0.992157 0.941176
0.803922 0.992157 0.941176
0.847059 0.994117 0.947059
0.918627 0.993137 0.952941
1.000000 1.000000 0.972549
