Color/Polaroid/Polaroid 690 Warm 1 -- 65x.cube
TITLE "Polaroid 690 Warm 1 --"
LUT_3D_SIZE 65
DOMAIN_MIN 0.000000 0.000000 0.000000
DOMAIN_MAX 1.000000 1.000000 1.000000
0.000000 0.000000 0.000000
0.008762 0.000000 0.000000
0.021446 0.000000 0.000000
0.026287 0.000000 0.000000
0.035049 0.000000 0.000000
0.051654 0.000000 0.000000
0.065931 0.000000 0.000000
0.075612 0.000000 0.000000
0.093138 0.000000 0.000000
0.106740 0.000000 0.000000
0.128186 0.000000 0.000000
0.145711 0.000000 0.000000
0.167156 0.000000 0.000000
0.192525 0.000000 0.000000
0.213971 0.000000 0.000000
0.237439 0.000000 0.000000
0.256863 0.000000 0.000000
0.282169 0.000000 0.000000
0.303677 0.000000 0.000000
0.326900 0.000000 0.000000
0.349264 0.000000 0.000000
0.368014 0.000000 0.000000
0.390073 0.000000 0.000000
0.412439 0.000000 0.000000
0.432353 0.000000 0.000000
0.453248 0.000000 0.000000
0.475245 0.000000 0.000000
0.492769 0.000000 0.000000
0.512010 0.000000 0.000000
0.531740 0.000000 0.000000
0.549265 0.000000 0.000000
0.566789 0.000000 0.000000
0.584313 0.000000 0.000000
0.602880 0.000000 0.000000
0.615563 0.000000 0.000000
0.632966 0.000000 0.000000
0.652206 0.000000 0.000000
0.669301 0.000000 0.000000
0.689461 0.000000 0.000000
0.703064 0.000000 0.000000
0.723039 0.000000 0.000000
0.738112 0.000000 0.000000
0.755638 0.000000 0.000000
0.769240 0.000000 0.000000
0.785539 0.000000 0.000000
0.796446 0.000000 0.000000
0.810049 0.000000 0.000000
0.827512 0.000000 0.000000
0.838235 0.000000 0.000000
0.854779 0.000000 0.000000
0.868382 0.000000 0.000000
0.882169 0.000000 0.000000
0.895589 0.000000 0.000000
0.913113 0.000000 0.000000
0.926716 0.000000 0.000000
0.940318 0.000000 0.000000
0.953921 0.000000 0.000000
0.970036 0.000000 0.000000
0.985049 0.000000 0.000000
0.998652 0.000000 0.000000
1.000000 0.000000 0.000000
1.000000 0.000000 0.000000
1.000000 0.000000 0.000000
1.000000 0.000000 0.000000
1.000000 0.000000 0.000000
0.000919 0.003922 0.000000
0.012684 0.003922 0.000000
0.021446 0.003922 0.000000
0.027206 0.003922 0.000000
0.038971 0.003922 0.000000
0.055576 0.004841 0.000000
0.065931 0.005515 0.000000
0.074019 0.000919 0.000000
0.090626 -0.002513 0.000000
0.110662 0.000000 0.000000
0.129534 0.000000 0.000000
0.148897 0.000000 0.000000
0.174265 0.000000 0.000000
0.192708 0.000000 0.000000
0.215074 0.000000 0.000000
0.241360 0.000000 0.000000
0.260723 0.000000 0.000000
0.286091 0.000000 0.000000
0.305454 0.000000 0.000000
0.330821 0.000000 0.000000
0.350184 0.000000 0.000000
0.371936 0.000000 0.000000
0.398223 0.000000 0.000000
0.415748 0.000000 0.000000
0.436275 0.000000 0.000000
0.454719 0.000000 0.000000
0.475613 0.000000 0.000000
0.493321 0.000000 0.000000
0.514216 0.000000 0.000000
0.532659 0.000000 0.000000
0.553186 0.000000 0.000000
0.570711 0.000000 0.000000
0.588236 0.000000 0.000000
0.602880 0.000000 0.000000
0.620282 0.000000 0.000000
0.637010 0.000000 0.000000
0.654412 0.000000 0.000000
0.671937 0.000000 0.000000
0.690380 0.000000 0.000000
0.710356 0.000000 0.000000
0.724510 0.000000 0.000000
0.739644 0.000000 0.000000
0.753248 0.000000 0.000000
0.769240 0.000000 0.000000
0.785539 0.000000 0.000000
0.798223 0.000000 0.000000
0.813970 0.000000 0.000000
0.824571 0.000000 0.000000
0.841177 0.000000 0.000000
0.856802 0.000000 0.000000
0.866482 0.000000 0.000000
0.885907 0.000000 0.000000
0.898774 0.000000 0.000000
0.913113 0.000000 0.000000
0.925062 0.000000 0.000000
0.946814 0.000000 0.000000
0.957353 0.000000 0.000000
0.970036 0.000000 0.000000
0.985049 0.000000 0.000000
1.001654 0.000000 0.000000
1.000000 0.000000 0.000000
1.000000 0.000000 0.000000
1.000000 0.000000 0.000000
1.000000 0.000000 0.000000
1.000000 0.000000 0.000000
0.005760 0.009681 0.000000
0.012684 0.007843 0.000000
0.023284 0.009681 0.000000
0.030209 0.006924 0.000000
0.042647 0.011520 0.000000
0.056740 0.011091 0.000000
0.066176 0.009681 0.000000
0.079534 0.005760 0.000000
0.097059 0.011275 0.000000
0.114583 0.005760 0.000000
0.132108 0.000000 0.000000
0.151900 0.000000 0.000000
0.171078 0.000000 0.000000
0.196446 0.000000 0.000000
0.216912 0.000000 0.000000
0.239338 0.000000 0.000000
0.262623 0.000000 0.000000
0.290012 0.000000 0.000000
0.310294 0.000000 0.000000
0.332659 0.000000 0.000000
0.354412 0.000000 0.000000
0.373775 0.000000 0.000000
0.399142 0.000000 0.000000
0.420588 0.000000 0.000000
0.440196 0.000000 0.000000
0.463174 0.000000 0.000000
0.479166 0.000000 0.000000
0.500612 0.000000 0.000000
0.515687 0.000000 0.000000
0.535662 0.000000 0.000000
0.551470 0.000000 0.000000
0.575429 0.000000 0.000000
0.588236 0.000000 0.000000
0.605760 0.000000 0.000000
0.621201 0.000000 0.000000
0.641851 0.000000 0.000000
0.656250 0.000000 0.000000
0.675858 0.000000 0.000000
0.691299 0.000000 0.000000
0.712194 0.000000 0.000000
0.724510 0.000000 0.000000
0.741483 0.000000 0.000000
0.756250 0.000000 0.000000
0.769240 0.000000 0.000000
0.785539 0.000000 0.000000
0.798223 0.000000 0.000000
0.810907 0.000000 0.000000
0.829350 0.000000 0.000000
0.844118 0.000000 0.000000
0.858762 0.000000 0.000000
0.867402 0.000000 0.000000
0.882169 0.000000 0.000000
0.900612 0.000000 0.000000
0.913113 0.000000 0.000000
0.928554 0.000000 0.000000
0.944240 0.000000 0.000000
0.956005 0.000000 0.000000
0.971446 0.000000 0.000000
0.984559 0.000000 0.000000
0.998652 0.000000 0.000000
1.000000 0.000000 0.000000
1.000000 0.000000 0.000000
1.000000 0.000000 0.000000
1.000000 0.000000 0.000000
1.000000 0.000000 0.000000
0.006679 0.014522 0.000000
0.019362 0.017524 0.000000
0.025367 0.014522 0.000000
0.034130 0.014522 0.000000
0.045404 0.014522 0.000000
0.056250 0.012439 0.000000
0.065931 0.014522 0.000000
0.079534 0.014522 0.000000
0.097059 0.014522 0.000000
0.117340 0.010601 0.000000
0.130699 0.006495 0.000000
0.153554 0.001655 0.000000
0.173836 0.000000 0.000000
0.201960 0.000000 0.000000
0.218995 0.000000 0.000000
0.243382 0.000000 0.000000
0.267647 0.000000 0.000000
0.293934 0.000000 0.000000
0.314277 0.000000 0.000000
0.337500 0.000000 0.000000
0.359865 0.000000 0.000000
0.383395 0.000000 0.000000
0.401838 0.000000 0.000000
0.420282 0.000000 0.000000
0.442647 0.000000 0.000000
0.465013 0.000000 0.000000
0.485846 0.000000 0.000000
0.501899 0.000000 0.000000
0.520343 0.000000 0.000000
0.538419 0.000000 0.000000
0.557108 0.000000 0.000000
0.571752 0.000000 0.000000
0.592156 0.000000 0.000000
0.608517 0.000000 0.000000
0.623406 0.000000 0.000000
0.642770 0.000000 0.000000
0.661091 0.000000 0.000000
0.675858 0.000000 0.000000
0.696936 0.000000 0.000000
0.710907 0.000000 0.000000
0.728431 0.000000 0.000000
0.742034 0.000000 0.000000
0.756250 0.000000 0.000000
0.775612 0.000000 0.000000
0.782843 0.000000 0.000000
0.800368 0.000000 0.000000
0.813664 0.000000 0.000000
0.831434 0.000000 0.000000
0.844118 0.000000 0.000000
0.857536 0.000000 0.000000
0.869485 0.000000 0.000000
0.887072 0.000000 0.000000
0.899510 0.000000 0.000000
0.915380 0.000000 0.000000
0.930637 0.000000 0.000000
0.940747 0.000000 0.000000
0.955086 0.000000 0.000000
0.972794 0.000000 0.000000
0.986213 0.000000 0.000000
0.999326 0.000000 0.000000
1.000000 0.000000 0.000000
1.000000 0.000000 0.000000
1.000000 0.000000 0.000000
1.000000 0.000000 0.000000
1.000000 0.000000 0.000000
0.011765 0.019363 0.000000
0.023284 0.022366 0.000000
0.029289 0.019608 0.000000
0.037807 0.024203 0.000000
0.046569 0.023284 0.000000
0.059252 0.026287 0.000000
0.069853 0.023284 0.000000
0.083456 0.020772 0.000000
0.100490 0.022794 0.000000
0.118259 0.018933 0.000000
0.139706 0.015441 0.000000
0.155821 0.009252 0.000000
0.181863 0.004412 0.000000
0.200551 0.000000 0.000000
0.229411 0.000000 0.000000
0.249203 0.000000 0.000000
0.271569 0.000000 0.000000
0.297610 0.000000 0.000000
0.319363 0.000000 0.000000
0.342341 0.000000 0.000000
0.362255 0.000000 0.000000
0.383456 0.000000 0.000000
0.405147 0.000000 0.000000
0.424204 0.000000 0.000000
0.447794 0.000000 0.000000
0.468688 0.000000 0.000000
0.490686 0.000000 0.000000
0.504534 0.000000 0.000000
0.523775 0.000000 0.000000
0.542708 0.000000 0.000000
0.560784 0.000000 0.000000
0.578309 0.000000 0.000000
0.592156 0.000000 0.000000
0.609682 0.000000 0.000000
0.623406 0.000000 0.000000
0.640809 0.000000 0.000000
0.662255 0.000000 0.000000
0.679780 0.000000 0.000000
0.697304 0.000000 0.000000
0.710907 0.000000 0.000000
0.728431 0.000000 0.000000
0.747243 0.000000 0.000000
0.760171 0.000000 0.000000
0.773162 0.000000 0.000000
0.789461 0.000000 0.000000
0.800368 0.000000 0.000000
0.817647 0.000000 0.000000
0.831434 0.000000 0.000000
0.842157 0.000000 0.000000
0.856802 0.000000 0.000000
0.872304 0.000000 0.000000
0.886152 0.000000 0.000000
0.899510 0.000000 0.000000
0.913357 0.000000 0.000000
0.926961 0.000000 0.000000
0.944240 0.000000 0.000000
0.961030 0.000000 0.000000
0.971446 0.000000 0.000000
0.985049 0.000000 0.000000
0.998652 0.000000 0.000000
1.000000 0.000000 0.000000
1.000000 0.000000 0.000000
1.000000 0.000000 0.000000
1.000000 0.000000 0.000000
1.000000 0.000000 0.000000
0.016360 0.028799 0.000000
0.025122 0.028554 0.000000
0.033211 0.028799 0.000000
0.041483 0.034805 0.000000
0.047487 0.029473 0.000000
0.060846 0.032721 0.000000
0.071201 0.032721 0.000000
0.087316 0.029473 0.000000
0.105576 0.029289 0.000000
0.124449 0.028799 0.000000
0.141973 0.023529 0.000000
0.165687 0.018689 0.000000
0.191299 0.016360 0.000000
0.210417 0.005086 0.000000
0.231679 0.000000 0.000000
0.255024 0.000000 0.000000
0.280760 0.000000 0.000000
0.306373 0.000000 0.000000
0.324817 0.000000 0.000000
0.346078 0.000000 0.000000
0.369547 0.000000 0.000000
0.388296 0.000000 0.000000
0.410355 0.000000 0.000000
0.431189 0.000000 0.000000
0.452635 0.000000 0.000000
0.470159 0.000000 0.000000
0.491605 0.000000 0.000000
0.509130 0.000000 0.000000
0.526655 0.000000 0.000000
0.548100 0.000000 0.000000
0.566177 0.000000 0.000000
0.579902 0.000000 0.000000
0.595466 0.000000 0.000000
0.612071 0.000000 0.000000
0.631128 0.000000 0.000000
0.646078 0.000000 0.000000
0.665319 0.000000 0.000000
0.684375 0.000000 0.000000
0.701900 0.000000 0.000000
0.715503 0.000000 0.000000
0.728982 0.000000 0.000000
0.747304 0.000000 0.000000
0.761519 0.000000 0.000000
0.774510 0.000000 0.000000
0.791360 0.000000 0.000000
0.801715 0.000000 0.000000
0.818566 0.000000 0.000000
0.832782 0.000000 0.000000
0.845772 0.000000 0.000000
0.861274 0.000000 0.000000
0.870833 0.000000 0.000000
0.883516 0.000000 0.000000
0.900122 0.000000 0.000000
0.913787 0.000000 0.000000
0.931311 0.000000 0.000000
0.944915 0.000000 0.000000
0.958701 0.000000 0.000000
0.968137 0.000000 0.000000
0.988051 0.000000 0.000000
0.990257 0.000000 0.000000
1.000000 0.000000 0.000000
1.000000 0.000000 0.000000
1.000000 0.000000 0.000000
1.000000 0.000000 0.000000
1.000000 0.000000 0.000000
0.021936 0.043137 0.000000
0.028370 0.041728 0.000000
0.036887 0.044730 0.000000
0.045895 0.047487 0.000000
0.054657 0.044730 0.000000
0.068260 0.049571 0.000000
0.077696 0.046323 0.000000
0.090380 0.046323 0.000000
0.114583 0.046323 0.000000
0.136948 0.047487 0.000000
0.153064 0.041054 0.000000
0.175429 0.034559 0.000000
0.201716 0.031373 0.000000
0.225490 0.022610 0.000000
0.246936 0.009926 0.000000
0.268382 -0.000858 0.000000
0.289829 0.000000 0.000000
0.311275 0.000000 0.000000
0.334314 0.000000 0.000000
0.354167 0.000000 0.000000
0.375612 0.000000 0.000000
0.399081 0.000000 0.000000
0.418505 0.000000 0.000000
0.438358 0.000000 0.000000
0.457475 0.000000 0.000000
0.477328 0.000000 0.000000
0.500000 0.000000 0.000000
0.517892 0.000000 0.000000
0.533824 0.000000 0.000000
0.552941 0.000000 0.000000
0.568872 0.000000 0.000000
0.586397 0.000000 0.000000
0.603921 0.000000 0.000000
0.621446 0.000000 0.000000
0.636642 0.000000 0.000000
0.654166 0.000000 0.000000
0.675735 0.000000 0.000000
0.691545 0.000000 0.000000
0.706740 0.000000 0.000000
0.724265 0.000000 0.000000
0.737745 0.000000 0.000000
0.753003 0.000000 0.000000
0.771324 0.000000 0.000000
0.779718 0.000000 0.000000
0.796201 0.000000 0.000000
0.809988 0.000000 0.000000
0.823407 0.000000 0.000000
0.840871 0.000000 0.000000
0.853554 0.000000 0.000000
0.866544 0.000000 0.000000
0.882475 0.000000 0.000000
0.893750 0.000000 0.000000
0.908210 0.000000 0.000000
0.920956 0.000000 0.000000
0.933579 0.000000 0.000000
0.953983 0.000000 0.000000
0.965196 0.000000 0.000000
0.977696 0.000000 0.000000
0.990564 0.000000 0.000000
1.000000 0.000000 0.000000
1.000000 0.000000 0.000000
1.000000 0.000000 0.000000
1.000000 0.000000 0.000000
1.000000 0.000000 0.000000
1.000000 0.000000 0.000000
0.022120 0.056005 0.000000
0.030882 0.054412 0.000000
0.036459 0.055331 0.000000
0.045650 0.059926 0.000000
0.058334 0.059926 0.000000
0.067341 0.059926 0.000000
0.080024 0.062255 0.000000
0.095220 0.059926 0.000000
0.115257 0.063848 0.000000
0.134191 0.059926 0.000000
0.154473 0.057415 0.000000
0.179351 0.056005 0.000000
0.201042 0.052083 0.000000
0.224080 0.042647 0.000000
0.251777 0.036704 0.000000
0.272733 0.023100 0.000000
0.294669 0.005147 0.000000
0.316115 -0.001348 0.000000
0.338419 0.000000 0.000000
0.362929 0.000000 0.000000
0.383149 0.000000 0.000000
0.400797 0.000000 0.000000
0.424755 0.000000 0.000000
0.444792 0.000000 0.000000
0.462255 0.000000 0.000000
0.483763 0.000000 0.000000
0.505209 0.000000 0.000000
0.522733 0.000000 0.000000
0.541973 0.000000 0.000000
0.557782 0.000000 0.000000
0.572794 0.000000 0.000000
0.590318 0.000000 0.000000
0.607843 0.000000 0.000000
0.625368 0.000000 0.000000
0.642892 0.000000 0.000000
0.662929 0.000000 0.000000
0.677941 0.000000 0.000000
0.695466 0.000000 0.000000
0.711582 0.000000 0.000000
0.732476 0.000000 0.000000
0.741605 0.000000 0.000000
0.757720 0.000000 0.000000
0.775245 0.000000 0.000000
0.788541 0.000000 0.000000
0.798529 0.000000 0.000000
0.812132 0.000000 0.000000
0.825184 0.000000 0.000000
0.841790 0.000000 0.000000
0.857415 0.000000 0.000000
0.866544 0.000000 0.000000
0.879841 0.000000 0.000000
0.893934 0.000000 0.000000
0.914828 0.000000 0.000000
0.920956 0.000000 0.000000
0.934498 0.000000 0.000000
0.952083 0.000000 0.000000
0.965196 0.000000 0.000000
0.980393 0.000000 0.000000
0.993076 0.000000 0.000000
1.000000 0.000000 0.000000
1.000000 0.000000 0.000000
1.000000 0.000000 0.000000
1.000000 0.000000 0.000000
1.000000 0.000000 0.000000
1.000000 0.000000 0.000000
0.020098 0.069608 0.000000
0.031373 0.073530 0.000000
0.037132 0.073530 0.000000
0.045895 0.073530 0.000000
0.054657 0.073530 0.000000
0.067341 0.077451 0.000000
0.083456 0.077451 0.000000
0.095220 0.077451 0.000000
0.113235 0.077941 0.000000
0.134191 0.077451 0.000000
0.159069 0.079534 0.000000
0.179351 0.076961 0.000000
0.205637 0.073775 0.000000
0.228002 0.065196 0.000000
0.253799 0.060172 0.000000
0.278064 0.056250 0.000000
0.299020 0.038726 0.000000
0.324816 0.025123 0.000000
0.350245 0.003432 0.000000
0.369547 0.000000 0.000000
0.392647 0.000000 0.000000
0.410662 0.000000 0.000000
0.429289 0.000000 0.000000
0.453554 0.000000 0.000000
0.471079 0.000000 0.000000
0.492525 0.000000 0.000000
0.510539 0.000000 0.000000
0.528063 0.000000 0.000000
0.545588 0.000000 0.000000
0.563113 0.000000 0.000000
0.580637 0.000000 0.000000
0.597672 0.000000 0.000000
0.611764 0.000000 0.000000
0.633272 0.000000 0.000000
0.650245 0.000000 0.000000
0.667770 0.000000 0.000000
0.685294 0.000000 0.000000
0.702818 0.000000 0.000000
0.720466 0.000000 0.000000
0.730515 0.000000 0.000000
0.745588 0.000000 0.000000
0.762684 0.000000 0.000000
0.775858 0.000000 0.000000
0.791972 0.000000 0.000000
0.804656 0.000000 0.000000
0.816054 0.000000 0.000000
0.830025 0.000000 0.000000
0.843260 0.000000 0.000000
0.859313 0.000000 0.000000
0.871998 0.000000 0.000000
0.884069 0.000000 0.000000
0.897855 0.000000 0.000000
0.911275 0.000000 0.000000
0.921446 0.000000 0.000000
0.938480 0.000000 0.000000
0.952512 0.000000 0.000000
0.965196 0.000000 0.000000
0.981801 0.000000 0.000000
0.994485 0.000000 0.000000
1.000000 0.000000 0.000000
1.000000 0.000000 0.000000
0.997242 0.000000 0.000000
1.000000 0.000000 0.000000
1.000000 0.000000 0.000000
1.000000 0.000000 0.000000
0.019179 0.087133 0.000000
0.028431 0.091544 0.000000
0.033211 0.087562 0.000000
0.041973 0.091054 0.000000
0.054227 0.091054 0.000000
0.066667 0.094302 0.000000
0.081188 0.094976 0.000000
0.097303 0.094976 0.000000
0.112745 0.091974 0.000000
0.134191 0.098897 0.000000
0.156985 0.100245 0.000000
0.182844 0.098897 0.000000
0.205637 0.095405 0.000000
0.231924 0.091483 0.000000
0.253615 0.086459 0.000000
0.280576 0.081618 0.000000
0.303371 0.072855 0.000000
0.325796 0.064522 0.000000
0.355515 0.051838 0.000000
0.376532 0.037806 0.000000
0.400245 0.012868 0.000000
0.418995 -0.008271 0.000000
0.437377 0.000000 0.000000
0.458395 0.000000 0.000000
0.481863 0.000000 0.000000
0.497365 0.000000 0.000000
0.518382 0.000000 0.000000
0.532414 0.000000 0.000000
0.552144 0.000000 0.000000
0.574081 0.000000 0.000000
0.588358 0.000000 0.000000
0.602083 0.000000 0.000000
0.619607 0.000000 0.000000
0.641054 0.000000 0.000000
0.655087 0.000000 0.000000
0.672610 0.000000 0.000000
0.690135 0.000000 0.000000
0.705025 0.000000 0.000000
0.721263 0.000000 0.000000
0.734865 0.000000 0.000000
0.753432 0.000000 0.000000
0.763602 0.000000 0.000000
0.783089 0.000000 0.000000
0.792770 0.000000 0.000000
0.806373 0.000000 0.000000
0.819975 0.000000 0.000000
0.833578 0.000000 0.000000
0.843321 0.000000 0.000000
0.859804 0.000000 0.000000
0.874387 0.000000 0.000000
0.885600 0.000000 0.000000
0.901593 0.000000 0.000000
0.914460 0.000000 0.000000
0.925307 0.000000 0.000000
0.942402 0.000000 0.000000
0.952942 0.000000 0.000000
0.966115 0.000000 0.000000
0.983211 0.000000 0.000000
0.990992 0.000000 0.000000
1.000000 0.000000 0.000000
1.000000 0.000000 0.000000
1.000000 0.000000 0.000000
1.000000 0.000000 0.000000
1.000000 0.000000 0.000000
1.000000 0.000000 0.000000
0.010417 0.104657 0.000000
0.016605 0.106005 0.000000
0.029780 0.110416 0.000000
0.036703 0.108578 0.000000
0.046814 0.108578 0.000000
0.062071 0.111152 0.000000
0.076103 0.112500 0.000000
0.096384 0.115013 0.000000
0.112745 0.113848 0.000000
0.133272 0.116850 0.000000
0.156985 0.121691 0.000000
0.181617 0.121691 0.000000
0.205637 0.118505 0.000000
0.231924 0.117585 0.000000
0.255392 0.113848 0.000000
0.284497 0.109252 0.000000
0.309437 0.103064 0.000000
0.329289 0.094302 0.000000
0.356372 0.086397 0.000000
0.381802 0.080699 0.000000
0.405515 0.069363 0.000000
0.424264 0.047917 0.000000
0.448284 0.027206 0.000000
0.465809 0.003493 0.000000
0.484681 0.000000 0.000000
0.502206 0.000000 0.000000
0.523652 0.000000 0.000000
0.539828 0.000000 0.000000
0.556495 0.000000 0.000000
0.578002 0.000000 0.000000
0.589828 0.000000 0.000000
0.607353 0.000000 0.000000
0.626838 0.000000 0.000000
0.646324 0.000000 0.000000
0.660049 0.000000 0.000000
0.681372 0.000000 0.000000
0.694975 0.000000 0.000000
0.712500 0.000000 0.000000
0.728677 0.000000 0.000000
0.742279 0.000000 0.000000
0.755882 0.000000 0.000000
0.771017 0.000000 0.000000
0.781128 0.000000 0.000000
0.796384 0.000000 0.000000
0.810416 0.000000 0.000000
0.823897 0.000000 0.000000
0.834436 0.000000 0.000000
0.847182 0.000000 0.000000
0.863726 0.000000 0.000000
0.876961 0.000000 0.000000
0.890564 0.000000 0.000000
0.901777 0.000000 0.000000
0.913848 0.000000 0.000000
0.928799 0.000000 0.000000
0.942401 0.000000 0.000000
0.956005 0.000000 0.000000
0.968259 0.000000 0.000000
0.981863 0.000000 0.000000
0.995466 0.000000 0.000000
1.000000 0.000000 0.000000
1.000000 0.000000 0.000000
1.000000 0.000000 0.000000
1.000000 0.000000 0.000000
1.000000 0.000000 0.000000
1.000000 0.000000 0.000000
0.000000 0.135600 0.000000
0.001226 0.134865 0.000000
0.015257 0.138296 0.000000
0.026777 0.136213 0.000000
0.044301 0.137867 0.000000
0.059498 0.137867 0.000000
0.076103 0.140196 0.000000
0.093811 0.140135 0.000000
0.113909 0.141789 0.000000
0.134620 0.142219 0.000000
0.156066 0.145711 0.000000
0.184926 0.149632 0.000000
0.206372 0.144792 0.000000
0.235845 0.147794 0.000000
0.259866 0.141789 0.000000
0.284252 0.136213 0.000000
0.311765 0.133272 0.000000
0.338726 0.130024 0.000000
0.359436 0.119669 0.000000
0.383946 0.113174 0.000000
0.408088 0.104412 0.000000
0.435723 0.099264 0.000000
0.454472 0.082966 0.000000
0.476654 0.068444 0.000000
0.493444 0.044608 0.000000
0.510969 0.018138 0.000000
0.532414 0.000000 0.000000
0.550919 0.000000 0.000000
0.563480 0.000000 0.000000
0.580209 0.000000 0.000000
0.600245 0.000000 0.000000
0.620037 0.000000 0.000000
0.637561 0.000000 0.000000
0.654473 0.000000 0.000000
0.676409 0.000000 0.000000
0.690135 0.000000 0.000000
0.705392 0.000000 0.000000
0.718628 0.000000 0.000000
0.733579 0.000000 0.000000
0.748468 0.000000 0.000000
0.764522 0.000000 0.000000
0.779596 0.000000 0.000000
0.793198 0.000000 0.000000
0.804535 0.000000 0.000000
0.819178 0.000000 0.000000
0.831863 0.000000 0.000000
0.845343 0.000000 0.000000
0.861091 0.000000 0.000000
0.868628 0.000000 0.000000
0.882598 0.000000 0.000000
0.898101 0.000000 0.000000
0.907966 0.000000 0.000000
0.922304 0.000000 0.000000
0.932721 0.000000 0.000000
0.948590 0.000000 0.000000
0.960355 0.000000 0.000000
0.975306 0.000000 0.000000
0.987133 0.000000 0.000000
0.998345 0.000000 0.000000
1.000000 0.000000 0.000000
1.000000 0.000000 0.000000
1.000000 0.000000 0.000000
1.000000 0.000000 0.000000
1.000000 0.000000 0.000000
1.000000 0.000000 0.000000
0.000000 0.151470 0.000000
0.000000 0.158578 0.000000
0.001226 0.154045 0.000000
0.015257 0.155392 0.000000
0.031618 0.154902 0.000000
0.049142 0.155392 0.000000
0.068260 0.156985 0.000000
0.086703 0.159313 0.000000
0.109069 0.162745 0.000000
0.127513 0.163235 0.000000
0.155637 0.168994 0.000000
0.176164 0.167156 0.000000
0.205637 0.170343 0.000000
0.228739 0.167156 0.000000
0.258211 0.169239 0.000000
0.284497 0.167586 0.000000
0.307598 0.159558 0.000000
0.337071 0.158578 0.000000
0.361764 0.155392 0.000000
0.382536 0.142892 0.000000
0.408088 0.139460 0.000000
0.430025 0.130698 0.000000
0.456740 0.122549 0.000000
0.480760 0.118015 0.000000
0.502206 0.104411 0.000000
0.518995 0.086152 0.000000
0.537255 0.066789 0.000000
0.557414 0.040502 0.000000
0.574020 0.012745 0.000000
0.593014 0.000000 0.000000
0.614461 0.000000 0.000000
0.626654 0.000000 0.000000
0.646323 0.000000 0.000000
0.668076 0.000000 0.000000
0.681373 0.000000 0.000000
0.695711 0.000000 0.000000
0.714706 0.000000 0.000000
0.730576 0.000000 0.000000
0.740808 0.000000 0.000000
0.757231 0.000000 0.000000
0.773284 0.000000 0.000000
0.781250 0.000000 0.000000
0.797917 0.000000 0.000000
0.812071 0.000000 0.000000
0.822059 0.000000 0.000000
0.836704 0.000000 0.000000
0.848529 0.000000 0.000000
0.858947 0.000000 0.000000
0.874754 0.000000 0.000000
0.887439 0.000000 0.000000
0.899755 0.000000 0.000000
0.913357 0.000000 0.000000
0.926225 0.000000 0.000000
0.936642 0.000000 0.000000
0.951593 0.000000 0.000000
0.963542 0.000000 0.000000
0.980148 0.000000 0.000000
0.987868 0.000000 0.000000
0.998407 0.000000 0.000000
1.000000 0.000000 0.000000
1.000000 0.000000 0.000000
1.000000 0.000000 0.000000
1.000000 0.000000 0.000000
1.000000 0.000000 0.000000
1.000000 0.000000 0.000000
0.000000 0.172917 0.000000
0.000000 0.176103 0.000000
0.000000 0.175184 0.000000
0.000000 0.180760 0.000000
0.022426 0.177022 0.000000
0.041544 0.177513 0.000000
0.063236 0.178432 0.000000
0.082047 0.179535 0.000000
0.100981 0.184191 0.000000
0.126593 0.184682 0.000000
0.148958 0.184682 0.000000
0.173591 0.190686 0.000000
0.194607 0.185600 0.000000
0.223897 0.188786 0.000000
0.255208 0.193628 0.000000
0.278554 0.188786 0.000000
0.303126 0.188786 0.000000
0.332966 0.184865 0.000000
0.355698 0.177206 0.000000
0.385723 0.175246 0.000000
0.414522 0.169362 0.000000
0.427023 0.165257 0.000000
0.456740 0.156985 0.000000
0.482843 0.151960 0.000000
0.499204 0.143383 0.000000
0.527758 0.137990 0.000000
0.546017 0.122304 0.000000
0.561091 0.109620 0.000000
0.581250 0.093199 0.000000
0.599570 0.077390 0.000000
0.620221 0.052451 0.000000
0.641483 0.026348 0.000000
0.660784 -0.003677 0.000000
0.676348 -0.010600 0.000000
0.693750 0.000000 0.000000
0.703125 0.000000 0.000000
0.719546 0.000000 0.000000
0.734865 0.000000 0.000000
0.752206 0.000000 0.000000
