Color/Polaroid/Polaroid 690 1 -- 65x.cube
TITLE "Polaroid 690 1 --"
LUT_3D_SIZE 5
DOMAIN_MIN 0.000000 0.000000 0.000000
DOMAIN_MAX 1.000000 1.000000 1.000000
0.000000 0.000000 0.000000
0.154902 0.000000 0.000000
0.490197 0.000000 0.000000
0.802941 0.000000 0.000000
1.000000 0.000000 0.000000
0.000000 0.180392 0.000000
0.186274 0.205882 0.000000
0.609804 0.169608 0.000000
0.873529 0.000000 0.000000
1.000000 0.000000 0.000000
0.000000 0.509804 0.000000
0.000000 0.505883 0.000000
0.549019 0.556863 0.000000
0.896079 0.578431 0.000000
1.000000 0.584314 0.000000
0.000000 0.755882 0.000000
0.188235 0.750981 0.000000
0.539216 0.757843 0.000000
0.846078 0.778432 0.000000
1.000000 0.800981 0.000000
0.533333 0.976471 0.164706
0.588235 0.973530 0.138235
0.715687 0.972549 0.000000
0.878431 0.983334 0.000000
1.000000 0.996078 0.000000
0.000000 0.007843 0.181373
0.177451 0.000000 0.208824
0.489216 0.000000 0.158823
0.750980 0.000000 0.133333
1.000000 0.000000 0.055883
0.000000 0.197059 0.204902
0.220588 0.223529 0.228432
0.567647 0.137255 0.190196
0.832353 0.000000 0.134314
1.000000 0.000000 0.065686
0.000000 0.543137 0.207843
0.148039 0.537254 0.186275
0.572549 0.568628 0.143137
0.897059 0.588235 0.202941
1.000000 0.565686 0.176470
0.000000 0.766667 0.150980
0.242157 0.761764 0.124510
0.546079 0.756863 0.024510
0.847059 0.782353 0.000000
1.000000 0.801961 0.160784
0.518628 0.976471 0.332353
0.572549 0.973530 0.320588
0.707843 0.973529 0.268627
0.867647 0.980392 0.221568
1.000000 0.996078 0.011764
0.000000 0.007843 0.560785
0.000000 0.000000 0.592156
0.605882 0.000000 0.637255
0.802941 0.000000 0.495098
1.000000 0.000000 0.460784
0.000000 0.212745 0.557843
0.187255 0.238235 0.593137
0.622549 0.258823 0.641177
0.812745 0.172549 0.513726
1.000000 0.000000 0.451961
0.000000 0.556863 0.578431
0.253922 0.572549 0.594117
0.607843 0.603921 0.627451
0.849020 0.506863 0.538235
1.000000 0.415686 0.439216
0.201961 0.793137 0.581373
0.342157 0.792157 0.575490
0.568628 0.774510 0.535294
0.845098 0.790196 0.536274
1.000000 0.808823 0.611765
0.492157 0.978432 0.609804
0.542156 0.976471 0.600000
0.670588 0.976471 0.564705
0.845098 0.981372 0.529411
1.000000 0.994117 0.513726
0.000000 0.048039 0.844118
0.174510 0.027451 0.853921
0.612745 0.000000 0.878431
0.910784 0.125491 0.887255
1.000000 0.171568 0.817647
0.000000 0.259804 0.836275
0.259804 0.268627 0.844118
0.629412 0.310785 0.872549
0.900000 0.377451 0.886275
1.000000 0.338235 0.815686
0.000000 0.498039 0.784314
0.191176 0.517648 0.801961
0.600000 0.581373 0.842157
0.868628 0.648039 0.873529
1.000000 0.558824 0.798039
0.335294 0.786275 0.821569
0.445098 0.790196 0.828432
0.648039 0.794118 0.837255
0.855883 0.820588 0.867647
1.000000 0.740196 0.787255
0.604902 0.980392 0.859804
0.633334 0.978432 0.857843
0.700000 0.981373 0.848039
0.813726 0.984314 0.813726
1.000000 0.999019 0.817647
0.478431 0.317647 1.000000
0.555883 0.322549 1.000000
0.727451 0.356863 1.000000
0.902941 0.444117 1.000000
1.000000 0.541176 1.000000
0.497059 0.440196 1.000000
0.567647 0.446079 1.000000
0.727451 0.476470 1.000000
0.895098 0.548039 1.000000
1.000000 0.609804 1.000000
0.474510 0.627451 0.992157
0.551961 0.631373 0.992157
0.715687 0.654902 0.994117
0.883333 0.697059 0.994117
1.000000 0.733333 0.996078
0.482353 0.798039 0.980392
0.530392 0.797059 0.986275
0.646078 0.785294 0.984314
0.864706 0.817647 0.988235
1.000000 0.867647 0.988235
0.690196 0.984314 0.980392
0.713726 0.984314 0.980392
0.776471 0.986274 0.982353
0.875490 0.989216 0.981372
1.000000 1.000000 0.988235
