Color/Polaroid/Polaroid Polachrome 65x.cube
TITLE "Polaroid Polachrome"
LUT_3D_SIZE 5
DOMAIN_MIN 0.000000 0.000000 0.000000
DOMAIN_MAX 1.000000 1.000000 1.000000
0.000000 0.000000 0.000000
0.093137 0.003922 0.003922
0.366667 0.050980 0.045098
0.684314 0.133333 0.125490
0.866667 0.176471 0.168627
0.073529 0.147059 0.035294
0.162745 0.166666 0.057844
0.442157 0.219608 0.115686
0.711765 0.264706 0.165686
0.882353 0.273529 0.188235
0.100000 0.450981 0.119608
0.227451 0.469608 0.133333
0.523529 0.517648 0.170588
0.747059 0.552941 0.200000
0.909804 0.568628 0.203922
0.300000 0.672549 0.244118
0.407844 0.690197 0.256863
0.587255 0.718627 0.283334
0.773529 0.753922 0.295098
0.925490 0.781373 0.271568
0.494118 0.854902 0.407843
0.536274 0.858824 0.411765
0.649020 0.880392 0.427451
0.800981 0.909804 0.431373
0.952941 0.945098 0.384314
0.003922 0.003922 0.116667
0.174510 0.022549 0.154902
0.452941 0.084314 0.212745
0.703922 0.137255 0.250000
0.870588 0.172549 0.257844
0.119608 0.190196 0.198039
0.221568 0.213725 0.224510
0.493137 0.264706 0.276470
0.719608 0.296078 0.311765
0.878431 0.300000 0.307843
0.159804 0.474510 0.290196
0.294118 0.490197 0.306863
0.542157 0.533334 0.349020
0.742156 0.567647 0.372549
0.898039 0.584313 0.366666
0.368627 0.680392 0.418627
0.446078 0.692157 0.430392
0.592156 0.718628 0.453922
0.761764 0.750000 0.470588
0.905882 0.773529 0.457843
0.513726 0.854902 0.520588
0.551961 0.862745 0.528431
0.652941 0.878431 0.542157
0.793137 0.905882 0.558823
0.933333 0.933333 0.550980
0.027451 0.011765 0.356862
0.252941 0.056863 0.406863
0.501961 0.113725 0.460784
0.700000 0.150981 0.494117
0.849020 0.168627 0.496078
0.189216 0.262745 0.454902
0.321569 0.286274 0.481373
0.537254 0.326471 0.529411
0.718628 0.349019 0.563725
0.858824 0.346079 0.580392
0.339216 0.521568 0.533334
0.426471 0.534314 0.549019
0.576470 0.560785 0.580392
0.740196 0.590196 0.607843
0.870588 0.603921 0.625490
0.477451 0.702941 0.606863
0.521569 0.710784 0.614706
0.629412 0.730392 0.634314
0.766667 0.754902 0.657843
0.889216 0.773529 0.672549
0.576471 0.866667 0.668627
0.605882 0.873530 0.672549
0.684314 0.886275 0.688236
0.797058 0.909804 0.703921
0.925490 0.933333 0.715687
0.216666 0.118627 0.577451
0.420588 0.165686 0.624510
0.571568 0.197059 0.659804
0.723530 0.216666 0.695098
0.843137 0.212745 0.714706
0.403922 0.406863 0.650980
0.482353 0.422549 0.667647
0.605882 0.446078 0.695098
0.747059 0.461765 0.726471
0.858824 0.453922 0.750000
0.504902 0.590196 0.702941
0.544118 0.596079 0.713726
0.643138 0.615687 0.734314
0.766667 0.637255 0.758824
0.872549 0.649020 0.777451
0.590196 0.739216 0.753922
0.619608 0.746079 0.757843
0.693137 0.758824 0.773529
0.793137 0.777451 0.793137
0.891177 0.793137 0.812745
0.667647 0.895098 0.797058
0.687255 0.899020 0.800981
0.739215 0.909804 0.812745
0.820588 0.926471 0.828432
0.941176 0.952941 0.848039
0.423529 0.282353 0.713726
0.540196 0.309804 0.741176
0.641177 0.329412 0.768627
0.761764 0.345098 0.796078
0.858824 0.329412 0.819608
0.540196 0.512745 0.763726
0.583333 0.524510 0.775491
0.672549 0.542157 0.796078
0.781372 0.559804 0.819608
0.874510 0.563725 0.839216
0.617647 0.652941 0.805883
0.646079 0.660784 0.811765
0.711765 0.674509 0.827451
0.800981 0.692157 0.849020
0.886275 0.700000 0.866667
0.695098 0.781373 0.851961
0.713726 0.785294 0.855882
0.760784 0.793137 0.867647
0.828432 0.808823 0.886275
0.913725 0.823529 0.902941
0.764706 0.933333 0.917647
0.772549 0.937255 0.921569
0.805883 0.945098 0.933333
0.863726 0.960784 0.952941
1.000000 0.996078 0.996078
