Color/Polaroid/Polaroid 669 Cold 1 -- 65x.cube
TITLE "Polaroid 669 Cold 1 --"
LUT_3D_SIZE 5
DOMAIN_MIN 0.000000 0.000000 0.000000
DOMAIN_MAX 1.000000 1.000000 1.000000
0.000000 0.000000 0.000000
0.068627 0.074510 0.050980
0.364706 0.121569 0.150981
0.650000 0.157843 0.272549
0.905882 0.262745 0.396078
0.000000 0.232353 0.152941
0.078431 0.246078 0.163725
0.445098 0.260784 0.263726
0.688235 0.272549 0.335294
0.909803 0.358823 0.428432
0.023529 0.417647 0.325491
0.194117 0.413725 0.331372
0.456863 0.437255 0.337255
0.708824 0.476471 0.405882
0.909803 0.596078 0.525490
0.269608 0.629412 0.422549
0.323530 0.620589 0.421569
0.465686 0.630392 0.423529
0.661765 0.675490 0.430392
0.871568 0.775490 0.534313
0.513726 0.972549 0.647059
0.542156 0.969607 0.648039
0.619608 0.968627 0.650980
0.777451 0.983334 0.690196
0.964706 0.992157 0.760784
0.000000 0.066667 0.229412
0.000000 0.123529 0.272549
0.371569 0.186275 0.338235
0.636275 0.203922 0.384314
0.881373 0.262745 0.450000
0.000000 0.260784 0.334314
0.079412 0.268627 0.362745
0.440196 0.285295 0.397059
0.675490 0.293137 0.423529
0.898039 0.362745 0.485294
0.156863 0.459804 0.434314
0.264706 0.452941 0.434314
0.482353 0.462746 0.434314
0.717647 0.506863 0.495098
0.901960 0.596078 0.572549
0.297059 0.660784 0.487255
0.350980 0.656863 0.486275
0.473529 0.647059 0.481373
0.668628 0.692157 0.488236
0.873529 0.790196 0.589216
0.517647 0.972549 0.674510
0.546079 0.972549 0.675490
0.621568 0.972549 0.678431
0.773529 0.980392 0.706863
0.964706 0.992157 0.775491
0.000000 0.178431 0.492157
0.000000 0.202941 0.518628
0.421569 0.256863 0.576470
0.690196 0.318628 0.616667
0.901961 0.368627 0.647058
0.000000 0.326471 0.542157
0.004902 0.322549 0.571569
0.484314 0.356863 0.614706
0.708823 0.403921 0.644118
0.902941 0.419608 0.650980
0.152941 0.517647 0.617647
0.315686 0.531373 0.634314
0.541176 0.547059 0.662745
0.716667 0.547059 0.655882
0.892157 0.592157 0.670588
0.316667 0.750000 0.644118
0.386274 0.754902 0.651961
0.512745 0.722549 0.646078
0.684314 0.742157 0.639216
0.878431 0.834314 0.730392
0.529412 0.982353 0.754902
0.556863 0.980392 0.754902
0.625490 0.980392 0.749020
0.765686 0.984314 0.759804
0.964706 0.992157 0.811765
0.000000 0.302941 0.757843
0.000000 0.298039 0.768627
0.444118 0.342156 0.796078
0.738235 0.441177 0.821569
0.894118 0.597059 0.848039
0.000000 0.409804 0.770588
0.000000 0.396078 0.780392
0.493137 0.434314 0.810784
0.744118 0.538235 0.833333
0.888235 0.666667 0.853922
0.071569 0.582353 0.763725
0.296078 0.596079 0.779412
0.529411 0.609804 0.814706
0.740196 0.704902 0.842157
0.875490 0.788235 0.864706
0.350980 0.816667 0.814706
0.420588 0.825490 0.821569
0.557843 0.831373 0.829412
0.735294 0.857843 0.852941
0.883333 0.861765 0.849020
0.612745 0.996078 0.867647
0.629412 0.998039 0.867647
0.672549 0.996078 0.862745
0.769607 0.989216 0.855883
0.976471 0.996078 0.882353
0.098039 0.513726 0.949020
0.261765 0.502941 0.952941
0.560785 0.562745 0.956863
0.777451 0.699019 0.953922
0.909804 0.819608 0.956863
0.289216 0.606863 0.948039
0.372549 0.600981 0.949020
0.571569 0.629412 0.952941
0.777451 0.745098 0.955882
0.905882 0.848039 0.956863
0.372549 0.768628 0.937255
0.440196 0.766667 0.939215
0.576470 0.756862 0.949020
0.771568 0.830392 0.952941
0.911764 0.905882 0.962745
0.393137 0.923530 0.937255
0.434314 0.923530 0.937255
0.542157 0.915686 0.941176
0.755882 0.919608 0.957843
0.938235 0.961765 0.973530
0.729412 1.000000 0.972549
0.745098 1.000000 0.976471
0.792157 1.000000 0.978432
0.871568 1.000000 0.984314
0.996078 1.000000 1.000000
