Color/Polaroid/Polaroid PX-680 Cold 1 -- 65x.cube
TITLE "Polaroid PX-680 Cold 1 --"
LUT_3D_SIZE 5
DOMAIN_MIN 0.000000 0.000000 0.000000
DOMAIN_MAX 1.000000 1.000000 1.000000
0.000000 0.000000 0.000000
0.166666 0.039216 0.019608
0.586275 0.068628 0.068628
0.849020 0.293137 0.197059
1.000000 0.505882 0.325490
0.000000 0.200000 0.065687
0.135294 0.233333 0.054902
0.591176 0.262745 0.053921
0.835295 0.383333 0.188236
1.000000 0.542157 0.312746
0.000000 0.492157 0.192157
0.000000 0.506863 0.211765
0.486274 0.550980 0.201961
0.793137 0.585294 0.196078
0.996078 0.629412 0.268628
0.000000 0.694117 0.288236
0.000000 0.700000 0.299019
0.408824 0.722549 0.314706
0.708823 0.767647 0.315687
0.973530 0.825490 0.334313
0.396078 0.952941 0.435294
0.450980 0.953922 0.444117
0.578431 0.960784 0.468627
0.761764 0.975490 0.482353
0.956863 0.992157 0.509804
0.000000 0.039216 0.241176
0.156863 0.104902 0.244118
0.583333 0.106863 0.302941
0.828432 0.415686 0.387255
1.000000 0.559804 0.429412
0.000000 0.236275 0.276470
0.227451 0.271569 0.306863
0.598040 0.352941 0.342157
0.823529 0.457843 0.371569
1.000000 0.585294 0.417647
0.000000 0.513726 0.332353
0.149019 0.523529 0.328431
0.525490 0.562745 0.340196
0.793137 0.586275 0.330392
0.993137 0.650980 0.375491
0.000000 0.700000 0.345098
0.156863 0.705882 0.353922
0.445098 0.727451 0.371569
0.721569 0.772549 0.377451
0.975491 0.825490 0.388235
0.404902 0.952941 0.450980
0.461765 0.953922 0.458824
0.589216 0.960784 0.485295
0.763725 0.972549 0.502941
0.960784 0.991177 0.536274
0.101961 0.176471 0.472549
0.376471 0.255883 0.480392
0.603921 0.415686 0.484314
0.807843 0.388235 0.496078
1.000000 0.554902 0.523529
0.140196 0.340196 0.475490
0.389215 0.376471 0.486274
0.618627 0.498039 0.491177
0.811765 0.484314 0.502941
1.000000 0.621568 0.534314
0.119608 0.525490 0.454902
0.340196 0.545098 0.464706
0.615687 0.596078 0.496078
0.812745 0.654902 0.511765
0.994117 0.727451 0.541176
0.306863 0.695098 0.450980
0.408824 0.709804 0.461765
0.532353 0.735294 0.468628
0.758824 0.786275 0.489216
0.991176 0.823529 0.492157
0.454902 0.950981 0.509804
0.482353 0.952941 0.507843
0.594118 0.960784 0.523529
0.774510 0.974510 0.563725
0.968627 0.988235 0.603922
0.472549 0.398039 0.620588
0.571568 0.442157 0.620588
0.734314 0.566667 0.624510
0.836274 0.668628 0.636275
0.972549 0.651960 0.656863
0.459804 0.469608 0.615686
0.560784 0.501961 0.619608
0.736274 0.611765 0.631373
0.839216 0.704902 0.644118
0.975491 0.688235 0.665686
0.267647 0.581373 0.581373
0.426470 0.595098 0.593137
0.686275 0.657843 0.624510
0.842157 0.767647 0.658824
0.985294 0.749019 0.678432
0.276471 0.704902 0.550981
0.371569 0.715687 0.559804
0.571568 0.739216 0.579412
0.828432 0.816667 0.656863
1.000000 0.871568 0.716667
0.342157 0.945098 0.600000
0.418627 0.950981 0.605882
0.594118 0.957843 0.625490
0.782353 0.976471 0.667647
0.988235 0.995098 0.753922
0.701961 0.686275 0.874510
0.738235 0.701961 0.871568
0.829412 0.752941 0.872549
0.922549 0.828432 0.870588
0.980392 0.870588 0.882353
0.693137 0.707843 0.877451
0.729412 0.721569 0.878431
0.825490 0.766666 0.877451
0.925491 0.843138 0.877451
0.980392 0.881373 0.889216
0.627451 0.752941 0.884314
0.664706 0.754902 0.889216
0.790196 0.794118 0.892157
0.920589 0.863725 0.894118
0.984314 0.911764 0.911764
0.389216 0.841177 0.891177
0.442157 0.840196 0.897059
0.582353 0.837255 0.902941
0.879412 0.884314 0.923530
0.988235 0.952941 0.946079
0.341176 1.000000 0.945098
0.391176 1.000000 0.949020
0.523529 1.000000 0.954902
0.727451 0.997059 0.965686
1.000000 1.000000 1.000000
