Color/Polaroid/Polaroid PX-70 1 -- 65x.cube
TITLE "Polaroid PX-70 1 --"
LUT_3D_SIZE 5
DOMAIN_MIN 0.000000 0.000000 0.000000
DOMAIN_MAX 1.000000 1.000000 1.000000
0.000000 0.000000 0.000000
0.089216 0.035294 0.023529
0.507844 0.000000 0.068628
0.884314 0.261765 0.074510
1.000000 0.525490 0.141176
0.000000 0.182353 0.066667
0.059804 0.205882 0.058824
0.531373 0.207843 0.044117
0.878432 0.371569 0.018627
1.000000 0.567647 0.120589
0.000000 0.533334 0.092157
0.000000 0.537254 0.101961
0.562745 0.554902 0.000000
0.857843 0.584313 0.000000
1.000000 0.650980 0.000000
0.393137 0.767647 0.207844
0.478432 0.766667 0.218627
0.653921 0.766667 0.220588
0.837255 0.771568 0.176471
0.985294 0.806863 0.196078
0.725490 0.964706 0.498039
0.742156 0.964706 0.505882
0.784314 0.966666 0.529412
0.858824 0.976471 0.529412
0.956863 0.992157 0.549020
0.000000 0.042157 0.151961
0.074510 0.097059 0.154902
0.518628 0.082353 0.193137
0.887255 0.374510 0.244118
1.000000 0.571568 0.302941
0.000000 0.209804 0.183334
0.152941 0.228432 0.191176
0.568627 0.299020 0.206863
0.880392 0.435294 0.218628
1.000000 0.600000 0.286274
0.033334 0.549019 0.212745
0.240196 0.549019 0.206863
0.596078 0.564705 0.184314
0.861765 0.585294 0.151961
1.000000 0.662745 0.221569
0.462745 0.767647 0.285294
0.535294 0.769607 0.298039
0.675490 0.767647 0.306863
0.841177 0.775490 0.272549
0.984314 0.809804 0.285294
0.730392 0.964706 0.517647
0.745098 0.964706 0.525490
0.790196 0.968627 0.549020
0.859804 0.976471 0.552941
0.956863 0.992157 0.572549
0.033333 0.150981 0.349020
0.322549 0.210784 0.353922
0.600000 0.349020 0.360784
0.870588 0.325491 0.398039
1.000000 0.560784 0.452941
0.081373 0.302941 0.358823
0.343137 0.327451 0.368627
0.632353 0.447059 0.375490
0.873529 0.449019 0.407843
1.000000 0.625490 0.469608
0.201961 0.560785 0.368627
0.388235 0.566666 0.376471
0.670589 0.584313 0.398039
0.871568 0.647058 0.433334
0.994117 0.723529 0.484314
0.602941 0.766667 0.438235
0.659804 0.769608 0.449019
0.729412 0.774510 0.449020
0.851961 0.783333 0.439216
0.988235 0.811765 0.434314
0.745098 0.964706 0.586275
0.750981 0.966666 0.582353
0.796078 0.968627 0.601961
0.863726 0.977451 0.625490
0.954902 0.992157 0.641177
0.485294 0.346078 0.577451
0.614706 0.392157 0.577451
0.801961 0.543137 0.578432
0.879412 0.652941 0.585294
0.980392 0.648039 0.613726
0.470588 0.444117 0.575490
0.604902 0.477451 0.577451
0.803922 0.599020 0.586275
0.881373 0.689216 0.597059
0.978432 0.680392 0.625490
0.325490 0.614706 0.550981
0.504902 0.618627 0.559804
0.772549 0.662745 0.589215
0.877451 0.746078 0.611765
0.981373 0.737254 0.639215
0.578431 0.767647 0.568628
0.632353 0.773529 0.575490
0.740196 0.774510 0.583333
0.863726 0.794118 0.614706
0.980392 0.860785 0.681372
0.740196 0.968627 0.701961
0.756863 0.970588 0.706863
0.808824 0.973529 0.723529
0.867647 0.981372 0.746079
0.952941 1.000000 0.773529
0.776471 0.666667 0.839216
0.804902 0.683334 0.836274
0.868627 0.735294 0.835294
0.925490 0.812745 0.831373
0.956863 0.858824 0.847059
0.768627 0.692157 0.845098
0.799020 0.708823 0.846079
0.862745 0.751961 0.842157
0.922549 0.827451 0.839215
0.956863 0.873530 0.852941
0.721569 0.747059 0.850981
0.751961 0.745098 0.852941
0.835294 0.778431 0.856863
0.917647 0.851961 0.858824
0.950981 0.907843 0.876470
0.612745 0.841177 0.859804
0.636275 0.840196 0.865687
0.710784 0.833334 0.867647
0.883333 0.879412 0.891177
0.941176 0.953922 0.914706
0.694118 0.992157 0.929412
0.709804 0.992157 0.933333
0.756863 0.994117 0.937255
0.836274 0.996078 0.946079
0.933333 1.000000 0.972549
