Color/Polaroid/Polaroid PX-70 Cold 1 -- 65x.cube
TITLE "Polaroid PX-70 Cold 1 --"
LUT_3D_SIZE 5
DOMAIN_MIN 0.000000 0.000000 0.000000
DOMAIN_MAX 1.000000 1.000000 1.000000
0.000000 0.000000 0.000000
0.108823 0.043137 0.019608
0.523529 0.031373 0.050980
0.892157 0.273529 0.067647
1.000000 0.517647 0.152941
0.000000 0.182353 0.058824
0.045098 0.205882 0.039216
0.523529 0.225490 0.000000
0.876471 0.383333 0.000000
1.000000 0.560784 0.109804
0.000000 0.541176 0.113725
0.000000 0.546078 0.123529
0.492157 0.560785 0.000000
0.846078 0.598040 0.000000
1.000000 0.654902 0.000000
0.000000 0.802941 0.215687
0.156863 0.801961 0.226470
0.535294 0.800000 0.210785
0.815686 0.798039 0.095098
1.000000 0.808823 0.000000
0.603922 0.972549 0.462745
0.639216 0.972549 0.467647
0.723529 0.972549 0.486275
0.847059 0.976471 0.461765
1.000000 0.984314 0.419608
0.000000 0.050000 0.201961
0.079412 0.104902 0.194117
0.530392 0.057843 0.240196
0.894118 0.385294 0.308824
1.000000 0.566666 0.350980
0.000000 0.217647 0.226470
0.109803 0.232353 0.237255
0.554902 0.305882 0.259804
0.880392 0.444117 0.276470
1.000000 0.593137 0.325490
0.000000 0.562745 0.270588
0.000000 0.560785 0.260784
0.527451 0.572549 0.231373
0.850000 0.598039 0.178431
1.000000 0.664706 0.218627
0.026471 0.806863 0.311765
0.291176 0.804902 0.320588
0.557843 0.800000 0.320588
0.822549 0.800000 0.256863
1.000000 0.807843 0.209804
0.627451 0.972549 0.494118
0.658824 0.972549 0.498039
0.740196 0.972549 0.516667
0.851961 0.976471 0.498039
1.000000 0.987255 0.461765
0.000000 0.170588 0.447059
0.326470 0.236275 0.450981
0.592157 0.378432 0.450981
0.870588 0.325491 0.480392
1.000000 0.541176 0.507843
0.000000 0.325490 0.448039
0.305883 0.348039 0.456863
0.604902 0.472549 0.459804
0.874510 0.450000 0.484314
1.000000 0.620588 0.517647
0.000000 0.576470 0.445098
0.244117 0.582353 0.448039
0.609804 0.596078 0.464706
0.871568 0.662745 0.488236
1.000000 0.729411 0.519608
0.421569 0.804902 0.484314
0.523530 0.807843 0.491177
0.640196 0.805883 0.484314
0.842157 0.805883 0.461765
1.000000 0.804902 0.431373
0.692157 0.970588 0.578431
0.703921 0.972549 0.574510
0.774510 0.972549 0.590196
0.872549 0.976471 0.598039
1.000000 0.984314 0.564706
0.484314 0.394118 0.652941
0.607843 0.439216 0.653921
0.798039 0.584314 0.650980
0.899020 0.687255 0.651960
1.000000 0.656863 0.664706
0.439216 0.480392 0.650000
0.581372 0.513726 0.649020
0.796078 0.633333 0.654902
0.900980 0.724510 0.661765
1.000000 0.695098 0.672549
0.052941 0.646078 0.614706
0.399020 0.650000 0.625490
0.742157 0.693137 0.651960
0.900000 0.776471 0.670588
1.000000 0.752942 0.683333
0.388235 0.806863 0.618627
0.488236 0.809804 0.625490
0.672549 0.805883 0.630392
0.880392 0.816667 0.660785
1.000000 0.856863 0.720588
0.708823 0.972549 0.710784
0.741176 0.974510 0.716667
0.822549 0.973529 0.735294
0.906862 0.977451 0.750981
1.000000 0.992157 0.746079
0.772549 0.725490 0.890196
0.807843 0.738235 0.886275
0.892157 0.778431 0.882353
0.973530 0.835294 0.870588
1.000000 0.862745 0.874510
0.770588 0.747059 0.893138
0.806863 0.759804 0.890196
0.893138 0.790196 0.882353
0.976470 0.846079 0.877451
1.000000 0.873530 0.877451
0.723529 0.788235 0.896079
0.758823 0.788235 0.894118
0.868627 0.813725 0.892157
0.971569 0.863725 0.886275
1.000000 0.903922 0.892157
0.563725 0.855883 0.895098
0.604902 0.857843 0.900981
0.712746 0.851961 0.903922
0.943137 0.884314 0.906862
1.000000 0.946079 0.914706
0.690196 0.992157 0.925490
0.713726 0.992157 0.925490
0.788235 0.992157 0.929412
0.895098 0.992157 0.933333
1.000000 1.000000 0.949020
