Color/Polaroid/Polaroid PX-680 Cold 1 -- 65x.cube
TITLE "Polaroid PX-680 Cold 1 --"
LUT_3D_SIZE 9
DOMAIN_MIN 0.000000 0.000000 0.000000
DOMAIN_MAX 1.000000 1.000000 1.000000
0.000000 0.000000 0.000000
0.050000 0.011275 0.007843
0.166666 0.039216 0.019608
0.378431 0.043137 0.027451
0.586275 0.068628 0.068628
0.742647 0.177941 0.133333
0.849020 0.293137 0.197059
0.937745 0.404412 0.258824
1.000000 0.505882 0.325490
0.000000 0.065687 0.023039
0.031373 0.074020 0.016176
0.182353 0.096568 0.011765
0.387745 0.115686 0.022059
0.582843 0.146569 0.068628
0.737745 0.225981 0.132353
0.844118 0.322549 0.196078
0.933823 0.420098 0.255392
1.000000 0.517157 0.321569
0.000000 0.200000 0.065687
0.000000 0.208334 0.072549
0.135294 0.233333 0.054902
0.398039 0.267647 0.032843
0.591176 0.262745 0.053921
0.728431 0.313235 0.125490
0.835295 0.383333 0.188236
0.922549 0.455882 0.247549
1.000000 0.542157 0.312746
0.000000 0.357843 0.129412
0.000000 0.372059 0.143137
0.000000 0.388235 0.139706
0.328921 0.420588 0.127941
0.572059 0.450490 0.114706
0.707353 0.434804 0.122549
0.815196 0.454412 0.160294
0.914215 0.512745 0.229412
1.000000 0.581863 0.299510
0.000000 0.492157 0.192157
0.000000 0.500000 0.198529
0.000000 0.506863 0.211765
0.233333 0.527941 0.207843
0.486274 0.550980 0.201961
0.683824 0.588236 0.194117
0.793137 0.585294 0.196078
0.896569 0.584313 0.205882
0.996078 0.629412 0.268628
0.000000 0.589706 0.240686
0.000000 0.600980 0.248529
0.000000 0.601471 0.258824
0.185295 0.612255 0.263236
0.425490 0.634314 0.264216
0.606863 0.661765 0.264216
0.773039 0.704412 0.261275
0.875490 0.710294 0.265686
0.984314 0.720588 0.281372
0.000000 0.694117 0.288236
0.000000 0.700000 0.292157
0.000000 0.700000 0.299019
0.207843 0.707843 0.310785
0.408824 0.722549 0.314706
0.568628 0.747059 0.317157
0.708823 0.767647 0.315687
0.867647 0.813236 0.323530
0.973530 0.825490 0.334313
0.000000 0.812255 0.341176
0.003432 0.812745 0.345098
0.176470 0.813236 0.349510
0.315196 0.820098 0.360784
0.441667 0.828431 0.365196
0.575490 0.847549 0.372549
0.700000 0.863725 0.376471
0.827941 0.883333 0.380882
0.964216 0.913725 0.392647
0.396078 0.952941 0.435294
0.415686 0.952941 0.439216
0.450980 0.953922 0.444117
0.512255 0.956863 0.454902
0.578431 0.960784 0.468627
0.665686 0.966176 0.474510
0.761764 0.975490 0.482353
0.859314 0.984314 0.494608
0.956863 0.992157 0.509804
0.000000 0.015196 0.085295
0.027451 0.026961 0.081373
0.161765 0.023039 0.119608
0.383823 0.058824 0.163235
0.582843 0.148529 0.212745
0.732353 0.240196 0.248039
0.838726 0.336275 0.281373
0.925980 0.427451 0.317647
1.000000 0.517647 0.360294
0.000000 0.077941 0.116667
0.023039 0.089216 0.131862
0.189216 0.115686 0.150980
0.395098 0.146569 0.177941
0.588236 0.194607 0.206863
0.732353 0.275000 0.243627
0.836765 0.357843 0.277941
0.923040 0.444117 0.314216
1.000000 0.529412 0.360294
0.000000 0.223039 0.181373
0.000000 0.227941 0.170588
0.161765 0.248039 0.170588
0.414216 0.267647 0.167647
0.593627 0.286274 0.190686
0.724510 0.337745 0.226961
0.828432 0.405883 0.264216
0.921569 0.477941 0.305392
1.000000 0.553922 0.350980
0.000000 0.371078 0.199020
0.000000 0.385294 0.209804
0.000000 0.397059 0.217647
0.350490 0.427941 0.214216
0.576470 0.451471 0.206863
0.706373 0.436275 0.205882
0.815196 0.469118 0.238726
0.910294 0.525980 0.285785
1.000000 0.590686 0.336765
0.000000 0.500000 0.238725
0.000000 0.506373 0.245098
0.000000 0.511765 0.256373
0.269608 0.530392 0.257353
0.499510 0.554902 0.254412
0.681372 0.588236 0.248529
0.792157 0.584314 0.247549
0.893628 0.583333 0.250980
0.996078 0.637255 0.307353
0.000000 0.593627 0.272059
0.000000 0.602941 0.279412
0.000000 0.605392 0.287745
0.231372 0.618627 0.296569
0.439706 0.637255 0.295588
0.613235 0.665686 0.297549
0.773529 0.705392 0.295588
0.877941 0.711765 0.297549
0.982843 0.721079 0.307353
0.000000 0.694608 0.306862
0.000000 0.700000 0.310785
0.000000 0.703922 0.318137
0.242157 0.710784 0.329412
0.422059 0.726961 0.333823
0.574019 0.744607 0.335294
0.711765 0.770588 0.337745
0.867647 0.813236 0.341666
0.973530 0.825490 0.353431
0.000000 0.808823 0.349510
0.052941 0.812745 0.353431
0.206372 0.816176 0.360294
0.326961 0.820588 0.368627
0.449020 0.831373 0.376961
0.576471 0.845098 0.380882
0.703431 0.867157 0.388235
0.827941 0.883333 0.392157
0.964216 0.913725 0.404412
0.400490 0.956863 0.443137
0.419608 0.953431 0.443137
0.458334 0.956373 0.450490
0.513726 0.957843 0.458824
0.582353 0.960784 0.474510
0.668627 0.968627 0.482353
0.761274 0.975981 0.489706
0.856373 0.981373 0.499020
0.956863 0.988725 0.517647
0.000000 0.039216 0.241176
0.014706 0.058334 0.237255
0.156863 0.104902 0.244118
0.360784 0.069608 0.279902
0.583333 0.106863 0.302941
0.733333 0.254412 0.338725
0.828432 0.415686 0.387255
0.922059 0.489706 0.406863
1.000000 0.559804 0.429412
0.000000 0.116667 0.264706
0.000000 0.124510 0.269118
0.184804 0.171078 0.269118
0.384804 0.155392 0.295588
0.596569 0.208334 0.318628
0.726961 0.348529 0.363235
0.828432 0.429902 0.383333
0.918137 0.497059 0.402942
1.000000 0.568137 0.426471
0.000000 0.236275 0.276470
0.000000 0.248039 0.287745
0.227451 0.271569 0.306863
0.429902 0.310295 0.323529
0.598040 0.352941 0.342157
0.720588 0.403431 0.354902
0.823529 0.457843 0.371569
0.914705 0.521079 0.391667
1.000000 0.585294 0.417647
0.000000 0.385294 0.300980
0.000000 0.401471 0.316667
0.191667 0.417157 0.319608
0.399510 0.442647 0.325981
0.585294 0.451961 0.320588
0.708824 0.457843 0.325981
0.812745 0.504412 0.348040
0.906372 0.556373 0.372059
1.000000 0.618137 0.403922
0.000000 0.513726 0.332353
0.000000 0.519118 0.329902
0.149019 0.523529 0.328431
0.337745 0.539216 0.338725
0.525490 0.562745 0.340196
0.686765 0.588726 0.335294
0.793137 0.586275 0.330392
0.894608 0.601961 0.340196
0.993137 0.650980 0.375491
0.000000 0.601471 0.332353
0.000000 0.609314 0.333333
0.140686 0.613235 0.340196
0.304902 0.621078 0.351961
0.471079 0.643628 0.354902
0.626470 0.669608 0.355882
0.777451 0.708333 0.355882
0.878921 0.711275 0.352941
0.985784 0.719118 0.359804
0.000000 0.700000 0.345098
0.000000 0.700490 0.348039
0.156863 0.705882 0.353922
0.306863 0.712745 0.364706
0.445098 0.727451 0.371569
0.587255 0.748529 0.374020
0.721569 0.772549 0.377451
0.872059 0.815686 0.382353
0.975491 0.825490 0.388235
0.052941 0.809804 0.373039
0.146078 0.815196 0.375491
0.247059 0.817647 0.380882
0.354412 0.821569 0.388725
0.462746 0.830883 0.401961
0.587255 0.847549 0.406863
0.710785 0.867157 0.412255
0.832353 0.884314 0.420098
0.972059 0.916666 0.434804
0.404902 0.952941 0.450980
0.424509 0.953922 0.454902
0.461765 0.953922 0.458824
0.520098 0.956863 0.470098
0.589216 0.960784 0.485295
0.672059 0.966176 0.494118
0.763725 0.972549 0.502941
0.859804 0.980882 0.517157
0.960784 0.991177 0.536274
0.000000 0.092647 0.377451
0.068137 0.114706 0.381373
0.281863 0.182353 0.382843
0.405882 0.251961 0.389216
0.554902 0.218627 0.404412
0.711765 0.253922 0.418137
0.833824 0.350000 0.429902
0.927941 0.461275 0.449510
1.000000 0.593627 0.490196
0.000000 0.161275 0.389216
0.092157 0.184804 0.393137
0.299020 0.239706 0.394608
0.419118 0.300000 0.398529
0.568137 0.276961 0.412255
0.715196 0.311765 0.422059
0.832843 0.390196 0.433824
0.922549 0.505392 0.461275
1.000000 0.624510 0.501471
0.000000 0.279412 0.389706
0.000000 0.292648 0.399019
0.298530 0.319608 0.410294
0.453432 0.387745 0.417157
0.584804 0.369117 0.422549
0.724510 0.415196 0.433824
0.825490 0.493137 0.451960
0.913235 0.587255 0.480882
0.999019 0.642647 0.498530
0.000000 0.402451 0.386765
0.000000 0.417647 0.395588
0.275000 0.436275 0.409804
0.470098 0.463726 0.425980
0.601471 0.488726 0.431373
0.715196 0.522549 0.438725
0.815686 0.561765 0.449510
0.906372 0.604902 0.461275
1.000000 0.659804 0.480882
0.031372 0.507844 0.384804
0.180883 0.519608 0.394608
0.333333 0.535294 0.409804
0.432843 0.553432 0.416667
0.565196 0.576961 0.422059
0.698039 0.592156 0.418137
0.800981 0.596079 0.418137
0.898039 0.635294 0.433824
0.996078 0.680883 0.455392
0.258824 0.606863 0.406373
0.311275 0.617157 0.414706
0.345588 0.623529 0.412745
0.403431 0.635294 0.412745
0.514706 0.651961 0.420098
0.649510 0.675980 0.422059
0.785294 0.708824 0.423529
0.884314 0.710294 0.416666
0.992157 0.719118 0.420588
0.248530 0.700980 0.407353
0.263235 0.704902 0.407353
0.287745 0.710294 0.402451
0.377451 0.719608 0.410294
0.479412 0.729902 0.420588
0.608824 0.751961 0.424020
0.736274 0.776961 0.429412
0.877941 0.816176 0.436275
0.981372 0.825490 0.437255
0.220588 0.808823 0.410294
0.240196 0.815196 0.410784
0.289706 0.816666 0.410784
0.384804 0.822059 0.419608
0.486274 0.831373 0.431863
0.599019 0.846569 0.440686
0.719118 0.867157 0.449510
0.842157 0.887255 0.459314
0.983824 0.919608 0.476961
0.403922 0.952941 0.466667
0.424509 0.956863 0.470588
0.462745 0.956863 0.477941
0.524020 0.960784 0.486275
0.594118 0.960784 0.500490
0.675000 0.967647 0.519118
0.769607 0.976471 0.529412
0.867157 0.984314 0.545098
0.963235 0.990686 0.563235
0.101961 0.176471 0.472549
0.216667 0.199510 0.476471
0.376471 0.255883 0.480392
0.520588 0.357353 0.479902
0.603921 0.415686 0.484314
0.687255 0.372549 0.484314
0.807843 0.388235 0.496078
0.914215 0.463235 0.507843
1.000000 0.554902 0.523529
0.131863 0.236765 0.476471
0.236275 0.256373 0.477941
0.388235 0.303431 0.481863
0.532353 0.391176 0.485294
0.608334 0.443137 0.486765
0.691177 0.406863 0.488726
0.809804 0.418137 0.497549
0.914215 0.488726 0.509314
1.000000 0.576471 0.527451
0.140196 0.340196 0.475490
0.242157 0.352941 0.484804
0.389215 0.376471 0.486274
0.540196 0.446569 0.488236
0.618627 0.498039 0.491177
0.698039 0.466177 0.494118
0.811765 0.484314 0.502941
0.914705 0.547549 0.515687
1.000000 0.621568 0.534314
0.000000 0.428431 0.462255
0.134804 0.443628 0.472059
0.306863 0.458333 0.477451
0.516667 0.493627 0.490687
0.621568 0.551471 0.494118
0.708824 0.535784 0.500000
0.816667 0.572059 0.509804
0.914215 0.625490 0.524020
1.000000 0.710294 0.562745
0.119608 0.525490 0.454902
0.214706 0.533334 0.458334
0.340196 0.545098 0.464706
0.479412 0.565196 0.478431
0.615687 0.596078 0.496078
0.717647 0.622059 0.502451
0.812745 0.654902 0.511765
0.904412 0.688726 0.523529
0.994117 0.727451 0.541176
0.214706 0.591667 0.439216
0.275490 0.603432 0.445098
0.367647 0.616177 0.452941
0.489216 0.641177 0.472549
0.572549 0.665686 0.480392
0.683824 0.689216 0.488236
0.797549 0.708823 0.488236
0.895098 0.707843 0.480882
0.994117 0.747059 0.504412
0.306863 0.695098 0.450980
0.341666 0.700000 0.453921
0.408824 0.709804 0.461765
0.473039 0.721078 0.465196
0.532353 0.735294 0.468628
0.632843 0.754902 0.478431
0.758824 0.786275 0.489216
0.887745 0.817647 0.493137
0.991176 0.823529 0.492157
0.368627 0.804902 0.466666
0.382353 0.808823 0.467157
0.400000 0.814216 0.464706
0.430882 0.822059 0.458824
0.513235 0.831863 0.468627
0.611765 0.844117 0.482843
0.732353 0.867157 0.495098
0.857353 0.889216 0.509804
0.992157 0.922059 0.531373
0.454902 0.950981 0.509804
0.468627 0.952941 0.511765
0.482353 0.952941 0.507843
0.516177 0.960784 0.507843
0.594118 0.960784 0.523529
0.677941 0.967157 0.547059
0.774510 0.974510 0.563725
0.875000 0.984314 0.582353
0.968627 0.988235 0.603922
0.306373 0.279902 0.545098
0.363725 0.297059 0.544608
0.472549 0.340196 0.547549
0.593137 0.415686 0.550490
0.681863 0.513235 0.550490
0.734804 0.544118 0.554412
0.788725 0.503431 0.550000
0.891176 0.521078 0.566667
0.996078 0.574020 0.583333
0.320098 0.322549 0.544608
0.378922 0.342157 0.548530
0.482843 0.378921 0.549020
0.598039 0.446079 0.553921
0.684314 0.531373 0.552451
0.736764 0.563725 0.554902
0.791667 0.526471 0.553922
0.893137 0.539216 0.566667
0.996078 0.593627 0.585784
0.315196 0.393627 0.547059
0.369608 0.404412 0.546078
0.476470 0.434314 0.550490
0.593627 0.488235 0.554902
0.686765 0.565686 0.553431
0.738725 0.600490 0.558333
0.794608 0.568137 0.559804
0.894608 0.579412 0.574020
0.995098 0.632353 0.592647
0.236275 0.469118 0.529412
0.316177 0.484314 0.534804
0.441667 0.501961 0.542647
0.566176 0.529412 0.550490
0.681372 0.599510 0.558333
0.741176 0.647059 0.564706
0.798039 0.619608 0.564706
0.897549 0.628922 0.576961
0.998529 0.683334 0.600000
0.211765 0.547059 0.517157
0.266176 0.552941 0.519118
0.361765 0.562745 0.524020
0.480392 0.576961 0.533333
0.647058 0.619607 0.552451
0.736764 0.683333 0.567647
0.806863 0.667647 0.571078
0.908333 0.697549 0.585784
1.000000 0.741667 0.609314
0.262745 0.617157 0.503431
0.305392 0.624510 0.505392
0.382353 0.631863 0.511275
0.483333 0.647059 0.521569
0.601961 0.672059 0.534804
0.726961 0.711275 0.562255
0.820098 0.738235 0.574020
0.910294 0.766176 0.589706
1.000000 0.799019 0.613235
0.223529 0.672549 0.479411
0.267157 0.679902 0.481372
0.346569 0.689706 0.487745
0.455392 0.705882 0.499510
0.583333 0.733333 0.520588
0.677451 0.763235 0.538725
0.787745 0.795588 0.556863
0.899510 0.813726 0.559314
1.000000 0.814216 0.555882
0.287745 0.789215 0.491667
0.320589 0.793137 0.494608
0.387745 0.802451 0.500980
0.481372 0.812255 0.510785
0.572549 0.828922 0.524020
0.637745 0.846569 0.529412
0.747059 0.868137 0.551471
0.875490 0.895098 0.574510
0.997549 0.919608 0.595098
0.463726 0.949020 0.560784
0.480882 0.949020 0.560784
0.519118 0.952941 0.566176
0.562255 0.956863 0.566176
0.601961 0.962745 0.562255
0.679902 0.968627 0.580392
0.778432 0.976471 0.613235
0.879412 0.984314 0.636765
0.976471 0.992157 0.664216
0.472549 0.398039 0.620588
0.503922 0.408824 0.620588
0.571568 0.442157 0.620588
0.653431 0.492647 0.620588
0.734314 0.566667 0.624510
0.795098 0.653922 0.628431
0.836274 0.668628 0.636275
0.871568 0.625980 0.625000
0.972549 0.651960 0.656863
0.468628 0.421569 0.616667
0.507353 0.439706 0.620588
0.568137 0.462745 0.620588
0.653431 0.511765 0.623039
0.734804 0.581863 0.627941
0.797549 0.670098 0.632353
0.837745 0.680882 0.637745
0.872059 0.637255 0.625490
0.975000 0.663235 0.659804
0.459804 0.469608 0.615686
0.492157 0.479412 0.617156
0.560784 0.501961 0.619608
0.650000 0.547059 0.625000
0.736274 0.611765 0.631373
0.802941 0.687255 0.638235
0.839216 0.704902 0.644118
0.877451 0.666667 0.634804
0.975491 0.688235 0.665686
0.429902 0.531863 0.603922
0.468628 0.540686 0.609804
0.520588 0.543627 0.615686
0.623039 0.579902 0.621569
0.720098 0.637255 0.628432
0.801471 0.711275 0.644118
0.840196 0.735784 0.650490
0.882843 0.702941 0.644118
0.979412 0.718628 0.673039
0.267647 0.581373 0.581373
0.322550 0.586275 0.587255
0.426470 0.595098 0.593137
0.563725 0.614706 0.607353
0.686275 0.657843 0.624510
0.790686 0.728921 0.644118
0.842157 0.767647 0.658824
0.892647 0.741176 0.658334
0.985294 0.749019 0.678432
0.278921 0.642157 0.566176
0.317157 0.648529 0.569608
0.382353 0.653431 0.576471
0.473039 0.661275 0.582353
0.583333 0.676961 0.596078
0.750490 0.733333 0.634804
0.843137 0.797549 0.667647
0.903922 0.778922 0.668628
0.995098 0.811765 0.699510
0.276471 0.704902 0.550981
0.309314 0.710784 0.556373
0.371569 0.715687 0.559804
0.459804 0.723530 0.565686
0.571568 0.739216 0.579412
0.691667 0.769117 0.604902
0.828432 0.816667 0.656863
0.919118 0.841177 0.681372
1.000000 0.871568 0.716667
0.014706 0.765686 0.522549
0.127451 0.769607 0.526470
0.247549 0.776961 0.529902
0.378432 0.788235 0.541176
0.516177 0.805883 0.555392
0.660785 0.836274 0.586765
0.774510 0.867647 0.625000
0.898039 0.901961 0.669118
1.000000 0.914215 0.683824
0.342157 0.945098 0.600000
0.366666 0.948530 0.600981
0.418627 0.950981 0.605882
0.495588 0.955392 0.612745
0.594118 0.957843 0.625490
0.704412 0.968627 0.651961
0.782353 0.976471 0.667647
0.887255 0.984314 0.711275
0.988235 0.995098 0.753922
0.596568 0.525980 0.718137
0.612255 0.530882 0.718137
0.657844 0.556373 0.721079
0.716177 0.595098 0.722549
0.778922 0.645588 0.725980
0.841177 0.704412 0.730392
0.886765 0.773529 0.737745
0.922059 0.776961 0.750000
0.960784 0.746078 0.742647
0.589215 0.534804 0.714706
0.612745 0.549510 0.721569
0.654412 0.571569 0.721079
0.714216 0.604902 0.722549
0.778432 0.656373 0.729412
0.837746 0.709804 0.728432
0.890686 0.781372 0.742156
0.921569 0.781373 0.750491
0.957843 0.753921 0.746078
0.580392 0.567647 0.717647
0.600980 0.576471 0.718137
0.646569 0.595588 0.722059
0.708333 0.629412 0.724510
0.775000 0.673039 0.730392
0.842647 0.730392 0.737255
0.889215 0.790686 0.747059
0.922059 0.797059 0.758333
0.955883 0.767647 0.748039
0.543627 0.599019 0.710784
0.565686 0.604412 0.716177
0.614216 0.620588 0.720098
0.689216 0.653921 0.726470
0.763235 0.692647 0.730392
0.836765 0.751471 0.746569
0.891176 0.810784 0.759804
0.925980 0.820588 0.769607
0.956863 0.789215 0.757843
0.467157 0.647058 0.696569
0.498530 0.649510 0.699019
0.556863 0.657353 0.704902
0.634314 0.669118 0.717157
0.731863 0.708333 0.730392
0.823529 0.762255 0.746078
0.892647 0.823040 0.767647
0.927451 0.843628 0.784804
0.962255 0.818137 0.773039
0.309804 0.691667 0.667647
0.337745 0.693138 0.672549
0.391176 0.690686 0.675490
0.502451 0.700980 0.688236
0.648530 0.719608 0.709314
0.780882 0.766667 0.741666
0.884314 0.837745 0.775490
0.929902 0.872059 0.803432
0.972549 0.855392 0.801961
0.280882 0.752451 0.657353
0.310294 0.752451 0.660295
0.367647 0.758333 0.663725
0.446568 0.759314 0.668628
0.548039 0.766177 0.680392
0.660295 0.774510 0.700000
0.845098 0.837255 0.763235
0.934804 0.900000 0.822549
0.985294 0.887745 0.826470
0.218628 0.820588 0.644117
0.253431 0.823529 0.647059
0.318628 0.824509 0.650490
0.407353 0.825980 0.653431
0.515196 0.834314 0.663725
0.633824 0.845588 0.684804
0.774020 0.868137 0.723039
0.925980 0.918137 0.817157
1.000000 0.937745 0.855882
0.000000 0.945098 0.675490
0.000000 0.948039 0.675000
0.129902 0.945588 0.673039
0.292647 0.952941 0.679412
0.445588 0.958824 0.692647
0.598039 0.967647 0.710784
0.762745 0.976471 0.753431
0.887255 0.984314 0.805393
0.995588 0.996078 0.863725
0.701961 0.686275 0.874510
0.713726 0.690196 0.874510
0.738235 0.701961 0.871568
0.780392 0.724020 0.870588
0.829412 0.752941 0.872549
0.882353 0.792157 0.873039
0.922549 0.828432 0.870588
0.953431 0.875000 0.870588
0.980392 0.870588 0.882353
0.698039 0.690196 0.870588
0.713726 0.698039 0.875000
0.736765 0.706372 0.874510
0.778922 0.729412 0.874510
0.825980 0.756863 0.871078
0.879902 0.793627 0.872059
0.923530 0.833334 0.871568
0.953431 0.875000 0.874020
0.980392 0.874510 0.886275
0.693137 0.707843 0.877451
0.702941 0.712745 0.878431
0.729412 0.721569 0.878431
0.775000 0.742647 0.878431
0.825490 0.766666 0.877451
0.878431 0.801471 0.877451
0.925491 0.843138 0.877451
0.956863 0.882843 0.878431
0.980392 0.881373 0.889216
0.660294 0.717647 0.878431
0.678431 0.725490 0.881373
0.710294 0.737255 0.882353
0.759314 0.755392 0.882353
0.815686 0.780392 0.884314
0.873530 0.814705 0.881373
0.922549 0.851961 0.883333
0.959314 0.896569 0.888726
0.982843 0.896569 0.900490
0.627451 0.752941 0.884314
0.644607 0.754902 0.888236
0.664706 0.754902 0.889216
0.718137 0.764706 0.890196
0.790196 0.794118 0.892157
0.864706 0.829412 0.894608
0.920589 0.863725 0.894118
0.962745 0.904412 0.900000
0.984314 0.911764 0.911764
0.489706 0.781863 0.882353
0.516667 0.784314 0.888236
0.565686 0.785784 0.890196
0.642647 0.789706 0.891667
0.731863 0.801961 0.898039
0.828922 0.835294 0.903431
0.913235 0.878431 0.909804
0.960784 0.919118 0.915196
0.984314 0.930882 0.926961
0.389216 0.841177 0.891177
0.404902 0.844118 0.894118
0.442157 0.840196 0.897059
0.496569 0.837255 0.895098
0.582353 0.837255 0.902941
0.746078 0.848039 0.913725
0.879412 0.884314 0.923530
0.964706 0.934313 0.937255
0.988235 0.952941 0.946079
0.375981 0.918137 0.914215
0.391176 0.911274 0.910783
0.425980 0.915196 0.917647
0.480391 0.914215 0.921079
0.551471 0.910784 0.922059
0.648529 0.910784 0.933333
0.757843 0.910294 0.941176
0.937255 0.941176 0.956863
0.992157 0.976471 0.972549
0.341176 1.000000 0.945098
0.352941 1.000000 0.945098
0.391176 1.000000 0.949020
0.447059 1.000000 0.950490
0.523529 1.000000 0.954902
0.618627 0.997549 0.960784
0.727451 0.997059 0.965686
0.856373 0.996568 0.976961
1.000000 1.000000 1.000000
