Color/Polaroid/Polaroid PX-70 Cold 1 -- 65x.cube
TITLE "Polaroid PX-70 Cold 1 --"
LUT_3D_SIZE 9
DOMAIN_MIN 0.000000 0.000000 0.000000
DOMAIN_MAX 1.000000 1.000000 1.000000
0.000000 0.000000 0.000000
0.030392 0.015196 0.007843
0.108823 0.043137 0.019608
0.288235 0.050980 0.031373
0.523529 0.031373 0.050980
0.736274 0.124510 0.066667
0.892157 0.273529 0.067647
1.000000 0.412745 0.090686
1.000000 0.517647 0.152941
0.000000 0.066177 0.019608
0.003922 0.070588 0.015686
0.116176 0.085785 0.011765
0.297549 0.100000 0.023529
0.525490 0.109804 0.037746
0.733823 0.186275 0.049019
0.890687 0.313725 0.050980
0.996568 0.432353 0.078431
1.000000 0.532843 0.145098
0.000000 0.182353 0.058824
0.000000 0.189216 0.065686
0.045098 0.205882 0.039216
0.304902 0.220098 0.011275
0.523529 0.225490 0.000000
0.724510 0.285784 0.000000
0.876471 0.383333 0.000000
0.986275 0.479411 0.003922
1.000000 0.560784 0.109804
0.000000 0.361765 0.090196
0.000000 0.364215 0.096569
0.000000 0.372059 0.082353
0.258333 0.391666 0.021078
0.525490 0.407353 0.000000
0.707353 0.417647 0.000000
0.856863 0.466176 0.000000
0.973529 0.544118 0.000000
1.000000 0.607843 0.009804
0.000000 0.541176 0.113725
0.000000 0.541666 0.117647
0.000000 0.546078 0.123529
0.185294 0.552941 0.081863
0.492157 0.560785 0.000000
0.704902 0.580392 0.000000
0.846078 0.598040 0.000000
0.953921 0.613726 0.000000
1.000000 0.654902 0.000000
0.000000 0.693137 0.150490
0.000000 0.693137 0.154412
0.000000 0.693137 0.162255
0.236274 0.692157 0.151960
0.497549 0.697059 0.102941
0.686765 0.700980 0.000000
0.839706 0.711275 0.000000
0.945588 0.720588 0.000000
1.000000 0.730882 0.000000
0.000000 0.802941 0.215687
0.000000 0.805883 0.222549
0.156863 0.801961 0.226470
0.352450 0.800490 0.237255
0.535294 0.800000 0.210785
0.687255 0.797549 0.171078
0.815686 0.798039 0.095098
0.943137 0.805883 0.000000
1.000000 0.808823 0.000000
0.338726 0.890196 0.321569
0.373529 0.890197 0.322549
0.425490 0.886765 0.326470
0.512745 0.886275 0.337745
0.606863 0.882843 0.332353
0.719118 0.886275 0.314706
0.824510 0.886765 0.283333
0.933823 0.887255 0.240196
1.000000 0.894608 0.189215
0.603922 0.972549 0.462745
0.615686 0.972549 0.462745
0.639216 0.972549 0.467647
0.676961 0.972549 0.475980
0.723529 0.972549 0.486275
0.779412 0.974020 0.474510
0.847059 0.976471 0.461765
0.922059 0.980882 0.443137
1.000000 0.984314 0.419608
0.000000 0.019118 0.085785
0.003922 0.034804 0.077941
0.103431 0.041666 0.100981
0.293627 0.075000 0.132843
0.529902 0.119118 0.161765
0.737745 0.189216 0.171569
0.891176 0.314216 0.177941
0.996568 0.435784 0.191667
1.000000 0.533333 0.234314
0.000000 0.077941 0.104902
0.000000 0.085295 0.112745
0.110784 0.108333 0.123529
0.304902 0.131372 0.136275
0.531373 0.159804 0.148530
0.735784 0.229412 0.159804
0.887255 0.341666 0.164216
0.996568 0.452451 0.181372
1.000000 0.545098 0.226471
0.000000 0.201471 0.144118
0.000000 0.205392 0.136765
0.064216 0.217157 0.128432
0.320098 0.227942 0.116667
0.535294 0.247059 0.117157
0.726471 0.306372 0.125000
0.877451 0.400000 0.129412
0.988725 0.494608 0.152941
1.000000 0.573530 0.201471
0.000000 0.373529 0.152451
0.000000 0.375980 0.156373
0.000000 0.380883 0.152451
0.277451 0.396569 0.122059
0.534313 0.410294 0.086275
0.711275 0.419117 0.046568
0.860785 0.477451 0.033334
0.976961 0.551961 0.075981
1.000000 0.614216 0.149510
0.000000 0.549019 0.168137
0.000000 0.550980 0.170588
0.000000 0.549019 0.178922
0.222549 0.558824 0.155392
0.503922 0.566666 0.105392
0.707353 0.580392 0.012745
0.845098 0.597059 0.000000
0.955882 0.610784 0.000000
1.000000 0.658824 0.000000
0.000000 0.695588 0.195588
0.000000 0.697059 0.200981
0.000000 0.697059 0.205392
0.271079 0.697059 0.204902
0.507844 0.698039 0.167647
0.689706 0.703431 0.112745
0.840196 0.711765 0.000000
0.944608 0.721569 0.000000
1.000000 0.728922 0.000000
0.000000 0.802941 0.247059
0.000000 0.806373 0.256373
0.212745 0.803431 0.260294
0.376471 0.800980 0.267647
0.543627 0.801471 0.249510
0.688726 0.799019 0.215196
0.818627 0.798039 0.162745
0.943137 0.801961 0.083333
1.000000 0.809804 0.070588
0.354902 0.886765 0.338235
0.390196 0.886765 0.345588
0.447549 0.887255 0.349510
0.525000 0.886275 0.357843
0.615687 0.882843 0.357353
0.719608 0.882843 0.338235
0.825490 0.886275 0.310294
0.933333 0.887255 0.271078
1.000000 0.894608 0.227451
0.611765 0.972549 0.470588
0.623529 0.972549 0.474510
0.646569 0.973039 0.477941
0.682353 0.970098 0.483824
0.729412 0.972549 0.497549
0.784314 0.973039 0.486765
0.848039 0.976471 0.473039
0.922549 0.980392 0.451961
1.000000 0.984804 0.431373
0.000000 0.050000 0.201961
0.000000 0.066667 0.194608
0.079412 0.104902 0.194117
0.273529 0.082353 0.218627
0.530392 0.057843 0.240196
0.748039 0.173039 0.262745
0.894118 0.385294 0.308824
0.996568 0.485785 0.327451
1.000000 0.566666 0.350980
0.000000 0.109314 0.217647
0.000000 0.117157 0.215196
0.091177 0.151961 0.211275
0.297059 0.139705 0.230393
0.547059 0.154412 0.245588
0.747059 0.294118 0.284804
0.888726 0.403431 0.300000
0.992647 0.497549 0.316177
1.000000 0.575981 0.347059
0.000000 0.217647 0.226470
0.000000 0.224510 0.229412
0.109803 0.232353 0.237255
0.335784 0.263726 0.245098
0.554902 0.305882 0.259804
0.737745 0.364216 0.264706
0.880392 0.444117 0.276470
0.986275 0.526470 0.293628
1.000000 0.593137 0.325490
0.000000 0.389216 0.249019
0.000000 0.392647 0.253431
0.000000 0.397059 0.249019
0.319608 0.411274 0.237255
0.550980 0.416177 0.221568
0.723530 0.438235 0.216667
0.867647 0.505392 0.227941
0.976961 0.571568 0.253432
1.000000 0.629902 0.293137
0.000000 0.562745 0.270588
0.000000 0.564215 0.260294
0.000000 0.560785 0.260784
0.291176 0.566666 0.260294
0.527451 0.572549 0.231373
0.715687 0.584313 0.202451
0.850000 0.598039 0.178431
0.959314 0.621568 0.171569
1.000000 0.664706 0.218627
0.000000 0.700980 0.275000
0.000000 0.703431 0.277451
0.061765 0.702451 0.282843
0.329902 0.700980 0.292157
0.528922 0.704902 0.271079
0.699510 0.705882 0.235785
0.843627 0.713726 0.196568
0.945588 0.719118 0.167647
1.000000 0.726961 0.150000
0.026471 0.806863 0.311765
0.157353 0.806373 0.315196
0.291176 0.804902 0.320588
0.422549 0.804902 0.328431
0.557843 0.800000 0.320588
0.696078 0.800490 0.295098
0.822549 0.800000 0.256863
0.947059 0.803432 0.218137
1.000000 0.807843 0.209804
0.401471 0.887745 0.381372
0.432353 0.889706 0.387745
0.482353 0.887745 0.392647
0.551471 0.884314 0.397059
0.632353 0.883824 0.404412
0.728431 0.886275 0.388725
0.828922 0.886765 0.365196
0.933823 0.888236 0.333333
1.000000 0.894608 0.301961
0.627451 0.972549 0.494118
0.639706 0.973039 0.495098
0.658824 0.972549 0.498039
0.696569 0.972549 0.505882
0.740196 0.972549 0.516667
0.789706 0.972549 0.512746
0.851961 0.976471 0.498039
0.925000 0.980392 0.481372
1.000000 0.987255 0.461765
0.000000 0.100490 0.326471
0.000000 0.118627 0.326471
0.202941 0.170098 0.324020
0.327451 0.220588 0.326471
0.501961 0.173530 0.341667
0.725000 0.167157 0.363235
0.900000 0.266176 0.378922
1.000000 0.427451 0.398529
1.000000 0.595098 0.458824
0.000000 0.153432 0.334314
0.000000 0.170588 0.337255
0.215196 0.214215 0.334314
0.340196 0.264706 0.331863
0.517647 0.226471 0.349510
0.732353 0.238726 0.366176
0.900490 0.323039 0.377941
1.000000 0.487745 0.414216
1.000000 0.632353 0.474020
0.000000 0.260784 0.335784
0.000000 0.267157 0.340196
0.188725 0.283824 0.346078
0.363235 0.344118 0.346569
0.544608 0.318138 0.359314
0.749510 0.362745 0.373529
0.891667 0.467157 0.397058
0.984804 0.591176 0.444118
1.000000 0.649510 0.464706
0.000000 0.404902 0.339706
0.000000 0.408334 0.343627
0.123039 0.416177 0.350000
0.382353 0.428431 0.359314
0.576470 0.459804 0.367157
0.744117 0.502941 0.377451
0.875490 0.557843 0.390686
0.976961 0.610784 0.406863
1.000000 0.665196 0.436275
0.000000 0.567157 0.353922
0.000000 0.571569 0.359314
0.248039 0.572549 0.365196
0.390196 0.576961 0.365686
0.563235 0.584313 0.353922
0.730882 0.590686 0.338235
0.860785 0.603921 0.330392
0.964706 0.646568 0.349510
1.000000 0.686765 0.379902
0.206863 0.704902 0.389216
0.282353 0.706373 0.393627
0.319608 0.709804 0.383823
0.424510 0.708824 0.380392
0.563235 0.710784 0.377451
0.712745 0.710294 0.351471
0.849020 0.716667 0.330392
0.948530 0.716667 0.308333
1.000000 0.723039 0.298529
0.319608 0.806863 0.405392
0.340196 0.809804 0.401961
0.383824 0.807843 0.397549
0.486274 0.805883 0.403431
0.587255 0.803432 0.408333
0.707843 0.802941 0.389216
0.828921 0.802941 0.362255
0.949020 0.804412 0.336274
1.000000 0.806863 0.326961
0.460295 0.887255 0.438235
0.489706 0.889216 0.444608
0.529412 0.887255 0.446078
0.589215 0.884314 0.451470
0.661275 0.884804 0.461275
0.743137 0.885785 0.453921
0.836275 0.886765 0.434314
0.937745 0.890686 0.410784
1.000000 0.894608 0.390686
0.650980 0.972549 0.525490
0.662745 0.973039 0.529412
0.682353 0.972549 0.532843
0.713726 0.972549 0.539706
0.754902 0.972549 0.547059
0.805392 0.972549 0.552941
0.862745 0.976471 0.541176
0.929902 0.980392 0.525490
1.000000 0.986765 0.504412
0.000000 0.170588 0.447059
0.137745 0.188236 0.447059
0.326470 0.236275 0.450981
0.491176 0.325981 0.447059
0.592157 0.378432 0.450981
0.704902 0.319608 0.456863
0.870588 0.325491 0.480392
0.992157 0.420098 0.495588
1.000000 0.541176 0.507843
0.000000 0.225490 0.451471
0.143628 0.240196 0.452451
0.334313 0.281373 0.454902
0.499019 0.360784 0.450981
0.596569 0.409804 0.453432
0.710294 0.358823 0.462255
0.870098 0.362745 0.481372
0.988725 0.457353 0.494608
1.000000 0.568627 0.511765
0.000000 0.325490 0.448039
0.071078 0.329412 0.454902
0.305883 0.348039 0.456863
0.502451 0.417647 0.458824
0.604902 0.472549 0.459804
0.720588 0.431372 0.468627
0.874510 0.450000 0.484314
0.987255 0.532353 0.499020
1.000000 0.620588 0.517647
0.000000 0.442157 0.439215
0.000000 0.444608 0.443137
0.151960 0.450980 0.448039
0.467647 0.477451 0.461275
0.611765 0.541667 0.464706
0.736274 0.518138 0.475980
0.879412 0.562745 0.488236
0.977942 0.629902 0.506862
1.000000 0.720588 0.555392
0.000000 0.576470 0.445098
0.000000 0.576470 0.445098
0.244117 0.582353 0.448039
0.440686 0.588236 0.456863
0.609804 0.596078 0.464706
0.754412 0.629412 0.476961
0.871568 0.662745 0.488236
0.965686 0.694608 0.500490
1.000000 0.729411 0.519608
0.188235 0.706863 0.456863
0.270588 0.710784 0.460785
0.385294 0.711275 0.464706
0.524020 0.716667 0.474019
0.617647 0.716667 0.472549
0.734804 0.715196 0.457353
0.855883 0.715687 0.442157
0.954902 0.712255 0.426470
1.000000 0.745098 0.459314
0.421569 0.804902 0.484314
0.461275 0.807843 0.486275
0.523530 0.807843 0.491177
0.579902 0.806373 0.485785
0.640196 0.805883 0.484314
0.729902 0.802941 0.478922
0.842157 0.805883 0.461765
0.953921 0.805883 0.442647
1.000000 0.804902 0.431373
0.596569 0.883333 0.525490
0.606373 0.885294 0.525980
0.613235 0.886765 0.519608
0.631863 0.888235 0.509314
0.696569 0.886765 0.515687
0.762745 0.883333 0.523039
0.846078 0.887745 0.507843
0.943627 0.892647 0.490687
1.000000 0.894608 0.476470
0.692157 0.970588 0.578431
0.700000 0.972549 0.582353
0.703921 0.972549 0.574510
0.735294 0.974510 0.582353
0.774510 0.972549 0.590196
0.821078 0.972549 0.603922
0.872549 0.976471 0.598039
0.937745 0.980882 0.582353
1.000000 0.984314 0.564706
0.263235 0.268137 0.554412
0.337255 0.281863 0.556372
0.470098 0.320588 0.556863
0.614216 0.394608 0.555882
0.721078 0.505883 0.550490
0.783333 0.540196 0.554412
0.848529 0.481372 0.552941
0.964216 0.497549 0.570588
1.000000 0.566176 0.583333
0.263235 0.314216 0.557843
0.336765 0.325980 0.557843
0.470098 0.359313 0.556863
0.615196 0.425490 0.559314
0.723039 0.526961 0.553922
0.783823 0.559804 0.554412
0.851470 0.508824 0.554412
0.961764 0.520588 0.570098
1.000000 0.589706 0.585784
0.199510 0.385294 0.554412
0.286765 0.392647 0.554412
0.445098 0.421568 0.555392
0.603922 0.478921 0.558824
0.721569 0.566176 0.554902
0.783333 0.602941 0.558333
0.852941 0.560784 0.558333
0.961274 0.572059 0.574020
1.000000 0.634314 0.591667
0.000000 0.499020 0.538725
0.165687 0.503921 0.543627
0.380882 0.512255 0.549510
0.562255 0.533333 0.554412
0.716667 0.609314 0.558333
0.787255 0.657353 0.564706
0.856863 0.625000 0.564706
0.961274 0.629412 0.576961
1.000000 0.692647 0.600000
0.000000 0.607843 0.530882
0.032843 0.609804 0.532843
0.273529 0.609804 0.534804
0.442647 0.607843 0.539216
0.674019 0.640686 0.555882
0.785294 0.699510 0.564215
0.864706 0.677941 0.568137
0.965196 0.705392 0.582843
1.000000 0.747058 0.607353
0.200490 0.708824 0.530882
0.277941 0.714706 0.534804
0.382843 0.715687 0.537745
0.509314 0.717647 0.541176
0.639215 0.718628 0.546569
0.766176 0.724510 0.554412
0.872549 0.746569 0.569608
0.965196 0.769607 0.582843
1.000000 0.793627 0.606863
0.400000 0.805883 0.543137
0.439216 0.807843 0.544608
0.504902 0.809804 0.547549
0.594608 0.805883 0.551471
0.695098 0.805883 0.559314
0.768628 0.808823 0.563235
0.857843 0.807353 0.552941
0.958334 0.805883 0.536274
1.000000 0.800980 0.528431
0.581372 0.886275 0.576961
0.603432 0.886765 0.578432
0.641667 0.885785 0.583824
0.696569 0.884804 0.589706
0.751961 0.886765 0.594608
0.797549 0.886765 0.592647
0.864706 0.890196 0.594118
0.953921 0.894608 0.578432
0.997549 0.896079 0.563725
0.731863 0.972549 0.652451
0.741176 0.971078 0.654902
0.762255 0.971078 0.660294
0.781863 0.972549 0.659314
0.794118 0.972549 0.648529
0.840686 0.972549 0.660294
0.887745 0.976471 0.675980
0.944608 0.980392 0.660294
1.000000 0.988235 0.644608
0.484314 0.394118 0.652941
0.525980 0.405883 0.651961
0.607843 0.439216 0.653921
0.707843 0.497549 0.651960
0.798039 0.584314 0.650980
0.860294 0.679902 0.648039
0.899020 0.687255 0.651960
0.934314 0.629902 0.636275
1.000000 0.656863 0.664706
0.477451 0.427941 0.651961
0.520098 0.440686 0.652941
0.600490 0.467157 0.651961
0.703921 0.520589 0.652941
0.797549 0.599510 0.651470
0.860294 0.693628 0.653921
0.899019 0.700000 0.653431
0.933823 0.645098 0.637255
1.000000 0.671078 0.667647
0.439216 0.480392 0.650000
0.486274 0.491177 0.648530
0.581372 0.513726 0.649020
0.696568 0.563235 0.651960
0.796078 0.633333 0.654902
0.863236 0.711275 0.655882
0.900980 0.724510 0.661765
0.936274 0.677451 0.643137
1.000000 0.695098 0.672549
0.398039 0.573530 0.640196
0.446078 0.575981 0.641177
0.518628 0.569608 0.648039
0.663235 0.608333 0.649020
0.778922 0.665686 0.652941
0.862745 0.734804 0.663725
0.899020 0.751471 0.666176
0.939215 0.714706 0.653922
1.000000 0.726471 0.679412
0.052941 0.646078 0.614706
0.210294 0.649020 0.619608
0.399020 0.650000 0.625490
0.588235 0.660295 0.637255
0.742157 0.693137 0.651960
0.853431 0.751471 0.664706
0.900000 0.776471 0.670588
0.946569 0.749020 0.666667
1.000000 0.752942 0.683333
0.238725 0.730882 0.612745
0.303431 0.732353 0.616667
0.391667 0.733824 0.619608
0.502941 0.727941 0.620588
0.623530 0.726471 0.623529
0.809314 0.756863 0.651961
0.898039 0.803922 0.675490
0.954902 0.782843 0.673529
0.999019 0.807843 0.703431
0.388235 0.806863 0.618627
0.426961 0.808823 0.621569
0.488236 0.809804 0.625490
0.572549 0.805883 0.626470
0.672549 0.805883 0.630392
0.775980 0.808333 0.641177
0.880392 0.816667 0.660785
0.969607 0.833334 0.685294
1.000000 0.856863 0.720588
0.553921 0.886765 0.644608
0.576961 0.887745 0.648529
0.615686 0.887745 0.652451
0.675980 0.888236 0.655883
0.747059 0.886765 0.665196
0.827941 0.887745 0.680392
0.887745 0.891176 0.691667
0.961764 0.898039 0.684804
1.000000 0.894608 0.669118
0.708823 0.972549 0.710784
0.720098 0.973530 0.714706
0.741176 0.974510 0.716667
0.776471 0.975000 0.725000
0.822549 0.973529 0.735294
0.875490 0.976471 0.750981
0.906862 0.977451 0.750981
0.952941 0.980882 0.757843
1.000000 0.992157 0.746079
0.643627 0.553921 0.769117
0.663725 0.561764 0.769117
0.716176 0.588235 0.769607
0.779412 0.630392 0.769117
0.845098 0.680882 0.765196
0.900000 0.735294 0.761764
0.945098 0.788725 0.761274
0.973039 0.784804 0.765686
1.000000 0.753921 0.757843
0.636765 0.570098 0.766667
0.663235 0.581373 0.769607
0.712255 0.603922 0.768137
0.777451 0.643627 0.767647
0.846569 0.693628 0.768627
0.900491 0.739705 0.762255
0.945588 0.790687 0.762745
0.972549 0.789215 0.769117
1.000000 0.761274 0.758333
0.622059 0.605393 0.766177
0.647059 0.612745 0.765196
0.701471 0.634804 0.769117
0.771568 0.666177 0.769117
0.841667 0.708823 0.769607
0.902450 0.757843 0.768627
0.946569 0.801961 0.770098
0.973039 0.803432 0.776471
1.000000 0.771569 0.760294
0.585294 0.650490 0.763235
0.604902 0.654902 0.765686
0.669608 0.667647 0.767157
0.751961 0.697059 0.769607
0.829902 0.731863 0.769607
0.899510 0.775000 0.775490
0.950981 0.816667 0.779412
0.976961 0.820098 0.785294
1.000000 0.792647 0.769117
0.495589 0.705882 0.749510
0.538235 0.708333 0.753921
0.612255 0.714216 0.754902
0.697549 0.718138 0.764216
0.798529 0.747549 0.769607
0.887745 0.786274 0.776961
0.946569 0.826961 0.786765
0.975000 0.839216 0.792647
1.000000 0.814216 0.780883
0.319608 0.758824 0.730392
0.360294 0.762745 0.734313
0.424510 0.758333 0.733823
0.553921 0.757353 0.741667
0.721569 0.764706 0.753921
0.848529 0.792647 0.773039
0.942157 0.840196 0.794118
0.979412 0.863235 0.807353
1.000000 0.844608 0.804412
0.422059 0.825490 0.736274
0.447549 0.822549 0.739216
0.501961 0.824510 0.742156
0.570098 0.816666 0.738235
0.653921 0.815686 0.743137
0.744607 0.809804 0.743137
0.907843 0.841177 0.783333
0.977942 0.888236 0.821569
1.000000 0.876471 0.821569
0.537745 0.894118 0.757843
0.556863 0.893628 0.760784
0.591667 0.893137 0.761764
0.647549 0.890686 0.763235
0.718137 0.889216 0.767647
0.799019 0.891176 0.775000
0.887255 0.894608 0.789215
0.969117 0.902941 0.812745
1.000000 0.929902 0.843627
0.674510 0.976471 0.796568
0.685294 0.979412 0.796078
0.705882 0.976961 0.797059
0.747059 0.980392 0.804412
0.798039 0.978432 0.810294
0.858824 0.979412 0.820588
0.918627 0.980392 0.839706
0.961274 0.984314 0.851470
1.000000 0.992157 0.851470
0.772549 0.725490 0.890196
0.784314 0.729412 0.890196
0.807843 0.738235 0.886275
0.847059 0.756863 0.882353
0.892157 0.778431 0.882353
0.938725 0.807843 0.878431
0.973530 0.835294 0.870588
1.000000 0.870588 0.866667
1.000000 0.862745 0.874510
0.768627 0.729412 0.886275
0.784314 0.737255 0.890196
0.807353 0.745098 0.885785
0.847059 0.760784 0.886275
0.894118 0.780882 0.880392
0.938725 0.811275 0.875980
0.973530 0.836274 0.871568
0.996568 0.874020 0.866667
1.000000 0.870098 0.878431
0.770588 0.747059 0.893138
0.780392 0.751961 0.890196
0.806863 0.759804 0.890196
0.845588 0.771078 0.886275
0.893138 0.790196 0.882353
0.937255 0.815686 0.878431
0.976470 0.846079 0.877451
1.000000 0.878431 0.870588
1.000000 0.873530 0.877451
0.745098 0.756863 0.890196
0.762255 0.764706 0.894118
0.792647 0.772549 0.894608
0.835294 0.784314 0.890196
0.886275 0.803922 0.888235
0.934804 0.827451 0.883824
0.973529 0.851961 0.879412
1.000000 0.888726 0.878431
1.000000 0.888726 0.886275
0.723529 0.788235 0.896079
0.739215 0.790196 0.896079
0.758823 0.788235 0.894118
0.804412 0.796078 0.894118
0.868627 0.813725 0.892157
0.926961 0.837255 0.890196
0.971569 0.863725 0.886275
1.000000 0.900000 0.888235
1.000000 0.903922 0.892157
0.599510 0.807843 0.890196
0.630392 0.811765 0.894118
0.678431 0.810295 0.894118
0.746079 0.813235 0.895588
0.825980 0.823529 0.898529
0.903431 0.844608 0.898039
0.968627 0.878431 0.898039
1.000000 0.910294 0.899019
1.000000 0.923039 0.903431
0.563725 0.855883 0.895098
0.578432 0.858824 0.899020
0.604902 0.857843 0.900981
0.645098 0.851961 0.896568
0.712746 0.851961 0.903922
0.845098 0.858824 0.905882
0.943137 0.884314 0.906862
1.000000 0.930392 0.914215
1.000000 0.946079 0.914706
0.635784 0.918137 0.913725
0.643627 0.914705 0.913725
0.666667 0.918137 0.913725
0.701961 0.917647 0.917157
0.746078 0.914215 0.914215
0.809804 0.914215 0.918137
0.871078 0.910294 0.917157
0.983824 0.941176 0.925000
1.000000 0.976471 0.929412
0.690196 0.992157 0.925490
0.694118 0.992157 0.925490
0.713726 0.992157 0.925490
0.745098 0.992157 0.926961
0.788235 0.992157 0.929412
0.840686 0.989706 0.929412
0.895098 0.992157 0.933333
0.957353 0.992647 0.937745
1.000000 1.000000 0.949020
