Color/Polaroid/Polaroid 690 Cold 1 -- 65x.cube
TITLE "Polaroid 690 Cold 1 --"
LUT_3D_SIZE 65
DOMAIN_MIN 0.000000 0.000000 0.000000
DOMAIN_MAX 1.000000 1.000000 1.000000
0.000000 0.000000 0.000000
0.003922 0.000000 0.000000
0.007843 0.003922 0.000000
0.007843 0.001164 0.000000
0.015441 0.003677 0.000000
0.020282 0.003922 0.000000
0.032966 0.007843 0.000000
0.041728 0.007843 0.000000
0.057844 0.011275 0.000000
0.067525 0.011765 0.000000
0.085049 0.015686 0.000000
0.102573 0.015686 0.000000
0.123284 0.015686 0.000000
0.145466 0.011765 0.000000
0.166912 0.006740 0.000000
0.190380 0.003922 0.000000
0.212745 0.000000 0.000000
0.235110 0.000000 0.000000
0.260540 0.000000 0.000000
0.283762 0.000000 0.000000
0.307353 0.000000 0.000000
0.328493 0.000000 0.000000
0.350858 0.000000 0.000000
0.373223 0.000000 0.000000
0.393137 0.000000 0.000000
0.414032 0.000000 0.000000
0.436029 0.000000 0.000000
0.453554 0.000000 0.000000
0.472794 0.000000 0.000000
0.491728 0.000000 0.000000
0.506127 0.000000 0.000000
0.526532 0.000000 0.000000
0.541176 0.000000 0.000000
0.559742 0.000000 0.000000
0.572426 0.000000 0.000000
0.589032 0.000000 0.000000
0.607353 0.000000 0.000000
0.622242 0.000000 0.000000
0.642402 0.000000 0.000000
0.656005 0.000000 0.000000
0.672059 0.000000 0.000000
0.687132 0.000000 0.000000
0.704657 0.000000 0.000000
0.714645 0.000000 0.000000
0.734559 0.000000 0.000000
0.745466 0.000000 0.000000
0.759068 0.000000 0.000000
0.776532 0.000000 0.000000
0.790196 0.000000 0.000000
0.803799 0.000000 0.000000
0.821323 0.000000 0.000000
0.835110 0.000000 0.000000
0.848530 0.000000 0.000000
0.866054 0.000000 0.000000
0.881005 0.000000 0.000000
0.897181 0.000000 0.000000
0.910294 0.000000 0.000000
0.926899 0.000000 0.000000
0.941912 0.000000 0.000000
0.955515 0.000000 0.000000
0.972794 0.000000 0.000000
0.985478 0.000000 0.000000
0.998162 0.000000 0.000000
1.000000 0.000000 0.000000
1.000000 0.000000 0.000000
0.000000 0.012684 0.000000
0.000000 0.016605 0.000000
0.000000 0.013603 0.000000
0.003003 0.016605 0.000000
0.010600 0.020527 0.000000
0.019608 0.024448 0.000000
0.025796 0.026042 0.000000
0.036397 0.026961 0.000000
0.050490 0.025367 0.000000
0.068015 0.029289 0.000000
0.082475 0.029718 0.000000
0.101839 0.030637 0.000000
0.124019 0.028370 0.000000
0.140992 0.020527 0.000000
0.168015 0.017708 0.000000
0.194301 0.011581 0.000000
0.216667 0.002819 0.000000
0.236091 -0.002942 0.000000
0.262255 0.000000 0.000000
0.287684 0.000000 0.000000
0.312745 0.000000 0.000000
0.329718 0.000000 0.000000
0.354779 0.000000 0.000000
0.377145 0.000000 0.000000
0.397059 0.000000 0.000000
0.415502 0.000000 0.000000
0.436029 0.000000 0.000000
0.454473 0.000000 0.000000
0.475000 0.000000 0.000000
0.495649 0.000000 0.000000
0.510049 0.000000 0.000000
0.527573 0.000000 0.000000
0.545098 0.000000 0.000000
0.559742 0.000000 0.000000
0.573346 0.000000 0.000000
0.589828 0.000000 0.000000
0.607353 0.000000 0.000000
0.623162 0.000000 0.000000
0.642402 0.000000 0.000000
0.659375 0.000000 0.000000
0.673529 0.000000 0.000000
0.688664 0.000000 0.000000
0.702267 0.000000 0.000000
0.718872 0.000000 0.000000
0.734559 0.000000 0.000000
0.748468 0.000000 0.000000
0.762990 0.000000 0.000000
0.772733 0.000000 0.000000
0.790134 0.000000 0.000000
0.807721 0.000000 0.000000
0.819423 0.000000 0.000000
0.835846 0.000000 0.000000
0.851715 0.000000 0.000000
0.866054 0.000000 0.000000
0.878003 0.000000 0.000000
0.900674 0.000000 0.000000
0.914215 0.000000 0.000000
0.927390 0.000000 0.000000
0.941912 0.000000 0.000000
0.958517 0.000000 0.000000
0.972794 0.000000 0.000000
0.989644 0.000000 0.000000
0.996997 0.000000 0.000000
1.000000 0.000000 0.000000
1.000000 0.000000 0.000000
0.000000 0.027206 0.000000
0.000000 0.027206 0.000000
0.000000 0.031127 0.000000
0.000000 0.028370 0.000000
0.005760 0.031127 0.000000
0.011765 0.036458 0.000000
0.021201 0.038970 0.000000
0.032475 0.037132 0.000000
0.052083 0.044486 0.000000
0.067525 0.041054 0.000000
0.085539 0.041054 0.000000
0.105270 0.038970 0.000000
0.123284 0.037132 0.000000
0.149388 0.036948 0.000000
0.169853 0.030025 0.000000
0.192279 0.023345 0.000000
0.217647 0.013480 0.000000
0.242953 0.011765 0.000000
0.265319 0.000000 0.000000
0.289522 0.000000 0.000000
0.313970 0.000000 0.000000
0.336336 0.000000 0.000000
0.359926 0.000000 0.000000
0.381373 0.000000 0.000000
0.398897 0.000000 0.000000
0.418505 0.000000 0.000000
0.439951 0.000000 0.000000
0.459314 0.000000 0.000000
0.476838 0.000000 0.000000
0.494363 0.000000 0.000000
0.510172 0.000000 0.000000
0.531495 0.000000 0.000000
0.544975 0.000000 0.000000
0.562623 0.000000 0.000000
0.578063 0.000000 0.000000
0.593750 0.000000 0.000000
0.611274 0.000000 0.000000
0.628799 0.000000 0.000000
0.640686 0.000000 0.000000
0.659927 0.000000 0.000000
0.673529 0.000000 0.000000
0.690503 0.000000 0.000000
0.705269 0.000000 0.000000
0.718260 0.000000 0.000000
0.734559 0.000000 0.000000
0.747243 0.000000 0.000000
0.762990 0.000000 0.000000
0.778432 0.000000 0.000000
0.794118 0.000000 0.000000
0.807721 0.000000 0.000000
0.821323 0.000000 0.000000
0.835110 0.000000 0.000000
0.853554 0.000000 0.000000
0.866054 0.000000 0.000000
0.883579 0.000000 0.000000
0.901103 0.000000 0.000000
0.909436 0.000000 0.000000
0.928737 0.000000 0.000000
0.943750 0.000000 0.000000
0.957353 0.000000 0.000000
0.967524 0.000000 0.000000
0.986642 0.000000 0.000000
1.000245 0.000000 0.000000
1.000000 0.000000 0.000000
1.000000 0.000000 0.000000
0.000000 0.036888 0.000000
0.000000 0.040809 0.000000
0.000000 0.039889 0.000000
0.000000 0.044731 0.000000
0.000000 0.044731 0.000000
0.006434 0.046568 0.000000
0.017279 0.045895 0.000000
0.029718 0.048406 0.000000
0.047243 0.053248 0.000000
0.063603 0.050246 0.000000
0.082292 0.050980 0.000000
0.102083 0.051470 0.000000
0.124019 0.049387 0.000000
0.148406 0.048468 0.000000
0.173590 0.043628 0.000000
0.197059 0.034130 0.000000
0.220588 0.026103 0.000000
0.246875 0.018505 0.000000
0.271140 0.005822 0.000000
0.294363 0.000000 0.000000
0.316667 0.000000 0.000000
0.340257 0.000000 0.000000
0.361459 0.000000 0.000000
0.382292 0.000000 0.000000
0.403431 0.000000 0.000000
0.425797 0.000000 0.000000
0.440319 0.000000 0.000000
0.464154 0.000000 0.000000
0.478922 0.000000 0.000000
0.496446 0.000000 0.000000
0.513971 0.000000 0.000000
0.531495 0.000000 0.000000
0.549019 0.000000 0.000000
0.565380 0.000000 0.000000
0.581311 0.000000 0.000000
0.593750 0.000000 0.000000
0.614032 0.000000 0.000000
0.628799 0.000000 0.000000
0.646324 0.000000 0.000000
0.659927 0.000000 0.000000
0.677451 0.000000 0.000000
0.691054 0.000000 0.000000
0.704105 0.000000 0.000000
0.721017 0.000000 0.000000
0.731863 0.000000 0.000000
0.749387 0.000000 0.000000
0.762684 0.000000 0.000000
0.780453 0.000000 0.000000
0.793137 0.000000 0.000000
0.807721 0.000000 0.000000
0.821262 0.000000 0.000000
0.843750 0.000000 0.000000
0.855637 0.000000 0.000000
0.871079 0.000000 0.000000
0.883579 0.000000 0.000000
0.897181 0.000000 0.000000
0.911948 0.000000 0.000000
0.929656 0.000000 0.000000
0.943076 0.000000 0.000000
0.956189 0.000000 0.000000
0.975551 0.000000 0.000000
0.986642 0.000000 0.000000
0.998162 0.000000 0.000000
1.000000 0.000000 0.000000
1.000000 0.000000 0.000000
0.000000 0.050490 0.000000
0.000000 0.050735 0.000000
0.000000 0.052574 0.000000
0.000000 0.055576 0.000000
0.000000 0.054657 0.000000
0.004596 0.058334 0.000000
0.015196 0.060171 0.000000
0.024877 0.062255 0.000000
0.046079 0.066177 0.000000
0.056435 0.066177 0.000000
0.082475 0.066177 0.000000
0.102573 0.062500 0.000000
0.130882 0.066177 0.000000
0.149571 0.062072 0.000000
0.178432 0.057230 0.000000
0.200245 0.050490 0.000000
0.224510 0.043627 0.000000
0.250551 0.030944 0.000000
0.275981 0.025245 0.000000
0.295527 0.007598 0.000000
0.319118 0.000000 0.000000
0.340563 0.000000 0.000000
0.362622 0.000000 0.000000
0.387133 0.000000 0.000000
0.403431 0.000000 0.000000
0.426103 0.000000 0.000000
0.451103 0.000000 0.000000
0.467708 0.000000 0.000000
0.484314 0.000000 0.000000
0.504044 0.000000 0.000000
0.517647 0.000000 0.000000
0.538051 0.000000 0.000000
0.549019 0.000000 0.000000
0.566544 0.000000 0.000000
0.580269 0.000000 0.000000
0.600552 0.000000 0.000000
0.615196 0.000000 0.000000
0.633762 0.000000 0.000000
0.650245 0.000000 0.000000
0.663297 0.000000 0.000000
0.679902 0.000000 0.000000
0.696262 0.000000 0.000000
0.709191 0.000000 0.000000
0.722182 0.000000 0.000000
0.738480 0.000000 0.000000
0.749387 0.000000 0.000000
0.767524 0.000000 0.000000
0.784129 0.000000 0.000000
0.794118 0.000000 0.000000
0.807721 0.000000 0.000000
0.825245 0.000000 0.000000
0.839093 0.000000 0.000000
0.856127 0.000000 0.000000
0.866299 0.000000 0.000000
0.884927 0.000000 0.000000
0.897426 0.000000 0.000000
0.917892 0.000000 0.000000
0.928309 0.000000 0.000000
0.945589 0.000000 0.000000
0.955086 0.000000 0.000000
0.976470 0.000000 0.000000
0.989155 0.000000 0.000000
1.000000 0.000000 0.000000
1.000000 0.000000 0.000000
1.000000 0.000000 0.000000
0.000000 0.064093 0.000000
0.000000 0.064767 -0.000245
0.000000 0.065931 0.000000
0.000000 0.070772 0.000000
0.000000 0.068689 0.000000
0.000000 0.072610 0.000000
0.009436 0.072610 0.000000
0.023223 0.075123 0.000000
0.044914 0.075858 0.000000
0.060785 0.079779 0.000000
0.083149 0.079779 0.000000
0.106189 0.079779 0.000000
0.134988 0.079779 0.000000
0.154840 0.076348 0.000000
0.180454 0.070833 0.000000
0.205392 0.065993 0.000000
0.229780 0.060172 0.000000
0.255392 0.055576 0.000000
0.277758 0.039706 0.000000
0.304044 0.027696 0.000000
0.326409 0.012316 0.000000
0.345160 -0.001286 0.000000
0.370527 0.000000 0.000000
0.391299 0.000000 0.000000
0.409498 0.000000 0.000000
0.430270 0.000000 0.000000
0.448468 0.000000 0.000000
0.470527 0.000000 0.000000
0.483517 0.000000 0.000000
0.504963 0.000000 0.000000
0.522366 0.000000 0.000000
0.537132 0.000000 0.000000
0.553615 0.000000 0.000000
0.571140 0.000000 0.000000
0.584743 0.000000 0.000000
0.602267 0.000000 0.000000
0.619791 0.000000 0.000000
0.634682 0.000000 0.000000
0.650919 0.000000 0.000000
0.664522 0.000000 0.000000
0.682046 0.000000 0.000000
0.693934 0.000000 0.000000
0.709865 0.000000 0.000000
0.722856 0.000000 0.000000
0.739155 0.000000 0.000000
0.751839 0.000000 0.000000
0.767585 0.000000 0.000000
0.781189 0.000000 0.000000
0.797733 0.000000 0.000000
0.812316 0.000000 0.000000
0.829167 0.000000 0.000000
0.839705 0.000000 0.000000
0.856311 0.000000 0.000000
0.870650 0.000000 0.000000
0.885600 0.000000 0.000000
0.901777 0.000000 0.000000
0.915563 0.000000 0.000000
0.928247 0.000000 0.000000
0.944914 0.000000 0.000000
0.953615 0.000000 0.000000
0.970894 0.000000 0.000000
0.984068 0.000000 0.000000
0.996752 0.000000 0.000000
1.000000 0.000000 0.000000
1.000000 0.000000 0.000000
0.000000 0.080024 0.002329
0.000000 0.081618 0.000000
0.000000 0.083946 0.000000
0.000000 0.086703 0.000000
0.000000 0.085539 0.000000
0.000000 0.089461 0.000000
0.001593 0.089461 0.000000
0.015196 0.089461 0.000000
0.038481 0.093382 0.000000
0.065196 0.098469 0.000000
0.086397 0.095711 0.000000
0.111090 0.095711 0.000000
0.138970 0.094118 0.000000
0.166667 0.097120 0.000000
0.189216 0.089951 0.000000
0.213480 0.085110 0.000000
0.237867 0.078676 0.000000
0.266483 0.073835 0.000000
0.287255 0.062746 0.000000
0.309436 0.052206 0.000000
0.328554 0.036274 0.000000
0.353615 0.024694 0.000000
0.375368 0.006495 0.000000
0.395221 0.000000 0.000000
0.416667 0.000000 0.000000
0.434191 0.000000 0.000000
0.456863 0.000000 0.000000
0.474755 0.000000 0.000000
0.490687 0.000000 0.000000
0.511336 0.000000 0.000000
0.527205 0.000000 0.000000
0.543811 0.000000 0.000000
0.556495 0.000000 0.000000
0.577267 0.000000 0.000000
0.591912 0.000000 0.000000
0.607108 0.000000 0.000000
0.624755 0.000000 0.000000
0.640564 0.000000 0.000000
0.652206 0.000000 0.000000
0.674326 0.000000 0.000000
0.686765 0.000000 0.000000
0.702022 0.000000 0.000000
0.716422 0.000000 0.000000
0.730025 0.000000 0.000000
0.743627 0.000000 0.000000
0.757230 0.000000 0.000000
0.772427 0.000000 0.000000
0.789889 0.000000 0.000000
0.802573 0.000000 0.000000
0.817157 0.000000 0.000000
0.833088 0.000000 0.000000
0.846691 0.000000 0.000000
0.860295 0.000000 0.000000
0.873897 0.000000 0.000000
0.891422 0.000000 0.000000
0.905024 0.000000 0.000000
0.918627 0.000000 0.000000
0.932231 0.000000 0.000000
0.947427 0.000000 0.000000
0.963358 0.000000 0.000000
0.978309 0.000000 0.000000
0.990563 0.000000 0.000000
1.000000 0.000000 0.000000
1.000000 0.000000 0.000000
1.000000 0.000000 0.000000
0.000000 0.095220 0.000000
0.000000 0.099142 0.000000
0.000000 0.098468 0.000000
0.000000 0.098897 0.000000
0.000000 0.102818 0.000000
0.000000 0.103063 0.000000
0.000000 0.106985 0.000000
0.006434 0.106985 0.000000
0.027880 0.110906 0.000000
0.054106 0.108823 0.000000
0.083885 0.112316 0.000000
0.112684 0.114828 0.000000
0.138970 0.112316 0.000000
0.165257 0.108395 0.000000
0.191544 0.109804 0.000000
0.217831 0.104963 0.000000
0.239767 0.098714 0.000000
0.266483 0.091361 0.000000
0.288848 0.082598 0.000000
0.315870 0.076348 0.000000
0.337316 0.064890 0.000000
0.357353 0.049878 0.000000
0.378309 0.036274 0.000000
0.401654 0.018750 0.000000
0.419117 0.000000 0.000000
0.440625 0.000000 0.000000
0.462071 0.000000 0.000000
0.477083 0.000000 0.000000
0.497120 0.000000 0.000000
0.511520 0.000000 0.000000
0.529657 0.000000 0.000000
0.545771 0.000000 0.000000
0.563296 0.000000 0.000000
0.581189 0.000000 0.000000
0.595833 0.000000 0.000000
0.613358 0.000000 0.000000
0.629473 0.000000 0.000000
0.644486 0.000000 0.000000
0.660600 0.000000 0.000000
0.675613 0.000000 0.000000
0.689216 0.000000 0.000000
0.704350 0.000000 0.000000
0.720344 0.000000 0.000000
0.736151 0.000000 0.000000
0.745037 0.000000 0.000000
0.761152 0.000000 0.000000
0.774204 0.000000 0.000000
0.788358 0.000000 0.000000
0.804902 0.000000 0.000000
0.819485 0.000000 0.000000
0.833088 0.000000 0.000000
0.846875 0.000000 0.000000
0.865992 0.000000 0.000000
0.875306 0.000000 0.000000
0.891422 0.000000 0.000000
0.905453 0.000000 0.000000
0.922059 0.000000 0.000000
0.937254 0.000000 0.000000
0.949755 0.000000 0.000000
0.962623 0.000000 0.000000
0.979229 0.000000 0.000000
0.993076 0.000000 0.000000
1.000000 0.000000 0.000000
1.000000 0.000000 0.000000
1.000000 0.000000 0.000000
0.000000 0.112745 0.000000
0.000000 0.115747 0.000000
0.000000 0.111151 0.000000
0.000000 0.115502 0.000000
0.000000 0.116667 0.000000
0.000000 0.120588 0.000000
0.000000 0.126348 0.000000
0.000000 0.124510 0.000000
0.015196 0.125000 0.000000
0.041912 0.128432 0.000000
0.078554 0.128432 0.000000
0.108762 0.131862 0.000000
0.138970 0.132598 0.000000
0.165441 0.128432 0.000000
0.194976 0.124510 0.000000
0.223162 0.125919 0.000000
0.248039 0.120588 0.000000
0.273836 0.116176 0.000000
0.299265 0.107966 0.000000
0.322488 0.100490 0.000000
0.344853 0.089951 0.000000
0.367708 0.081189 0.000000
0.382230 0.064584 0.000000
0.406495 0.053799 0.000000
0.427942 0.037255 0.000000
0.445956 0.018811 0.000000
0.466912 0.000000 0.000000
0.484436 0.000000 0.000000
0.498530 0.000000 0.000000
0.520282 0.000000 0.000000
0.537010 0.000000 0.000000
0.553493 0.000000 0.000000
0.564705 0.000000 0.000000
0.585662 0.000000 0.000000
0.599387 0.000000 0.000000
0.619914 0.000000 0.000000
0.634314 0.000000 0.000000
0.649203 0.000000 0.000000
0.665932 0.000000 0.000000
0.682414 0.000000 0.000000
0.696569 0.000000 0.000000
0.708272 0.000000 0.000000
0.724387 0.000000 0.000000
0.737377 0.000000 0.000000
0.750981 0.000000 0.000000
0.765073 0.000000 0.000000
0.779044 0.000000 0.000000
0.792280 0.000000 0.000000
0.805883 0.000000 0.000000
0.821507 0.000000 0.000000
0.835907 0.000000 0.000000
0.850306 0.000000 0.000000
0.864216 0.000000 0.000000
0.880086 0.000000 0.000000
0.895343 0.000000 0.000000
0.908946 0.000000 0.000000
0.922059 0.000000 0.000000
0.938664 0.000000 0.000000
0.951348 0.000000 0.000000
0.963358 0.000000 0.000000
0.976961 0.000000 0.000000
0.988296 0.000000 0.000000
1.000000 0.000000 0.000000
1.000000 0.000000 0.000000
1.000000 0.000000 0.000000
0.000000 0.130699 0.000000
0.000000 0.134681 0.000000
0.000000 0.130699 0.000000
0.000000 0.134191 0.000000
0.000000 0.134191 0.000000
0.000000 0.138113 0.000000
0.000000 0.143198 0.000000
0.000000 0.144118 0.000000
0.000000 0.139032 0.000000
0.036152 0.149449 0.000000
0.072549 0.146385 0.000000
0.102757 0.149878 0.000000
0.134314 0.146385 0.000000
0.165012 0.146140 0.000000
0.191973 0.145956 0.000000
0.221752 0.143934 0.000000
0.245527 0.135600 0.000000
0.274754 0.134681 0.000000
0.301042 0.129841 0.000000
0.327329 0.125000 0.000000
0.349693 0.116237 0.000000
0.368443 0.107475 0.000000
0.390318 0.095221 0.000000
0.411336 0.084927 0.000000
0.432782 0.077267 0.000000
0.450306 0.057721 0.000000
0.471323 0.040258 0.000000
0.487991 0.015686 0.000000
0.508579 -0.002267 0.000000
0.527022 0.000000 0.000000
0.541728 0.000000 0.000000
0.554411 0.000000 0.000000
0.572549 0.000000 0.000000
0.590503 0.000000 0.000000
0.604227 0.000000 0.000000
0.621630 0.000000 0.000000
0.639154 0.000000 0.000000
0.656250 0.000000 0.000000
0.669853 0.000000 0.000000
0.683456 0.000000 0.000000
0.700980 0.000000 0.000000
0.714583 0.000000 0.000000
0.728187 0.000000 0.000000
0.741911 0.000000 0.000000
0.755392 0.000000 0.000000
0.765502 0.000000 0.000000
0.782598 0.000000 0.000000
0.796201 0.000000 0.000000
0.809252 0.000000 0.000000
0.823836 0.000000 0.000000
0.838541 0.000000 0.000000
0.854534 0.000000 0.000000
0.868138 0.000000 0.000000
0.883394 0.000000 0.000000
0.896691 0.000000 0.000000
0.912867 0.000000 0.000000
0.922978 0.000000 0.000000
0.940074 0.000000 0.000000
0.951348 0.000000 0.000000
0.967279 0.000000 0.000000
0.980453 0.000000 0.000000
0.993750 0.000000 0.000000
1.000000 0.000000 0.000000
1.000000 0.000000 0.000000
1.000000 0.000000 0.000000
0.000000 0.147794 0.000000
0.000000 0.149142 0.000000
0.000000 0.151716 0.000000
0.000000 0.151716 0.000000
0.000000 0.151716 0.000000
0.000000 0.155637 0.000000
0.000000 0.158211 0.000000
0.000000 0.160723 0.000000
0.000000 0.160907 0.000000
0.014215 0.163909 0.000000
0.060294 0.167402 0.000000
0.095343 0.169669 0.000000
0.129780 0.168137 0.000000
0.165257 0.167402 0.000000
0.192647 0.164583 0.000000
0.225674 0.167402 0.000000
0.251961 0.160539 0.000000
0.278247 0.155698 0.000000
0.304044 0.151716 0.000000
0.330821 0.149939 0.000000
0.357108 0.142525 0.000000
0.379473 0.133762 0.000000
0.401225 0.125000 0.000000
0.418750 0.116238 0.000000
0.437623 0.102451 0.000000
0.455148 0.092218 0.000000
0.476593 0.079535 0.000000
0.494056 0.065564 0.000000
0.511642 0.044608 0.000000
0.530943 0.025368 0.000000
0.546568 0.002696 0.000000
0.560294 0.000000 0.000000
0.579779 0.000000 0.000000
0.595343 0.000000 0.000000
0.609069 0.000000 0.000000
0.630944 0.000000 0.000000
0.642280 0.000000 0.000000
0.656311 0.000000 0.000000
0.673775 0.000000 0.000000
0.687378 0.000000 0.000000
0.704902 0.000000 0.000000
0.718505 0.000000 0.000000
0.730147 0.000000 0.000000
0.745404 0.000000 0.000000
0.759437 0.000000 0.000000
0.772917 0.000000 0.000000
0.786519 0.000000 0.000000
0.798775 0.000000 0.000000
0.812378 0.000000 0.000000
0.829902 0.000000 0.000000
0.843505 0.000000 0.000000
0.854718 0.000000 0.000000
0.871323 0.000000 0.000000
0.885662 0.000000 0.000000
0.896691 0.000000 0.000000
0.910722 0.000000 0.000000
0.926470 0.000000 0.000000
0.938664 0.000000 0.000000
0.956250 0.000000 0.000000
0.964032 0.000000 0.000000
0.979534 0.000000 0.000000
0.993137 0.000000 0.000000
1.000000 0.000000 0.000000
1.000000 0.000000 0.000000
1.000000 0.000000 0.000000
0.000000 0.174816 0.000000
0.000000 0.171814 0.000000
0.000000 0.177512 0.000000
0.000000 0.175919 0.000000
0.000000 0.177083 0.000000
0.000000 0.177083 0.000000
0.000000 0.179412 0.000000
0.000000 0.179351 0.000000
0.000000 0.181005 0.000000
0.001532 0.185355 0.000000
0.046691 0.186274 0.000000
0.093076 0.190502 0.000000
0.128125 0.189583 0.000000
0.165257 0.194852 0.000000
0.194302 0.188848 0.000000
0.223775 0.187194 0.000000
0.253615 0.181985 0.000000
0.283762 0.181005 0.000000
0.306189 0.176226 0.000000
0.332966 0.171875 0.000000
0.357108 0.165318 0.000000
0.383395 0.161397 0.000000
0.407414 0.151900 0.000000
0.427328 0.147181 0.000000
0.446385 0.133579 0.000000
0.463909 0.123346 0.000000
0.483088 0.114583 0.000000
0.503860 0.101900 0.000000
0.516422 0.089216 0.000000
0.533150 0.074020 0.000000
0.553186 0.060172 0.000000
0.571324 0.036274 0.000000
0.586581 0.009068 0.000000
0.604105 -0.001225 0.000000
0.621630 0.000000 0.000000
0.635233 0.000000 0.000000
0.652758 0.000000 0.000000
0.668015 0.000000 0.000000
0.678677 0.000000 0.000000
0.696937 0.000000 0.000000
0.709620 0.000000 0.000000
0.724694 0.000000 0.000000
0.739951 0.000000 0.000000
0.749633 0.000000 0.000000
0.765931 0.000000 0.000000
0.780883 0.000000 0.000000
0.794362 0.000000 0.000000
0.810171 0.000000 0.000000
0.819914 0.000000 0.000000
0.831250 0.000000 0.000000
0.848774 0.000000 0.000000
0.860907 0.000000 0.000000
0.875245 0.000000 0.000000
0.890197 0.000000 0.000000
0.902880 0.000000 0.000000
0.915564 0.000000 0.000000
0.928738 0.000000 0.000000
0.943995 0.000000 0.000000
0.959865 0.000000 0.000000
0.972855 0.000000 0.000000
0.984804 0.000000 0.000000
1.000000 0.000000 0.000000
1.000000 0.000000 0.000000
1.000000 0.000000 0.000000
1.000000 0.000000 0.000000
0.000000 0.190686 0.000000
0.000000 0.193872 0.000000
0.000000 0.191422 0.000000
0.000000 0.191422 0.000000
0.000000 0.190932 0.000000
0.000000 0.191360 0.000000
0.000000 0.193014 0.000000
0.000000 0.197120 0.000000
0.000000 0.198529 0.000000
-0.002758 0.202451 0.000000
0.029167 0.208211 0.000000
0.075551 0.206372 0.000000
0.119363 0.210294 0.000000
0.154412 0.213297 0.000000
0.191544 0.212378 0.000000
0.221752 0.206372 0.000000
0.248774 0.203432 0.000000
0.282108 0.201777 0.000000
0.310784 0.200122 0.000000
0.331557 0.192831 0.000000
0.356617 0.186764 0.000000
0.382966 0.182415 0.000000
0.412255 0.178186 0.000000
0.433701 0.172733 0.000000
0.455148 0.167157 0.000000
0.472120 0.154473 0.000000
0.490196 0.142524 0.000000
0.507169 0.133762 0.000000
0.525245 0.125980 0.000000
0.542770 0.111581 0.000000
0.560417 0.098897 0.000000
0.575674 0.085478 0.000000
0.592156 0.070098 0.000000
0.612868 0.056373 0.000000
0.626471 0.029657 0.000000
0.643995 0.003187 0.000000
0.659804 0.000000 0.000000
0.675674 0.000000 0.000000
0.685907 0.000000 0.000000
0.704963 0.000000 0.000000
0.718383 0.000000 0.000000
0.729534 0.000000 0.000000
0.743015 0.000000 0.000000
0.760356 0.000000 0.000000
0.767157 0.000000 0.000000
0.785723 0.000000 0.000000
0.797549 0.000000 0.000000
0.815013 0.000000 0.000000
0.821569 0.000000 0.000000
0.840380 0.000000 0.000000
0.851593 0.000000 0.000000
0.866299 0.000000 0.000000
0.879167 0.000000 0.000000
0.892770 0.000000 0.000000
0.907108 0.000000 0.000000
0.916912 0.000000 0.000000
0.937009 0.000000 0.000000
0.947917 0.000000 0.000000
0.960784 0.000000 0.000000
0.971875 0.000000 0.000000
0.988480 0.000000 0.000000
1.000000 0.000000 0.000000
1.000000 0.000000 0.000000
1.000000 0.000000 0.000000
1.000000 0.000000 0.000000
0.000000 0.211949 0.000000
0.000000 0.212133 0.000000
0.000000 0.208394 0.000000
0.000000 0.212133 0.000000
0.000000 0.215809 0.000000
0.000000 0.212133 0.000000
0.000000 0.212133 0.000000
0.000000 0.216054 0.000000
0.000000 0.219485 0.000000
0.000000 0.219976 0.000000
0.004044 0.223713 0.000000
0.066299 0.225980 0.000000
0.105943 0.220895 0.000000
0.145649 0.227819 0.000000
0.184620 0.232660 0.000000
0.213909 0.225980 0.000000
0.247058 0.221323 0.000000
0.278002 0.223897 0.000000
0.304535 0.219302 0.000000
0.336336 0.214460 0.000000
0.363541 0.214828 0.000000
0.383395 0.204473 0.000000
0.409681 0.200551 0.000000
0.432047 0.196446 0.000000
0.452145 0.190257 0.000000
0.480699 0.185416 0.000000
0.495037 0.176839 0.000000
0.513848 0.169178 0.000000
0.534007 0.159129 0.000000
0.551532 0.147426 0.000000
0.569056 0.137868 0.000000
0.586581 0.129105 0.000000
0.604105 0.116422 0.000000
0.621446 0.107660 0.000000
0.638848 0.091239 0.000000
0.648836 0.074020 0.000000
0.666176 0.056496 0.000000
0.679964 0.035417 0.000000
0.693750 0.006679 0.000000
