Color/Polaroid/Polaroid PX-70 1 -- 65x.cube
TITLE "Polaroid PX-70 1 --"
LUT_3D_SIZE 9
DOMAIN_MIN 0.000000 0.000000 0.000000
DOMAIN_MAX 1.000000 1.000000 1.000000
0.000000 0.000000 0.000000
0.000000 0.015196 0.011275
0.089216 0.035294 0.023529
0.270098 0.025000 0.045588
0.507844 0.000000 0.068628
0.732353 0.089216 0.078431
0.884314 0.261765 0.074510
0.972549 0.408823 0.082353
1.000000 0.525490 0.141176
0.000000 0.061765 0.026961
0.000000 0.070098 0.023529
0.107353 0.074020 0.026471
0.289706 0.077941 0.047059
0.514216 0.083824 0.066667
0.731372 0.160784 0.068627
0.883333 0.299510 0.065196
0.969117 0.428431 0.074510
1.000000 0.540686 0.133823
0.000000 0.182353 0.066667
0.000000 0.189216 0.073530
0.059804 0.205882 0.058824
0.317157 0.212745 0.049510
0.531373 0.207843 0.044117
0.732353 0.270098 0.038725
0.878432 0.371569 0.018627
0.958824 0.471568 0.037255
1.000000 0.567647 0.120589
0.000000 0.353922 0.090196
0.000000 0.359804 0.097549
0.000000 0.368627 0.086275
0.307843 0.385294 0.052451
0.557353 0.399510 0.001471
0.730882 0.408824 0.000000
0.862255 0.455392 0.000000
0.950980 0.530392 0.000000
1.000000 0.607843 0.089216
0.000000 0.533334 0.092157
0.000000 0.533824 0.094608
0.000000 0.537254 0.101961
0.331373 0.547059 0.072549
0.562745 0.554902 0.000000
0.748529 0.571078 0.000000
0.857843 0.584313 0.000000
0.937745 0.601960 0.000000
1.000000 0.650980 0.000000
0.000000 0.673529 0.119118
0.103431 0.676961 0.128922
0.273039 0.673529 0.134804
0.434314 0.675000 0.127451
0.601470 0.677451 0.100490
0.744117 0.681372 0.050000
0.855882 0.688726 0.000000
0.925980 0.700980 0.000000
0.996078 0.724510 0.037255
0.393137 0.767647 0.207844
0.427941 0.770588 0.214706
0.478432 0.766667 0.218627
0.556863 0.766667 0.233334
0.653921 0.766667 0.220588
0.752451 0.770588 0.202451
0.837255 0.771568 0.176471
0.918627 0.786765 0.157353
0.985294 0.806863 0.196078
0.600980 0.858824 0.337745
0.616176 0.859314 0.342156
0.639216 0.855882 0.346078
0.680882 0.859314 0.363235
0.724020 0.857843 0.359804
0.781863 0.867157 0.357353
0.843627 0.875000 0.349020
0.906372 0.886765 0.342156
0.976471 0.902451 0.345588
0.725490 0.964706 0.498039
0.732843 0.964706 0.501961
0.742156 0.964706 0.505882
0.760784 0.964706 0.513726
0.784314 0.966666 0.529412
0.817157 0.970098 0.526961
0.858824 0.976471 0.529412
0.906372 0.984314 0.537255
0.956863 0.992157 0.549020
0.000000 0.015686 0.070098
0.000000 0.030883 0.066177
0.083824 0.041666 0.085295
0.277941 0.075000 0.117157
0.517647 0.115196 0.138725
0.736274 0.178922 0.143137
0.886765 0.305882 0.143137
0.969117 0.432353 0.155883
1.000000 0.541176 0.199510
0.000000 0.074020 0.089706
0.000000 0.081373 0.097059
0.103431 0.104411 0.108333
0.299510 0.127451 0.121079
0.525000 0.155392 0.132843
0.737745 0.220098 0.136275
0.883333 0.333823 0.133333
0.966176 0.451470 0.149020
1.000000 0.552941 0.195588
0.000000 0.200981 0.124510
0.000000 0.201961 0.121079
0.098530 0.217157 0.117157
0.331373 0.224019 0.112255
0.542157 0.239216 0.113235
0.736274 0.298530 0.110294
0.876961 0.393137 0.107353
0.961764 0.489706 0.128922
1.000000 0.577451 0.181863
0.000000 0.365686 0.130392
0.000000 0.368137 0.132843
0.000490 0.375980 0.133333
0.328431 0.392647 0.110294
0.566176 0.403431 0.085294
0.736274 0.412745 0.055392
0.867647 0.469608 0.044608
0.953431 0.544117 0.083824
1.000000 0.614216 0.160294
0.000000 0.541176 0.132843
0.000000 0.539706 0.135294
0.081863 0.541176 0.141666
0.357353 0.549019 0.124510
0.574510 0.558823 0.087255
0.748039 0.569118 0.023039
0.858824 0.583333 0.000000
0.936274 0.599020 0.000000
1.000000 0.656863 0.101471
0.084314 0.675980 0.157843
0.187745 0.677451 0.161765
0.312255 0.675980 0.169608
0.455882 0.677451 0.171568
0.609314 0.677941 0.150000
0.748039 0.683824 0.118627
0.855883 0.689706 0.079902
0.925000 0.701961 0.078921
0.994608 0.723039 0.110294
0.412746 0.767647 0.231372
0.448039 0.771078 0.241177
0.498039 0.770098 0.246078
0.569117 0.767157 0.259314
0.663235 0.768628 0.249510
0.756372 0.770098 0.231372
0.840196 0.774510 0.210294
0.918137 0.786765 0.195098
0.985294 0.809314 0.226961
0.608823 0.855882 0.350000
0.624510 0.859314 0.357843
0.647059 0.859314 0.364706
0.685294 0.859804 0.373039
0.729412 0.862745 0.377451
0.782353 0.865196 0.369607
0.843627 0.875000 0.365196
0.906372 0.886275 0.354412
0.976471 0.902451 0.357843
0.729412 0.964706 0.505882
0.733333 0.964706 0.505882
0.744608 0.964706 0.513236
0.761764 0.965686 0.521569
0.788235 0.968627 0.535294
0.819608 0.972549 0.537255
0.858824 0.975981 0.537255
0.903432 0.981373 0.542156
0.956863 0.988725 0.553431
0.000000 0.042157 0.151961
0.000000 0.057844 0.151471
0.074510 0.097059 0.154902
0.263236 0.086275 0.175000
0.518628 0.082353 0.193137
0.748039 0.174510 0.209314
0.887255 0.374510 0.244118
0.967647 0.481863 0.264706
1.000000 0.571568 0.302941
0.000000 0.100981 0.171078
0.000000 0.112745 0.171568
0.103431 0.147549 0.168137
0.293627 0.140686 0.186274
0.542157 0.162255 0.199020
0.751471 0.285784 0.225980
0.884804 0.395588 0.237745
0.964706 0.493628 0.257353
1.000000 0.583333 0.300000
0.000000 0.209804 0.183334
0.000000 0.217157 0.186274
0.152941 0.228432 0.191176
0.351471 0.259314 0.199020
0.568627 0.299020 0.206863
0.751961 0.356373 0.210785
0.880392 0.435294 0.218628
0.958824 0.521569 0.242647
1.000000 0.600000 0.286274
0.000000 0.377451 0.199020
0.000000 0.381373 0.202941
0.171569 0.388235 0.199510
0.373529 0.403431 0.193627
0.582843 0.410784 0.176961
0.749510 0.433824 0.173530
0.871568 0.494608 0.183334
0.950000 0.564216 0.214216
1.000000 0.633824 0.269608
0.033334 0.549019 0.212745
0.064706 0.552451 0.205392
0.240196 0.549019 0.206863
0.408333 0.556863 0.206863
0.596078 0.564705 0.184314
0.756372 0.574020 0.162745
0.861765 0.585294 0.151961
0.937745 0.610294 0.161275
1.000000 0.662745 0.221569
0.245588 0.679902 0.224020
0.300490 0.679902 0.228431
0.388235 0.679902 0.234314
0.495588 0.678921 0.245098
0.628921 0.681372 0.231863
0.752941 0.685294 0.208334
0.856863 0.691667 0.190196
0.925980 0.703431 0.186764
0.996078 0.723039 0.201961
0.462745 0.767647 0.285294
0.491177 0.770588 0.291667
0.535294 0.769607 0.298039
0.600490 0.769608 0.307843
0.675490 0.767647 0.306863
0.761765 0.770588 0.293137
0.841177 0.775490 0.272549
0.918627 0.788235 0.263236
0.984314 0.809804 0.285294
0.628431 0.859314 0.384804
0.642647 0.859314 0.388725
0.663235 0.860294 0.396568
0.695098 0.860785 0.400980
0.736275 0.862255 0.412255
0.789216 0.868137 0.406863
0.844117 0.876471 0.399020
0.906372 0.884804 0.389706
0.976471 0.902941 0.395588
0.730392 0.964706 0.517647
0.734314 0.964706 0.522549
0.745098 0.964706 0.525490
0.764706 0.964706 0.535784
0.790196 0.968627 0.549020
0.821078 0.970098 0.552941
0.859804 0.976471 0.552941
0.906372 0.980882 0.559804
0.956863 0.992157 0.572549
0.000000 0.084804 0.245588
0.000000 0.104412 0.248039
0.199020 0.154412 0.245588
0.323530 0.204902 0.249510
0.498039 0.173530 0.267157
0.727451 0.171078 0.288726
0.893628 0.276471 0.304412
0.975000 0.441667 0.331863
1.000000 0.601471 0.403922
0.000000 0.143137 0.256863
0.036765 0.158823 0.259804
0.226471 0.201471 0.257353
0.347059 0.249019 0.257353
0.521569 0.223529 0.275000
0.740196 0.235785 0.292647
0.893628 0.330882 0.306863
0.967647 0.493627 0.347549
1.000000 0.632353 0.423039
0.000000 0.245588 0.261765
0.000000 0.253432 0.265196
0.234804 0.272059 0.272549
0.389706 0.328431 0.272059
0.563725 0.310295 0.284804
0.765196 0.355882 0.300000
0.885294 0.462745 0.325490
0.950490 0.585294 0.381373
1.000000 0.650490 0.417647
0.000000 0.389216 0.269118
0.000000 0.394117 0.270588
0.244608 0.404412 0.279412
0.437255 0.419118 0.287255
0.618137 0.448039 0.292647
0.768627 0.492647 0.306863
0.875490 0.548530 0.326471
0.945588 0.605392 0.351961
1.000000 0.667647 0.397059
0.178431 0.553432 0.284804
0.254412 0.556863 0.288726
0.382353 0.560785 0.294608
0.485784 0.565196 0.297059
0.629902 0.572549 0.289216
0.770098 0.578922 0.279412
0.867647 0.592156 0.279412
0.939215 0.635294 0.308334
0.998529 0.686765 0.355882
0.432843 0.678431 0.329412
0.472059 0.679902 0.333333
0.495098 0.682353 0.325000
0.561764 0.685294 0.326471
0.658824 0.683824 0.327941
0.766176 0.687745 0.309804
0.859804 0.694118 0.299020
0.927451 0.701471 0.292647
0.997549 0.723039 0.305392
0.553431 0.767647 0.367157
0.565686 0.770588 0.368627
0.588236 0.770588 0.365196
0.640686 0.770588 0.374510
0.701471 0.770098 0.383333
0.772058 0.772549 0.371078
0.845098 0.777941 0.354412
0.918627 0.790686 0.348039
0.985294 0.810784 0.360785
0.648039 0.859804 0.424509
0.661765 0.863235 0.433824
0.679412 0.862745 0.435784
0.710294 0.861275 0.443627
0.749020 0.865196 0.454902
0.792647 0.870098 0.452941
0.844117 0.878431 0.445588
0.906372 0.887255 0.438726
0.977941 0.904412 0.443627
0.733333 0.964706 0.541176
0.741176 0.966176 0.549020
0.750000 0.965686 0.552451
0.768627 0.968627 0.560784
0.792157 0.968627 0.571078
0.822549 0.971569 0.584314
0.862745 0.976471 0.584314
0.906372 0.984314 0.590686
0.956863 0.992157 0.600000
0.033333 0.150981 0.349020
0.157843 0.168627 0.349020
0.322549 0.210784 0.353922
0.491176 0.294608 0.352942
0.600000 0.349020 0.360784
0.714706 0.305883 0.372059
0.870588 0.325491 0.398039
0.960784 0.435784 0.421568
1.000000 0.560784 0.452941
0.084313 0.205882 0.356862
0.184804 0.218628 0.356373
0.342157 0.256373 0.360784
0.507843 0.329412 0.358333
0.611765 0.382353 0.364706
0.724510 0.344608 0.376961
0.869118 0.362745 0.400490
0.957843 0.469118 0.424020
1.000000 0.584314 0.460785
0.081373 0.302941 0.358823
0.187255 0.309804 0.364706
0.343137 0.327451 0.368627
0.526961 0.391667 0.369118
0.632353 0.447059 0.375490
0.741176 0.417157 0.386275
0.873529 0.449019 0.407843
0.953431 0.540196 0.433824
1.000000 0.625490 0.469608
0.000000 0.422549 0.356862
0.089706 0.427941 0.360785
0.273529 0.434314 0.365686
0.519118 0.461765 0.380883
0.654902 0.522059 0.386765
0.765686 0.508334 0.401471
0.875490 0.557353 0.423530
0.944118 0.623039 0.450490
1.000000 0.710294 0.511765
0.201961 0.560785 0.368627
0.267647 0.562255 0.370588
0.388235 0.566666 0.376471
0.530392 0.572549 0.384804
0.670589 0.584313 0.398039
0.786274 0.613725 0.414216
0.871568 0.647058 0.433334
0.933823 0.682353 0.451471
0.994117 0.723529 0.484314
0.429902 0.679902 0.393627
0.469118 0.683333 0.398039
0.538235 0.683824 0.403922
0.633824 0.687745 0.417647
0.699510 0.689216 0.419117
0.777941 0.691667 0.409804
0.861765 0.695588 0.400000
0.929412 0.700490 0.395098
0.994117 0.745098 0.437745
0.602941 0.766667 0.438235
0.625000 0.770588 0.446078
0.659804 0.769608 0.449019
0.690686 0.771078 0.447549
0.729412 0.774510 0.449020
0.783333 0.774510 0.447549
0.851961 0.783333 0.439216
0.922059 0.794118 0.429902
0.988235 0.811765 0.434314
0.700490 0.859804 0.501961
0.706372 0.862255 0.504412
0.711765 0.863725 0.498040
0.723530 0.867157 0.490196
0.758823 0.867647 0.500000
0.796568 0.871568 0.508823
0.848039 0.880392 0.503431
0.908333 0.891176 0.497059
0.980392 0.908333 0.503922
0.745098 0.964706 0.586275
0.749020 0.968627 0.587745
0.750981 0.966666 0.582353
0.771078 0.970588 0.592157
0.796078 0.968627 0.601961
0.826961 0.972549 0.619608
0.863726 0.977451 0.625490
0.906372 0.984804 0.631373
0.954902 0.992157 0.641177
0.267157 0.234314 0.464216
0.335294 0.246568 0.466176
0.466177 0.281372 0.469608
0.616667 0.352941 0.470588
0.730392 0.466666 0.469608
0.791176 0.508824 0.477451
0.851470 0.469118 0.479411
0.936765 0.501470 0.503922
1.000000 0.576471 0.534804
0.284804 0.282843 0.468137
0.348530 0.293138 0.469608
0.475490 0.324019 0.472059
0.622059 0.387745 0.473529
0.734804 0.489706 0.472059
0.791666 0.530392 0.479902
0.851961 0.496569 0.483333
0.933823 0.523039 0.505882
1.000000 0.596078 0.538725
0.266177 0.357843 0.471079
0.332353 0.365196 0.472059
0.471568 0.392647 0.475980
0.625981 0.447549 0.480392
0.739706 0.533334 0.479902
0.795098 0.575490 0.485294
0.853431 0.547059 0.490687
0.932353 0.569608 0.514216
0.997549 0.632353 0.544608
0.201471 0.475490 0.460294
0.288726 0.478431 0.465196
0.447059 0.488726 0.473529
0.606373 0.509804 0.481372
0.744608 0.581863 0.489216
0.802941 0.628921 0.498039
0.855883 0.607843 0.501961
0.929902 0.621569 0.521079
0.998529 0.681863 0.556863
0.260784 0.586275 0.461765
0.311274 0.586275 0.462255
0.410784 0.586765 0.466667
0.536274 0.588726 0.470588
0.721078 0.619117 0.489706
0.804902 0.671569 0.506863
0.861765 0.658333 0.512745
0.930882 0.686275 0.532843
0.998039 0.731863 0.564706
0.434314 0.681372 0.472059
0.474510 0.685294 0.475490
0.538235 0.686765 0.480392
0.622059 0.687745 0.486275
0.711765 0.689706 0.491667
0.797549 0.699510 0.504902
0.867647 0.723039 0.523039
0.929412 0.750490 0.542647
0.992157 0.787255 0.571569
0.589216 0.767647 0.497059
0.610784 0.770588 0.500490
0.647549 0.770588 0.504412
0.696568 0.770588 0.509313
0.755882 0.774510 0.517157
0.801471 0.780882 0.524020
0.856863 0.787255 0.518628
0.922059 0.794118 0.509314
0.994608 0.806373 0.512255
0.690686 0.859804 0.550490
0.700980 0.863235 0.553431
0.720588 0.866177 0.557353
0.747549 0.867157 0.562255
0.778922 0.872059 0.567647
0.807843 0.875490 0.569117
0.851961 0.886275 0.574510
0.913235 0.895098 0.569608
0.977941 0.907843 0.571569
0.759314 0.968627 0.648529
0.763235 0.968627 0.650980
0.775000 0.968627 0.656373
0.786765 0.968627 0.652451
0.798039 0.972549 0.646568
0.831373 0.975000 0.664216
0.864216 0.980392 0.683824
0.906372 0.984804 0.686765
0.952941 0.993627 0.695588
0.485294 0.346078 0.577451
0.526961 0.357843 0.577451
0.614706 0.392157 0.577451
0.717157 0.452941 0.577451
0.801961 0.543137 0.578432
0.852451 0.638235 0.578922
0.879412 0.652941 0.585294
0.909804 0.613236 0.574020
0.980392 0.648039 0.613726
0.487745 0.381863 0.576961
0.530882 0.393628 0.578432
0.612255 0.420588 0.577451
0.715686 0.477451 0.577451
0.802941 0.560294 0.580882
0.854412 0.654412 0.582353
0.879902 0.665196 0.587745
0.906863 0.625490 0.574510
0.978922 0.659314 0.619118
0.470588 0.444117 0.575490
0.516177 0.451961 0.574019
0.604902 0.477451 0.577451
0.716177 0.526470 0.581863
0.803922 0.599020 0.586275
0.852451 0.674999 0.589216
0.881373 0.689216 0.597059
0.908333 0.655392 0.584314
0.978432 0.680392 0.625490
0.466177 0.540686 0.569608
0.507353 0.543137 0.572059
0.571569 0.539706 0.577451
0.698529 0.576961 0.580882
0.794608 0.631863 0.585294
0.854902 0.699510 0.598529
0.878431 0.717157 0.604902
0.907843 0.691176 0.597058
0.977941 0.708333 0.633824
0.325490 0.614706 0.550981
0.381863 0.617647 0.553922
0.504902 0.618627 0.559804
0.653431 0.630392 0.573039
0.772549 0.662745 0.589215
0.849019 0.717157 0.602941
0.877451 0.746078 0.611765
0.914215 0.725490 0.611765
0.981373 0.737254 0.639215
0.454412 0.695588 0.554412
0.489216 0.699510 0.560294
0.543628 0.698530 0.561764
0.615687 0.696569 0.564215
0.696569 0.694608 0.569117
0.823529 0.726961 0.597058
0.874510 0.776471 0.620588
0.919118 0.762255 0.625490
0.983334 0.796568 0.660294
0.578431 0.767647 0.568628
0.601471 0.773529 0.574510
0.632353 0.773529 0.575490
0.682843 0.771568 0.578432
0.740196 0.774510 0.583333
0.800980 0.780882 0.597549
0.863726 0.794118 0.614706
0.925980 0.822549 0.642157
0.980392 0.860785 0.681372
0.674020 0.863235 0.609314
0.682353 0.864706 0.614216
0.702451 0.867157 0.617157
0.733333 0.870098 0.624019
0.771568 0.872549 0.630392
0.817647 0.879412 0.645098
0.859804 0.887746 0.656863
0.914215 0.901961 0.660295
0.976961 0.907353 0.656373
0.740196 0.968627 0.701961
0.745098 0.969607 0.702941
0.756863 0.970588 0.706863
0.778922 0.972549 0.713236
0.808824 0.973529 0.723529
0.843137 0.980392 0.739216
0.867647 0.981372 0.746079
0.905882 0.988235 0.762255
0.952941 1.000000 0.773529
0.667157 0.499019 0.691176
0.686765 0.507353 0.690686
0.736765 0.537255 0.693628
0.794608 0.583333 0.694608
0.845098 0.637255 0.692647
0.882843 0.692157 0.691176
0.909314 0.753922 0.695098
0.929902 0.757353 0.703432
0.960784 0.734313 0.699510
0.660785 0.519118 0.691176
0.686765 0.530392 0.691176
0.732843 0.555883 0.694118
0.793137 0.596568 0.691667
0.846569 0.648529 0.694608
0.880392 0.698039 0.693138
0.910294 0.761764 0.701961
0.929902 0.761765 0.707353
0.960784 0.738235 0.702941
0.653431 0.560784 0.691176
0.675981 0.568627 0.691176
0.726470 0.589215 0.692157
0.787255 0.622549 0.695098
0.838726 0.670098 0.699019
0.880392 0.718628 0.701961
0.907353 0.771078 0.704412
0.929902 0.777451 0.714216
0.956863 0.751961 0.705392
0.628431 0.610784 0.688726
0.648039 0.610784 0.691176
0.704902 0.628431 0.693137
0.775490 0.657843 0.699019
0.831373 0.692647 0.700490
0.878431 0.739706 0.711275
0.906863 0.791176 0.718137
0.929902 0.800490 0.726470
0.956373 0.773039 0.714706
0.575490 0.670589 0.676961
0.607353 0.673039 0.681372
0.666667 0.675000 0.685294
0.731863 0.680392 0.693628
0.809804 0.708333 0.702941
0.866177 0.753431 0.714706
0.906372 0.806373 0.728431
0.927451 0.824020 0.737745
0.956863 0.800490 0.729902
0.489216 0.723530 0.659804
0.515687 0.724019 0.662255
0.551961 0.723039 0.662255
0.640686 0.722059 0.672549
0.753921 0.729412 0.687255
0.839216 0.762255 0.710784
0.899020 0.822059 0.736274
0.925490 0.855392 0.757353
0.960294 0.839706 0.758824
0.583823 0.791176 0.674019
0.598039 0.791176 0.677450
0.626961 0.793137 0.680392
0.664706 0.790196 0.678921
0.718627 0.788725 0.684314
0.773529 0.782353 0.685294
0.875490 0.825490 0.732353
0.922059 0.887745 0.778432
0.961274 0.879902 0.787255
0.654902 0.871078 0.706863
0.662255 0.874020 0.709804
0.680882 0.875000 0.710784
0.707843 0.873039 0.714706
0.747059 0.877451 0.721079
0.794608 0.883333 0.731863
0.851961 0.891667 0.750000
0.913725 0.906862 0.781372
0.956863 0.937745 0.821079
0.713236 0.972549 0.780882
0.720589 0.975490 0.780882
0.729412 0.973039 0.782353
0.752941 0.976471 0.789215
0.785784 0.978432 0.798529
0.823529 0.980392 0.811275
0.870588 0.984314 0.831863
0.902451 0.988725 0.851961
0.945098 1.000000 0.867157
0.776471 0.666667 0.839216
0.788235 0.674510 0.843137
0.804902 0.683334 0.836274
0.835294 0.705882 0.839216
0.868627 0.735294 0.835294
0.901961 0.772549 0.835294
0.925490 0.812745 0.831373
0.941176 0.862745 0.831373
0.956863 0.858824 0.847059
0.773039 0.674020 0.839216
0.784804 0.682353 0.843137
0.803432 0.689706 0.838726
0.833824 0.712255 0.839216
0.866667 0.741176 0.837255
0.899510 0.774020 0.835294
0.926471 0.816667 0.832353
0.937745 0.863235 0.834804
0.960294 0.866177 0.850490
0.768627 0.692157 0.845098
0.777451 0.698039 0.847059
0.799020 0.708823 0.846079
0.829902 0.726961 0.843137
0.862745 0.751961 0.842157
0.895588 0.787255 0.839216
0.922549 0.827451 0.839215
0.938235 0.871078 0.839216
0.956863 0.873530 0.852941
0.745098 0.705882 0.843137
0.757353 0.712746 0.850980
0.784804 0.725490 0.851470
0.815686 0.741176 0.847059
0.854902 0.764706 0.849019
0.889215 0.800000 0.846079
0.921569 0.836275 0.847059
0.939706 0.882843 0.850980
0.955392 0.888726 0.865196
0.721569 0.747059 0.850981
0.733333 0.747059 0.852941
0.751961 0.745098 0.852941
0.788725 0.752941 0.854902
0.835294 0.778431 0.856863
0.882353 0.813725 0.859314
0.917647 0.851961 0.858824
0.937255 0.896569 0.864706
0.950981 0.907843 0.876470
0.632353 0.777941 0.844608
0.653922 0.783824 0.852940
0.690196 0.781863 0.852451
0.738236 0.784313 0.856373
0.797058 0.792157 0.863235
0.856373 0.821078 0.866667
0.909804 0.867647 0.874510
0.933333 0.915196 0.878921
0.945098 0.930882 0.894118
0.612745 0.841177 0.859804
0.620588 0.844118 0.863726
0.636275 0.840196 0.865687
0.663725 0.834804 0.863726
0.710784 0.833334 0.867647
0.803432 0.840196 0.875490
0.883333 0.879412 0.891177
0.929412 0.934313 0.906862
0.941176 0.953922 0.914706
0.654902 0.918627 0.894608
0.655392 0.918137 0.894608
0.673529 0.921569 0.898039
0.696079 0.915686 0.898039
0.722059 0.914705 0.899019
0.765196 0.914705 0.906372
0.815686 0.909804 0.906372
0.909804 0.945098 0.925490
0.937255 0.980392 0.941666
0.694118 0.992157 0.929412
0.698039 0.992157 0.929412
0.709804 0.992157 0.933333
0.729412 0.992157 0.934804
0.756863 0.994117 0.937255
0.793627 0.993627 0.941176
0.836274 0.996078 0.946079
0.886765 1.000000 0.956863
0.933333 1.000000 0.972549
