Color/Polaroid/Polaroid 669 Cold 1 -- 65x.cube
TITLE "Polaroid 669 Cold 1 --"
LUT_3D_SIZE 9
DOMAIN_MIN 0.000000 0.000000 0.000000
DOMAIN_MAX 1.000000 1.000000 1.000000
0.000000 0.000000 0.000000
0.000000 0.030883 0.023039
0.068627 0.074510 0.050980
0.212745 0.101961 0.092647
0.364706 0.121569 0.150981
0.520588 0.141176 0.217157
0.650000 0.157843 0.272549
0.776961 0.192157 0.329412
0.905882 0.262745 0.396078
0.000000 0.112745 0.053922
0.000000 0.132353 0.058334
0.071569 0.143628 0.093628
0.236275 0.156373 0.135294
0.382353 0.168137 0.185784
0.539706 0.181373 0.242157
0.663236 0.195588 0.293628
0.781372 0.226961 0.341176
0.905882 0.289706 0.403922
0.000000 0.232353 0.152941
0.000000 0.236275 0.158823
0.078431 0.246078 0.163725
0.280883 0.248529 0.205392
0.445098 0.260784 0.263726
0.575980 0.264706 0.300980
0.688235 0.272549 0.335294
0.793137 0.296569 0.372059
0.909803 0.358823 0.428432
0.000000 0.325490 0.249510
0.000000 0.334314 0.264706
0.119608 0.335784 0.265196
0.310785 0.347549 0.273039
0.460784 0.345588 0.296079
0.600490 0.363235 0.352941
0.715687 0.382843 0.390686
0.812745 0.408824 0.422059
0.915196 0.465196 0.472059
0.023529 0.417647 0.325491
0.105392 0.421569 0.327942
0.194117 0.413725 0.331372
0.318627 0.425980 0.333333
0.456863 0.437255 0.337255
0.581863 0.439215 0.352941
0.708824 0.476471 0.405882
0.822059 0.535785 0.473039
0.909803 0.596078 0.525490
0.181863 0.504902 0.374020
0.216667 0.512745 0.383824
0.265686 0.503431 0.380392
0.342647 0.507353 0.379412
0.450490 0.520588 0.381863
0.570098 0.544118 0.385784
0.675000 0.551471 0.393137
0.794118 0.613726 0.459314
0.894118 0.703431 0.556863
0.269608 0.629412 0.422549
0.291667 0.631372 0.425490
0.323530 0.620589 0.421569
0.378431 0.613235 0.423040
0.465686 0.630392 0.423529
0.563235 0.650980 0.427941
0.661765 0.675490 0.430392
0.758824 0.691177 0.437255
0.871568 0.775490 0.534313
0.337255 0.789215 0.486275
0.352942 0.792647 0.486765
0.379903 0.782844 0.480393
0.425980 0.777451 0.482353
0.488726 0.781372 0.477450
0.577941 0.804902 0.490196
0.671568 0.828431 0.498529
0.773039 0.859804 0.514706
0.870588 0.879412 0.542156
0.513726 0.972549 0.647059
0.525490 0.972549 0.647059
0.542156 0.969607 0.648039
0.576471 0.972549 0.650980
0.619608 0.968627 0.650980
0.693137 0.976471 0.666667
0.777451 0.983334 0.690196
0.867647 0.988235 0.718137
0.964706 0.992157 0.760784
0.000000 0.026961 0.089216
0.000000 0.046569 0.108824
0.021078 0.092647 0.147549
0.209804 0.125490 0.187745
0.360784 0.154902 0.236765
0.511275 0.168627 0.277941
0.636275 0.179902 0.315686
0.761764 0.200490 0.353431
0.886275 0.254902 0.407353
0.000000 0.128432 0.151961
0.000000 0.140196 0.175000
0.026961 0.159804 0.194608
0.227941 0.178431 0.225000
0.383823 0.191667 0.261765
0.528431 0.200981 0.299020
0.652451 0.211765 0.329412
0.770588 0.231863 0.369117
0.890196 0.285785 0.419118
0.000000 0.247549 0.238725
0.000000 0.245588 0.241176
0.073529 0.253922 0.245098
0.285784 0.264216 0.283824
0.441667 0.271079 0.317647
0.566667 0.273039 0.339705
0.679902 0.278921 0.364706
0.791176 0.303921 0.398039
0.901470 0.358823 0.446568
0.000000 0.336765 0.301471
0.000000 0.343627 0.311765
0.140686 0.343137 0.315196
0.318628 0.354902 0.320589
0.466666 0.354902 0.342647
0.604412 0.371078 0.387745
0.713726 0.386765 0.414216
0.809314 0.409804 0.441667
0.909804 0.467647 0.488235
0.079902 0.431372 0.362255
0.140686 0.431863 0.364706
0.216176 0.425490 0.364216
0.329902 0.432353 0.366176
0.464706 0.445098 0.368137
0.583333 0.445098 0.379902
0.709314 0.483333 0.431863
0.819118 0.544118 0.495098
0.908333 0.594608 0.541176
0.200981 0.516667 0.399510
0.236275 0.524510 0.405392
0.279902 0.516667 0.403922
0.355392 0.515196 0.405392
0.457353 0.528921 0.405392
0.574020 0.551961 0.409314
0.679411 0.558333 0.415686
0.795098 0.620098 0.480882
0.892647 0.709314 0.574510
0.277451 0.637255 0.441177
0.300000 0.642157 0.444118
0.334313 0.634314 0.443627
0.384804 0.621569 0.439216
0.467647 0.635294 0.443137
0.563725 0.656372 0.444608
0.664706 0.682353 0.449020
0.761764 0.693627 0.452451
0.871568 0.780393 0.550490
0.337745 0.793137 0.498529
0.353431 0.797058 0.499510
0.383824 0.792647 0.499020
0.427451 0.785294 0.494608
0.492157 0.785294 0.494608
0.575490 0.805393 0.499019
0.671568 0.832353 0.510294
0.769607 0.860294 0.525980
0.867157 0.879902 0.553431
0.517647 0.972549 0.654902
0.525980 0.972549 0.658824
0.545098 0.972059 0.658334
0.576471 0.970098 0.656373
0.621568 0.972549 0.658824
0.692157 0.976471 0.674510
0.777451 0.982843 0.694118
0.868137 0.985294 0.722549
0.961274 0.992157 0.761274
0.000000 0.066667 0.229412
0.000000 0.074510 0.241176
0.000000 0.123529 0.272549
0.185784 0.168137 0.308333
0.371569 0.186275 0.338235
0.521569 0.184314 0.355882
0.636275 0.203922 0.384314
0.761764 0.222549 0.414706
0.881373 0.262745 0.450000
0.000000 0.164216 0.269118
0.000000 0.164706 0.288726
0.000000 0.187255 0.308333
0.212745 0.210785 0.336275
0.396079 0.217647 0.358823
0.530392 0.219118 0.375000
0.649510 0.230883 0.398529
0.769117 0.250000 0.422549
0.889706 0.296569 0.465196
0.000000 0.260784 0.334314
0.000000 0.264706 0.343137
0.079412 0.268627 0.362745
0.289216 0.280392 0.381373
0.440196 0.285295 0.397059
0.562745 0.286765 0.407353
0.675490 0.293137 0.423529
0.788235 0.313236 0.446569
0.898039 0.362745 0.485294
0.000000 0.359314 0.378431
0.000000 0.370098 0.394607
0.195588 0.363725 0.405882
0.344608 0.373039 0.409314
0.486274 0.375000 0.428432
0.607843 0.387745 0.453922
0.707843 0.394117 0.465196
0.804412 0.416667 0.487745
0.905882 0.471569 0.527941
0.156863 0.459804 0.434314
0.203922 0.463236 0.437745
0.264706 0.452941 0.434314
0.355882 0.450981 0.434314
0.482353 0.462746 0.434314
0.599020 0.466666 0.447549
0.717647 0.506863 0.495098
0.817647 0.553921 0.539706
0.901960 0.596078 0.572549
0.239706 0.545588 0.456863
0.271569 0.554412 0.462255
0.315686 0.546569 0.460294
0.374020 0.531863 0.457844
0.471569 0.548039 0.456863
0.583333 0.567647 0.460294
0.686765 0.577451 0.469118
0.796568 0.637255 0.531373
0.892647 0.724510 0.621078
0.297059 0.660784 0.487255
0.315687 0.662255 0.488236
0.350980 0.656863 0.486275
0.400980 0.646078 0.483333
0.473529 0.647059 0.481373
0.567157 0.668137 0.484314
0.668628 0.692157 0.488236
0.764215 0.702941 0.491177
0.873529 0.790196 0.589216
0.346569 0.806373 0.533823
0.361274 0.811765 0.537745
0.392157 0.805883 0.534804
0.433824 0.798039 0.529902
0.491177 0.791667 0.523529
0.577941 0.812255 0.532353
0.671568 0.836274 0.541666
0.770588 0.864216 0.553921
0.870588 0.885785 0.581372
0.517647 0.972549 0.674510
0.530392 0.973530 0.678431
0.546079 0.972549 0.675490
0.578922 0.972549 0.677941
0.621568 0.972549 0.678431
0.687745 0.976471 0.687745
0.773529 0.980392 0.706863
0.867647 0.988235 0.734313
0.964706 0.992157 0.775491
0.000000 0.117647 0.365686
0.000000 0.124020 0.377451
0.000000 0.163725 0.399019
0.191667 0.198529 0.428431
0.381863 0.222059 0.451471
0.541667 0.244118 0.480882
0.667647 0.239216 0.488726
0.779412 0.237745 0.495098
0.886275 0.260294 0.512255
0.000000 0.201961 0.393137
0.000000 0.201961 0.404902
0.000000 0.214706 0.422059
0.230392 0.237745 0.445098
0.406863 0.260294 0.474510
0.554412 0.267157 0.491177
0.674510 0.261275 0.495588
0.781863 0.257353 0.499020
0.888726 0.297549 0.524020
0.000000 0.284804 0.424510
0.000000 0.292648 0.437745
0.049510 0.293137 0.464216
0.311765 0.311765 0.490687
0.454412 0.325000 0.507353
0.578432 0.316667 0.509804
0.687255 0.307353 0.504412
0.780882 0.323529 0.515196
0.893137 0.365686 0.546078
0.000000 0.378922 0.480882
0.000000 0.391667 0.500490
0.225981 0.397059 0.514706
0.383823 0.400981 0.534314
0.496078 0.398529 0.530392
0.601471 0.397059 0.530392
0.702941 0.406373 0.538235
0.797058 0.422549 0.548039
0.900490 0.471569 0.578922
0.147549 0.494608 0.514706
0.213235 0.503922 0.526471
0.305882 0.501961 0.531863
0.403431 0.487255 0.538235
0.508334 0.494608 0.534314
0.622549 0.507843 0.553432
0.726961 0.543138 0.586765
0.810294 0.560294 0.596078
0.896569 0.601960 0.622059
0.256863 0.594608 0.535784
0.312746 0.605392 0.551961
0.362255 0.598530 0.553922
0.418137 0.583333 0.546078
0.492647 0.577941 0.539706
0.597549 0.595098 0.539706
0.701470 0.611274 0.555392
0.800980 0.667647 0.609314
0.890196 0.751961 0.686275
0.324510 0.702941 0.562255
0.343137 0.704902 0.565196
0.375981 0.697059 0.562255
0.426961 0.685294 0.556372
0.484804 0.669118 0.547059
0.573039 0.688236 0.549020
0.673529 0.710784 0.551961
0.772059 0.727451 0.560784
0.875490 0.807844 0.652941
0.359314 0.828922 0.595098
0.376471 0.834804 0.599019
0.402941 0.828922 0.595098
0.443137 0.822059 0.588235
0.496079 0.808823 0.576961
0.574510 0.819608 0.578432
0.668138 0.841177 0.587255
0.769607 0.870098 0.602941
0.874510 0.891176 0.624510
0.521569 0.976471 0.708333
0.534804 0.977941 0.713726
0.552941 0.976471 0.709804
0.580392 0.976471 0.709804
0.621568 0.974510 0.707843
0.682843 0.976471 0.711275
0.773529 0.984314 0.731863
0.867157 0.988235 0.756863
0.964706 0.992157 0.790686
0.000000 0.178431 0.492157
0.000000 0.178431 0.501961
0.000000 0.202941 0.518628
0.184804 0.233333 0.545588
0.421569 0.256863 0.576470
0.551961 0.274510 0.584313
0.690196 0.318628 0.616667
0.800490 0.339216 0.631373
0.901961 0.368627 0.647058
0.000000 0.240686 0.507843
0.000000 0.238726 0.519118
0.000000 0.246569 0.534804
0.240196 0.270098 0.566176
0.443137 0.288235 0.588236
0.567647 0.303921 0.596569
0.696569 0.349510 0.626470
0.800490 0.356862 0.635294
0.903922 0.388235 0.651471
0.000000 0.326471 0.542157
0.000000 0.331372 0.555882
0.004902 0.322549 0.571569
0.311765 0.334804 0.595098
0.484314 0.356863 0.614706
0.592157 0.370588 0.620588
0.708823 0.403921 0.644118
0.803922 0.400490 0.642157
0.902941 0.419608 0.650980
0.000000 0.400981 0.565196
0.000000 0.415196 0.584313
0.213726 0.421078 0.588726
0.374510 0.420588 0.618627
0.520098 0.446078 0.639216
0.617157 0.467157 0.652451
0.714706 0.462745 0.650000
0.802941 0.447549 0.635294
0.901471 0.467157 0.643138
0.152941 0.517647 0.617647
0.220588 0.528921 0.627451
0.315686 0.531373 0.634314
0.427941 0.537254 0.647058
0.541176 0.547059 0.662745
0.631373 0.545588 0.657353
0.716667 0.547059 0.655882
0.802451 0.556863 0.655392
0.892157 0.592157 0.670588
0.272059 0.640686 0.631863
0.313726 0.652451 0.643627
0.371569 0.650490 0.645588
0.451961 0.650490 0.654902
0.529411 0.632353 0.650980
0.617157 0.638725 0.645098
0.715196 0.662255 0.669118
0.804412 0.713235 0.705392
0.886275 0.746078 0.725000
0.316667 0.750000 0.644118
0.341176 0.757843 0.649510
0.386274 0.754902 0.651961
0.458824 0.742647 0.657843
0.512745 0.722549 0.646078
0.582843 0.715687 0.634804
0.684314 0.742157 0.639216
0.781372 0.760784 0.654412
0.878431 0.834314 0.730392
0.384804 0.865686 0.678431
0.400490 0.868137 0.681373
0.425490 0.865196 0.678431
0.462745 0.856863 0.670098
0.511765 0.844117 0.658824
0.570588 0.828922 0.644117
0.667647 0.853431 0.652941
0.771568 0.881372 0.665196
0.881863 0.902451 0.691667
0.529412 0.982353 0.754902
0.544608 0.984314 0.758823
0.556863 0.980392 0.754902
0.586765 0.982353 0.754902
0.625490 0.980392 0.749020
0.678431 0.978922 0.745588
0.765686 0.984314 0.759804
0.865686 0.990686 0.784314
0.964706 0.992157 0.811765
0.000000 0.236765 0.617157
0.000000 0.234804 0.623039
0.000000 0.245588 0.639216
0.149020 0.269118 0.665686
0.441177 0.295588 0.691667
0.595098 0.323039 0.707353
0.694608 0.346079 0.710784
0.800980 0.424509 0.739216
0.898039 0.529902 0.775490
0.000000 0.281863 0.628432
0.000000 0.283334 0.644118
0.000000 0.281373 0.656373
0.208824 0.301471 0.675980
0.462745 0.325491 0.701471
0.607353 0.354412 0.715196
0.702941 0.377451 0.719118
0.804412 0.453921 0.745098
0.898039 0.548039 0.779412
0.000000 0.364706 0.657843
0.000000 0.365196 0.665196
0.000000 0.355882 0.678922
0.289216 0.362745 0.694608
0.495588 0.389216 0.715196
0.626470 0.423039 0.729902
0.713726 0.446569 0.735294
0.806373 0.519118 0.758824
0.894608 0.579412 0.782843
0.000000 0.437745 0.656373
0.077451 0.454412 0.676961
0.263726 0.460294 0.690686
0.365686 0.449510 0.707353
0.521568 0.476961 0.728921
0.642157 0.520098 0.749020
0.717157 0.542157 0.751471
0.803432 0.600490 0.773039
0.895098 0.615686 0.780392
0.125980 0.545098 0.691667
0.199510 0.550980 0.699510
0.295588 0.551961 0.702451
0.407843 0.559314 0.709314
0.533334 0.570589 0.736764
0.646568 0.617157 0.760294
0.720588 0.642157 0.769118
0.802451 0.635294 0.765196
0.892157 0.625981 0.757353
0.272059 0.661765 0.723039
0.314706 0.675490 0.730882
0.375980 0.680392 0.737745
0.457353 0.683824 0.745098
0.547059 0.693137 0.754412
0.644608 0.708824 0.770098
0.721079 0.704902 0.766176
0.800000 0.704902 0.758333
0.886275 0.728431 0.766176
0.360785 0.800980 0.744607
0.382843 0.804412 0.749020
0.420588 0.804412 0.751471
0.475490 0.800490 0.752451
0.542647 0.796569 0.752941
0.614216 0.776961 0.751471
0.697549 0.785784 0.745098
0.790196 0.811765 0.764215
0.885785 0.872549 0.813726
0.393627 0.900000 0.754412
0.412255 0.902941 0.758333
0.439706 0.902941 0.758333
0.479902 0.899510 0.756373
0.551471 0.891177 0.759314
0.597549 0.871568 0.742647
0.672549 0.872059 0.735294
0.779902 0.895098 0.743137
0.887745 0.916666 0.775000
0.537255 0.992157 0.805392
0.547549 0.992157 0.805883
0.576471 0.990686 0.809314
0.606373 0.988235 0.809314
0.641177 0.986274 0.805392
0.687745 0.984314 0.800000
0.757843 0.985784 0.800000
0.862255 0.991176 0.816176
0.968627 0.992157 0.843137
0.000000 0.302941 0.757843
0.000000 0.299019 0.761764
0.000000 0.298039 0.768627
0.130882 0.312255 0.777451
0.444118 0.342156 0.796078
0.629412 0.395098 0.814216
0.738235 0.441177 0.821569
0.805883 0.468628 0.820588
0.894118 0.597059 0.848039
0.000000 0.333823 0.757353
0.000000 0.337745 0.769117
0.000000 0.325000 0.773529
0.198529 0.340686 0.786275
0.463235 0.371569 0.799019
0.638235 0.428431 0.820588
0.739706 0.472549 0.825980
0.805393 0.495588 0.821569
0.892647 0.623039 0.850490
0.000000 0.409804 0.770588
0.000000 0.406372 0.774020
0.000000 0.396078 0.780392
0.279902 0.398039 0.796078
0.493137 0.434314 0.810784
0.651961 0.493628 0.827451
0.744118 0.538235 0.833333
0.806863 0.558823 0.827451
0.888235 0.666667 0.853922
0.058333 0.495098 0.765686
0.183333 0.507843 0.777451
0.265686 0.500490 0.785294
0.366666 0.490686 0.798039
0.514706 0.514216 0.812745
0.655392 0.580393 0.831373
0.743627 0.620588 0.837745
0.802941 0.638235 0.836275
0.882353 0.729412 0.858824
0.071569 0.582353 0.763725
0.175490 0.591176 0.772549
0.296078 0.596079 0.779412
0.426961 0.606373 0.794118
0.529411 0.609804 0.814706
0.652451 0.660294 0.832353
0.740196 0.704902 0.842157
0.801471 0.724510 0.845098
0.875490 0.788235 0.864706
0.233334 0.693137 0.789706
0.278432 0.705883 0.793627
0.343628 0.704902 0.799019
0.427451 0.708333 0.800981
0.519608 0.712255 0.804902
0.639706 0.735294 0.831373
0.738235 0.789706 0.850980
0.800490 0.809804 0.853431
0.881373 0.816667 0.858334
0.350980 0.816667 0.814706
0.377941 0.822549 0.817647
0.420588 0.825490 0.821569
0.479902 0.827451 0.824020
0.557843 0.831373 0.829412
0.645098 0.842157 0.839706
0.735294 0.857843 0.852941
0.801961 0.850490 0.845588
0.883333 0.861765 0.849020
0.479902 0.933823 0.840196
0.496079 0.934804 0.841177
0.519118 0.935294 0.841667
0.555392 0.935294 0.843627
0.602941 0.933823 0.844117
0.657353 0.929412 0.843627
0.711275 0.911274 0.833334
0.797058 0.921569 0.832353
0.902451 0.938235 0.859314
0.612745 0.996078 0.867647
0.620098 0.997058 0.867647
0.629412 0.998039 0.867647
0.648039 0.996078 0.866177
0.672549 0.996078 0.862745
0.726470 0.993627 0.866177
0.769607 0.989216 0.855883
0.859314 0.992157 0.859314
0.976471 0.996078 0.882353
0.000000 0.380392 0.867157
0.000000 0.373530 0.867157
0.000000 0.365196 0.874020
0.228431 0.382843 0.878921
0.476470 0.414216 0.884314
0.639706 0.474510 0.891176
0.765686 0.570098 0.898529
0.839706 0.621079 0.902451
0.901961 0.660295 0.906372
0.000000 0.404902 0.863725
0.000000 0.407843 0.871078
0.000000 0.399510 0.875000
0.269118 0.407843 0.879412
0.489706 0.443137 0.888236
0.644117 0.501470 0.888725
0.766177 0.594118 0.901961
0.836275 0.640196 0.901961
0.898039 0.679412 0.905882
0.000000 0.476470 0.869117
0.000000 0.474020 0.871078
0.151471 0.466177 0.875000
0.323039 0.463236 0.881373
0.510784 0.500000 0.886765
0.658333 0.563725 0.893628
0.763235 0.643627 0.899510
0.834804 0.688235 0.902451
0.890686 0.712745 0.904412
0.170588 0.563725 0.863235
0.235785 0.571568 0.871568
0.307843 0.567647 0.873039
0.401471 0.559804 0.882843
0.527941 0.577451 0.886765
0.660294 0.636275 0.894608
0.762255 0.706373 0.901961
0.831863 0.746078 0.906372
0.882353 0.765196 0.902451
0.218137 0.659314 0.857353
0.274510 0.668627 0.861275
0.356373 0.664706 0.865196
0.448039 0.667157 0.873039
0.533824 0.663236 0.882843
0.650000 0.701960 0.890686
0.755882 0.767647 0.900490
0.825980 0.806373 0.905883
0.876471 0.820098 0.905883
0.198529 0.744608 0.852451
0.242157 0.749510 0.853921
0.305883 0.750981 0.853922
0.406373 0.753921 0.862255
0.531863 0.762255 0.870588
0.636765 0.774020 0.886765
0.747059 0.826960 0.899020
0.827941 0.868137 0.909804
0.882353 0.887745 0.914215
0.324510 0.858333 0.869118
0.349019 0.861275 0.872059
0.395589 0.860785 0.875000
0.450981 0.858333 0.870588
0.528431 0.857843 0.875981
0.612255 0.854411 0.875981
0.736274 0.878432 0.899020
0.837745 0.923040 0.918627
0.900000 0.934804 0.926961
0.487255 0.945588 0.890686
0.499019 0.948530 0.893628
0.526470 0.949020 0.894118
0.569607 0.947059 0.894608
0.625980 0.948039 0.898529
0.696569 0.950981 0.906372
0.775000 0.953922 0.914215
0.859804 0.960784 0.925980
0.918137 0.953431 0.922059
0.690196 1.000000 0.921569
0.697059 1.000000 0.925000
0.709804 1.000000 0.922059
0.730392 1.000000 0.925980
0.757353 1.000000 0.927451
0.788725 0.999019 0.928922
0.824510 1.000000 0.925980
0.871568 0.992647 0.918137
0.984314 0.999510 0.929902
0.098039 0.513726 0.949020
0.164216 0.513726 0.952941
0.261765 0.502941 0.952941
0.411274 0.520098 0.952941
0.560785 0.562745 0.956863
0.681372 0.625000 0.956863
0.777451 0.699019 0.953922
0.855392 0.780882 0.956863
0.909804 0.819608 0.956863
0.160294 0.533333 0.949020
0.226961 0.541176 0.952941
0.303921 0.533333 0.952941
0.424510 0.539706 0.955392
0.564705 0.584314 0.954902
0.681372 0.644118 0.954412
0.778432 0.711765 0.953921
0.855392 0.792156 0.953431
0.909804 0.830883 0.960294
0.289216 0.606863 0.948039
0.317647 0.605882 0.949020
0.372549 0.600981 0.949020
0.450000 0.592647 0.952941
0.571569 0.629412 0.952941
0.683824 0.681863 0.952941
0.777451 0.745098 0.955882
0.855392 0.815197 0.956863
0.905882 0.848039 0.956863
0.343627 0.676961 0.941176
0.379902 0.683824 0.945098
0.422549 0.680882 0.946569
0.484804 0.676961 0.949020
0.574510 0.684804 0.952941
0.682843 0.733334 0.951960
0.774510 0.787745 0.952941
0.857353 0.847549 0.956863
0.909804 0.878431 0.960784
0.372549 0.768628 0.937255
0.401471 0.772549 0.941176
0.440196 0.766667 0.939215
0.502451 0.762745 0.945098
0.576470 0.756862 0.949020
0.674019 0.784313 0.952941
0.771568 0.830392 0.952941
0.853431 0.882843 0.958824
0.911764 0.905882 0.962745
0.316177 0.842157 0.929412
0.350981 0.850490 0.935293
0.405393 0.844608 0.931862
0.480882 0.842157 0.937255
0.575000 0.841176 0.941176
0.660294 0.840686 0.949020
0.765686 0.878431 0.956863
0.855882 0.915686 0.960784
0.919118 0.937255 0.966176
0.393137 0.923530 0.937255
0.407843 0.929901 0.938235
0.434314 0.923530 0.937255
0.474510 0.919608 0.935785
0.542157 0.915686 0.941176
0.653431 0.914706 0.945098
0.755882 0.919608 0.957843
0.872059 0.950000 0.968627
0.938235 0.961765 0.973530
0.573529 0.984804 0.957353
0.577451 0.984804 0.956863
0.593137 0.981863 0.957843
0.622549 0.984314 0.960294
0.656373 0.980882 0.957353
0.711765 0.976961 0.961274
0.765686 0.969117 0.960784
0.875000 0.972549 0.972549
0.964706 0.984314 0.984314
0.729412 1.000000 0.972549
0.733333 1.000000 0.972549
0.745098 1.000000 0.976471
0.764706 1.000000 0.976471
0.792157 1.000000 0.978432
0.825000 1.000000 0.980392
0.871568 1.000000 0.984314
0.926470 1.000000 0.988725
0.996078 1.000000 1.000000
