Color/Polaroid/Polaroid Polachrome 65x.cube
TITLE "Polaroid Polachrome"
LUT_3D_SIZE 9
DOMAIN_MIN 0.000000 0.000000 0.000000
DOMAIN_MAX 1.000000 1.000000 1.000000
0.000000 0.000000 0.000000
0.027451 0.000000 0.000000
0.093137 0.003922 0.003922
0.208824 0.015686 0.014216
0.366667 0.050980 0.045098
0.555882 0.099510 0.094118
0.684314 0.133333 0.125490
0.800490 0.160784 0.152941
0.866667 0.176471 0.168627
0.019118 0.042647 0.007353
0.050490 0.050490 0.011275
0.124019 0.066177 0.019608
0.241176 0.092157 0.043137
0.399510 0.126961 0.081863
0.575490 0.164216 0.121079
0.696079 0.187745 0.144608
0.808823 0.200490 0.156863
0.874020 0.211275 0.168627
0.073529 0.147059 0.035294
0.100490 0.151961 0.042157
0.162745 0.166666 0.057844
0.282353 0.190196 0.085294
0.442157 0.219608 0.115686
0.599020 0.249019 0.146569
0.711765 0.264706 0.165686
0.823040 0.273529 0.183334
0.882353 0.273529 0.188235
0.101961 0.287255 0.074510
0.119118 0.293627 0.080882
0.196569 0.306863 0.097059
0.322549 0.326471 0.116176
0.484313 0.355882 0.147549
0.622549 0.378922 0.168627
0.731373 0.393137 0.181372
0.836274 0.400980 0.196078
0.898039 0.397059 0.200000
0.100000 0.450981 0.119608
0.130883 0.454902 0.123529
0.227451 0.469608 0.133333
0.368137 0.490197 0.151471
0.523529 0.517648 0.170588
0.642157 0.537254 0.188235
0.747059 0.552941 0.200000
0.851470 0.564705 0.203922
0.909804 0.568628 0.203922
0.166176 0.567647 0.166176
0.210294 0.574020 0.170098
0.305392 0.583333 0.184804
0.437745 0.605392 0.205392
0.556372 0.626470 0.225490
0.657843 0.646078 0.236765
0.758824 0.664216 0.243137
0.860785 0.679902 0.239216
0.919118 0.687745 0.228922
0.300000 0.672549 0.244118
0.334804 0.676471 0.248039
0.407844 0.690197 0.256863
0.497549 0.702941 0.271568
0.587255 0.718627 0.283334
0.676961 0.735784 0.291177
0.773529 0.753922 0.295098
0.868138 0.770588 0.290686
0.925490 0.781373 0.271568
0.424019 0.765196 0.330392
0.443627 0.769117 0.333823
0.485784 0.775980 0.338235
0.547549 0.784804 0.345588
0.618137 0.796568 0.353431
0.700000 0.812255 0.361274
0.789215 0.828922 0.361274
0.875490 0.847549 0.352941
0.937255 0.859314 0.333333
0.494118 0.854902 0.407843
0.505882 0.854902 0.407843
0.536274 0.858824 0.411765
0.584314 0.869118 0.419608
0.649020 0.880392 0.427451
0.723039 0.894118 0.431373
0.800981 0.909804 0.431373
0.886765 0.929412 0.415196
0.952941 0.945098 0.384314
0.000000 0.000000 0.030883
0.057844 0.003922 0.050490
0.139215 0.011765 0.069117
0.259804 0.031373 0.093628
0.417647 0.068628 0.128922
0.583333 0.105392 0.164216
0.699019 0.130392 0.183824
0.808333 0.160784 0.196568
0.870588 0.176471 0.200000
0.034804 0.062255 0.066177
0.077451 0.073530 0.077451
0.162745 0.089216 0.093628
0.282843 0.115686 0.119608
0.440686 0.148530 0.152451
0.595098 0.179902 0.183824
0.707843 0.199510 0.199510
0.812745 0.215196 0.212255
0.874510 0.219608 0.215686
0.093137 0.166666 0.100490
0.124019 0.174510 0.108333
0.190196 0.189706 0.124019
0.310294 0.209804 0.147059
0.469608 0.241176 0.175981
0.610784 0.265196 0.200981
0.719608 0.280392 0.216176
0.824019 0.285295 0.226961
0.882353 0.285295 0.230392
0.103431 0.302941 0.136275
0.125000 0.310294 0.140686
0.220588 0.322549 0.155392
0.344608 0.344608 0.174510
0.503922 0.372059 0.202941
0.628922 0.393137 0.223039
0.735294 0.404902 0.235784
0.838235 0.412745 0.242647
0.898039 0.408824 0.241667
0.115196 0.458823 0.174020
0.150490 0.464216 0.177941
0.251470 0.477941 0.190686
0.386765 0.498039 0.212745
0.532843 0.525000 0.236765
0.642647 0.544118 0.252451
0.746079 0.560785 0.260294
0.848039 0.572549 0.261765
0.909804 0.574510 0.254412
0.198529 0.573530 0.232353
0.239706 0.577941 0.239706
0.328922 0.589706 0.251470
0.449510 0.608824 0.270098
0.560785 0.628922 0.286765
0.657843 0.646078 0.298529
0.757843 0.664216 0.304902
0.855392 0.679902 0.301961
0.913725 0.687745 0.291177
0.326961 0.675490 0.306372
0.357353 0.679411 0.310294
0.423039 0.690196 0.318137
0.505392 0.702941 0.331372
0.590196 0.718628 0.341666
0.676961 0.734314 0.350000
0.769607 0.750981 0.357353
0.863235 0.769607 0.349510
0.921569 0.777451 0.336275
0.435294 0.765196 0.387745
0.450980 0.768627 0.388235
0.490686 0.773039 0.395588
0.548039 0.783824 0.403432
0.618137 0.796568 0.411275
0.699510 0.810294 0.419118
0.782843 0.827941 0.419608
0.871078 0.843627 0.411275
0.929412 0.855392 0.392157
0.498039 0.854902 0.450490
0.509804 0.854902 0.454412
0.540196 0.858824 0.458334
0.586765 0.866667 0.462255
0.649020 0.878431 0.470098
0.719118 0.894118 0.477941
0.797058 0.907353 0.481863
0.879412 0.925490 0.473039
0.945098 0.941176 0.446569
0.003922 0.003922 0.116667
0.080882 0.007843 0.135294
0.174510 0.022549 0.154902
0.295098 0.047059 0.178431
0.452941 0.084314 0.212745
0.595098 0.115196 0.237255
0.703922 0.137255 0.250000
0.808823 0.156863 0.257844
0.870588 0.172549 0.257844
0.050490 0.080882 0.159313
0.100981 0.092647 0.171078
0.194117 0.108824 0.190196
0.314216 0.135294 0.213725
0.469608 0.167156 0.245098
0.602941 0.191667 0.268627
0.710784 0.210784 0.280882
0.812745 0.223039 0.285295
0.874510 0.226961 0.284314
0.119608 0.190196 0.198039
0.151471 0.197549 0.205882
0.221568 0.213725 0.224510
0.341176 0.235785 0.247549
0.493137 0.264706 0.276470
0.617157 0.284314 0.297549
0.719608 0.296078 0.311765
0.820588 0.303921 0.315686
0.878431 0.300000 0.307843
0.112745 0.329412 0.240686
0.162745 0.334314 0.247549
0.255393 0.349019 0.263236
0.376470 0.368627 0.283824
0.520588 0.395098 0.311275
0.632843 0.411765 0.328922
0.732843 0.423529 0.339215
0.831863 0.428431 0.343137
0.890196 0.424510 0.338725
0.159804 0.474510 0.290196
0.204412 0.478432 0.294118
0.294118 0.490197 0.306863
0.419608 0.510294 0.329412
0.542157 0.533334 0.349020
0.644608 0.550980 0.361765
0.742156 0.567647 0.372549
0.839706 0.580392 0.373530
0.898039 0.584313 0.366666
0.256863 0.581863 0.352451
0.292647 0.585784 0.356373
0.372059 0.597549 0.368137
0.470588 0.614706 0.383824
0.566666 0.630882 0.398039
0.657843 0.648529 0.409804
0.750981 0.664216 0.417647
0.844117 0.679902 0.415196
0.901961 0.687745 0.407353
0.368627 0.680392 0.418627
0.392647 0.683334 0.422549
0.446078 0.692157 0.430392
0.515196 0.702941 0.442157
0.592156 0.718628 0.453922
0.675980 0.731863 0.463236
0.761764 0.750000 0.470588
0.851470 0.765686 0.469608
0.905882 0.773529 0.457843
0.455392 0.765196 0.477941
0.471078 0.769117 0.480392
0.505392 0.773039 0.485785
0.559314 0.781372 0.493628
0.624510 0.792647 0.502941
0.698529 0.808333 0.513236
0.777451 0.824019 0.521079
0.859314 0.839706 0.523529
0.915196 0.847549 0.512255
0.513726 0.854902 0.520588
0.525490 0.854902 0.524510
0.551961 0.862745 0.528431
0.598529 0.869118 0.532353
0.652941 0.878431 0.542157
0.722059 0.891667 0.551961
0.793137 0.905882 0.558823
0.871078 0.921569 0.559804
0.933333 0.933333 0.550980
0.010294 0.003922 0.224510
0.111764 0.018137 0.248039
0.209314 0.035294 0.268137
0.328921 0.062745 0.295098
0.478432 0.098039 0.326471
0.601471 0.123039 0.346079
0.702941 0.142157 0.357843
0.804412 0.157353 0.363235
0.862745 0.164706 0.357843
0.077941 0.104902 0.278922
0.139215 0.119118 0.291177
0.233823 0.136275 0.314216
0.352451 0.159804 0.337745
0.494608 0.189706 0.367647
0.609314 0.209804 0.385294
0.710294 0.223039 0.400490
0.808333 0.230883 0.404902
0.862745 0.234804 0.400490
0.143627 0.217647 0.325490
0.175981 0.227942 0.333333
0.263236 0.243627 0.352941
0.380392 0.264706 0.376470
0.514216 0.290196 0.402941
0.621078 0.307353 0.420588
0.718628 0.317647 0.432353
0.813235 0.322549 0.439216
0.870588 0.319118 0.435294
0.171078 0.360294 0.373529
0.212255 0.364216 0.380883
0.298530 0.379902 0.395588
0.415196 0.399510 0.419118
0.533824 0.419118 0.442157
0.634314 0.434804 0.458333
0.727451 0.444118 0.470098
0.820588 0.448039 0.475490
0.878431 0.444118 0.471569
0.234314 0.490197 0.424020
0.272549 0.494608 0.430392
0.352451 0.508824 0.442647
0.455883 0.525981 0.461765
0.553432 0.543137 0.478922
0.644608 0.560294 0.494608
0.735294 0.574510 0.507843
0.827941 0.586274 0.514706
0.882353 0.590196 0.512745
0.337255 0.596078 0.475490
0.364215 0.600000 0.479412
0.421078 0.609314 0.489216
0.498039 0.622549 0.502941
0.578431 0.636765 0.517647
0.661765 0.652451 0.530392
0.747059 0.666667 0.544608
0.831863 0.679902 0.552941
0.886275 0.687745 0.551471
0.423039 0.691176 0.521079
0.442157 0.693627 0.525000
0.480882 0.699019 0.530392
0.536764 0.709314 0.540686
0.605882 0.722549 0.552451
0.680882 0.734314 0.564215
0.761764 0.750000 0.575981
0.840196 0.762255 0.583824
0.894118 0.770588 0.583824
0.490686 0.771568 0.563235
0.504412 0.773039 0.563725
0.532843 0.776961 0.567647
0.579412 0.784804 0.575490
0.637745 0.796568 0.586765
0.707353 0.808333 0.597059
0.777451 0.824019 0.606863
0.851961 0.835784 0.614216
0.905882 0.847549 0.614216
0.541176 0.858824 0.594608
0.551471 0.862745 0.598529
0.575490 0.866667 0.602451
0.614216 0.873039 0.606373
0.668627 0.882353 0.614216
0.726961 0.894118 0.625980
0.793137 0.905882 0.633824
0.867157 0.921569 0.637745
0.929412 0.933333 0.637745
0.027451 0.011765 0.356862
0.158333 0.033334 0.384313
0.252941 0.056863 0.406863
0.373529 0.082353 0.433824
0.501961 0.113725 0.460784
0.605392 0.133333 0.479902
0.700000 0.150981 0.494117
0.793137 0.164706 0.498040
0.849020 0.168627 0.496078
0.126961 0.142647 0.413235
0.193137 0.157843 0.427451
0.284804 0.175490 0.448529
0.402941 0.200981 0.474510
0.519118 0.221078 0.501470
0.617157 0.236765 0.520588
0.707843 0.246079 0.536764
0.797058 0.250000 0.546569
0.850980 0.246569 0.548529
0.189216 0.262745 0.454902
0.235784 0.270588 0.464216
0.321569 0.286274 0.481373
0.434804 0.307843 0.505883
0.537254 0.326471 0.529411
0.630392 0.339215 0.546078
0.718628 0.349019 0.563725
0.805883 0.350980 0.576470
0.858824 0.346079 0.580392
0.254902 0.402941 0.494117
0.292157 0.406863 0.498530
0.372549 0.422549 0.514216
0.465686 0.440196 0.533824
0.556863 0.455392 0.552941
0.644608 0.467647 0.570588
0.730392 0.478922 0.586275
0.816176 0.481373 0.600000
0.866667 0.477451 0.603921
0.339216 0.521568 0.533334
0.368137 0.525490 0.537254
0.426471 0.534314 0.549019
0.498530 0.549019 0.564705
0.576470 0.560785 0.580392
0.658333 0.576470 0.594118
0.740196 0.590196 0.607843
0.824019 0.600000 0.621568
0.870588 0.603921 0.625490
0.419117 0.618627 0.572059
0.434804 0.621078 0.575980
0.475000 0.627941 0.582353
0.533333 0.638235 0.592647
0.600000 0.650490 0.605882
0.675980 0.664216 0.619117
0.753922 0.676961 0.633333
0.831863 0.688236 0.645098
0.878431 0.695588 0.649020
0.477451 0.702941 0.606863
0.490686 0.706863 0.609804
0.521569 0.710784 0.614706
0.568137 0.719608 0.622549
0.629412 0.730392 0.634314
0.695588 0.742156 0.646078
0.766667 0.754902 0.657843
0.839706 0.767647 0.668628
0.889216 0.773529 0.672549
0.531863 0.780882 0.641177
0.543137 0.780882 0.641667
0.568137 0.784804 0.645588
0.606863 0.792647 0.653431
0.660784 0.800490 0.662745
0.719118 0.812255 0.673039
0.781863 0.824019 0.684314
0.851470 0.836274 0.692157
0.902451 0.847549 0.696078
0.576471 0.866667 0.668627
0.584314 0.870588 0.672059
0.605882 0.873530 0.672549
0.641177 0.878431 0.680392
0.684314 0.886275 0.688236
0.738725 0.898039 0.696079
0.797058 0.909804 0.703921
0.863725 0.922059 0.711765
0.925490 0.933333 0.715687
0.103431 0.044608 0.475980
0.231863 0.075490 0.504902
0.325981 0.097059 0.525980
0.435294 0.120098 0.551961
0.532843 0.142647 0.574020
0.621078 0.158333 0.593627
0.706863 0.170098 0.610294
0.789215 0.180392 0.622549
0.839216 0.180392 0.628922
0.210294 0.204902 0.522549
0.278921 0.220098 0.538235
0.368137 0.239706 0.557843
0.465196 0.259314 0.579412
0.554412 0.275000 0.599020
0.638235 0.286765 0.617157
0.720098 0.293138 0.634314
0.800490 0.291177 0.649020
0.847059 0.286765 0.655882
0.288236 0.328922 0.557353
0.330883 0.337255 0.565196
0.409804 0.352451 0.583333
0.490196 0.366666 0.600000
0.568628 0.379902 0.618627
0.650000 0.391667 0.635784
0.730392 0.396568 0.652451
0.808823 0.398039 0.667157
0.854902 0.391667 0.673529
0.364706 0.454902 0.592157
0.393627 0.460784 0.597549
0.450000 0.470588 0.609314
0.513726 0.482353 0.623529
0.587745 0.495098 0.639216
0.664216 0.506863 0.654902
0.742156 0.517647 0.669608
0.817647 0.522549 0.683824
0.862745 0.520098 0.690196
0.430882 0.552941 0.625000
0.451961 0.556863 0.628922
0.485784 0.564215 0.636765
0.541176 0.574510 0.646568
0.607353 0.586275 0.661765
0.677941 0.599510 0.675980
0.751471 0.611274 0.689706
0.824019 0.619607 0.701470
0.870588 0.623530 0.707353
0.483824 0.642157 0.656373
0.495588 0.644608 0.657843
0.525980 0.650000 0.664216
0.572549 0.657843 0.673529
0.630882 0.668137 0.685294
0.695588 0.679902 0.697059
0.763235 0.691667 0.711275
0.831863 0.703431 0.720588
0.878431 0.707353 0.726961
0.530882 0.719608 0.683824
0.539706 0.722549 0.687255
0.566176 0.726471 0.691667
0.607353 0.734314 0.699510
0.657843 0.742156 0.708333
0.715196 0.753922 0.720098
0.777451 0.765686 0.730882
0.843627 0.775000 0.742647
0.887255 0.781373 0.746569
0.580882 0.790196 0.711765
0.588725 0.792647 0.715196
0.609314 0.796568 0.719118
0.642157 0.801961 0.723530
0.687745 0.809804 0.732843
0.738725 0.820098 0.742647
0.793137 0.829412 0.751471
0.855392 0.839706 0.762255
0.902451 0.847549 0.766667
0.619608 0.878431 0.734804
0.625000 0.879902 0.738725
0.643137 0.883824 0.742647
0.672059 0.890196 0.746569
0.707843 0.898039 0.754412
0.754412 0.905882 0.762255
0.804902 0.917647 0.770098
0.867157 0.929412 0.777941
0.929412 0.941176 0.785784
0.216666 0.118627 0.577451
0.338726 0.146079 0.604412
0.420588 0.165686 0.624510
0.497549 0.181372 0.642647
0.571568 0.197059 0.659804
0.648529 0.208823 0.676961
0.723530 0.216666 0.695098
0.796568 0.216666 0.707353
0.843137 0.212745 0.714706
0.326961 0.286275 0.620098
0.389706 0.299510 0.632353
0.455882 0.313726 0.648039
0.521079 0.326961 0.663725
0.591176 0.338726 0.679411
0.665196 0.347059 0.698529
0.738235 0.353431 0.714216
0.808333 0.353431 0.726470
0.851961 0.345588 0.734314
0.403922 0.406863 0.650980
0.432353 0.411765 0.655882
0.482353 0.422549 0.667647
0.540686 0.434314 0.682353
0.605882 0.446078 0.695098
0.676961 0.454902 0.710785
0.747059 0.461765 0.726471
0.816176 0.461765 0.742157
0.858824 0.453922 0.750000
0.459804 0.505392 0.677941
0.478921 0.506863 0.681863
0.513726 0.515196 0.689706
0.560294 0.525000 0.701470
0.622549 0.535784 0.714706
0.688726 0.547549 0.727941
0.757843 0.556372 0.742156
0.824019 0.563235 0.756373
0.866667 0.564215 0.761764
0.504902 0.590196 0.702941
0.516667 0.591176 0.706862
0.544118 0.596079 0.713726
0.587745 0.605882 0.722549
0.643138 0.615687 0.734314
0.704412 0.626470 0.746079
0.766667 0.637255 0.758824
0.831863 0.645098 0.771568
0.872549 0.649020 0.777451
0.546569 0.668137 0.727941
0.555392 0.671569 0.730392
0.578922 0.675980 0.734314
0.619117 0.682353 0.743627
0.666176 0.691667 0.753922
0.720588 0.700490 0.765686
0.777451 0.711275 0.777451
0.839706 0.720098 0.789216
0.879902 0.724020 0.793627
0.590196 0.739216 0.753922
0.598039 0.742156 0.753922
0.619608 0.746079 0.757843
0.651960 0.750981 0.765686
0.693137 0.758824 0.773529
0.742156 0.769607 0.785294
0.793137 0.777451 0.793137
0.848530 0.786275 0.804902
0.891177 0.793137 0.812745
0.636275 0.805393 0.777451
0.643137 0.808333 0.777942
0.658824 0.811275 0.781373
0.685294 0.816176 0.788725
0.720098 0.822059 0.793627
0.761765 0.829412 0.804412
0.808824 0.839706 0.812745
0.863235 0.847549 0.821078
0.910294 0.855392 0.828432
0.667647 0.895098 0.797058
0.675490 0.898039 0.800000
0.687255 0.899020 0.800981
0.709804 0.904412 0.804902
0.739215 0.909804 0.812745
0.774020 0.917647 0.820588
0.820588 0.926471 0.828432
0.878921 0.938235 0.836275
0.941176 0.952941 0.848039
0.350000 0.224019 0.671078
0.448039 0.244117 0.691176
0.501471 0.255882 0.706372
0.555882 0.267647 0.718137
0.616176 0.278921 0.733823
0.680392 0.287255 0.749510
0.746569 0.294608 0.765196
0.812255 0.290686 0.777451
0.850980 0.278921 0.788235
0.447549 0.384804 0.705882
0.482843 0.392647 0.713726
0.525000 0.403432 0.725490
0.575490 0.415196 0.737255
0.633824 0.423529 0.749510
0.696079 0.431863 0.765196
0.764216 0.438726 0.777942
0.824019 0.434804 0.792647
0.862745 0.426961 0.800490
0.497549 0.477941 0.725980
0.513236 0.481863 0.732843
0.548530 0.489706 0.740686
0.595098 0.497549 0.749510
0.649019 0.509314 0.763235
0.707843 0.521079 0.776961
0.771568 0.528922 0.789706
0.827941 0.528922 0.804412
0.866667 0.528922 0.812255
0.537745 0.551961 0.749510
0.548039 0.555882 0.753431
0.575490 0.563235 0.759804
0.614706 0.571078 0.769117
0.665196 0.579412 0.780882
0.724020 0.591176 0.792647
0.777451 0.599019 0.804412
0.835784 0.606373 0.816176
0.874510 0.606863 0.824019
0.576961 0.629902 0.773039
0.588235 0.631373 0.773039
0.606373 0.637255 0.778922
0.641667 0.643628 0.786765
0.688236 0.652941 0.796568
0.735294 0.661275 0.808333
0.790196 0.669118 0.820098
0.843627 0.676961 0.831863
0.878921 0.680882 0.837255
0.616176 0.700000 0.792647
0.624019 0.703431 0.796568
0.641177 0.707353 0.800490
0.673529 0.711765 0.805883
0.711765 0.719608 0.816176
0.754412 0.727451 0.824019
0.801471 0.734804 0.835784
0.851470 0.745588 0.845098
0.890196 0.750490 0.851470
0.656373 0.765686 0.816176
0.666667 0.766177 0.817157
0.681373 0.769607 0.821078
0.703431 0.774020 0.827941
0.734804 0.781373 0.832844
0.773039 0.789706 0.843627
0.813236 0.797058 0.851470
0.863235 0.804902 0.863235
0.902941 0.809314 0.871078
0.698529 0.827941 0.840196
0.702941 0.827941 0.843627
0.714706 0.830883 0.844117
0.733823 0.834314 0.850000
0.761274 0.839706 0.855392
0.792647 0.845098 0.863235
0.831863 0.851470 0.871078
0.879412 0.863235 0.882843
0.925980 0.871078 0.890686
0.725980 0.918137 0.863725
0.729902 0.918137 0.867157
0.737745 0.921569 0.867157
0.755392 0.925490 0.871078
0.776961 0.929902 0.878921
0.805392 0.937745 0.883333
0.840196 0.945588 0.891667
0.895098 0.957353 0.902941
0.968627 0.972549 0.914705
0.423529 0.282353 0.713726
0.497549 0.301471 0.729412
0.540196 0.309804 0.741176
0.586765 0.321569 0.752941
0.641177 0.329412 0.768627
0.703431 0.338725 0.781863
0.761764 0.345098 0.796078
0.820098 0.341176 0.811765
0.858824 0.329412 0.819608
0.497549 0.434804 0.741176
0.525000 0.442647 0.749020
0.564216 0.450490 0.756863
0.606373 0.460784 0.768627
0.656863 0.470098 0.780392
0.715196 0.479412 0.796078
0.773529 0.485785 0.807843
0.831863 0.485785 0.820098
0.870098 0.477941 0.831373
0.540196 0.512745 0.763726
0.556373 0.516667 0.767647
0.583333 0.524510 0.775491
0.626470 0.532353 0.784314
0.672549 0.542157 0.796078
0.726961 0.551961 0.807843
0.781372 0.559804 0.819608
0.835784 0.563725 0.834314
0.874510 0.563725 0.839216
0.578922 0.582843 0.784314
0.591667 0.582843 0.786765
0.614706 0.590686 0.792157
0.649510 0.598529 0.800000
0.692157 0.606373 0.811765
0.741176 0.613235 0.823529
0.789215 0.620588 0.835294
0.843627 0.629902 0.847059
0.878431 0.633824 0.853431
0.617647 0.652941 0.805883
0.625490 0.656863 0.807843
0.646079 0.660784 0.811765
0.672549 0.667157 0.819608
0.711765 0.674509 0.827451
0.754412 0.684314 0.839216
0.800981 0.692157 0.849020
0.851470 0.696569 0.858824
0.886275 0.700000 0.866667
0.656373 0.721569 0.827451
0.662745 0.723039 0.828922
0.675980 0.726961 0.832843
0.704412 0.730882 0.839216
0.734804 0.738725 0.847059
0.774020 0.746569 0.854902
0.812745 0.754412 0.863726
0.859314 0.762255 0.875980
0.898039 0.766176 0.882353
0.695098 0.781373 0.851961
0.701961 0.781372 0.854902
0.713726 0.785294 0.855882
0.735784 0.789215 0.862745
0.760784 0.793137 0.867647
0.793627 0.800981 0.875490
0.828432 0.808823 0.886275
0.875000 0.816666 0.894608
0.913725 0.823529 0.902941
0.733823 0.839706 0.882353
0.737745 0.839706 0.882353
0.749020 0.843627 0.886275
0.764706 0.847549 0.890196
0.784804 0.851470 0.894608
0.813235 0.855392 0.902451
0.848039 0.863235 0.913725
0.894608 0.871078 0.925490
0.937745 0.878921 0.933823
0.764706 0.933333 0.917647
0.764706 0.937255 0.917647
0.772549 0.937255 0.921569
0.788235 0.941176 0.925490
0.805883 0.945098 0.933333
0.831373 0.952941 0.941176
0.863726 0.960784 0.952941
0.918137 0.976471 0.972549
1.000000 0.996078 0.996078
