Color/Polaroid/Polaroid PX-100UV+ Cold 1 -- 65x.cube
TITLE "Polaroid PX-100UV+ Cold 1 --"
LUT_3D_SIZE 65
DOMAIN_MIN 0.000000 0.000000 0.000000
DOMAIN_MAX 1.000000 1.000000 1.000000
0.000000 0.000000 0.000000
0.003003 0.003003 0.003003
0.003922 0.003922 0.003922
0.003922 0.003922 0.003922
0.003922 0.007598 0.007598
0.007843 0.011765 0.011765
0.015686 0.015686 0.017279
0.015686 0.018199 0.018199
0.023039 0.023039 0.026471
0.023958 0.027880 0.027880
0.031373 0.036642 0.036642
0.037561 0.041483 0.041483
0.046324 0.050245 0.053431
0.054902 0.062929 0.062929
0.063848 0.071691 0.075613
0.074632 0.086397 0.088419
0.085295 0.100981 0.100981
0.101838 0.113602 0.117524
0.114583 0.134191 0.134191
0.129044 0.146507 0.148652
0.146569 0.166176 0.166176
0.160171 0.179779 0.180086
0.177696 0.197304 0.201225
0.192831 0.214829 0.218750
0.208824 0.232353 0.236275
0.226348 0.249877 0.253248
0.243872 0.267402 0.271323
0.260111 0.281005 0.284926
0.276716 0.296324 0.300245
0.288603 0.312133 0.316054
0.302206 0.325613 0.329535
0.318689 0.338297 0.342218
0.331372 0.350981 0.354902
0.344056 0.363664 0.367585
0.352941 0.372549 0.376471
0.365502 0.385110 0.389032
0.379902 0.399510 0.401716
0.390870 0.407843 0.410478
0.403187 0.419240 0.422794
0.408946 0.428003 0.428003
0.421078 0.440686 0.440686
0.429841 0.447059 0.447059
0.439216 0.458211 0.458211
0.447365 0.463358 0.463051
0.458824 0.475735 0.474510
0.464890 0.482721 0.480576
0.473652 0.489338 0.485417
0.482353 0.501961 0.494118
0.488236 0.506862 0.500000
0.496017 0.511704 0.507782
0.504779 0.523284 0.515441
0.509804 0.529412 0.521569
0.519118 0.537990 0.530147
0.531066 0.548407 0.538909
0.539828 0.555515 0.543750
0.548162 0.564277 0.552512
0.556863 0.573039 0.560784
0.566115 0.581801 0.566115
0.574878 0.592892 0.577206
0.583640 0.602574 0.583640
0.596078 0.612010 0.592402
0.601164 0.620772 0.601164
0.613848 0.633456 0.609927
0.628616 0.645221 0.621691
0.639216 0.658824 0.631373
0.000000 0.000000 0.000000
0.003922 0.003922 0.003922
0.003922 0.003922 0.003922
0.003922 0.002084 0.004841
0.007843 0.007843 0.007843
0.011765 0.012439 0.012439
0.013358 0.017953 0.017279
0.015686 0.018199 0.018199
0.019608 0.020527 0.020527
0.023958 0.027880 0.027880
0.028799 0.037071 0.036642
0.037561 0.043750 0.043750
0.046324 0.056433 0.054167
0.050428 0.059192 0.059192
0.061030 0.072794 0.072794
0.073529 0.085294 0.088297
0.088235 0.100000 0.100919
0.098898 0.117524 0.114584
0.115441 0.131128 0.131985
0.129044 0.148652 0.148652
0.145343 0.164951 0.168872
0.160171 0.179779 0.183701
0.177696 0.201225 0.205454
0.195221 0.214829 0.218750
0.210294 0.235356 0.236275
0.226348 0.249877 0.253799
0.243872 0.266483 0.270404
0.257108 0.280637 0.284559
0.275000 0.296324 0.300245
0.289522 0.312133 0.316054
0.306005 0.325613 0.329535
0.318689 0.339338 0.343260
0.331373 0.352942 0.354902
0.344056 0.363664 0.367585
0.353738 0.373346 0.380147
0.366422 0.385110 0.389032
0.378186 0.397794 0.400797
0.385233 0.404841 0.407476
0.403187 0.419240 0.420159
0.412316 0.431005 0.431005
0.421078 0.441238 0.441238
0.429841 0.447059 0.448530
0.439522 0.458211 0.458211
0.447365 0.466973 0.463051
0.456128 0.474510 0.471814
0.464890 0.483579 0.478431
0.473652 0.489338 0.486275
0.477634 0.498100 0.490319
0.487194 0.506863 0.498958
0.499019 0.515625 0.510785
0.504779 0.518566 0.513726
0.513542 0.532965 0.525122
0.518382 0.537990 0.529412
0.531802 0.546753 0.537990
0.534252 0.553860 0.542095
0.551165 0.567769 0.552512
0.557353 0.576471 0.561274
0.566605 0.584804 0.569117
0.574878 0.594485 0.574878
0.583640 0.603248 0.583640
0.591728 0.612010 0.592402
0.605331 0.624938 0.604167
0.612684 0.633456 0.609927
0.626532 0.646140 0.621692
0.639216 0.658824 0.631373
0.005760 0.005760 0.005760
0.003922 0.003922 0.005760
0.005760 0.005760 0.005760
0.005760 0.007843 0.007843
0.011520 0.011520 0.011520
0.012929 0.015012 0.015012
0.013603 0.013358 0.015686
0.015686 0.018199 0.018199
0.023039 0.026961 0.026961
0.027451 0.031373 0.029964
0.031373 0.037132 0.036642
0.037561 0.043750 0.043750
0.042402 0.050245 0.050245
0.053247 0.062929 0.062929
0.061765 0.073529 0.073529
0.072610 0.084375 0.086213
0.084191 0.100981 0.100981
0.101838 0.117524 0.117524
0.112378 0.131128 0.131985
0.129044 0.146568 0.148652
0.143872 0.163480 0.166176
0.160171 0.179779 0.183701
0.178922 0.202451 0.201225
0.195221 0.219056 0.221140
0.212745 0.231740 0.235662
0.228431 0.249877 0.253799
0.243872 0.265564 0.269485
0.261949 0.285478 0.289400
0.274632 0.294240 0.298162
0.289400 0.312133 0.316054
0.300490 0.323897 0.327819
0.318689 0.342218 0.346140
0.329289 0.350981 0.354902
0.341973 0.361581 0.365502
0.354657 0.374265 0.380147
0.370465 0.390073 0.389032
0.378186 0.397794 0.399510
0.390870 0.410478 0.410478
0.399632 0.419240 0.419240
0.412316 0.429841 0.433211
0.421078 0.438848 0.438848
0.431679 0.449448 0.449448
0.437132 0.458211 0.458211
0.447365 0.463358 0.463051
0.458824 0.473897 0.474510
0.464890 0.480576 0.478431
0.470588 0.489338 0.485417
0.480331 0.498100 0.495956
0.489338 0.506862 0.502941
0.496017 0.515687 0.507782
0.504779 0.520466 0.512623
0.509804 0.527328 0.519485
0.523407 0.537990 0.531250
0.531250 0.546753 0.539093
0.537745 0.558088 0.546324
0.548591 0.568198 0.554595
0.553921 0.571691 0.559436
0.563603 0.583639 0.567954
0.574878 0.594485 0.578799
0.583640 0.603248 0.583640
0.590809 0.612010 0.592402
0.605086 0.621936 0.601164
0.613848 0.633456 0.609927
0.628616 0.645221 0.621691
0.639216 0.658824 0.631373
0.006679 0.006679 0.006679
0.007843 0.010601 0.010601
0.007843 0.010601 0.010601
0.010601 0.010601 0.010601
0.010601 0.014277 0.014277
0.012439 0.012439 0.012439
0.013358 0.015686 0.015686
0.018199 0.018199 0.018199
0.023039 0.023529 0.026961
0.023958 0.027880 0.030637
0.029964 0.033885 0.033885
0.034804 0.042647 0.042647
0.041973 0.050245 0.050245
0.053921 0.061765 0.065503
0.063848 0.071691 0.072794
0.074632 0.086397 0.086397
0.085295 0.100000 0.099816
0.103002 0.118628 0.118689
0.117341 0.133027 0.131128
0.129044 0.149632 0.148652
0.145343 0.164951 0.166176
0.164951 0.184559 0.183701
0.177696 0.197916 0.203983
0.195221 0.214829 0.218750
0.211274 0.232353 0.236275
0.230270 0.253248 0.257170
0.246630 0.267402 0.271323
0.261397 0.283762 0.287684
0.275000 0.295772 0.299694
0.288235 0.312133 0.316054
0.306005 0.328370 0.332292
0.315809 0.341054 0.344975
0.330576 0.350184 0.354106
0.345772 0.366544 0.369301
0.356740 0.376348 0.381311
0.365502 0.385110 0.389032
0.380944 0.397794 0.399510
0.390870 0.407720 0.410478
0.403187 0.419240 0.422794
0.408946 0.428003 0.430759
0.419791 0.440686 0.440686
0.429841 0.446691 0.446691
0.438603 0.458211 0.454289
0.450123 0.466973 0.465808
0.456128 0.471814 0.471814
0.464890 0.482721 0.480576
0.473652 0.489338 0.485111
0.479657 0.501961 0.494179
0.490196 0.505882 0.501961
0.496017 0.514461 0.507782
0.501961 0.520466 0.512623
0.513542 0.533149 0.525306
0.522304 0.539154 0.530147
0.532169 0.546753 0.537255
0.538480 0.558088 0.546507
0.544669 0.564277 0.552512
0.554596 0.574204 0.558517
0.564950 0.584558 0.568873
0.572120 0.591728 0.574449
0.583640 0.603248 0.583150
0.595160 0.614768 0.592402
0.602328 0.621936 0.601164
0.613848 0.633456 0.609927
0.626532 0.646140 0.619853
0.639216 0.658824 0.631373
0.007843 0.011520 0.011520
0.007843 0.014523 0.014523
0.008088 0.011765 0.011765
0.012684 0.015441 0.015441
0.011765 0.015441 0.015441
0.015441 0.019363 0.019363
0.017279 0.019608 0.017525
0.018199 0.022120 0.022120
0.023039 0.026961 0.026961
0.023958 0.027880 0.027880
0.031373 0.036642 0.036642
0.037561 0.041483 0.041483
0.046324 0.053922 0.053431
0.054902 0.062929 0.062929
0.063848 0.071691 0.078186
0.074632 0.086397 0.084742
0.088235 0.100000 0.100981
0.101838 0.117279 0.117524
0.118260 0.134191 0.134191
0.127144 0.148652 0.146752
0.142892 0.162500 0.167402
0.160171 0.179779 0.183701
0.177696 0.194240 0.201225
0.195221 0.214829 0.218750
0.212745 0.232353 0.236275
0.230025 0.249877 0.253799
0.251103 0.267402 0.271323
0.260111 0.283640 0.287562
0.276716 0.296324 0.300245
0.292525 0.315809 0.319731
0.305883 0.325735 0.329657
0.322365 0.341973 0.345895
0.331373 0.350980 0.354902
0.344056 0.362868 0.367585
0.352941 0.372549 0.376594
0.369179 0.385110 0.389032
0.382108 0.395833 0.401716
0.390870 0.410478 0.411765
0.403187 0.419118 0.423161
0.412316 0.428003 0.428003
0.421078 0.437010 0.437010
0.433517 0.450735 0.450735
0.439216 0.458211 0.454534
0.447365 0.463358 0.463051
0.462500 0.475735 0.474510
0.464890 0.479044 0.480576
0.473652 0.493015 0.489093
0.482353 0.501961 0.494118
0.484559 0.503922 0.500000
0.496017 0.511704 0.504105
0.504779 0.519608 0.511765
0.513542 0.533210 0.521630
0.519118 0.541667 0.530147
0.527390 0.544731 0.535233
0.536152 0.555515 0.543750
0.544485 0.564277 0.552512
0.560539 0.576715 0.564461
0.566115 0.581801 0.566115
0.574878 0.592892 0.574878
0.583640 0.602574 0.583640
0.592402 0.612010 0.595833
0.604840 0.624449 0.603677
0.613848 0.633456 0.609927
0.625613 0.645221 0.618015
0.642892 0.658824 0.631373
0.012439 0.012439 0.012439
0.012439 0.015441 0.015441
0.013603 0.015686 0.015686
0.015197 0.016360 0.016360
0.015686 0.016360 0.016360
0.016360 0.020282 0.020282
0.020282 0.020956 0.020956
0.022794 0.026716 0.026716
0.027451 0.031373 0.031373
0.028554 0.035968 0.035968
0.032047 0.037316 0.037316
0.038235 0.043811 0.043811
0.046324 0.056679 0.054167
0.051838 0.059192 0.063603
0.060601 0.072794 0.072365
0.076532 0.088297 0.088297
0.088235 0.100674 0.103921
0.105086 0.117524 0.120772
0.115441 0.131128 0.135049
0.129718 0.149326 0.149326
0.149264 0.162929 0.168872
0.164093 0.183701 0.187622
0.177635 0.201225 0.205147
0.195221 0.218750 0.221140
0.210968 0.236275 0.240196
0.230270 0.249877 0.253799
0.244546 0.267402 0.271630
0.261397 0.284926 0.288848
0.273468 0.298530 0.302451
0.292525 0.316054 0.319976
0.306679 0.329535 0.333456
0.319730 0.340012 0.342892
0.333333 0.354902 0.355576
0.344730 0.364338 0.368260
0.356740 0.376348 0.383395
0.366973 0.386581 0.389828
0.379902 0.399510 0.403431
0.390870 0.410478 0.408517
0.403187 0.419240 0.426042
0.408946 0.428003 0.428003
0.420282 0.437438 0.437438
0.428125 0.446200 0.446200
0.439216 0.458211 0.458211
0.448039 0.463725 0.463725
0.456128 0.475735 0.471814
0.464890 0.480576 0.477329
0.473652 0.489338 0.485417
0.479166 0.498774 0.494179
0.487255 0.506862 0.502941
0.497917 0.515625 0.509681
0.504779 0.521569 0.513726
0.513542 0.526164 0.518321
0.518321 0.537990 0.529412
0.528799 0.546753 0.534988
0.539828 0.556863 0.545098
0.545343 0.567769 0.552512
0.557537 0.573713 0.561458
0.562867 0.582475 0.566789
0.573958 0.592892 0.577206
0.580393 0.600000 0.583640
0.593076 0.613113 0.593505
0.601838 0.621446 0.597916
0.614522 0.634130 0.610600
0.626287 0.645895 0.619362
0.633395 0.653002 0.625551
0.018015 0.019608 0.019608
0.015686 0.016605 0.016605
0.015441 0.019363 0.019363
0.017279 0.022365 0.021201
0.019608 0.023529 0.023529
0.024448 0.028370 0.028370
0.022794 0.026716 0.029044
0.025122 0.029044 0.029044
0.031373 0.038726 0.038726
0.036887 0.042402 0.042402
0.036642 0.044485 0.044485
0.040809 0.049326 0.048652
0.048652 0.056495 0.056495
0.055086 0.062929 0.065258
0.065441 0.075613 0.077206
0.076532 0.085968 0.090319
0.089216 0.103921 0.102573
0.105759 0.123713 0.121446
0.117034 0.132721 0.135049
0.131189 0.150797 0.152574
0.146569 0.166176 0.167769
0.164093 0.187316 0.187622
0.181617 0.201225 0.205147
0.197610 0.218750 0.222672
0.212745 0.236275 0.237745
0.230270 0.250429 0.256127
0.249020 0.270956 0.274878
0.262990 0.284926 0.288848
0.278922 0.298530 0.302451
0.292525 0.316054 0.319976
0.306005 0.325735 0.329657
0.320282 0.342218 0.343260
0.331372 0.352942 0.354902
0.346936 0.368872 0.370466
0.356740 0.376348 0.380269
0.369424 0.389032 0.389828
0.382230 0.399510 0.403431
0.390870 0.410478 0.410478
0.397671 0.419240 0.417279
0.413910 0.428554 0.431924
0.420956 0.440564 0.440564
0.429044 0.449448 0.449448
0.441912 0.458211 0.458211
0.446078 0.466973 0.461765
0.457721 0.475735 0.471814
0.464890 0.485049 0.480576
0.473652 0.492402 0.487010
0.482414 0.499693 0.494179
0.491789 0.506862 0.503554
0.497611 0.515625 0.507475
0.509926 0.524387 0.516544
0.513542 0.527083 0.519240
0.522304 0.539583 0.530147
0.529412 0.546753 0.537255
0.539828 0.557107 0.542769
0.550491 0.570098 0.558333
0.557353 0.576961 0.561274
0.566115 0.585723 0.568443
0.574878 0.592157 0.574142
0.586887 0.603248 0.586887
0.593995 0.613603 0.592402
0.605086 0.624693 0.601164
0.615441 0.635540 0.612010
0.627206 0.646814 0.621691
0.640809 0.660417 0.631373
0.022120 0.026042 0.026042
0.022120 0.026042 0.026042
0.021446 0.026042 0.025367
0.022120 0.026042 0.026042
0.025797 0.029718 0.029718
0.026042 0.029964 0.029964
0.027451 0.031373 0.033885
0.029964 0.033885 0.033885
0.033885 0.042647 0.042647
0.041728 0.046078 0.046078
0.045650 0.050980 0.053493
0.049326 0.057169 0.059681
0.053493 0.064523 0.064523
0.059008 0.069363 0.069363
0.069179 0.080944 0.080944
0.076042 0.090319 0.090319
0.089216 0.100981 0.103921
0.101900 0.117524 0.121446
0.113787 0.129473 0.135049
0.132966 0.150061 0.152574
0.146385 0.165992 0.170098
0.162990 0.182598 0.187622
0.181617 0.201225 0.205147
0.200123 0.218750 0.222672
0.212745 0.236275 0.240196
0.233640 0.253799 0.257721
0.247794 0.273468 0.277390
0.264032 0.284926 0.288848
0.280637 0.302757 0.306679
0.291912 0.312929 0.316851
0.306127 0.329535 0.333456
0.319730 0.339338 0.343260
0.333334 0.352942 0.356863
0.346936 0.366544 0.370466
0.360539 0.380147 0.380269
0.370220 0.389828 0.392953
0.382108 0.401716 0.401716
0.394914 0.411888 0.414522
0.402145 0.421752 0.423161
0.418199 0.431924 0.435294
0.420037 0.439645 0.439645
0.431250 0.449448 0.449448
0.443321 0.459621 0.458211
0.453493 0.470588 0.469179
0.456128 0.473223 0.471814
0.464890 0.481985 0.478063
0.473652 0.491851 0.489338
0.484866 0.498100 0.494179
0.490196 0.506862 0.501961
0.496017 0.515625 0.507782
0.504779 0.520160 0.513726
0.513542 0.530638 0.522795
0.524081 0.543689 0.531924
0.528554 0.545895 0.536397
0.539889 0.555515 0.543750
0.548591 0.568198 0.552941
0.557353 0.574449 0.561274
0.566115 0.586826 0.571140
0.574878 0.594485 0.574878
0.582905 0.603248 0.582905
0.598591 0.614523 0.592402
0.602328 0.621936 0.603676
0.615257 0.633456 0.611765
0.625123 0.644731 0.618689
0.641728 0.661336 0.633885
0.026961 0.030883 0.030883
0.029964 0.033886 0.033886
0.023529 0.030883 0.030883
0.026961 0.030883 0.030883
0.026961 0.030883 0.030883
0.030883 0.032047 0.035294
0.034804 0.038726 0.038726
0.033885 0.037807 0.039216
0.038726 0.043137 0.043137
0.039645 0.047488 0.047488
0.050490 0.058334 0.059681
0.057844 0.064523 0.064523
0.062255 0.073530 0.073285
0.066544 0.078309 0.078309
0.075122 0.086887 0.090319
0.085785 0.100981 0.100981
0.092157 0.103921 0.108333
0.105759 0.120956 0.121446
0.119363 0.135049 0.135539
0.136397 0.152574 0.154351
0.151225 0.169608 0.173530
0.168014 0.187622 0.191544
0.178799 0.198407 0.202329
0.199142 0.224571 0.226103
0.216667 0.236275 0.240196
0.234191 0.257782 0.261703
0.254779 0.271323 0.275245
0.265318 0.285417 0.289339
0.280637 0.299020 0.302941
0.296752 0.316851 0.320772
0.309927 0.329657 0.333578
0.322611 0.342218 0.346140
0.333334 0.352941 0.356863
0.347488 0.367585 0.371017
0.360661 0.380269 0.379902
0.375981 0.392463 0.392953
0.382108 0.401716 0.400000
0.394301 0.410478 0.413909
0.407108 0.423284 0.426716
0.415686 0.431924 0.431924
0.422549 0.444118 0.444118
0.430331 0.450980 0.450980
0.439093 0.458824 0.458211
0.450797 0.466973 0.466482
0.459558 0.475735 0.475244
0.463603 0.484498 0.480576
0.473652 0.493628 0.489706
0.482414 0.494731 0.494179
0.490196 0.506862 0.501961
0.498039 0.515625 0.509804
0.504779 0.519853 0.516544
0.513542 0.533149 0.525306
0.522304 0.535294 0.530147
0.527635 0.547243 0.535478
0.539828 0.558088 0.547672
0.548591 0.568259 0.553002
0.557353 0.573039 0.557842
0.566115 0.585723 0.572059
0.574878 0.594485 0.575368
0.583640 0.603248 0.583640
0.592402 0.612010 0.592402
0.602328 0.621936 0.601164
0.612500 0.633456 0.609927
0.626103 0.646140 0.618260
0.639216 0.658824 0.631373
0.032231 0.039645 0.039645
0.035294 0.040135 0.040135
0.031802 0.036152 0.036152
0.031802 0.035723 0.035723
0.031802 0.039645 0.039645
0.035723 0.042892 0.042892
0.040809 0.043566 0.048652
0.039645 0.049571 0.049571
0.043566 0.051409 0.051409
0.047488 0.058824 0.059253
0.052757 0.061030 0.064522
0.065012 0.075122 0.078615
0.070711 0.082475 0.082475
0.079044 0.090809 0.091238
0.083211 0.096079 0.099571
0.092647 0.108333 0.108333
0.101409 0.117095 0.114583
0.106740 0.126287 0.126287
0.119792 0.138542 0.139400
0.136887 0.156495 0.155147
0.153186 0.172794 0.174020
0.168014 0.187622 0.191544
0.182046 0.204964 0.209068
0.203064 0.221569 0.226593
0.220588 0.242647 0.244118
0.231250 0.254229 0.258149
0.251286 0.274878 0.278799
0.265318 0.285355 0.289277
0.282843 0.304657 0.308579
0.296446 0.322672 0.326593
0.309927 0.329228 0.333149
0.322611 0.342218 0.346140
0.335294 0.354902 0.358823
0.347978 0.367585 0.371507
0.357168 0.376776 0.380699
0.373713 0.389828 0.392953
0.383823 0.403431 0.402144
0.394791 0.416606 0.414399
0.403554 0.422794 0.423161
0.412316 0.431924 0.431924
0.426041 0.442157 0.445649
0.433762 0.449448 0.449448
0.442524 0.465013 0.458211
0.451286 0.466973 0.466973
0.456128 0.475735 0.471814
0.464890 0.478860 0.478431
0.473652 0.489338 0.485417
0.478554 0.497733 0.494179
0.490196 0.506862 0.501961
0.497917 0.515625 0.507782
0.502390 0.524387 0.516544
0.513542 0.536458 0.528615
0.522304 0.537990 0.530147
0.527573 0.548407 0.535416
0.539828 0.559008 0.545098
0.548591 0.564705 0.549449
0.557353 0.573468 0.561274
0.566115 0.585723 0.570036
0.574878 0.590992 0.574878
0.583640 0.603248 0.583640
0.592218 0.611826 0.592218
0.605086 0.624693 0.601164
0.619424 0.639032 0.615503
0.629105 0.648713 0.622182
0.642708 0.662316 0.631373
0.040564 0.044485 0.048407
0.037561 0.045833 0.045833
0.040564 0.048897 0.048407
0.037807 0.043076 0.045650
0.040318 0.044485 0.048161
0.043137 0.051654 0.050980
0.047059 0.052328 0.052328
0.049571 0.057415 0.058762
0.049755 0.057598 0.060172
0.056679 0.064522 0.063603
0.061520 0.073284 0.073284
0.067708 0.079473 0.079473
0.079044 0.090809 0.093383
0.087807 0.104657 0.103493
0.096569 0.109436 0.112255
0.105331 0.121017 0.122365
0.114093 0.129779 0.129779
0.122855 0.138541 0.136029
0.132966 0.148162 0.152084
0.141728 0.161765 0.163909
0.153064 0.175367 0.175367
0.168014 0.191544 0.191544
0.188848 0.209068 0.212990
0.203064 0.222488 0.226593
0.220588 0.240196 0.244118
0.234191 0.257721 0.261642
0.251715 0.273897 0.277818
0.267892 0.288848 0.292769
0.282843 0.301593 0.305515
0.296446 0.321753 0.325674
0.311274 0.330883 0.334803
0.322611 0.343260 0.346140
0.337255 0.356862 0.360785
0.350858 0.370466 0.371507
0.360661 0.380269 0.384191
0.374694 0.392953 0.397426
0.382108 0.401716 0.403064
0.392218 0.411826 0.414399
0.403554 0.423161 0.423161
0.412868 0.431128 0.431128
0.425122 0.442157 0.442157
0.433762 0.450980 0.450980
0.442524 0.456250 0.458211
0.450980 0.466973 0.466667
0.458701 0.475735 0.474510
0.464890 0.484498 0.480576
0.473652 0.491911 0.486275
0.481066 0.496814 0.494179
0.489828 0.506862 0.501593
0.498590 0.515625 0.510356
0.504779 0.523040 0.516544
0.509804 0.529412 0.521569
0.520956 0.540563 0.528799
0.531066 0.548407 0.538909
0.538481 0.558089 0.546324
0.546017 0.565624 0.552512
0.557353 0.573529 0.561274
0.564706 0.581801 0.566115
0.574878 0.593138 0.577452
0.583640 0.600000 0.583640
0.591299 0.610907 0.591054
0.603738 0.620772 0.599816
0.613848 0.633456 0.609927
0.628186 0.644791 0.620343
0.640441 0.657476 0.630025
0.053247 0.061091 0.061091
0.047978 0.058088 0.058088
0.053676 0.061520 0.061520
0.052083 0.059926 0.059436
0.053247 0.061091 0.061091
0.053247 0.061091 0.061091
0.057169 0.065012 0.065012
0.059681 0.070037 0.069792
0.064523 0.072366 0.074020
0.067708 0.079474 0.079474
0.071630 0.083394 0.083394
0.080698 0.092463 0.094730
0.084620 0.098652 0.100306
0.100490 0.116176 0.118443
0.109252 0.124939 0.126042
0.116115 0.131801 0.135968
0.123836 0.141789 0.144731
0.137132 0.155086 0.155148
0.144301 0.163909 0.163909
0.153064 0.172672 0.177083
0.161826 0.184130 0.185355
0.178125 0.197733 0.201655
0.186152 0.209068 0.212990
0.207721 0.226593 0.231250
0.220588 0.244118 0.246385
0.236458 0.259987 0.263909
0.251715 0.275245 0.279166
0.270221 0.291115 0.295037
0.282843 0.304657 0.308579
0.295588 0.319118 0.323039
0.313849 0.333456 0.337378
0.326532 0.348407 0.352329
0.339216 0.358823 0.362745
0.350245 0.369853 0.373775
0.364461 0.384069 0.387990
0.373346 0.392953 0.393750
0.386029 0.405637 0.405637
0.394791 0.414399 0.414032
0.402267 0.423161 0.421875
0.414584 0.434192 0.434192
0.425000 0.443137 0.443137
0.433762 0.451838 0.451838
0.442524 0.459866 0.458211
0.451286 0.466973 0.466973
0.458824 0.475735 0.474510
0.468934 0.484498 0.482353
0.475307 0.493260 0.489338
0.482414 0.504228 0.498039
0.488236 0.506862 0.502941
0.496017 0.515625 0.507782
0.508701 0.524387 0.516544
0.513542 0.529412 0.521569
0.522304 0.539644 0.533333
0.531066 0.551287 0.538909
0.539828 0.557782 0.546017
0.548591 0.568198 0.554166
0.557353 0.575306 0.563051
0.565257 0.585723 0.570036
0.577206 0.596814 0.578799
0.585295 0.604903 0.585295
0.592647 0.612255 0.594669
0.606250 0.624693 0.605086
0.615932 0.635540 0.612193
0.629535 0.649142 0.621691
0.643137 0.662745 0.633640
0.062010 0.073775 0.073775
0.065196 0.073039 0.076960
0.062010 0.073775 0.073775
0.062010 0.069853 0.074203
0.062010 0.069363 0.073039
0.058762 0.070528 0.070528
0.063604 0.075367 0.075367
0.068443 0.080882 0.080209
0.073039 0.084804 0.084804
0.080882 0.092647 0.093076
0.087378 0.100490 0.100490
0.089461 0.103492 0.103492
0.096568 0.112254 0.115441
0.101593 0.117279 0.121017
0.121200 0.139705 0.137622
0.129963 0.149571 0.149571
0.136520 0.155147 0.156128
0.147488 0.167095 0.167095
0.156250 0.175857 0.179779
0.165747 0.185355 0.189277
0.174020 0.196814 0.200736
0.186458 0.206066 0.209988
0.196569 0.219485 0.220098
0.211826 0.229779 0.233701
0.224510 0.248774 0.252696
0.238113 0.261642 0.264829
0.251715 0.275245 0.279166
0.271875 0.289584 0.293505
0.287745 0.306373 0.310294
0.300368 0.319976 0.323897
0.310172 0.333578 0.337500
0.327573 0.347181 0.351103
0.339216 0.357598 0.362745
0.355086 0.374694 0.375429
0.364461 0.384069 0.387990
0.374142 0.393750 0.396875
0.386029 0.405637 0.411030
0.397978 0.417586 0.418873
0.403922 0.423529 0.423529
0.416238 0.435111 0.438481
0.425000 0.444608 0.444608
0.433762 0.448652 0.448652
0.442402 0.458089 0.458089
0.451286 0.470894 0.466973
0.457353 0.473774 0.469853
0.469853 0.486275 0.482353
0.476838 0.493260 0.489338
0.482414 0.505147 0.498039
0.490196 0.506862 0.501961
0.498039 0.517647 0.509804
0.507598 0.524387 0.516544
0.513542 0.533701 0.525858
0.522304 0.541911 0.533334
0.531066 0.548407 0.538909
0.539828 0.559436 0.547672
0.548591 0.564706 0.552941
0.557353 0.576961 0.561274
0.564338 0.585723 0.570036
0.574878 0.594485 0.577206
0.583579 0.603248 0.584314
0.593136 0.612744 0.592402
0.605086 0.624693 0.601164
0.618873 0.638481 0.611765
0.626532 0.646140 0.619424
0.643137 0.662745 0.634559
0.078615 0.090380 0.094302
0.077879 0.090564 0.089828
0.073223 0.086826 0.088909
0.076041 0.090564 0.090564
0.078555 0.086826 0.090564
0.074878 0.087317 0.091054
0.080208 0.091973 0.092157
0.082721 0.096998 0.096998
0.089891 0.101838 0.101838
0.094731 0.106250 0.106679
0.098223 0.110172 0.115257
0.104412 0.120098 0.122365
0.106250 0.121937 0.122120
0.114093 0.129963 0.133701
0.126777 0.143566 0.146385
0.129780 0.149388 0.155147
0.151164 0.170773 0.174693
0.160908 0.180516 0.180698
0.166115 0.185723 0.189644
0.180209 0.201961 0.202145
0.189890 0.213419 0.213603
0.196140 0.219485 0.219669
0.208823 0.232782 0.236703
0.221324 0.242463 0.244852
0.230085 0.249878 0.253798
0.239032 0.262561 0.266483
0.255821 0.279166 0.283088
0.273161 0.294056 0.297978
0.284742 0.310294 0.314216
0.301164 0.320955 0.324878
0.314155 0.337561 0.341482
0.330454 0.351103 0.353983
0.343137 0.362745 0.366666
0.358517 0.378126 0.378309
0.364583 0.384191 0.391728
0.377267 0.393137 0.396262
0.389767 0.405637 0.409559
0.398713 0.417035 0.418321
0.407475 0.426899 0.427083
