Color/Polaroid/Polaroid 669 Cold 1 -- 65x.cube
TITLE "Polaroid 669 Cold 1 --"
LUT_3D_SIZE 65
DOMAIN_MIN 0.000000 0.000000 0.000000
DOMAIN_MAX 1.000000 1.000000 1.000000
0.000000 0.000000 0.000000
0.000000 0.003003 0.003003
0.000000 0.005760 0.003922
0.000000 0.007843 0.003922
0.000000 0.007843 0.007598
0.000000 0.012439 0.008517
0.000000 0.021201 0.015686
0.000000 0.023529 0.015686
0.000000 0.030883 0.023039
0.000000 0.035723 0.023529
0.005270 0.044485 0.027451
0.010110 0.049326 0.029718
0.018873 0.054167 0.034559
0.027635 0.059008 0.039216
0.040319 0.062745 0.042034
0.053125 0.068689 0.045159
0.068627 0.074510 0.050980
0.082230 0.078370 0.054841
0.102819 0.082353 0.062745
0.119056 0.085907 0.064522
0.138725 0.090196 0.070588
0.152635 0.090196 0.074510
0.174387 0.094731 0.082966
0.195221 0.099571 0.087807
0.212745 0.101961 0.092647
0.233640 0.105331 0.098039
0.255637 0.109804 0.109804
0.273161 0.109804 0.113725
0.290687 0.111519 0.121569
0.311336 0.113725 0.128615
0.329657 0.117647 0.133456
0.347181 0.117647 0.145098
0.364706 0.121569 0.150981
0.386152 0.125490 0.160784
0.399877 0.125490 0.164706
0.417279 0.125490 0.173346
0.440441 0.133333 0.186029
0.460172 0.133333 0.192157
0.481618 0.136887 0.203187
0.499142 0.137255 0.208395
0.520588 0.141176 0.217157
0.538112 0.141176 0.223529
0.556250 0.145098 0.234681
0.573162 0.145404 0.239522
0.590686 0.149020 0.248284
0.604289 0.151164 0.253125
0.621813 0.152941 0.261887
0.639277 0.156863 0.270588
0.650000 0.157843 0.272549
0.666544 0.160784 0.280331
0.684069 0.164706 0.287990
0.697855 0.168627 0.293934
0.715197 0.172549 0.298774
0.732721 0.178125 0.307537
0.746324 0.182966 0.316299
0.763848 0.187806 0.321140
0.776961 0.192157 0.329412
0.793566 0.197487 0.334742
0.808579 0.204657 0.343505
0.822181 0.211091 0.351593
0.839461 0.219608 0.356863
0.852144 0.224693 0.361948
0.866912 0.233456 0.370711
0.883518 0.245221 0.382476
0.905882 0.262745 0.396078
0.000000 0.009681 0.003922
0.000000 0.016605 0.007843
0.000000 0.016605 0.007843
0.000000 0.017524 0.008762
0.000000 0.024204 0.015441
0.000000 0.029289 0.016360
0.000000 0.033885 0.021201
0.000000 0.038725 0.022120
0.000000 0.041054 0.023529
0.000000 0.048897 0.028370
0.001348 0.053247 0.031373
0.006189 0.058088 0.034559
0.017953 0.065932 0.039216
0.022977 0.066851 0.039400
0.034682 0.072794 0.045343
0.051103 0.077451 0.050000
0.067647 0.082292 0.051899
0.082292 0.083272 0.055821
0.100613 0.088052 0.063603
0.122059 0.091115 0.068444
0.138419 0.099510 0.075980
0.156250 0.095343 0.075429
0.178615 0.102574 0.086888
0.196140 0.102880 0.091728
0.216667 0.106801 0.098039
0.234191 0.109804 0.101961
0.255637 0.110172 0.110172
0.272794 0.114644 0.114644
0.293689 0.117647 0.123775
0.309131 0.118566 0.129534
0.329657 0.121569 0.137378
0.351103 0.125490 0.146017
0.368627 0.126409 0.153860
0.386152 0.129412 0.163664
0.400675 0.130208 0.169424
0.421324 0.130331 0.177390
0.440441 0.133333 0.186029
0.460172 0.134252 0.191789
0.485172 0.138174 0.203554
0.503064 0.141176 0.212316
0.520588 0.145650 0.221630
0.538112 0.145098 0.228922
0.556557 0.146017 0.235601
0.573162 0.149020 0.239522
0.589461 0.152941 0.247978
0.607292 0.152941 0.254902
0.621813 0.156863 0.259743
0.635417 0.156924 0.267647
0.652941 0.161703 0.275490
0.668566 0.166605 0.282353
0.684069 0.165625 0.287194
0.701593 0.173284 0.294852
0.715197 0.173284 0.301961
0.732721 0.180392 0.310539
0.744669 0.179657 0.314645
0.763848 0.191728 0.327635
0.777451 0.196078 0.329902
0.794056 0.201409 0.337745
0.808579 0.206250 0.343505
0.825184 0.215012 0.349020
0.835784 0.219853 0.357108
0.852389 0.228615 0.366115
0.866912 0.234376 0.371630
0.881434 0.246140 0.380392
0.905882 0.262745 0.396078
0.000000 0.023284 0.009681
0.000000 0.027206 0.009681
0.000000 0.031127 0.013603
0.000000 0.028370 0.013603
0.000000 0.034804 0.017280
0.000000 0.042218 0.019608
0.000000 0.042647 0.021201
0.000000 0.047487 0.026042
0.000000 0.056250 0.030883
0.000000 0.057169 0.031802
0.000000 0.062500 0.035294
0.006618 0.066850 0.037561
0.007843 0.068505 0.039216
0.021874 0.076348 0.047059
0.034314 0.077451 0.048897
0.049081 0.082169 0.052818
0.065687 0.088113 0.056740
0.082230 0.094057 0.062684
0.100613 0.091912 0.064461
0.121201 0.097733 0.072426
0.137867 0.101961 0.076348
0.159865 0.105576 0.082047
0.179534 0.107720 0.089951
0.199142 0.111642 0.095956
0.218505 0.111642 0.099877
0.239645 0.113725 0.107414
0.255637 0.114093 0.114093
0.277083 0.119485 0.123407
0.292525 0.119118 0.125245
0.312133 0.124694 0.134375
0.327942 0.121692 0.141299
0.351103 0.129412 0.150062
0.366544 0.127328 0.154779
0.384069 0.131250 0.162622
0.403677 0.131250 0.172426
0.423040 0.138297 0.182230
0.440441 0.137255 0.187868
0.464094 0.141176 0.198713
0.481618 0.141176 0.201838
0.504902 0.146936 0.214155
0.520588 0.145098 0.221078
0.542034 0.151409 0.229289
0.556250 0.150858 0.238603
0.573162 0.149326 0.243443
0.588848 0.156863 0.250980
0.604289 0.156863 0.257047
0.618750 0.158701 0.260662
0.637255 0.162622 0.272426
0.652941 0.165686 0.277573
0.670527 0.170527 0.284253
0.684069 0.171446 0.289093
0.697855 0.170649 0.294118
0.715197 0.178309 0.302696
0.732905 0.182230 0.311642
0.748897 0.188726 0.318873
0.763848 0.195649 0.325061
0.777451 0.196568 0.329902
0.792892 0.203247 0.336580
0.808089 0.209681 0.345343
0.822181 0.218260 0.352267
0.835784 0.220098 0.357108
0.851470 0.229779 0.365870
0.866912 0.241544 0.374878
0.883518 0.249142 0.382476
0.905882 0.264583 0.396078
0.000000 0.036888 0.014522
0.000000 0.040809 0.021446
0.000000 0.039889 0.018444
0.000000 0.044731 0.018444
0.000000 0.048407 0.022120
0.000000 0.047243 0.020282
0.000000 0.053738 0.023529
0.000000 0.056250 0.027206
0.000000 0.065013 0.034804
0.000000 0.065931 0.034560
0.000000 0.068015 0.036642
-0.000490 0.072855 0.038726
0.007108 0.077267 0.043137
0.018627 0.083946 0.049816
0.029657 0.083456 0.053738
0.047181 0.091054 0.056924
0.064706 0.092954 0.060600
0.087255 0.097978 0.066606
0.103677 0.100797 0.067525
0.123959 0.104718 0.077267
0.141421 0.107414 0.079902
0.163787 0.109804 0.085969
0.178309 0.113174 0.093566
0.199142 0.116483 0.095650
0.219117 0.116176 0.102941
0.241483 0.121017 0.112009
0.259559 0.124326 0.120405
0.279841 0.122856 0.125613
0.294056 0.125490 0.128861
0.315257 0.128615 0.136458
0.333578 0.132169 0.147856
0.351103 0.132169 0.152819
0.367831 0.132536 0.158027
0.389032 0.136091 0.170466
0.408640 0.141053 0.176348
0.421201 0.140012 0.181189
0.445404 0.141728 0.192708
0.464094 0.143934 0.198713
0.485172 0.148652 0.207475
0.503064 0.147856 0.216238
0.522059 0.150490 0.225000
0.539277 0.152941 0.229841
0.555638 0.152941 0.238603
0.573162 0.156004 0.246200
0.586765 0.159620 0.251042
0.607047 0.161765 0.259804
0.621813 0.163542 0.265809
0.639277 0.168627 0.274510
0.651960 0.168627 0.278431
0.669302 0.170527 0.284253
0.684069 0.172549 0.289093
0.701593 0.180208 0.302757
0.715197 0.181127 0.306617
0.732721 0.187071 0.312562
0.748897 0.190809 0.319057
0.760355 0.195649 0.325061
0.780882 0.200490 0.333333
0.791054 0.206679 0.337499
0.805821 0.211336 0.344669
0.822855 0.218444 0.352267
0.835784 0.226532 0.359866
0.847794 0.229779 0.365870
0.867586 0.240135 0.373468
0.881434 0.250061 0.383395
0.905882 0.266667 0.396078
0.000000 0.050490 0.023284
0.000000 0.050735 0.026286
0.000000 0.054657 0.023529
0.000000 0.058334 0.028125
0.000000 0.062010 0.023529
0.000000 0.059252 0.027206
0.000000 0.066422 0.025367
0.000000 0.070098 0.029964
0.000000 0.073775 0.034804
0.000000 0.077941 0.035723
0.000000 0.079535 0.042892
0.000000 0.082108 0.046814
0.003187 0.089706 0.050735
0.015870 0.090136 0.054657
0.028554 0.093873 0.058579
0.047181 0.096140 0.060846
0.064706 0.101716 0.066422
0.086091 0.105576 0.070282
0.106740 0.109559 0.074510
0.122978 0.111335 0.078064
0.141667 0.113725 0.081373
0.163848 0.113725 0.089951
0.181617 0.114338 0.094731
0.200674 0.121324 0.099571
0.220588 0.120098 0.108089
0.241789 0.125245 0.113174
0.263235 0.129167 0.125245
0.279718 0.131802 0.129167
0.300000 0.129412 0.133333
0.319731 0.136213 0.144056
0.337255 0.137010 0.148896
0.354779 0.139890 0.157659
0.368627 0.137255 0.162745
0.386397 0.141176 0.171507
0.403799 0.141176 0.176471
0.421998 0.144853 0.187990
0.446568 0.146814 0.193872
0.469056 0.150062 0.202635
0.485540 0.152696 0.211397
0.503064 0.152696 0.216238
0.520833 0.152941 0.225000
0.543321 0.156618 0.235049
0.555883 0.156863 0.239216
0.573162 0.157169 0.243750
0.590686 0.164461 0.258579
0.604289 0.162929 0.260968
0.621813 0.168382 0.269485
0.639277 0.168627 0.274510
0.652941 0.169608 0.279412
0.666544 0.172549 0.284253
0.684069 0.175368 0.293015
0.701593 0.184130 0.301838
0.718872 0.187990 0.306373
0.729044 0.186213 0.311459
0.746569 0.191054 0.316544
0.763848 0.199755 0.325061
0.777451 0.204166 0.333579
0.793566 0.211520 0.338664
0.808579 0.214093 0.345833
0.818505 0.218505 0.352267
0.839215 0.231128 0.360784
0.849387 0.236214 0.368382
0.864829 0.244976 0.374633
0.879841 0.253064 0.382476
0.905882 0.270343 0.396078
0.000000 0.065441 0.028799
0.000000 0.068689 0.032047
0.000000 0.068689 0.032047
0.000000 0.074694 0.034805
0.000000 0.072610 0.032047
0.000000 0.080453 0.032047
0.000000 0.080453 0.032721
0.000000 0.082966 0.034559
0.000000 0.084375 0.035968
0.000000 0.088052 0.043811
0.000000 0.091544 0.045159
0.000000 0.095466 0.051654
0.000000 0.101899 0.058762
0.008885 0.099571 0.056434
0.023591 0.103309 0.060601
0.047855 0.110478 0.067341
0.068322 0.113419 0.070282
0.086826 0.117586 0.078370
0.105025 0.115257 0.079105
0.127574 0.120098 0.084804
0.146017 0.118995 0.089645
0.164767 0.122243 0.094792
0.186152 0.126103 0.102574
0.206986 0.129412 0.106556
0.225184 0.130086 0.111152
0.242708 0.130086 0.121017
0.260907 0.134007 0.126838
0.282291 0.138542 0.134620
0.299204 0.137929 0.137929
0.317402 0.141054 0.148897
0.338726 0.141850 0.157537
0.355698 0.142892 0.162500
0.373223 0.145772 0.170588
0.390748 0.145772 0.176103
0.408272 0.149020 0.184191
0.427267 0.150491 0.190502
0.448958 0.151410 0.198468
0.466728 0.153615 0.207231
0.489767 0.156863 0.215993
0.504412 0.157537 0.220833
0.522610 0.158211 0.229595
0.537745 0.161458 0.235110
0.557598 0.162072 0.243811
0.574510 0.165380 0.248039
0.590809 0.169853 0.256801
0.605637 0.170772 0.261643
0.622487 0.172549 0.267341
0.636765 0.173284 0.275245
0.653615 0.177145 0.283334
0.667892 0.182292 0.288849
0.684742 0.181066 0.296936
0.695282 0.184988 0.298713
0.715870 0.188909 0.306556
0.729473 0.193811 0.312132
0.745097 0.199326 0.320894
0.761274 0.204166 0.325736
0.778309 0.209191 0.334681
0.787745 0.210600 0.338603
0.807659 0.218688 0.346507
0.819608 0.220956 0.352942
0.833640 0.229473 0.358885
0.843567 0.233395 0.363296
0.861091 0.246569 0.372058
0.877697 0.255086 0.380821
0.890319 0.262868 0.387684
0.000000 0.083946 0.036887
0.000000 0.084865 0.036213
0.000000 0.087623 0.038971
0.000000 0.089461 0.040809
0.000000 0.091789 0.037133
0.000000 0.095711 0.040809
0.000000 0.098897 0.040809
0.000000 0.098897 0.040809
0.000000 0.103554 0.043137
0.000000 0.105147 0.048652
0.000000 0.107475 0.052328
0.000000 0.109742 0.057169
0.000000 0.112990 0.060417
0.006618 0.115318 0.068260
0.026838 0.116912 0.072181
0.048774 0.119240 0.073774
0.070221 0.123162 0.076103
0.096263 0.127023 0.086214
0.113113 0.124020 0.084804
0.132966 0.129228 0.091789
0.150490 0.128676 0.095711
0.169608 0.134620 0.103247
0.191054 0.134926 0.108088
0.210907 0.137316 0.115318
0.228432 0.136397 0.120098
0.248284 0.138848 0.123162
0.268995 0.142769 0.134926
0.286520 0.144363 0.140135
0.304044 0.147304 0.144975
0.323897 0.146691 0.153738
0.341421 0.146691 0.158579
0.358946 0.150613 0.165748
0.376471 0.150613 0.172181
0.399204 0.155821 0.183272
0.415318 0.154534 0.189706
0.434559 0.155331 0.193750
0.456127 0.160172 0.207353
0.475858 0.160784 0.214399
0.491422 0.162377 0.217279
0.512500 0.162928 0.230637
0.529902 0.166176 0.234314
0.549877 0.165502 0.240809
0.567402 0.171936 0.250367
0.581005 0.168933 0.255208
0.596201 0.174142 0.261643
0.612132 0.176471 0.268811
0.627329 0.178064 0.276715
0.643260 0.181985 0.280086
0.659804 0.186520 0.287868
0.674387 0.185907 0.291789
0.691912 0.191054 0.300858
0.705514 0.189828 0.305698
0.719118 0.194485 0.310539
0.734988 0.197671 0.315319
0.751593 0.206495 0.323162
0.767769 0.211336 0.334804
0.781372 0.217279 0.337745
0.797304 0.221017 0.342402
0.810172 0.225122 0.349020
0.826103 0.233946 0.359436
0.841054 0.237132 0.366299
0.856066 0.244301 0.372549
0.868505 0.254657 0.380638
0.887439 0.266422 0.390319
0.907475 0.280024 0.401593
0.000000 0.099142 0.044240
0.000000 0.103063 0.046568
0.000000 0.102389 0.047487
0.000000 0.106985 0.049571
0.000000 0.106985 0.048161
0.000000 0.110906 0.049571
0.000000 0.112316 0.049571
0.000000 0.114828 0.049571
0.000000 0.118750 0.053493
0.000000 0.118750 0.053493
0.000000 0.120160 0.056250
0.000000 0.122426 0.061091
0.000000 0.124081 0.065932
0.001777 0.124265 0.070588
0.025735 0.128003 0.078431
0.049203 0.131924 0.080453
0.068627 0.131924 0.084866
0.093934 0.135785 0.090135
0.112378 0.135846 0.091054
0.135478 0.137622 0.098407
0.154412 0.139767 0.103247
0.174449 0.138664 0.106985
0.193382 0.143689 0.116238
0.213419 0.146201 0.120160
0.232353 0.146140 0.124020
0.253248 0.150980 0.134743
0.273836 0.151532 0.143689
0.288848 0.151532 0.147611
0.310601 0.155454 0.155454
0.326409 0.155454 0.158578
0.341544 0.153064 0.164829
0.361458 0.157965 0.172181
0.380393 0.158824 0.180944
0.400797 0.162255 0.187193
0.417953 0.163297 0.195955
0.440809 0.167218 0.201593
0.460846 0.167218 0.212071
0.479780 0.168627 0.218321
0.500858 0.169730 0.225674
0.520710 0.177023 0.234437
0.531312 0.172549 0.240686
0.551409 0.175062 0.245527
0.567402 0.179779 0.254289
0.587133 0.178983 0.261336
0.596017 0.177696 0.263971
0.613909 0.180392 0.270588
0.629657 0.185968 0.277573
0.643260 0.186826 0.284866
0.659804 0.190748 0.290196
0.674387 0.190135 0.293995
0.687684 0.194669 0.300858
0.706924 0.199816 0.305882
0.724817 0.202513 0.316238
0.736642 0.206434 0.319302
0.750245 0.209008 0.324142
0.766789 0.214277 0.331924
0.784804 0.222120 0.341176
0.800000 0.226042 0.347611
0.812684 0.229780 0.351348
0.825368 0.237133 0.360110
0.841974 0.245650 0.367218
0.853309 0.250736 0.372304
0.868750 0.256986 0.380392
0.884437 0.268260 0.390319
0.908395 0.287377 0.402513
0.000000 0.112745 0.053922
0.000000 0.119669 0.057415
0.000000 0.115074 0.052818
0.000000 0.115993 0.057169
0.000000 0.120834 0.057843
0.000000 0.124510 0.058334
0.000000 0.128432 0.061765
0.000000 0.127513 0.058334
0.000000 0.132353 0.058334
0.000000 0.132353 0.058334
0.000000 0.132843 0.062255
0.000000 0.136275 0.064523
0.000000 0.136765 0.070833
0.000368 0.136948 0.074694
0.021814 0.140196 0.081863
0.050613 0.144118 0.089706
0.071569 0.143628 0.093628
0.097365 0.144118 0.097059
0.119363 0.148530 0.105392
0.138664 0.151961 0.107169
0.160540 0.151961 0.112009
0.179779 0.152451 0.117157
0.194485 0.149633 0.118872
0.220649 0.158272 0.132353
0.236275 0.156373 0.135294
0.257782 0.160355 0.144118
0.278677 0.160294 0.148897
0.292769 0.158150 0.153738
0.310294 0.160784 0.159069
0.332046 0.164216 0.168137
0.349265 0.164337 0.175981
0.369179 0.168137 0.180944
0.382353 0.168137 0.185784
0.405269 0.171569 0.194546
0.423284 0.172059 0.199510
0.447365 0.172059 0.211275
0.462255 0.170343 0.216912
0.483211 0.175981 0.226471
0.504779 0.180024 0.234559
0.518750 0.179902 0.235846
0.539706 0.181373 0.242157
0.553799 0.180392 0.250980
0.568014 0.183824 0.258334
0.588052 0.184129 0.262562
0.601960 0.187745 0.267892
0.616054 0.186458 0.272733
0.629657 0.191667 0.281863
0.643321 0.191727 0.282476
0.663236 0.195588 0.293628
0.676409 0.199510 0.298039
0.691912 0.198897 0.303676
0.709436 0.207169 0.313052
0.723040 0.204657 0.314461
0.738909 0.211765 0.319792
0.754167 0.217770 0.328064
0.768259 0.222610 0.336826
0.781372 0.226961 0.341176
0.797487 0.231373 0.349020
0.812500 0.238726 0.355270
0.826103 0.242647 0.360110
0.839461 0.246813 0.364951
0.853309 0.253309 0.373713
0.868750 0.264339 0.382476
0.884437 0.272672 0.391238
0.905882 0.289706 0.403922
0.000000 0.130270 0.063174
0.000000 0.133762 0.067586
0.000000 0.132108 0.063603
0.000000 0.133762 0.067096
0.000000 0.134191 0.063848
0.000000 0.137439 0.070343
0.000000 0.141605 0.072181
0.000000 0.141605 0.070588
0.000000 0.142034 0.067585
0.000000 0.149449 0.070588
0.000000 0.149878 0.071017
0.000000 0.149449 0.071017
0.000000 0.149878 0.071446
0.000184 0.149633 0.079044
0.018995 0.149878 0.083885
0.049203 0.155392 0.090625
0.075490 0.153799 0.097488
0.098285 0.150367 0.102758
0.119792 0.157721 0.111091
0.146507 0.161642 0.118076
0.164951 0.163909 0.121201
0.183701 0.165135 0.125919
0.201471 0.164951 0.130270
0.223101 0.165564 0.139216
0.246568 0.169056 0.150000
0.258149 0.165564 0.145956
0.283150 0.169056 0.157292
0.297120 0.170343 0.161213
0.316850 0.172978 0.169547
0.335662 0.176103 0.176103
0.353186 0.176777 0.180515
0.370711 0.176471 0.185785
0.388236 0.176900 0.192586
0.410111 0.180821 0.203308
0.427636 0.177329 0.208150
0.449449 0.180821 0.216483
0.466605 0.181250 0.221753
0.487623 0.184743 0.230514
0.505147 0.184743 0.235356
0.522672 0.184743 0.243689
0.540196 0.190134 0.252451
0.557720 0.188664 0.257292
0.578125 0.195465 0.262562
0.585356 0.193015 0.267402
0.602451 0.192586 0.271814
0.614339 0.193015 0.274939
0.630085 0.196507 0.285417
0.647182 0.200061 0.290257
0.660233 0.203371 0.294547
0.678309 0.206251 0.300367
0.692341 0.208272 0.306311
0.709436 0.215502 0.320772
0.723040 0.216421 0.318382
0.737071 0.217769 0.323652
0.757659 0.226103 0.331985
0.771691 0.224387 0.337254
0.785294 0.232292 0.342095
0.798897 0.240625 0.353921
0.810172 0.241974 0.353370
0.829595 0.247488 0.364032
0.839277 0.255147 0.368872
0.852573 0.263909 0.377635
0.872488 0.272672 0.388052
0.884437 0.281434 0.394731
0.905882 0.298039 0.407414
0.000000 0.143872 0.071936
0.000000 0.145220 0.073284
0.000000 0.148284 0.077696
0.000000 0.145037 0.075858
0.000000 0.150122 0.075858
0.000000 0.150368 0.079105
0.000000 0.154289 0.079779
0.000000 0.156801 0.079779
0.000000 0.155637 0.079779
0.000000 0.158640 0.079779
0.000000 0.163480 0.081127
0.000000 0.165747 0.081127
0.000000 0.164215 0.083701
0.000000 0.167218 0.087623
0.016177 0.163235 0.091299
0.051226 0.167402 0.100061
0.076470 0.169975 0.104902
0.101777 0.169975 0.109804
0.124142 0.170833 0.119853
0.148652 0.173897 0.127267
0.170221 0.176593 0.133456
0.191238 0.173897 0.138296
0.209068 0.177819 0.143137
0.226409 0.177819 0.147978
0.245466 0.177819 0.152819
0.265564 0.177819 0.155637
0.284436 0.181740 0.165074
0.301899 0.181740 0.171262
0.319486 0.180882 0.175245
0.337010 0.184865 0.186642
0.354534 0.183088 0.189583
0.371752 0.182782 0.194547
0.395466 0.187623 0.203309
0.414951 0.187010 0.206618
0.435049 0.189583 0.214461
0.457047 0.194056 0.226225
0.471446 0.190931 0.228799
0.488971 0.193505 0.234069
0.509069 0.193505 0.240564
0.526593 0.194057 0.248959
0.544240 0.198897 0.256373
0.559252 0.202390 0.260172
0.575245 0.198774 0.267402
0.589889 0.201348 0.271936
0.605147 0.203922 0.278431
0.617402 0.202696 0.281924
0.630515 0.205270 0.289338
0.645895 0.207904 0.292831
0.663358 0.211765 0.299019
0.680882 0.213664 0.308333
0.694485 0.215686 0.311275
0.705698 0.217034 0.313726
0.724877 0.223529 0.320956
0.740564 0.224877 0.327145
0.754166 0.230025 0.333333
0.768198 0.236214 0.338603
0.783946 0.237132 0.345588
0.797549 0.240564 0.350368
0.813726 0.249387 0.356863
0.822855 0.252328 0.364032
0.837010 0.259069 0.371446
0.850612 0.266667 0.376287
0.868138 0.274510 0.384314
0.881740 0.284008 0.395466
0.900490 0.297917 0.403799
0.000000 0.166973 0.088542
0.000000 0.163970 0.087194
0.000000 0.169669 0.092892
0.000000 0.168076 0.090809
0.000000 0.169240 0.091054
0.000000 0.166973 0.092463
0.000000 0.170894 0.092463
0.000000 0.173407 0.094975
0.000000 0.175981 0.092463
0.000000 0.175245 0.092892
0.000000 0.176164 0.093811
0.000000 0.182659 0.096385
0.000000 0.181740 0.096385
-0.002084 0.184742 0.098652
0.018934 0.179841 0.099142
0.055147 0.180760 0.106250
0.083334 0.182659 0.112071
0.109620 0.186519 0.121508
0.131128 0.182659 0.127757
0.153064 0.187071 0.133946
0.172794 0.186581 0.139951
0.195159 0.190196 0.148714
0.215257 0.188848 0.151900
0.235172 0.191238 0.161397
0.250122 0.188848 0.165502
0.271752 0.188848 0.170343
0.287378 0.192769 0.175184
0.309069 0.192769 0.182292
0.326532 0.192708 0.184804
0.345773 0.192769 0.193627
0.361152 0.194424 0.198468
0.384743 0.196691 0.208456
0.403922 0.198345 0.212071
0.423713 0.198345 0.217953
0.446691 0.202145 0.231128
0.462684 0.199142 0.230514
0.482414 0.202267 0.241483
0.499388 0.201900 0.245404
0.515257 0.204534 0.249326
0.532782 0.202818 0.259436
0.548039 0.206189 0.265012
0.567953 0.208579 0.269056
0.583089 0.211152 0.273897
0.596691 0.208149 0.278737
0.611335 0.212807 0.284620
0.627941 0.214032 0.292463
0.641421 0.215686 0.294118
0.657230 0.220220 0.304228
0.668628 0.218933 0.305209
0.682230 0.221875 0.307782
0.702022 0.228615 0.318812
0.711888 0.224326 0.319914
0.730147 0.231373 0.326225
0.745098 0.235295 0.331066
0.760355 0.239828 0.337867
0.775613 0.244976 0.345098
0.785294 0.245894 0.349510
0.802819 0.254657 0.358272
0.816422 0.259498 0.365379
0.831679 0.265993 0.371875
0.843627 0.271446 0.376716
0.859988 0.280698 0.385478
0.872672 0.286703 0.390319
0.888358 0.298468 0.402084
0.909804 0.312071 0.414032
0.000000 0.175736 0.097304
0.000000 0.182843 0.101226
0.000000 0.179657 0.101226
0.000000 0.179657 0.101226
0.000000 0.179167 0.100736
0.000000 0.179657 0.104411
0.000000 0.181251 0.105147
0.000000 0.183579 0.103737
0.000000 0.187010 0.105147
0.000000 0.187500 0.105147
0.000000 0.193260 0.105147
0.000000 0.191422 0.105147
0.000000 0.195343 0.108333
0.000000 0.198346 0.109069
0.016177 0.197426 0.112254
0.055147 0.194607 0.112990
0.083334 0.192402 0.116667
0.108946 0.194607 0.124755
0.134313 0.197671 0.132598
0.154351 0.195343 0.140441
0.176715 0.198039 0.147059
0.198652 0.198529 0.151470
0.217524 0.202451 0.164583
0.241544 0.202451 0.171078
0.259804 0.203187 0.178921
0.276593 0.202451 0.182292
0.291299 0.199632 0.183946
0.312377 0.203187 0.191422
0.333088 0.206372 0.198529
0.350551 0.206372 0.202390
0.372181 0.206495 0.207353
0.391360 0.207108 0.215993
0.409804 0.207108 0.222794
0.432475 0.211030 0.230638
0.450000 0.210294 0.234436
0.465135 0.211825 0.240012
0.488971 0.216422 0.250245
0.507047 0.215502 0.254167
0.520466 0.214951 0.258089
0.537623 0.218137 0.269117
0.557598 0.218873 0.268137
0.567953 0.217341 0.272978
0.582966 0.218750 0.280882
0.603492 0.222794 0.289461
0.611520 0.220097 0.287500
0.630638 0.227757 0.297304
0.644608 0.225858 0.300368
0.662072 0.229902 0.309069
0.671569 0.230638 0.309804
0.688174 0.232660 0.316912
0.702573 0.236642 0.323652
0.717279 0.238297 0.325306
0.730883 0.239215 0.333334
0.744485 0.244057 0.334988
0.762010 0.250245 0.343750
0.771814 0.250245 0.348285
0.791911 0.261274 0.356617
0.802819 0.260233 0.359682
0.816422 0.268259 0.365441
0.830699 0.273775 0.371814
0.840441 0.281618 0.380392
0.859988 0.286703 0.385478
0.872672 0.296568 0.395343
0.888358 0.304228 0.403003
0.912990 0.324019 0.418873
0.000000 0.192341 0.109988
0.000000 0.191605 0.113909
0.000000 0.192525 0.112254
0.000000 0.196262 0.114093
0.000000 0.192525 0.114093
0.000000 0.192525 0.114767
0.000000 0.196262 0.117831
0.000000 0.196446 0.118015
0.000000 0.196446 0.121262
0.000000 0.200368 0.118015
0.000000 0.204106 0.118015
0.000000 0.206373 0.120098
0.000000 0.201103 0.118015
0.000000 0.208027 0.118015
0.009253 0.211949 0.121937
0.045466 0.206189 0.121937
0.086275 0.204473 0.121937
0.113541 0.208027 0.133272
0.136090 0.204473 0.138297
0.160417 0.208027 0.146875
0.183333 0.210723 0.151900
0.199572 0.208027 0.157047
0.225367 0.212562 0.169424
0.243811 0.211949 0.178003
0.259988 0.209681 0.183026
0.284804 0.215870 0.191788
0.302880 0.216054 0.196446
0.321691 0.217156 0.201655
0.341851 0.216054 0.210232
0.363297 0.216850 0.215870
0.380943 0.219976 0.220098
0.402267 0.219976 0.227819
0.419791 0.223713 0.233518
0.443934 0.223713 0.242280
0.462377 0.223713 0.247119
0.475490 0.223100 0.251164
0.493627 0.227451 0.256801
0.511152 0.223897 0.261643
0.528677 0.227635 0.270220
