Color/Polaroid/Polaroid PX-680 Cold 1 -- 65x.cube
TITLE "Polaroid PX-680 Cold 1 --"
LUT_3D_SIZE 65
DOMAIN_MIN 0.000000 0.000000 0.000000
DOMAIN_MAX 1.000000 1.000000 1.000000
0.000000 0.000000 0.000000
0.003922 0.000000 0.000000
0.007843 0.003922 0.003922
0.009007 0.001164 0.001164
0.015441 0.000245 0.000000
0.020282 0.003922 0.003922
0.029044 0.007843 0.007843
0.037807 0.007843 0.006434
0.050000 0.011275 0.007843
0.055760 0.012194 0.007843
0.069363 0.019608 0.011765
0.080698 0.021875 0.011765
0.096568 0.026716 0.015686
0.110172 0.031373 0.015686
0.127696 0.035294 0.015686
0.147242 0.037316 0.017708
0.166666 0.039216 0.019608
0.188051 0.043076 0.019547
0.213481 0.047059 0.022671
0.238481 0.048836 0.021385
0.266912 0.048284 0.023529
0.293199 0.047059 0.019914
0.320098 0.047059 0.023529
0.349694 0.047059 0.023529
0.378431 0.043137 0.027451
0.406189 0.043137 0.027451
0.436397 0.043137 0.035294
0.462684 0.043137 0.039216
0.486765 0.044853 0.043137
0.515257 0.050184 0.050184
0.537623 0.051103 0.055025
0.562867 0.062745 0.062745
0.586275 0.068628 0.068628
0.609682 0.081311 0.077389
0.627206 0.090196 0.082353
0.648652 0.102757 0.090196
0.670098 0.117157 0.099755
0.687623 0.132046 0.108517
0.709069 0.148285 0.117279
0.722672 0.161336 0.122120
0.742647 0.177941 0.133333
0.757720 0.190625 0.141176
0.771936 0.207230 0.149020
0.784927 0.220221 0.157169
0.801226 0.237745 0.165931
0.813909 0.251348 0.174694
0.825735 0.264951 0.179534
0.839277 0.282414 0.192157
0.849020 0.293137 0.197059
0.860723 0.307782 0.201900
0.872304 0.323284 0.213480
0.882169 0.333149 0.219424
0.894853 0.349755 0.228186
0.907537 0.364093 0.236949
0.916299 0.377696 0.245711
0.928554 0.391299 0.250551
0.937745 0.404412 0.258824
0.946507 0.417095 0.266667
0.959191 0.428186 0.272917
0.971201 0.441789 0.281679
0.980637 0.454902 0.290196
0.989399 0.463909 0.295282
1.000000 0.476593 0.304044
1.000000 0.491361 0.315809
1.000000 0.505882 0.325490
0.000000 0.003922 0.000000
0.003003 0.007843 0.003922
0.005760 0.004841 -0.000919
0.010601 0.004841 -0.001838
0.018443 0.007843 0.006680
0.024203 0.011765 0.003677
0.033640 0.013358 0.008517
0.037807 0.011274 0.003922
0.044056 0.012684 0.007843
0.059253 0.020527 0.008762
0.069363 0.024877 0.012194
0.082966 0.026716 0.014032
0.097304 0.034559 0.015686
0.109436 0.035478 0.011949
0.128799 0.037316 0.015686
0.149142 0.044056 0.016605
0.169608 0.046997 0.018627
0.191973 0.047978 0.019608
0.214338 0.051838 0.019547
0.240625 0.054902 0.019608
0.266605 0.054596 0.022304
0.293199 0.051899 0.016912
0.324326 0.055821 0.027451
0.349081 0.051899 0.023529
0.379902 0.054902 0.027451
0.406189 0.051899 0.027451
0.431924 0.051899 0.030822
0.459681 0.051532 0.036213
0.486765 0.055821 0.044424
0.512255 0.056740 0.050184
0.541421 0.063787 0.055025
0.563909 0.072549 0.063787
0.586275 0.076348 0.067586
0.608762 0.087194 0.080392
0.627206 0.095834 0.079350
0.648652 0.108394 0.090993
0.666176 0.120282 0.099755
0.684620 0.133885 0.102880
0.706066 0.153125 0.117279
0.725674 0.165809 0.125122
0.743198 0.183333 0.135355
0.755331 0.196936 0.142646
0.768934 0.211459 0.149326
0.784927 0.224142 0.157169
0.801226 0.240441 0.165931
0.815135 0.253125 0.173775
0.825735 0.268872 0.182536
0.835417 0.278615 0.188296
0.849020 0.296017 0.197059
0.860723 0.311704 0.203922
0.867586 0.321384 0.208762
0.885907 0.337806 0.223161
0.894853 0.350491 0.227451
0.903615 0.366360 0.236029
0.913297 0.376041 0.240135
0.928554 0.397793 0.254044
0.937745 0.405331 0.259314
0.949510 0.417095 0.267157
0.960601 0.429780 0.272917
0.967953 0.442463 0.281679
0.979718 0.455147 0.290196
0.992402 0.468076 0.298284
0.996997 0.477513 0.302880
1.000000 0.489277 0.312807
1.000000 0.505882 0.321569
0.000000 0.009681 0.005760
0.000000 0.009681 0.001838
0.005760 0.011519 0.003922
0.007843 0.010846 0.001838
0.015441 0.013603 0.003922
0.023529 0.016850 0.003922
0.030882 0.013603 0.005760
0.037807 0.013603 0.003922
0.053922 0.023039 0.007843
0.059682 0.023958 0.011765
0.071936 0.029289 0.011765
0.085233 0.033640 0.014461
0.096568 0.035294 0.011765
0.112254 0.043137 0.015686
0.129534 0.044975 0.015686
0.147120 0.046875 0.015686
0.165563 0.049877 0.016667
0.191973 0.054902 0.021630
0.215196 0.055760 0.019608
0.240625 0.056740 0.019608
0.268137 0.057966 0.021691
0.296814 0.062439 0.019608
0.325246 0.060662 0.024754
0.353922 0.060662 0.027757
0.379902 0.060662 0.027451
0.408272 0.058824 0.029535
0.436397 0.060662 0.031741
0.462684 0.065135 0.039216
0.488971 0.062500 0.041054
0.515257 0.067708 0.047059
0.537623 0.072549 0.055025
0.562867 0.082108 0.063787
0.584313 0.086152 0.068628
0.605760 0.094914 0.075306
0.627206 0.103676 0.080269
0.648652 0.116360 0.090993
0.666176 0.129044 0.099755
0.687623 0.141728 0.108517
0.705147 0.154412 0.111642
0.724510 0.171568 0.127328
0.740196 0.183333 0.132965
0.757720 0.200306 0.143566
0.769853 0.212990 0.146936
0.784927 0.229595 0.157169
0.801226 0.244363 0.164093
0.809988 0.254963 0.170772
0.822671 0.267647 0.179534
0.837193 0.284314 0.188296
0.851961 0.300000 0.197058
0.860785 0.313603 0.205883
0.869485 0.327206 0.210662
0.882169 0.335171 0.219424
0.894853 0.355514 0.229289
0.903615 0.368199 0.237132
0.914216 0.381618 0.244363
0.930637 0.395220 0.252634
0.937745 0.404902 0.257476
0.948345 0.418933 0.265992
0.959191 0.431618 0.274755
0.967953 0.445711 0.281679
0.975123 0.455147 0.284927
0.988725 0.467831 0.294608
1.000245 0.480760 0.304044
1.000000 0.492280 0.311888
1.000000 0.505882 0.321569
0.000000 0.014522 0.006679
0.000000 0.018444 0.007843
0.001838 0.018444 0.005760
0.006679 0.018444 0.006679
0.011520 0.018444 0.006679
0.020282 0.019117 0.004596
0.029044 0.019608 0.003922
0.037561 0.022365 0.006434
0.050490 0.026961 0.007843
0.059682 0.032966 0.010601
0.070527 0.032721 0.009007
0.084620 0.037561 0.009007
0.096139 0.041973 0.011765
0.116667 0.048652 0.014522
0.130453 0.049816 0.015686
0.151900 0.053002 0.015686
0.169608 0.053738 0.015686
0.193138 0.062684 0.020711
0.217096 0.061581 0.018444
0.245527 0.065503 0.019608
0.269608 0.065441 0.019547
0.297120 0.066667 0.024387
0.324020 0.066115 0.020221
0.351225 0.065503 0.023529
0.379902 0.065196 0.023223
0.410723 0.070037 0.030821
0.436397 0.069424 0.031741
0.462684 0.070711 0.036581
0.488971 0.073346 0.040870
0.514093 0.076470 0.050184
0.537623 0.081311 0.055025
0.559988 0.086152 0.059866
0.583517 0.094914 0.067831
0.608640 0.103676 0.077389
0.627206 0.113602 0.082353
0.644730 0.119240 0.090993
0.668934 0.135600 0.099755
0.687623 0.146446 0.105759
0.705147 0.162806 0.117279
0.722672 0.173652 0.124878
0.740196 0.188725 0.132353
0.754963 0.202022 0.140808
0.771324 0.218383 0.148407
0.784927 0.231986 0.157169
0.797304 0.244424 0.162010
0.812132 0.259191 0.172917
0.822671 0.272488 0.179534
0.836520 0.286398 0.192157
0.848039 0.304718 0.196078
0.858701 0.313603 0.201900
0.869485 0.327206 0.210662
0.882169 0.344730 0.220589
0.894853 0.354412 0.228186
0.903615 0.368015 0.235294
0.914951 0.381618 0.244547
0.925061 0.395220 0.247059
0.937745 0.408333 0.256557
0.946507 0.419852 0.264154
0.956434 0.429351 0.272488
0.967953 0.441973 0.278431
0.976961 0.457904 0.289278
0.986642 0.463480 0.293689
0.998162 0.479351 0.304718
1.000000 0.493199 0.312807
1.000000 0.505882 0.321569
0.000000 0.019608 0.007843
0.000000 0.023284 0.007843
-0.001838 0.021446 0.007843
0.003922 0.023284 0.011520
0.007843 0.023284 0.007843
0.016360 0.027206 0.010845
0.025367 0.031128 0.007843
0.034130 0.031128 0.007843
0.050000 0.034559 0.011520
0.059682 0.031802 0.007843
0.073284 0.036642 0.005514
0.084620 0.041483 0.010110
0.100490 0.050000 0.015441
0.114093 0.054657 0.015502
0.131618 0.057476 0.014583
0.151164 0.056924 0.015686
0.174265 0.062500 0.015686
0.195649 0.066361 0.015686
0.221324 0.070343 0.018750
0.244547 0.068444 0.017463
0.270833 0.070588 0.019608
0.297120 0.070649 0.019608
0.320343 0.070588 0.016545
0.353615 0.074265 0.023529
0.379902 0.074265 0.022303
0.409865 0.074265 0.027451
0.440073 0.078186 0.035294
0.462684 0.078186 0.035539
0.488971 0.082108 0.043137
0.515257 0.088909 0.050184
0.537623 0.090074 0.055025
0.562867 0.094914 0.066422
0.584314 0.103676 0.068627
0.605760 0.112438 0.077389
0.623406 0.117402 0.082353
0.644730 0.129963 0.090993
0.670098 0.140686 0.099755
0.687623 0.155331 0.108517
0.705024 0.167892 0.117279
0.722672 0.177574 0.122120
0.736519 0.197304 0.133333
0.755331 0.209988 0.143321
0.767647 0.222304 0.149020
0.781005 0.235662 0.153554
0.798529 0.251961 0.165931
0.808456 0.263113 0.169240
0.822671 0.277328 0.179534
0.835355 0.290257 0.188296
0.845098 0.300980 0.194118
0.856802 0.315625 0.201900
0.869485 0.331127 0.210662
0.882230 0.344730 0.219424
0.891667 0.358088 0.225000
0.901593 0.368259 0.233272
0.911274 0.382966 0.241789
0.925061 0.395220 0.250551
0.937499 0.412009 0.259068
0.946507 0.421017 0.264154
0.957598 0.432108 0.272917
0.963603 0.442034 0.277328
0.976716 0.458823 0.286520
0.989155 0.467831 0.297794
0.998162 0.480515 0.305637
1.000000 0.492280 0.311888
1.000000 0.509559 0.321569
0.000000 0.028799 0.012439
0.000000 0.031802 0.012439
0.000000 0.032047 0.012439
0.002758 0.034805 0.012439
0.003922 0.032721 0.008763
0.012439 0.035968 0.012439
0.022794 0.036642 0.010846
0.036397 0.040564 0.011029
0.046569 0.043811 0.011765
0.059682 0.048407 0.011765
0.073284 0.048407 0.007169
0.087561 0.052328 0.011765
0.107598 0.058762 0.014278
0.118689 0.060172 0.011765
0.133395 0.060172 0.011765
0.153738 0.067341 0.013664
0.174204 0.070282 0.017953
0.199816 0.071262 0.018872
0.222182 0.075184 0.015686
0.245895 0.075858 0.016360
0.274203 0.081801 0.018382
0.301042 0.079105 0.019608
0.327267 0.083027 0.019547
0.354290 0.083027 0.022855
0.382047 0.081250 0.023529
0.410111 0.083027 0.030147
0.437071 0.087623 0.032047
0.463971 0.091483 0.039829
0.488971 0.090870 0.041422
0.515257 0.095466 0.050184
0.538174 0.102635 0.058824
0.560662 0.107598 0.063787
0.586275 0.114399 0.067341
0.608640 0.118995 0.077389
0.623958 0.129963 0.085478
0.646201 0.139522 0.091789
0.666850 0.149877 0.101470
0.685662 0.164093 0.108517
0.705147 0.176409 0.117279
0.719424 0.186091 0.122120
0.736948 0.200367 0.131557
0.752084 0.211581 0.140319
0.768014 0.227512 0.145772
0.781679 0.240870 0.153921
0.797304 0.254105 0.165931
0.806741 0.267708 0.170772
0.819423 0.278248 0.179534
0.832169 0.291667 0.188909
0.844791 0.307537 0.193811
0.858701 0.322120 0.203799
0.869485 0.332905 0.210662
0.875184 0.345588 0.212622
0.890931 0.358272 0.224203
0.901348 0.370956 0.233027
0.913052 0.389461 0.239890
0.921813 0.399817 0.247303
0.934497 0.409681 0.256066
0.943260 0.423101 0.260172
0.957598 0.435110 0.269670
0.964705 0.443811 0.275184
0.974142 0.456495 0.283946
0.982904 0.465257 0.292034
0.996752 0.481189 0.300796
1.000000 0.490625 0.309559
1.000000 0.500735 0.315748
0.000000 0.040809 0.015686
0.000000 0.040809 0.015686
0.000000 0.040564 0.015441
0.000000 0.042402 0.018444
0.002329 0.044730 0.015686
0.011765 0.047978 0.016605
0.021201 0.046323 0.013358
0.029964 0.048652 0.010846
0.046813 0.058334 0.011765
0.060846 0.062010 0.013358
0.071691 0.060172 0.011765
0.086887 0.064338 0.011765
0.106740 0.068260 0.011765
0.121937 0.066851 0.011765
0.139461 0.072181 0.011765
0.158578 0.073774 0.011336
0.178431 0.077696 0.012745
0.203738 0.083885 0.015686
0.226838 0.085539 0.015686
0.250613 0.086091 0.018015
0.273652 0.087868 0.015686
0.302634 0.091483 0.019302
0.331250 0.091789 0.019608
0.357537 0.091789 0.021997
0.383823 0.094118 0.023529
0.412439 0.095711 0.025858
0.441544 0.100858 0.032966
0.466912 0.101225 0.036581
0.488971 0.103554 0.041422
0.515257 0.108272 0.050184
0.537623 0.112990 0.055025
0.562867 0.116360 0.062745
0.584313 0.123162 0.068628
0.608640 0.135172 0.077389
0.627206 0.142524 0.086152
0.648652 0.148284 0.090993
0.670221 0.161887 0.101470
0.687623 0.172855 0.108517
0.705147 0.183211 0.117279
0.724265 0.196446 0.126042
0.740196 0.208334 0.132353
0.755331 0.223591 0.141176
0.771324 0.237991 0.151716
0.783333 0.247672 0.157169
0.798897 0.261643 0.163235
0.810539 0.274877 0.173101
0.823407 0.288480 0.182598
0.836948 0.299755 0.188296
0.848039 0.314706 0.197671
0.858395 0.326961 0.203493
0.872304 0.342892 0.212991
0.878247 0.350429 0.215686
0.892524 0.363848 0.225858
0.903615 0.375796 0.233027
0.914951 0.388481 0.241789
0.926961 0.405393 0.250551
0.937745 0.416176 0.259314
0.946324 0.426348 0.263971
0.955270 0.436887 0.270588
0.969608 0.453554 0.283333
0.978309 0.462990 0.286520
0.987806 0.474081 0.293689
0.998162 0.486520 0.301715
1.000000 0.497794 0.311888
1.000000 0.513726 0.321569
0.000000 0.052083 0.018199
0.000000 0.050491 0.022120
0.000000 0.051409 0.019608
0.000000 0.056005 0.019363
0.003677 0.056005 0.021874
0.008517 0.059253 0.021446
0.014767 0.057415 0.018015
0.026042 0.059926 0.015686
0.038726 0.063848 0.018199
0.053248 0.069608 0.012194
0.069424 0.073101 0.013174
0.086887 0.077022 0.014032
0.105085 0.079534 0.013174
0.119424 0.080944 0.011765
0.142279 0.083456 0.014583
0.160907 0.084866 0.011765
0.180944 0.084866 0.011765
0.203738 0.088787 0.011765
0.226103 0.089645 0.010111
0.252390 0.096630 0.015686
0.278676 0.096630 0.015686
0.303860 0.099142 0.015686
0.331250 0.100552 0.017095
0.360049 0.103063 0.019608
0.383823 0.104473 0.019547
0.412622 0.107843 0.026899
0.440319 0.114461 0.033885
0.466605 0.112316 0.034068
0.493199 0.118750 0.045650
0.514644 0.118750 0.047059
0.537623 0.124081 0.052512
0.562867 0.130514 0.059866
0.583762 0.133333 0.068628
0.608640 0.142647 0.077389
0.631005 0.151409 0.086152
0.649449 0.160968 0.094914
0.670098 0.173652 0.099755
0.689032 0.185662 0.109927
0.704105 0.192892 0.117279
0.726042 0.206986 0.126042
0.737684 0.217218 0.132291
0.755331 0.229841 0.141053
0.771324 0.245834 0.149817
0.784620 0.257720 0.157169
0.794608 0.265196 0.160723
0.809988 0.278799 0.172181
0.821813 0.291851 0.179534
0.835355 0.308456 0.190748
0.849571 0.320160 0.196078
0.856189 0.329289 0.201287
0.868076 0.342586 0.210662
0.879656 0.356495 0.219424
0.893443 0.373652 0.229964
0.901103 0.379780 0.233027
0.912377 0.393382 0.241789
0.925061 0.406005 0.250551
0.935233 0.420098 0.258824
0.946507 0.431372 0.264154
0.955270 0.439951 0.272917
0.967953 0.452819 0.278431
0.976716 0.465502 0.286520
0.987991 0.475429 0.295282
0.998162 0.488358 0.301532
1.000000 0.500123 0.308885
1.000000 0.516238 0.324081
0.000000 0.065687 0.023039
0.000000 0.068689 0.026041
0.000000 0.065687 0.021446
0.000000 0.065687 0.023039
0.000000 0.065687 0.019608
0.001165 0.069608 0.023039
0.013358 0.073530 0.023039
0.018689 0.070098 0.019608
0.031373 0.074020 0.016176
0.041482 0.071446 0.015686
0.065441 0.083211 0.017769
0.082966 0.089216 0.015196
0.101226 0.093138 0.015931
0.118198 0.097059 0.011949
0.139461 0.097059 0.011765
0.164338 0.102390 0.015196
0.182353 0.096568 0.011765
0.207169 0.101410 0.011765
0.230025 0.101961 0.014828
0.256311 0.108824 0.015686
0.282108 0.108824 0.014461
0.308885 0.109314 0.015686
0.331863 0.109926 0.012867
0.361458 0.116667 0.019608
0.387745 0.115686 0.022059
0.414583 0.120588 0.027451
0.447304 0.124510 0.031741
0.466605 0.125000 0.033149
0.489461 0.128922 0.043137
0.516054 0.132843 0.050490
0.544852 0.140196 0.055025
0.562867 0.144118 0.062745
0.582843 0.146569 0.068628
0.609191 0.155883 0.077941
0.627206 0.164093 0.082353
0.648652 0.175490 0.094118
0.670098 0.181618 0.099755
0.687623 0.193811 0.108517
0.709191 0.206617 0.117279
0.719240 0.215748 0.122610
0.737745 0.225981 0.132353
0.751899 0.238726 0.141176
0.768014 0.249877 0.149020
0.781005 0.265993 0.157169
0.794608 0.275245 0.165931
0.808211 0.286152 0.169485
0.822181 0.300123 0.179534
0.831496 0.309435 0.184437
0.844118 0.322549 0.196078
0.856802 0.335233 0.201900
0.864951 0.346814 0.210662
0.881985 0.360110 0.219424
0.890931 0.370098 0.224264
0.900184 0.385968 0.235294
0.911519 0.397304 0.241789
0.925122 0.410907 0.250551
0.933823 0.420098 0.255392
0.946507 0.432782 0.266667
0.955270 0.445466 0.272917
0.964032 0.454228 0.277757
0.973039 0.463235 0.283089
0.983211 0.473407 0.289094
0.998162 0.488358 0.301961
1.000000 0.500123 0.308456
1.000000 0.517157 0.321569
0.000000 0.078860 0.023958
0.000000 0.078860 0.027941
0.000000 0.079289 0.023958
0.000000 0.078860 0.027451
0.000000 0.079289 0.027451
0.000000 0.082782 0.026777
0.005086 0.084375 0.028615
0.013419 0.088787 0.023529
0.022611 0.083701 0.023529
0.039216 0.090625 0.023100
0.053676 0.091054 0.020956
0.080453 0.102573 0.017341
0.096568 0.106005 0.016115
0.114276 0.106924 0.015686
0.136642 0.110662 0.011091
0.162500 0.114154 0.015257
0.178860 0.111091 0.011765
0.204227 0.114583 0.008334
0.233946 0.114583 0.007843
0.258885 0.118076 0.011765
0.283027 0.120772 0.014032
0.309191 0.121998 0.011765
0.335600 0.122427 0.015686
0.361888 0.126348 0.014583
0.391667 0.132292 0.022059
0.414461 0.130270 0.020037
0.443872 0.137684 0.031373
0.466605 0.135478 0.032660
0.492892 0.140319 0.041422
0.521876 0.148652 0.052880
0.541421 0.149878 0.054902
0.562867 0.154411 0.059866
0.584313 0.157721 0.066667
0.612133 0.165564 0.077389
0.631005 0.176776 0.078860
0.648652 0.185540 0.090993
0.670098 0.196018 0.099755
0.687623 0.203063 0.108517
0.708271 0.215380 0.120404
0.718750 0.224510 0.122120
0.739767 0.238235 0.135845
0.751409 0.245955 0.139644
0.767402 0.261520 0.148407
0.781005 0.267709 0.157169
0.794179 0.280086 0.162010
0.802573 0.287133 0.168627
0.821384 0.301531 0.179106
0.831067 0.314277 0.184008
0.844118 0.326899 0.193137
0.854779 0.339584 0.201900
0.865564 0.352268 0.210662
0.881556 0.368259 0.222732
0.887010 0.377942 0.224264
0.901348 0.388052 0.229534
0.914522 0.402574 0.239216
0.921140 0.411764 0.243566
0.933823 0.424448 0.255392
0.947488 0.438113 0.264154
0.951348 0.443566 0.268995
0.964032 0.458150 0.277757
0.972610 0.467157 0.286091
0.985478 0.480024 0.290625
0.999816 0.494363 0.303616
1.000000 0.504044 0.308885
1.000000 0.517647 0.321140
0.000000 0.088971 0.027451
0.000000 0.089890 0.027451
0.000000 0.093382 0.029289
0.000000 0.090135 0.026042
0.000000 0.095220 0.031128
0.000000 0.095466 0.030699
0.000000 0.096814 0.027206
0.000000 0.096814 0.027451
0.011275 0.100735 0.024877
0.026042 0.103738 0.023958
0.048407 0.106005 0.023529
0.068198 0.110845 0.020956
0.093138 0.118260 0.017770
0.114093 0.124265 0.015686
0.135294 0.125368 0.015686
0.160907 0.132108 0.015686
0.182353 0.133701 0.014338
0.210233 0.132108 0.011765
0.233456 0.133456 0.011765
0.262807 0.132108 0.011765
0.289216 0.132108 0.009191
0.312807 0.132108 0.014032
0.339093 0.138603 0.014338
0.365380 0.138603 0.015686
0.391666 0.139951 0.018137
0.417954 0.145895 0.019608
0.444240 0.146814 0.026471
0.466544 0.151655 0.032660
0.492892 0.150858 0.036642
0.518383 0.158762 0.046262
0.537623 0.163480 0.051103
0.559988 0.167402 0.058518
0.586275 0.173284 0.068628
0.608640 0.179167 0.074816
0.624755 0.187010 0.079779
0.653125 0.198774 0.095466
0.665809 0.204412 0.099755
0.685049 0.213174 0.108517
0.703799 0.224510 0.115931
0.717953 0.233824 0.121324
0.736274 0.245956 0.132353
0.752451 0.254718 0.139644
0.764093 0.264828 0.148407
0.780698 0.276165 0.156863
0.793382 0.288849 0.164706
0.804289 0.299755 0.170772
0.814828 0.312010 0.178187
0.830086 0.321692 0.183088
0.842769 0.334314 0.191789
0.852880 0.346998 0.202451
0.867034 0.358578 0.209313
0.874326 0.368443 0.211765
0.886397 0.381127 0.222916
0.900000 0.391237 0.233334
0.911030 0.405148 0.240442
0.918566 0.418750 0.246630
0.929044 0.427941 0.254044
0.938664 0.436703 0.260233
0.953921 0.449387 0.266667
0.960110 0.458150 0.276410
0.970343 0.469730 0.280147
0.984130 0.479411 0.290012
0.994240 0.492280 0.298039
1.001655 0.503616 0.307536
1.000000 0.517525 0.314951
0.000000 0.109804 0.031373
0.000000 0.110416 0.031373
0.000000 0.112500 0.035723
0.000000 0.110416 0.034130
0.000000 0.112071 0.035294
0.000000 0.113664 0.031373
0.000000 0.114338 0.035968
0.000000 0.116851 0.033885
0.000000 0.119424 0.031373
0.015932 0.122181 0.029718
0.034804 0.121262 0.024877
0.058824 0.127757 0.027451
0.078615 0.126838 0.022610
0.112010 0.141789 0.021692
0.136642 0.144546 0.016789
0.159007 0.147733 0.015686
0.182353 0.149632 0.015686
0.213174 0.155148 0.017279
0.237010 0.153554 0.011765
0.262378 0.154044 0.012255
0.286519 0.149203 0.009069
0.318076 0.153248 0.013113
0.339706 0.147978 0.011765
0.370037 0.153554 0.016421
0.391483 0.153554 0.015686
0.417954 0.157475 0.019608
0.444240 0.159498 0.027451
0.468872 0.165318 0.033640
0.492892 0.167463 0.037439
0.517525 0.171508 0.046262
0.541544 0.178738 0.054902
0.566176 0.184926 0.059866
0.588236 0.188542 0.066361
0.608027 0.192769 0.072855
0.634926 0.205943 0.087684
0.649449 0.207782 0.090993
0.670098 0.219669 0.099755
0.687623 0.228431 0.105882
0.703493 0.235540 0.112071
0.718750 0.248223 0.122120
0.736274 0.259436 0.133333
0.752267 0.267402 0.139644
0.765135 0.276164 0.149449
0.780698 0.288849 0.151287
0.793382 0.297611 0.162010
0.806066 0.310294 0.170772
0.819547 0.319057 0.176471
0.831434 0.331741 0.188235
0.841177 0.341483 0.193137
0.852880 0.353187 0.197610
0.865564 0.365870 0.210662
0.874326 0.374633 0.215502
0.885478 0.388970 0.221997
0.899694 0.400000 0.231373
0.910723 0.411029 0.240135
0.921140 0.421446 0.246630
0.929902 0.434131 0.251470
0.941728 0.446813 0.264154
0.955331 0.455576 0.271324
0.965012 0.465993 0.277757
0.973039 0.475000 0.284865
0.985478 0.489706 0.294118
0.996324 0.498285 0.300123
1.000000 0.511888 0.309620
1.000000 0.525490 0.317647
0.000000 0.124019 0.035294
0.000000 0.124939 0.038481
0.000000 0.124755 0.033946
0.000000 0.124755 0.035294
0.000000 0.124265 0.039216
0.000000 0.127941 0.038481
0.000000 0.126349 0.036887
0.000000 0.128677 0.035294
0.000000 0.131862 0.035049
-0.001593 0.135784 0.034559
0.021691 0.139705 0.038970
0.044485 0.140441 0.032292
0.069853 0.146814 0.030638
0.095404 0.144546 0.026716
0.129535 0.163235 0.025612
0.159007 0.165257 0.019608
0.182108 0.168137 0.016667
0.206985 0.171078 0.015012
0.233946 0.174265 0.018014
0.260969 0.171078 0.013909
0.289216 0.173775 0.011765
0.315993 0.170649 0.011336
0.343014 0.170343 0.011765
0.370956 0.170343 0.011765
0.395588 0.171078 0.015686
0.421139 0.171078 0.019056
0.444240 0.172181 0.020710
0.467341 0.179657 0.028186
0.497794 0.182843 0.038481
0.519179 0.186703 0.042341
0.544730 0.187745 0.051103
0.567831 0.196385 0.059866
0.587010 0.201226 0.063481
0.613909 0.210294 0.077696
0.631005 0.218628 0.082230
0.649449 0.223591 0.090993
0.670098 0.233823 0.099755
0.688174 0.241666 0.109069
0.701593 0.249877 0.113725
0.718750 0.261274 0.125307
0.736274 0.267402 0.130882
0.749877 0.276164 0.134927
0.763358 0.284804 0.144363
0.780698 0.297611 0.156863
0.787500 0.304412 0.162010
0.807108 0.320098 0.171814
0.818015 0.327819 0.175613
0.831434 0.340503 0.184375
0.840196 0.349264 0.192157
0.852880 0.361949 0.200000
0.864461 0.373530 0.209927
0.874878 0.383946 0.215502
0.887010 0.396079 0.224264
0.897427 0.403309 0.227574
0.907843 0.417525 0.239216
0.917647 0.427022 0.243137
0.933089 0.438970 0.258089
0.942585 0.445956 0.258456
0.951348 0.460417 0.268995
0.960784 0.469914 0.274510
0.972794 0.478676 0.282598
0.982292 0.491360 0.291360
0.994240 0.503308 0.301226
1.000000 0.512807 0.305698
1.000000 0.528677 0.320834
0.000000 0.141360 0.043137
0.000000 0.141544 0.042402
0.000000 0.139890 0.043321
0.000000 0.138971 0.047059
0.000000 0.145220 0.046997
0.000000 0.142218 0.047733
0.000000 0.146875 0.048652
0.000000 0.145649 0.043505
0.000000 0.149388 0.047059
0.000000 0.153309 0.043321
0.000000 0.157047 0.043137
0.024203 0.159497 0.039400
0.055330 0.161152 0.032476
0.078799 0.165074 0.031557
0.113848 0.170097 0.031557
0.139215 0.172917 0.023775
0.183149 0.190564 0.019976
0.207475 0.192463 0.023529
0.233946 0.192708 0.016054
0.263971 0.196446 0.019608
0.292954 0.199141 0.015870
0.309376 0.192708 0.012254
0.343627 0.196446 0.015870
0.369302 0.191176 0.015686
0.395588 0.186519 0.009681
0.421875 0.188786 0.015870
0.448162 0.188970 0.019976
0.471814 0.193812 0.024816
0.496814 0.196446 0.031373
0.517035 0.201164 0.039216
0.545466 0.208211 0.047182
0.570711 0.213174 0.059682
0.593933 0.221753 0.064706
0.616298 0.226593 0.073468
0.634743 0.231433 0.085845
0.648039 0.236458 0.086459
0.669914 0.247243 0.099571
0.687623 0.253799 0.104595
0.704963 0.262562 0.113357
