Color/Polaroid/Polaroid PX-70 Warm 1 -- 65x.cube
TITLE "Polaroid PX-70 Warm 1 --"
LUT_3D_SIZE 9
DOMAIN_MIN 0.000000 0.000000 0.000000
DOMAIN_MAX 1.000000 1.000000 1.000000
0.000000 0.000000 0.000000
0.046079 0.011275 0.011275
0.124510 0.023529 0.023529
0.270098 0.013235 0.043137
0.529412 0.000000 0.066667
0.775490 0.017647 0.066667
0.927451 0.253921 0.044117
1.000000 0.424019 0.059314
1.000000 0.552941 0.160784
0.000000 0.053922 0.026961
0.043137 0.058334 0.023529
0.143137 0.058334 0.026471
0.293137 0.058334 0.047059
0.545098 0.036275 0.062745
0.776961 0.136765 0.054902
0.926471 0.299510 0.026471
1.000000 0.447549 0.044118
1.000000 0.564706 0.156863
0.000000 0.148039 0.073529
0.000000 0.153922 0.077451
0.136274 0.166666 0.066667
0.335294 0.180883 0.054902
0.573529 0.190196 0.036275
0.782353 0.270098 0.007353
0.921568 0.387255 0.000000
1.000000 0.498039 -0.004902
1.000000 0.595098 0.144118
0.000000 0.332843 0.091667
0.000000 0.335294 0.096569
0.083334 0.351471 0.086275
0.358824 0.375980 0.044608
0.609804 0.405392 0.000000
0.779412 0.429412 0.000000
0.905392 0.485784 0.000000
0.990686 0.565686 0.000000
1.000000 0.643137 0.119118
0.000000 0.560785 0.062745
0.000000 0.559314 0.067157
0.005882 0.564705 0.078431
0.382353 0.576470 0.021078
0.613726 0.588236 0.000000
0.789706 0.611765 0.000000
0.897059 0.629412 0.000000
0.976961 0.645098 0.000000
1.000000 0.692157 0.031372
0.000000 0.723039 0.123039
0.145098 0.724510 0.131863
0.308333 0.723039 0.142647
0.472059 0.725980 0.136764
0.636765 0.730392 0.105882
0.775490 0.736274 0.045098
0.886765 0.746569 0.000000
0.962745 0.754412 0.011765
1.000000 0.767647 0.115686
0.428431 0.825490 0.251961
0.460293 0.825490 0.258823
0.509804 0.822549 0.265686
0.584314 0.821569 0.279902
0.680392 0.823529 0.268627
0.774510 0.827941 0.254902
0.864706 0.829412 0.229412
0.958334 0.837745 0.222058
1.000000 0.845098 0.271569
0.639706 0.901961 0.400490
0.648530 0.902451 0.404902
0.671568 0.899019 0.409314
0.708824 0.901961 0.424019
0.750000 0.900491 0.423039
0.813235 0.906372 0.424509
0.875490 0.910294 0.416176
0.949510 0.914215 0.413235
1.000000 0.922059 0.424509
0.788235 0.976471 0.576471
0.792157 0.976471 0.576471
0.800981 0.973530 0.581373
0.819608 0.976471 0.592157
0.843137 0.976471 0.605882
0.875980 0.977941 0.607843
0.917647 0.983334 0.610784
0.961274 0.984804 0.616176
1.000000 0.988235 0.631373
0.000490 0.011765 0.066177
0.034804 0.023039 0.062255
0.123529 0.026961 0.084804
0.281863 0.043627 0.113235
0.549019 0.023039 0.134804
0.783333 0.115686 0.136765
0.930392 0.294118 0.138725
1.000000 0.447549 0.160784
1.000000 0.568627 0.234314
0.000000 0.062255 0.085785
0.046569 0.066177 0.093628
0.143137 0.080882 0.105392
0.307353 0.093138 0.119608
0.562255 0.096569 0.126961
0.784804 0.179902 0.128432
0.926961 0.330883 0.125000
1.000000 0.468138 0.153431
1.000000 0.584314 0.230883
0.000490 0.162255 0.124510
0.034804 0.163235 0.121079
0.155392 0.175000 0.117647
0.351961 0.189216 0.113235
0.589216 0.211765 0.105392
0.787255 0.288236 0.098039
0.920588 0.404902 0.091667
1.000000 0.517157 0.133333
1.000000 0.612255 0.219117
0.000000 0.345588 0.130392
0.000000 0.350980 0.132843
0.123529 0.360294 0.129902
0.378922 0.383333 0.103922
0.621078 0.410294 0.059314
0.785784 0.429902 0.006373
0.910784 0.497059 0.000000
0.994117 0.579412 0.080882
1.000000 0.653431 0.199020
0.000000 0.568628 0.121079
0.000000 0.569118 0.123529
0.129412 0.570588 0.135784
0.404412 0.581372 0.112255
0.623530 0.592156 0.053922
0.791176 0.611764 0.000000
0.898039 0.628431 0.000000
0.975490 0.642157 0.000000
1.000000 0.696079 0.144118
0.132353 0.724510 0.173530
0.226961 0.727941 0.178922
0.350980 0.725000 0.189216
0.493628 0.728431 0.193137
0.643138 0.732843 0.169118
0.779902 0.740196 0.135784
0.887255 0.747059 0.100980
0.963235 0.754412 0.120098
1.000000 0.768137 0.173039
0.451961 0.823039 0.275490
0.483333 0.828432 0.285294
0.532353 0.825490 0.292647
0.599020 0.824510 0.307843
0.687745 0.825490 0.299020
0.777451 0.826960 0.283333
0.867157 0.829412 0.262745
0.956863 0.837255 0.255882
1.000000 0.848529 0.301471
0.645098 0.899020 0.412745
0.659804 0.902451 0.420588
0.682353 0.901471 0.427451
0.716667 0.902451 0.436274
0.758823 0.902451 0.443137
0.813235 0.904412 0.436765
0.875980 0.910294 0.432353
0.949020 0.914215 0.428431
1.000000 0.922059 0.436274
0.788235 0.976471 0.580392
0.792157 0.976471 0.584314
0.803922 0.975981 0.588725
0.821078 0.974020 0.597549
0.847059 0.976471 0.613725
0.878431 0.978922 0.615686
0.917157 0.982843 0.618137
0.961764 0.984804 0.624019
1.000000 0.988725 0.639216
0.000000 0.031373 0.147059
0.050490 0.043137 0.144118
0.123529 0.073529 0.148039
0.271079 0.054902 0.171569
0.555883 0.000000 0.197059
0.799019 0.046079 0.215686
0.930392 0.377451 0.264706
1.000000 0.509804 0.299020
1.000000 0.610784 0.347059
0.000000 0.084804 0.163725
0.065687 0.089706 0.164216
0.146569 0.113235 0.164216
0.309314 0.097549 0.183333
0.588235 0.046078 0.200981
0.801961 0.248529 0.237745
0.926961 0.402941 0.260294
1.000000 0.524019 0.292157
1.000000 0.622549 0.347059
0.000000 0.171568 0.179412
0.057844 0.178431 0.186274
0.193137 0.189216 0.191176
0.385784 0.216667 0.201961
0.623529 0.264706 0.213726
0.802941 0.347549 0.221568
0.922549 0.454902 0.238235
0.997549 0.556863 0.276960
1.000000 0.640196 0.333334
0.000000 0.364706 0.206863
0.075490 0.371079 0.210785
0.211764 0.380392 0.206863
0.420098 0.398039 0.197549
0.641177 0.415196 0.179412
0.799019 0.448529 0.178431
0.912745 0.525980 0.200490
0.989215 0.603432 0.247059
1.000000 0.676961 0.316667
0.058824 0.582353 0.228432
0.097058 0.582353 0.217157
0.275490 0.580392 0.221568
0.452941 0.590196 0.224510
0.643138 0.600000 0.198039
0.796569 0.615687 0.175000
0.900000 0.629412 0.168627
0.976961 0.656863 0.190686
1.000000 0.707843 0.271568
0.292647 0.729902 0.255392
0.343137 0.730882 0.259804
0.428922 0.730882 0.268627
0.534804 0.729902 0.281863
0.664216 0.736274 0.268628
0.784314 0.741176 0.245098
0.888236 0.749020 0.230392
0.961274 0.754412 0.234804
1.000000 0.767647 0.262255
0.501961 0.825490 0.333333
0.528431 0.825980 0.340196
0.569608 0.826470 0.346078
0.628921 0.825490 0.358824
0.701961 0.826470 0.357843
0.785294 0.827941 0.345588
0.868628 0.831373 0.329411
0.955882 0.838726 0.325000
1.000000 0.849020 0.355882
0.667647 0.900000 0.445098
0.678921 0.902451 0.451470
0.698529 0.903431 0.456863
0.729412 0.902451 0.464706
0.768137 0.902451 0.476961
0.820588 0.905882 0.472549
0.879412 0.910294 0.467647
0.947059 0.914705 0.463725
1.000000 0.922549 0.471568
0.792157 0.976471 0.596078
0.797058 0.973530 0.600000
0.807843 0.973530 0.603922
0.825980 0.976471 0.614216
0.850000 0.976471 0.627451
0.879902 0.976471 0.631373
0.915686 0.980392 0.635294
0.961274 0.984804 0.639706
1.000000 0.991177 0.654902
0.000000 0.066667 0.244118
0.094608 0.080882 0.248039
0.224019 0.112745 0.249510
0.345588 0.155392 0.259804
0.539216 0.083824 0.286765
0.782353 0.030392 0.316177
0.938235 0.256373 0.336764
1.000000 0.471079 0.373039
1.000000 0.648529 0.450980
0.009314 0.112255 0.263236
0.114216 0.124020 0.266177
0.253922 0.155392 0.265196
0.374510 0.201961 0.271569
0.568627 0.153922 0.298039
0.792647 0.175490 0.322549
0.938235 0.329412 0.340686
1.000000 0.531863 0.390686
1.000000 0.683334 0.470588
0.000000 0.217647 0.276961
0.050000 0.222058 0.283334
0.267157 0.235785 0.291177
0.431373 0.300980 0.294118
0.618627 0.278431 0.312255
0.812255 0.350980 0.333824
0.924510 0.490687 0.366667
0.984804 0.629412 0.427941
1.000000 0.700490 0.467647
0.000000 0.383823 0.292647
0.058824 0.388726 0.296569
0.279902 0.402941 0.306373
0.488235 0.421569 0.318628
0.669118 0.465686 0.327941
0.811765 0.522549 0.343137
0.910784 0.589216 0.369608
0.980882 0.653921 0.400981
1.000000 0.718628 0.448039
0.209804 0.586765 0.318628
0.293137 0.590686 0.322549
0.427451 0.594117 0.333824
0.534804 0.600490 0.334314
0.673039 0.611765 0.326471
0.807843 0.625000 0.316667
0.902941 0.640686 0.319608
0.974510 0.686275 0.357843
1.000000 0.737745 0.410784
0.475000 0.729412 0.372549
0.511274 0.732353 0.377941
0.535294 0.736274 0.371079
0.600000 0.737255 0.371079
0.690687 0.740686 0.375000
0.793627 0.742647 0.356863
0.889706 0.751961 0.347549
0.961765 0.755883 0.344118
1.000000 0.770098 0.364215
0.588726 0.824020 0.418137
0.600000 0.827451 0.418628
0.619608 0.826471 0.416176
0.671078 0.828432 0.427941
0.725490 0.826961 0.435294
0.795588 0.829412 0.424510
0.872549 0.833334 0.411765
0.955882 0.839706 0.407844
1.000000 0.850000 0.425980
0.690686 0.900490 0.487255
0.702451 0.904902 0.495588
0.718627 0.902941 0.498529
0.747059 0.903922 0.506372
0.782843 0.903922 0.518627
0.827941 0.906372 0.519608
0.883334 0.910294 0.512745
0.950000 0.914705 0.509314
1.000000 0.924020 0.518627
0.796078 0.976471 0.619608
0.803922 0.976471 0.623529
0.815686 0.976471 0.627451
0.831373 0.976471 0.637745
0.852941 0.976471 0.649020
0.883824 0.977941 0.662745
0.921569 0.980392 0.664216
0.964706 0.986275 0.670588
1.000000 0.988235 0.682353
0.111765 0.111765 0.376471
0.201470 0.123039 0.380393
0.357843 0.154902 0.385294
0.534313 0.250000 0.388235
0.649019 0.327451 0.400000
0.767157 0.278431 0.413725
0.913725 0.326471 0.445098
1.000000 0.469118 0.466176
1.000000 0.611765 0.500000
0.129902 0.162745 0.388726
0.218627 0.174020 0.390196
0.379902 0.208333 0.396079
0.553431 0.300490 0.396079
0.659314 0.374019 0.403922
0.773529 0.333333 0.419607
0.912255 0.375000 0.446078
0.996568 0.506862 0.468627
1.000000 0.639216 0.507843
0.118627 0.278431 0.398039
0.214706 0.282353 0.403922
0.381372 0.300980 0.409804
0.575981 0.384804 0.411765
0.679412 0.460785 0.416667
0.788235 0.431863 0.431863
0.913725 0.478431 0.453921
0.989706 0.586274 0.479902
1.000000 0.682353 0.520588
0.000000 0.430392 0.400000
0.117647 0.434314 0.403922
0.311275 0.443137 0.410784
0.570098 0.476471 0.425981
0.698039 0.553432 0.433334
0.805392 0.543628 0.447059
0.910784 0.603431 0.470588
0.976961 0.677941 0.500980
1.000000 0.765196 0.564706
0.241176 0.596078 0.415686
0.310784 0.599510 0.417157
0.435294 0.602941 0.422549
0.577451 0.613726 0.431373
0.709804 0.627451 0.445098
0.821078 0.664706 0.461275
0.899020 0.701960 0.482353
0.965196 0.737745 0.505883
1.000000 0.778431 0.539215
0.471569 0.730882 0.440686
0.510294 0.736765 0.445098
0.575000 0.736764 0.450981
0.666667 0.744117 0.466176
0.730882 0.744608 0.470098
0.809314 0.750000 0.460785
0.891667 0.754412 0.450981
0.961274 0.758333 0.450000
1.000000 0.795588 0.496569
0.634314 0.824510 0.489216
0.657353 0.826470 0.495588
0.689216 0.827451 0.502941
0.720588 0.825980 0.501961
0.756863 0.829412 0.501961
0.808334 0.830392 0.502451
0.880392 0.837255 0.494118
0.957843 0.843627 0.490196
1.000000 0.850980 0.498039
0.739706 0.900490 0.561275
0.746078 0.902451 0.564216
0.751471 0.903922 0.559314
0.763235 0.904412 0.554902
0.798039 0.906372 0.565196
0.836274 0.906862 0.575490
0.888235 0.911274 0.571078
0.955392 0.918627 0.567647
1.000000 0.925980 0.578431
0.811765 0.974510 0.660784
0.815686 0.976471 0.662745
0.817647 0.976471 0.658824
0.837255 0.978432 0.668627
0.858824 0.976471 0.678431
0.886275 0.978431 0.698039
0.922549 0.981372 0.703921
0.965196 0.988235 0.709804
1.000000 0.988235 0.719608
0.302451 0.185784 0.508824
0.372549 0.199020 0.510784
0.509314 0.241177 0.513726
0.662745 0.338235 0.516667
0.768137 0.487745 0.515196
0.826470 0.541667 0.524510
0.886765 0.500490 0.526471
0.972059 0.544608 0.550981
1.000000 0.632843 0.577941
0.318137 0.244118 0.514706
0.387745 0.257353 0.516667
0.521079 0.297059 0.519118
0.670098 0.387255 0.520588
0.772059 0.515196 0.519118
0.826961 0.565196 0.526961
0.887745 0.531863 0.530882
0.969117 0.570098 0.553922
1.000000 0.654412 0.583333
0.302941 0.343627 0.518137
0.372549 0.352451 0.520588
0.521079 0.387745 0.523039
0.673530 0.461765 0.527451
0.775000 0.567647 0.526961
0.828922 0.617647 0.534804
0.887255 0.590196 0.539706
0.965196 0.620588 0.561275
1.000000 0.692647 0.591667
0.243137 0.492647 0.511275
0.336765 0.497549 0.514706
0.499510 0.512745 0.521569
0.650980 0.541176 0.530882
0.776961 0.625000 0.535784
0.831373 0.679902 0.546568
0.885785 0.660294 0.551961
0.961274 0.678921 0.570588
1.000000 0.743627 0.607843
0.313235 0.625000 0.511275
0.362255 0.626961 0.512745
0.462745 0.627451 0.515196
0.583333 0.631373 0.521569
0.756372 0.668137 0.540686
0.830882 0.726961 0.557843
0.889216 0.717157 0.564215
0.961274 0.748529 0.585294
1.000000 0.790686 0.623039
0.477451 0.736274 0.523039
0.516177 0.740196 0.528431
0.575980 0.741667 0.531373
0.657353 0.745098 0.537255
0.743137 0.746569 0.542647
0.825000 0.758333 0.558333
0.895098 0.781863 0.577451
0.960784 0.805392 0.598529
1.000000 0.836765 0.634314
0.624020 0.825490 0.548530
0.643138 0.827451 0.552451
0.677451 0.829412 0.556373
0.725980 0.829412 0.562745
0.783333 0.830883 0.575981
0.829902 0.836275 0.582843
0.885784 0.841177 0.577451
0.958334 0.841177 0.569608
1.000000 0.848529 0.575490
0.732353 0.902451 0.609314
0.741666 0.902451 0.612255
0.761765 0.905392 0.619118
0.790686 0.904412 0.625000
0.821078 0.907353 0.632353
0.851470 0.910294 0.635784
0.898039 0.914215 0.644608
0.957353 0.921079 0.640196
0.997549 0.926961 0.645098
0.825980 0.976471 0.719118
0.827941 0.976471 0.721569
0.840686 0.976471 0.726961
0.852451 0.976471 0.725981
0.864706 0.980392 0.719608
0.894118 0.980392 0.737255
0.926471 0.984314 0.756863
0.965196 0.987255 0.758333
1.000000 0.989706 0.770098
0.528431 0.331373 0.629412
0.571568 0.347059 0.628431
0.657843 0.397059 0.628432
0.752451 0.476470 0.628432
0.832353 0.584314 0.629412
0.875980 0.693137 0.629902
0.906862 0.710784 0.637255
0.938235 0.668138 0.625000
1.000000 0.710784 0.664706
0.532353 0.378922 0.629412
0.577451 0.397059 0.629412
0.655392 0.435784 0.629412
0.752451 0.508333 0.631863
0.829412 0.604411 0.631863
0.880391 0.706863 0.635784
0.904412 0.723530 0.641667
0.937745 0.683824 0.628431
1.000000 0.721079 0.670098
0.519608 0.457843 0.627451
0.562745 0.470588 0.629412
0.648039 0.502941 0.628432
0.748529 0.563235 0.632353
0.830393 0.645098 0.638235
0.875980 0.728431 0.643137
0.905882 0.748039 0.650000
0.937255 0.714216 0.638726
1.000000 0.742157 0.676470
0.515687 0.573530 0.620588
0.554412 0.579412 0.625490
0.615686 0.577941 0.629902
0.729902 0.622549 0.633334
0.820098 0.685294 0.640196
0.878431 0.758333 0.651960
0.904412 0.775000 0.658334
0.937745 0.750000 0.651960
1.000000 0.769607 0.687255
0.383333 0.657843 0.602941
0.435294 0.660784 0.607843
0.550981 0.663726 0.614706
0.688726 0.682353 0.627941
0.798039 0.720588 0.642157
0.872549 0.778431 0.657843
0.904902 0.802941 0.670588
0.942647 0.784314 0.667157
1.000000 0.796078 0.695098
0.500000 0.747059 0.609314
0.533334 0.752942 0.615196
0.582843 0.753432 0.617647
0.650981 0.751471 0.620588
0.727941 0.753431 0.623529
0.847059 0.788235 0.654412
0.905882 0.831373 0.679411
0.949510 0.818137 0.684314
0.999019 0.843627 0.722549
0.612745 0.826470 0.626470
0.633334 0.828432 0.631863
0.663725 0.829412 0.633334
0.710294 0.829412 0.636765
0.767647 0.831373 0.642157
0.828922 0.836275 0.656373
0.898039 0.848039 0.676471
0.961764 0.868137 0.704902
1.000000 0.892157 0.744117
0.714216 0.902451 0.672059
0.725490 0.903431 0.673039
0.742647 0.903922 0.677451
0.775490 0.906372 0.686765
0.814216 0.907843 0.695588
0.863725 0.910784 0.711275
0.906372 0.917647 0.723530
0.961274 0.925490 0.726961
1.000000 0.925980 0.726961
0.807843 0.976471 0.765686
0.815196 0.977451 0.768137
0.825490 0.978432 0.770588
0.845588 0.978922 0.777451
0.875490 0.977451 0.786274
0.907353 0.981863 0.800980
0.930392 0.984314 0.808823
0.965196 0.987745 0.821078
1.000000 0.995098 0.832353
0.694608 0.534804 0.749510
0.714216 0.546569 0.745588
0.760294 0.580392 0.748530
0.814216 0.634314 0.749510
0.864706 0.694117 0.747549
0.903922 0.752451 0.746078
0.937255 0.811765 0.750000
0.961274 0.812255 0.758333
0.988725 0.793137 0.754412
0.691176 0.558334 0.746078
0.714216 0.573529 0.746078
0.756373 0.600000 0.748530
0.810784 0.647059 0.746569
0.863726 0.707353 0.750981
0.901470 0.759313 0.749510
0.937745 0.816176 0.756863
0.957843 0.816666 0.762255
0.988235 0.797058 0.757843
0.684804 0.605393 0.746078
0.705882 0.615686 0.746078
0.749510 0.639216 0.747059
0.806373 0.680392 0.750000
0.859314 0.728431 0.752941
0.903922 0.777451 0.756863
0.935785 0.825000 0.762255
0.961274 0.830883 0.769607
0.987255 0.810294 0.760294
0.665196 0.658334 0.744117
0.682843 0.661765 0.747549
0.731863 0.679412 0.750000
0.795098 0.714706 0.753921
0.850980 0.751471 0.755392
0.904412 0.798529 0.766177
0.938235 0.840196 0.773039
0.961274 0.847549 0.781372
0.984314 0.827941 0.769607
0.614706 0.718138 0.733824
0.645588 0.724020 0.738235
0.697059 0.729902 0.742156
0.759804 0.739706 0.750000
0.829902 0.771078 0.757843
0.894118 0.809314 0.769607
0.939215 0.853431 0.783333
0.962745 0.866667 0.792647
0.988235 0.847549 0.784804
0.535294 0.774020 0.718627
0.558824 0.775001 0.721079
0.593627 0.774020 0.721079
0.675980 0.776961 0.731373
0.781372 0.788235 0.746078
0.866667 0.820098 0.769117
0.934313 0.865196 0.791176
0.964706 0.890196 0.811275
0.996078 0.878431 0.812255
0.619608 0.841667 0.736274
0.633824 0.844608 0.739216
0.662746 0.844117 0.739216
0.698529 0.841177 0.740196
0.747059 0.839706 0.742156
0.802451 0.837255 0.747059
0.910784 0.868628 0.787255
0.966176 0.911274 0.829412
1.000000 0.907353 0.837255
0.698039 0.910294 0.769607
0.705392 0.909314 0.769607
0.724510 0.910294 0.773039
0.752941 0.908333 0.775000
0.792157 0.910294 0.781372
0.842157 0.914215 0.790686
0.900000 0.918137 0.805883
0.961274 0.929902 0.832353
1.000000 0.949510 0.863725
0.787745 0.980392 0.831863
0.795098 0.983334 0.831863
0.803922 0.980392 0.832353
0.827451 0.982353 0.839706
0.856863 0.984314 0.845588
0.894118 0.983334 0.858334
0.937255 0.985294 0.872059
0.969117 0.988235 0.887255
1.000000 0.996078 0.898529
0.796078 0.729412 0.878431
0.807843 0.737255 0.878431
0.824510 0.746079 0.875490
0.857353 0.768627 0.874510
0.894118 0.796078 0.874510
0.933333 0.827451 0.874510
0.961765 0.858824 0.870588
0.984314 0.894118 0.870588
1.000000 0.894118 0.882353
0.796078 0.733333 0.874510
0.804412 0.745098 0.878921
0.823039 0.753431 0.875000
0.857353 0.775000 0.876961
0.894118 0.800000 0.874510
0.930882 0.828922 0.872059
0.961765 0.859804 0.871568
0.980882 0.894608 0.874020
1.000000 0.897549 0.885785
0.791176 0.754902 0.881373
0.800000 0.760784 0.882353
0.822549 0.771568 0.881373
0.853431 0.786765 0.878431
0.890196 0.810785 0.877451
0.929412 0.836765 0.874510
0.961764 0.869608 0.877451
0.984314 0.901961 0.878431
1.000000 0.900980 0.885295
0.772549 0.768627 0.880882
0.784804 0.775491 0.886275
0.807843 0.787255 0.882353
0.843137 0.802451 0.882353
0.886275 0.823529 0.882353
0.926961 0.848529 0.882353
0.959313 0.875490 0.882353
0.986765 0.912255 0.888236
1.000000 0.913725 0.896569
0.754902 0.801961 0.884314
0.768137 0.805883 0.888236
0.783333 0.803921 0.886275
0.820098 0.814216 0.888726
0.868627 0.833333 0.888235
0.919608 0.860785 0.890686
0.957843 0.887255 0.890196
0.986274 0.921569 0.896079
1.000000 0.925490 0.903922
0.675490 0.827451 0.882353
0.694608 0.831373 0.888236
0.726960 0.832843 0.886275
0.775000 0.836765 0.887745
0.833824 0.845098 0.894608
0.898039 0.868137 0.898039
0.956863 0.901961 0.901961
0.985784 0.930882 0.905882
1.000000 0.942647 0.915196
0.665686 0.879412 0.891177
0.675490 0.879412 0.895098
0.690197 0.879412 0.897059
0.711765 0.875490 0.895098
0.757843 0.875490 0.900000
0.851470 0.882353 0.902941
0.934313 0.906862 0.914706
0.988235 0.946079 0.925490
1.000000 0.960784 0.930392
0.729902 0.937745 0.918137
0.729902 0.937745 0.917647
0.745588 0.941176 0.921569
0.764706 0.937255 0.919118
0.793137 0.934313 0.922059
0.836765 0.936275 0.925490
0.878921 0.929902 0.925000
0.972549 0.952941 0.937255
1.000000 0.980392 0.949020
0.792157 0.992157 0.941176
0.792157 0.992157 0.941176
0.803922 0.992157 0.941176
0.823529 0.993627 0.945098
0.847059 0.994117 0.947059
0.879902 0.992157 0.949020
0.918627 0.993137 0.952941
0.961274 0.996078 0.960784
1.000000 1.000000 0.972549
