Color/Polaroid/Polaroid 690 Cold 1 -- 65x.cube
TITLE "Polaroid 690 Cold 1 --"
LUT_3D_SIZE 9
DOMAIN_MIN 0.000000 0.000000 0.000000
DOMAIN_MAX 1.000000 1.000000 1.000000
0.000000 0.000000 0.000000
0.057844 0.011275 0.000000
0.212745 0.000000 0.000000
0.393137 0.000000 0.000000
0.541176 0.000000 0.000000
0.672059 0.000000 0.000000
0.790196 0.000000 0.000000
0.910294 0.000000 0.000000
1.000000 0.000000 0.000000
0.000000 0.112745 0.000000
0.015196 0.125000 0.000000
0.248039 0.120588 0.000000
0.427942 0.037255 0.000000
0.564705 0.000000 0.000000
0.696569 0.000000 0.000000
0.805883 0.000000 0.000000
0.922059 0.000000 0.000000
1.000000 0.000000 0.000000
0.000000 0.267647 0.000000
0.000000 0.271569 0.000000
0.228432 0.284314 0.000000
0.458333 0.260784 0.000000
0.622549 0.221569 0.000000
0.741667 0.154412 0.000000
0.846078 0.059804 0.000000
0.942156 0.000000 0.000000
1.000000 0.000000 0.000000
0.000000 0.398529 0.000000
0.000000 0.403431 0.000000
0.164706 0.409314 0.000000
0.412745 0.425980 0.000000
0.611765 0.419118 0.000000
0.763726 0.416667 0.000000
0.876471 0.403431 0.000000
0.965686 0.374510 0.000000
1.000000 0.374510 0.000000
0.000000 0.515686 0.000000
0.000000 0.519608 0.000000
0.126471 0.514706 0.000000
0.348530 0.531373 0.000000
0.547059 0.558823 0.000000
0.716667 0.580883 0.000000
0.852941 0.594117 0.000000
0.967157 0.615687 0.089216
1.000000 0.607843 0.103921
0.000000 0.634314 0.025000
0.000000 0.641667 0.019608
0.113725 0.634314 0.000000
0.321568 0.639706 0.000000
0.499510 0.661765 0.000000
0.669608 0.689216 0.000000
0.817647 0.703431 0.000000
0.947059 0.712745 0.000000
1.000000 0.719118 0.156863
0.000000 0.754902 0.085294
0.069607 0.754902 0.074019
0.233333 0.745098 0.046078
0.367647 0.743137 0.000000
0.517647 0.752941 0.000000
0.665196 0.765196 0.000000
0.802941 0.777451 0.000000
0.927451 0.785785 0.000000
1.000000 0.793137 0.023530
0.322549 0.847549 0.176471
0.350000 0.844117 0.169607
0.408334 0.844117 0.153921
0.493137 0.843137 0.125980
0.591176 0.838235 0.089216
0.708824 0.851470 0.058334
0.820588 0.859314 0.000000
0.930392 0.871568 0.000000
1.000000 0.879412 0.000000
0.490196 0.964706 0.317647
0.505392 0.964706 0.313726
0.541176 0.965686 0.302941
0.602451 0.964706 0.290196
0.676470 0.964706 0.264706
0.755882 0.970098 0.247059
0.844118 0.976471 0.218627
0.934313 0.984804 0.160294
1.000000 0.992157 0.000000
0.000000 0.015196 0.097059
0.038236 0.023039 0.108333
0.200981 0.015686 0.096078
0.382353 0.000000 0.098529
0.529411 0.000000 0.081373
0.656373 0.000000 0.074020
0.769607 0.000000 0.068137
0.891176 0.000000 0.053922
1.000000 0.000000 0.034314
0.000000 0.116667 0.104902
0.003432 0.128432 0.120098
0.239706 0.112745 0.111764
0.415196 0.056863 0.103431
0.554412 0.000000 0.093138
0.677451 0.000000 0.085294
0.789706 0.000000 0.076470
0.907353 0.000000 0.061765
1.000000 0.000000 0.038236
0.000000 0.281863 0.130882
0.000000 0.279902 0.123039
0.243628 0.288235 0.104902
0.458333 0.275000 0.130882
0.607353 0.233333 0.138235
0.722059 0.170588 0.120098
0.828922 0.090196 0.104902
0.933823 0.000000 0.084804
1.000000 0.000000 0.062745
0.000000 0.406373 0.139705
0.000000 0.412745 0.139705
0.200981 0.412745 0.123529
0.421568 0.429412 0.100000
0.610784 0.424020 0.119118
0.758333 0.428431 0.168627
0.866667 0.404902 0.164706
0.958333 0.375000 0.135784
1.000000 0.370588 0.109803
0.000000 0.525490 0.159804
0.000000 0.525981 0.154412
0.171078 0.519608 0.139705
0.365196 0.536274 0.119608
0.550980 0.562745 0.080392
0.713235 0.580392 0.080392
0.849510 0.599019 0.145588
0.962255 0.620098 0.216176
1.000000 0.605882 0.199510
0.000000 0.642157 0.165686
0.000000 0.646078 0.163726
0.157843 0.642157 0.149020
0.340686 0.645098 0.128432
0.505883 0.664706 0.097059
0.672059 0.691667 0.044118
0.816667 0.703922 0.056373
0.944608 0.715196 0.141667
1.000000 0.721079 0.246568
0.002941 0.754902 0.180392
0.114706 0.757843 0.179412
0.248040 0.751471 0.164706
0.375490 0.746078 0.134804
0.520589 0.754902 0.120098
0.664216 0.766667 0.098529
0.802941 0.777451 0.058334
0.926470 0.786275 0.091667
1.000000 0.794118 0.172059
0.319118 0.847549 0.231373
0.349510 0.847549 0.227451
0.408333 0.844118 0.216176
0.489706 0.840196 0.193137
0.590686 0.839706 0.168627
0.704902 0.848039 0.156373
0.820588 0.859314 0.132843
0.929412 0.871568 0.089216
1.000000 0.878921 0.144118
0.482353 0.968627 0.348530
0.498039 0.964706 0.344608
0.536765 0.965196 0.336765
0.596078 0.965686 0.322549
0.672549 0.964706 0.298039
0.754412 0.969117 0.282353
0.842647 0.976471 0.260784
0.930883 0.984804 0.211765
1.000000 0.992157 0.109314
0.000000 0.034314 0.295098
0.000000 0.035294 0.306863
0.208824 0.015686 0.322549
0.385294 0.000981 0.264706
0.525490 0.000000 0.247059
0.636765 0.000000 0.235785
0.731372 0.000000 0.227451
0.867157 0.000000 0.182353
1.000000 0.000000 0.169608
0.000000 0.128432 0.295098
0.000000 0.140686 0.311275
0.228922 0.144608 0.326961
0.392647 0.136274 0.280883
0.534314 0.076470 0.268627
0.640686 0.000000 0.253922
0.755392 0.000000 0.214216
0.879902 0.000000 0.197549
1.000000 0.000000 0.182353
0.000000 0.276470 0.314706
0.000000 0.284314 0.322549
0.250981 0.295098 0.338235
0.431372 0.271569 0.322549
0.571569 0.237255 0.301961
0.685294 0.186765 0.275490
0.797059 0.118627 0.251961
0.910784 0.000000 0.229412
1.000000 0.000000 0.207843
0.000000 0.420588 0.327941
0.054412 0.428431 0.338235
0.251961 0.424510 0.331863
0.434804 0.436275 0.326471
0.604902 0.437255 0.338725
0.739706 0.430392 0.341666
0.839706 0.391176 0.309314
0.940686 0.362255 0.279412
1.000000 0.351961 0.256373
0.000000 0.545098 0.336274
0.059804 0.548529 0.334804
0.234314 0.538235 0.320588
0.388235 0.541667 0.311765
0.556863 0.568628 0.300980
0.712745 0.588236 0.306863
0.846078 0.607843 0.337255
0.952451 0.613235 0.348529
1.000000 0.593137 0.315686
0.000000 0.659314 0.319608
0.000000 0.664216 0.319608
0.212745 0.656373 0.309314
0.359314 0.647549 0.290687
0.513725 0.670098 0.284314
0.672059 0.693137 0.276470
0.817647 0.707353 0.286765
0.941666 0.715196 0.322549
1.000000 0.723039 0.380883
0.048039 0.762745 0.312745
0.152451 0.761764 0.309314
0.268628 0.757843 0.300000
0.387745 0.752941 0.282843
0.519608 0.754902 0.269608
0.664216 0.768137 0.267157
0.802941 0.778432 0.261765
0.926961 0.787745 0.277451
1.000000 0.793137 0.318628
0.308333 0.851470 0.328922
0.338726 0.851470 0.327451
0.400980 0.848529 0.320589
0.484804 0.844117 0.301471
0.583333 0.841176 0.278921
0.700490 0.850980 0.275980
0.814706 0.859314 0.268627
0.926470 0.871568 0.258334
1.000000 0.881863 0.284314
0.463726 0.968627 0.410784
0.479411 0.965686 0.407843
0.521569 0.965686 0.400000
0.582843 0.967157 0.389706
0.660784 0.965686 0.368627
0.745098 0.968627 0.351961
0.834314 0.976471 0.336275
0.926470 0.984804 0.308824
1.000000 0.992157 0.260784
0.000000 0.057353 0.466177
0.000000 0.061275 0.475490
0.098529 0.062745 0.499020
0.403431 0.022059 0.506863
0.545098 0.029412 0.443137
0.640686 0.022549 0.398529
0.744608 0.000000 0.381373
0.850000 0.000000 0.363725
0.968627 0.000000 0.346078
0.000000 0.150490 0.463726
0.000000 0.158823 0.477941
0.175000 0.167647 0.496569
0.416667 0.163726 0.506863
0.547549 0.158823 0.452451
0.644608 0.127941 0.411274
0.746569 0.001471 0.389706
0.851961 0.000000 0.369608
0.972059 0.000000 0.344608
0.000000 0.261275 0.455392
0.000000 0.276960 0.464706
0.240196 0.300000 0.492647
0.439216 0.310785 0.517647
0.545588 0.292157 0.464706
0.653922 0.243627 0.436275
0.754902 0.174510 0.404902
0.859804 0.000000 0.367647
0.998039 0.000000 0.320588
0.000000 0.414216 0.480882
0.102941 0.425980 0.492157
0.284314 0.436275 0.502941
0.444118 0.451961 0.518628
0.574510 0.414706 0.487255
0.690196 0.378431 0.456863
0.800981 0.341176 0.427451
0.910294 0.299020 0.393137
1.000000 0.270098 0.365686
0.002451 0.563235 0.491667
0.141176 0.572549 0.499020
0.274020 0.572549 0.498530
0.409314 0.565196 0.483824
0.560785 0.584313 0.479902
0.716177 0.601470 0.491177
0.838235 0.608333 0.499510
0.933333 0.577451 0.460784
1.000000 0.556373 0.426470
0.000000 0.686275 0.474020
0.049510 0.690686 0.477941
0.246078 0.686275 0.474020
0.379902 0.674510 0.455883
0.517648 0.677941 0.444118
0.673529 0.699510 0.445098
0.820588 0.712745 0.457843
0.938235 0.718137 0.488726
1.000000 0.723039 0.527941
0.068628 0.775490 0.457843
0.162745 0.774510 0.456863
0.274019 0.770588 0.446078
0.394117 0.765686 0.432353
0.514216 0.757353 0.410294
0.658824 0.767647 0.414706
0.800490 0.780882 0.417647
0.925000 0.789215 0.432843
1.000000 0.794118 0.471569
0.273039 0.855882 0.451961
0.310294 0.857844 0.452451
0.374020 0.854902 0.441667
0.467157 0.849510 0.425980
0.566666 0.844117 0.402941
0.685294 0.848039 0.396078
0.805393 0.859314 0.398529
0.922059 0.871568 0.400981
1.000000 0.880882 0.424020
0.428922 0.968627 0.508333
0.450980 0.970098 0.508333
0.490686 0.968627 0.500490
0.556863 0.968627 0.488726
0.637255 0.968627 0.465196
0.729902 0.970098 0.445588
0.824510 0.976471 0.439216
0.922059 0.988235 0.424510
1.000000 0.992157 0.393137
0.000000 0.088235 0.607843
0.000000 0.096078 0.615687
0.000000 0.101961 0.636275
0.378431 0.100000 0.666667
0.592156 0.084314 0.674509
0.681863 0.092157 0.604412
0.761764 0.109804 0.550000
0.863235 0.000000 0.534804
0.976471 0.000000 0.525490
0.000000 0.172059 0.604412
0.000000 0.177451 0.613725
0.132353 0.187255 0.635294
0.404902 0.195098 0.668137
0.596078 0.191177 0.674509
0.682353 0.181863 0.608334
0.760294 0.178431 0.554902
0.863725 0.058333 0.535784
0.980392 0.000000 0.525490
0.000000 0.284314 0.599020
0.000000 0.296568 0.613726
0.233334 0.305882 0.630392
0.429902 0.319608 0.662255
0.600980 0.322549 0.674510
0.679902 0.301471 0.610294
0.765686 0.271569 0.566666
0.867647 0.184314 0.541177
0.982353 0.000000 0.518628
0.000000 0.393137 0.586275
0.076961 0.403432 0.600000
0.255883 0.411765 0.604902
0.426961 0.442647 0.645588
0.591667 0.461765 0.672549
0.675490 0.428922 0.612255
0.773529 0.368137 0.575000
0.872059 0.280883 0.529412
0.992157 0.136274 0.489706
0.025490 0.556863 0.619608
0.153431 0.564705 0.625000
0.287255 0.571569 0.631373
0.424510 0.588236 0.643138
0.568628 0.607843 0.662745
0.691667 0.565196 0.622549
0.800981 0.518628 0.581373
0.908333 0.470589 0.537254
1.000000 0.437255 0.500000
0.080393 0.703431 0.635294
0.175981 0.707843 0.641177
0.286274 0.707353 0.639215
0.409314 0.709314 0.635785
0.527451 0.697549 0.615687
0.677451 0.708824 0.614216
0.820588 0.719118 0.635785
0.929412 0.720588 0.655882
1.000000 0.693137 0.608824
0.119608 0.789215 0.620588
0.189216 0.790196 0.620588
0.283334 0.788235 0.613726
0.401961 0.781863 0.601961
0.516667 0.773529 0.573529
0.648039 0.771078 0.558824
0.799019 0.786275 0.577451
0.924510 0.793137 0.597549
1.000000 0.797058 0.643138
0.240686 0.865196 0.605882
0.279411 0.867647 0.604412
0.348530 0.865196 0.595098
0.440196 0.860785 0.577941
0.547059 0.855392 0.552451
0.660294 0.848039 0.521568
0.791176 0.859314 0.534314
0.912745 0.873529 0.548529
1.000000 0.882843 0.579902
0.398039 0.972549 0.641177
0.419608 0.972549 0.639215
0.459804 0.972549 0.631373
0.527941 0.972549 0.619607
0.609804 0.972549 0.598039
0.703431 0.971078 0.568628
0.805883 0.977451 0.561765
0.910294 0.988235 0.560785
1.000000 0.992157 0.545098
0.000000 0.126961 0.748039
0.000000 0.131373 0.753922
0.011765 0.135784 0.767647
0.378431 0.139706 0.792157
0.596078 0.146569 0.818627
0.740196 0.150490 0.813235
0.812745 0.146079 0.754902
0.884804 0.154412 0.706373
0.980392 0.121078 0.689216
0.000000 0.199020 0.746079
0.000000 0.202941 0.755882
0.157353 0.207353 0.770098
0.402941 0.214706 0.789706
0.598529 0.225000 0.819118
0.740686 0.225000 0.813235
0.812745 0.215196 0.756372
0.884314 0.206863 0.708333
0.982353 0.164706 0.689216
0.000000 0.301471 0.743628
0.000000 0.304902 0.751961
0.237745 0.312746 0.763725
0.425000 0.323529 0.784804
0.599020 0.338235 0.811274
0.737745 0.344608 0.812255
0.810294 0.320098 0.757843
0.882843 0.298039 0.708824
0.983334 0.235294 0.688236
0.000000 0.394608 0.710294
0.051960 0.407353 0.726961
0.254412 0.420588 0.744117
0.418137 0.437745 0.766176
0.583823 0.467157 0.798529
0.725490 0.488726 0.810784
0.798529 0.445588 0.752451
0.877941 0.403922 0.703431
0.989216 0.312745 0.682843
0.000000 0.529902 0.717157
0.070588 0.537254 0.723039
0.239706 0.539706 0.726961
0.378431 0.544118 0.733333
0.549019 0.592156 0.773529
0.700980 0.629412 0.800980
0.778922 0.577941 0.744608
0.878921 0.489706 0.694118
0.994117 0.377451 0.645098
0.000000 0.693137 0.744117
0.140196 0.695098 0.748039
0.277941 0.700000 0.753432
0.415196 0.705882 0.762255
0.554902 0.715196 0.774020
0.693137 0.728431 0.795098
0.789216 0.691667 0.752451
0.893137 0.645588 0.700490
1.000000 0.602941 0.651471
0.297059 0.798039 0.776471
0.330392 0.798529 0.779412
0.391176 0.798039 0.779412
0.474020 0.795588 0.775490
0.565686 0.794118 0.769118
0.661275 0.785294 0.748039
0.795098 0.790686 0.752941
0.914706 0.798039 0.775490
1.000000 0.808333 0.806373
0.332353 0.872549 0.767647
0.355882 0.871568 0.767647
0.404902 0.874020 0.766176
0.471569 0.871078 0.755392
0.559804 0.864706 0.741177
0.650000 0.855882 0.704902
0.773039 0.859314 0.696079
0.901961 0.875490 0.719608
0.997549 0.884314 0.749020
0.417157 0.976471 0.783333
0.428922 0.975000 0.779412
0.459314 0.976471 0.774019
0.524020 0.974020 0.767647
0.594118 0.974510 0.751961
0.679902 0.975000 0.726961
0.784804 0.977941 0.700980
0.893628 0.987255 0.708824
1.000000 0.993627 0.708824
0.000000 0.173530 0.879412
0.000000 0.176471 0.879412
0.208823 0.178432 0.887255
0.419117 0.180392 0.895098
0.595098 0.193137 0.910784
0.748529 0.225000 0.926961
0.863726 0.237255 0.918627
0.927451 0.224019 0.881372
1.000000 0.241177 0.852941
0.000000 0.226961 0.872549
0.000000 0.231863 0.880392
0.248529 0.231863 0.883333
0.431862 0.238236 0.895098
0.599510 0.250980 0.910294
0.750981 0.285295 0.926471
0.861275 0.292157 0.920098
0.923530 0.271078 0.880882
1.000000 0.278921 0.851470
0.000000 0.316667 0.867647
0.116667 0.320588 0.872549
0.284314 0.323529 0.876471
0.445098 0.335784 0.891667
0.600980 0.351961 0.907843
0.746078 0.386764 0.924510
0.854902 0.398039 0.917647
0.918627 0.363725 0.879902
0.995098 0.357843 0.850980
0.000000 0.410294 0.848039
0.108333 0.418137 0.858333
0.276960 0.425980 0.865196
0.430883 0.440196 0.876471
0.579902 0.467647 0.893628
0.725980 0.516177 0.914706
0.836274 0.532843 0.912255
0.904902 0.485785 0.874510
0.985784 0.456863 0.842647
0.000000 0.507844 0.815686
0.000000 0.512745 0.823529
0.193137 0.522549 0.833334
0.372059 0.543627 0.852941
0.545098 0.584314 0.877451
0.700980 0.635785 0.903432
0.817647 0.654902 0.907843
0.887745 0.605392 0.869118
0.971569 0.559804 0.830392
0.000000 0.666176 0.832353
0.000000 0.668628 0.834804
0.165196 0.671569 0.839216
0.332353 0.669608 0.837745
0.482353 0.671569 0.844118
0.672549 0.715196 0.882353
0.816667 0.741666 0.905882
0.872059 0.696079 0.857353
0.975490 0.625980 0.816176
0.214706 0.782353 0.856863
0.265196 0.785294 0.859804
0.350980 0.788235 0.862745
0.457843 0.786275 0.864706
0.577451 0.790196 0.870588
0.696569 0.797058 0.882843
0.816667 0.812745 0.901961
0.887745 0.770098 0.860785
0.996078 0.732353 0.818627
0.473039 0.878921 0.887745
0.489216 0.879412 0.888236
0.523530 0.879412 0.888726
0.574020 0.878921 0.888726
0.636275 0.878921 0.885294
0.704412 0.875490 0.879902
0.774510 0.866667 0.856863
0.895098 0.879412 0.864706
0.999510 0.890686 0.883824
0.522549 0.972549 0.891177
0.531373 0.975981 0.892157
0.552941 0.974510 0.890196
0.588725 0.976471 0.888236
0.634314 0.976471 0.880392
0.696569 0.980392 0.871568
0.770588 0.980392 0.848039
0.878921 0.987745 0.836765
0.992157 0.996078 0.849020
0.209804 0.235294 0.968627
0.264706 0.235294 0.968627
0.371569 0.238726 0.972549
0.497059 0.243627 0.976471
0.625490 0.255392 0.978432
0.748529 0.284314 0.982353
0.867157 0.338726 0.991667
0.957353 0.358333 0.984804
1.000000 0.346078 0.973039
0.229412 0.271568 0.965196
0.290196 0.278431 0.969117
0.383334 0.280882 0.971569
0.501471 0.286275 0.973039
0.626961 0.300981 0.976961
0.748039 0.323530 0.978921
0.864216 0.382353 0.991667
0.953431 0.400490 0.981373
1.000000 0.380882 0.972549
0.254902 0.351471 0.961764
0.302451 0.351961 0.964216
0.390686 0.356373 0.966176
0.502941 0.366666 0.969117
0.622059 0.380392 0.973039
0.743137 0.416667 0.979902
0.852941 0.472059 0.982844
0.942157 0.489216 0.980882
1.000000 0.455883 0.965686
0.208824 0.438235 0.953431
0.270098 0.445588 0.956863
0.366667 0.450000 0.958824
0.485294 0.465686 0.965196
0.605882 0.487745 0.964706
0.729411 0.532843 0.975000
0.837255 0.589706 0.977451
0.929902 0.597549 0.976961
1.000000 0.556373 0.959314
0.000000 0.541177 0.941176
0.129902 0.545098 0.941666
0.273529 0.547549 0.943137
0.425490 0.565686 0.949510
0.571078 0.596569 0.957353
0.704902 0.634804 0.964706
0.825490 0.678431 0.970098
0.920098 0.683823 0.970588
0.986274 0.643628 0.953431
0.000000 0.657843 0.922549
0.000000 0.657843 0.925980
0.025000 0.648529 0.923530
0.302941 0.652941 0.928922
0.500980 0.676471 0.937745
0.676471 0.708333 0.952941
0.818627 0.743137 0.966176
0.920589 0.756863 0.968627
0.980882 0.719608 0.949510
0.073529 0.774510 0.930883
0.158334 0.774510 0.930882
0.266667 0.775980 0.935784
0.379902 0.770588 0.930883
0.499020 0.766667 0.933823
0.618627 0.758824 0.930392
0.799019 0.794118 0.953431
0.922059 0.828432 0.969117
0.977942 0.782843 0.942647
0.412745 0.870588 0.941666
0.431373 0.870098 0.944608
0.477941 0.870588 0.944117
0.542156 0.869118 0.943137
0.627941 0.869608 0.945588
0.721078 0.875000 0.949510
0.820588 0.882843 0.953431
0.918137 0.902451 0.961274
0.996078 0.855882 0.937745
0.623039 0.975981 0.956863
0.634314 0.975490 0.956373
0.657353 0.973039 0.957353
0.691176 0.976471 0.957353
0.727941 0.978432 0.957353
0.773529 0.979412 0.956373
0.821078 0.984314 0.952941
0.879412 0.984804 0.934313
0.991667 0.999510 0.941176
0.462745 0.352941 1.000000
0.485785 0.356863 1.000000
0.529412 0.357843 1.000000
0.602451 0.364706 1.000000
0.686275 0.380392 1.000000
0.775490 0.405392 1.000000
0.860785 0.448039 1.000000
0.941666 0.514216 1.000000
1.000000 0.537255 1.000000
0.462745 0.383824 1.000000
0.486275 0.387745 1.000000
0.528922 0.388235 1.000000
0.602451 0.394608 1.000000
0.684314 0.411275 1.000000
0.771568 0.436275 1.000000
0.856863 0.476471 1.000000
0.941177 0.541667 1.000000
1.000000 0.564216 1.000000
0.465687 0.449019 1.000000
0.482353 0.450000 1.000000
0.528431 0.453921 1.000000
0.597059 0.464706 1.000000
0.679412 0.480392 1.000000
0.766176 0.506373 1.000000
0.849020 0.551961 1.000000
0.933823 0.602942 1.000000
1.000000 0.609804 1.000000
0.440686 0.531863 1.000000
0.466667 0.539706 1.000000
0.514216 0.546569 1.000000
0.582843 0.555392 1.000000
0.668627 0.575000 1.000000
0.753432 0.600000 1.000000
0.844117 0.630882 1.000000
0.929902 0.665686 1.000000
1.000000 0.669118 1.000000
0.394118 0.627451 1.000000
0.424999 0.631373 1.000000
0.477451 0.635294 1.000000
0.559804 0.645098 1.000000
0.650980 0.658824 1.000000
0.746569 0.676470 1.000000
0.840196 0.697059 1.000000
0.927941 0.725491 1.000000
1.000000 0.723529 1.000000
0.316177 0.707353 1.000000
0.356862 0.713236 1.000000
0.417156 0.711275 1.000000
0.508333 0.712745 1.000000
0.622059 0.723529 1.000000
0.734804 0.734804 1.000000
0.840196 0.756863 1.000000
0.929902 0.777941 1.000000
1.000000 0.785784 1.000000
0.380393 0.793137 1.000000
0.402451 0.793137 1.000000
0.437256 0.792156 1.000000
0.494608 0.783824 1.000000
0.571568 0.781373 1.000000
0.703431 0.785294 1.000000
0.829412 0.808823 1.000000
0.933823 0.840196 1.000000
1.000000 0.849020 1.000000
0.522549 0.883333 1.000000
0.530392 0.882843 1.000000
0.561274 0.882843 1.000000
0.600490 0.880392 1.000000
0.655882 0.879412 1.000000
0.723530 0.878921 1.000000
0.796568 0.867647 1.000000
0.921569 0.894608 1.000000
1.000000 0.925980 1.000000
0.631373 0.980392 0.996078
0.639216 0.980392 0.996078
0.658824 0.980392 1.000000
0.690196 0.981863 0.997549
0.733333 0.984314 0.998039
0.787255 0.984314 0.997549
0.851961 0.988235 0.997059
0.922059 0.992157 1.000000
1.000000 1.000000 1.000000
