Color/Polaroid/Polaroid PX-70 Cold 1 -- 65x.cube
TITLE "Polaroid PX-70 Cold 1 --"
LUT_3D_SIZE 65
DOMAIN_MIN 0.000000 0.000000 0.000000
DOMAIN_MAX 1.000000 1.000000 1.000000
0.000000 0.000000 0.000000
0.003003 0.000000 0.000000
0.003922 0.003922 0.001838
0.003922 0.001164 0.001164
0.007843 0.003922 0.000000
0.011765 0.003922 0.003922
0.017279 0.009436 0.007843
0.022120 0.010356 0.003922
0.030392 0.015196 0.007843
0.035723 0.015686 0.007843
0.044485 0.020956 0.011765
0.049326 0.025796 0.011765
0.061274 0.030638 0.014951
0.070772 0.035294 0.015686
0.083456 0.038113 0.015686
0.096262 0.041238 0.017708
0.108823 0.043137 0.019608
0.125367 0.046998 0.019608
0.145956 0.050122 0.023529
0.166115 0.052757 0.025306
0.188480 0.054902 0.027451
0.207230 0.050980 0.023835
0.233211 0.050980 0.027451
0.259498 0.050980 0.028983
0.288235 0.050980 0.031373
0.315441 0.047059 0.031373
0.346201 0.046691 0.039216
0.372487 0.041850 0.039216
0.402696 0.037010 0.040931
0.432904 0.035294 0.043137
0.463235 0.031373 0.043260
0.493321 0.030331 0.049938
0.523529 0.031373 0.050980
0.553738 0.035294 0.054902
0.580147 0.035417 0.055025
0.610233 0.047855 0.054902
0.640441 0.060539 0.062745
0.664094 0.073223 0.062745
0.689093 0.089461 0.062745
0.711458 0.103064 0.062745
0.736274 0.124510 0.066667
0.757720 0.139644 0.066667
0.782476 0.159559 0.066667
0.800919 0.177390 0.066973
0.822059 0.198529 0.070588
0.839583 0.216054 0.068811
0.857108 0.236642 0.070588
0.878492 0.255025 0.070588
0.892157 0.273529 0.067647
0.905760 0.291973 0.070588
0.923284 0.311520 0.073407
0.937071 0.329044 0.074510
0.950491 0.346569 0.075245
0.964093 0.365747 0.080086
0.977696 0.381618 0.084927
0.991299 0.399142 0.089767
1.000000 0.412745 0.090686
1.000000 0.428860 0.098039
1.000000 0.443873 0.104289
1.000000 0.457476 0.113051
1.000000 0.470833 0.117892
1.000000 0.480760 0.126654
1.000000 0.496201 0.135417
1.000000 0.507966 0.144179
1.000000 0.517647 0.152941
0.000000 0.004841 0.000000
0.000000 0.007843 0.003003
0.000000 0.004841 0.000000
0.003922 0.007843 0.000000
0.010600 0.014523 0.003003
0.015686 0.011765 0.003922
0.017279 0.013358 0.003922
0.022120 0.012684 0.003922
0.027451 0.016605 0.003922
0.035723 0.020956 0.007843
0.044485 0.024448 0.007843
0.050245 0.030637 0.010110
0.062010 0.038481 0.014951
0.070037 0.035478 0.011030
0.081740 0.041422 0.013787
0.098162 0.044056 0.016605
0.111764 0.046997 0.018627
0.129289 0.050980 0.019608
0.146814 0.051838 0.020466
0.169118 0.054902 0.023529
0.188480 0.057598 0.026225
0.208149 0.052206 0.020833
0.237132 0.058824 0.031373
0.260417 0.055821 0.027451
0.289706 0.053370 0.031373
0.315993 0.051899 0.031373
0.346201 0.050980 0.034742
0.373407 0.046691 0.036213
0.402696 0.047059 0.039216
0.436030 0.041054 0.040135
0.463235 0.040135 0.047059
0.494363 0.040135 0.047059
0.523529 0.041054 0.050980
0.553738 0.044056 0.053983
0.583824 0.048775 0.051899
0.610233 0.057537 0.054902
0.636520 0.069302 0.058824
0.660172 0.078983 0.058824
0.689093 0.098223 0.059743
0.714829 0.115196 0.062745
0.736826 0.129902 0.065748
0.757720 0.145956 0.065748
0.782476 0.164400 0.066667
0.800613 0.181924 0.066667
0.822059 0.202451 0.066667
0.839583 0.219975 0.066667
0.857108 0.238419 0.066667
0.874633 0.255086 0.065809
0.892157 0.277390 0.067586
0.907782 0.297917 0.070588
0.920466 0.312438 0.067770
0.940625 0.336704 0.074326
0.949755 0.350491 0.074510
0.964093 0.368015 0.078431
0.973468 0.382537 0.079350
0.991299 0.402635 0.092341
1.000000 0.417095 0.090686
1.000000 0.430270 0.098529
1.000000 0.443873 0.104289
1.000000 0.458150 0.112133
1.000000 0.470159 0.116973
1.000000 0.487684 0.126899
1.000000 0.497121 0.135417
1.000000 0.508885 0.144179
1.000000 0.517647 0.152941
0.000000 0.011519 0.005760
0.000000 0.008762 0.001838
0.000000 0.013603 0.003922
0.002758 0.013603 0.001838
0.007598 0.017280 0.003677
0.011765 0.016850 0.003248
0.017279 0.017524 0.001593
0.022120 0.017524 0.003922
0.030883 0.026961 0.009436
0.035723 0.027880 0.007843
0.044485 0.031373 0.007843
0.051593 0.035907 0.010110
0.060172 0.038481 0.013113
0.072856 0.043137 0.013848
0.082475 0.044975 0.015686
0.096140 0.046875 0.015686
0.110661 0.049877 0.016667
0.129289 0.054902 0.019608
0.147672 0.055760 0.020466
0.166115 0.056740 0.021385
0.189706 0.057966 0.023529
0.210846 0.062439 0.023529
0.238358 0.060662 0.027451
0.263419 0.063051 0.031679
0.289706 0.058211 0.031373
0.318076 0.058824 0.033456
0.346201 0.054902 0.035294
0.376409 0.055454 0.039216
0.402328 0.050612 0.039216
0.432904 0.048897 0.044424
0.463235 0.048897 0.041421
0.497243 0.048897 0.049938
0.523529 0.048897 0.048897
0.551654 0.053616 0.050980
0.580024 0.060539 0.052818
0.610233 0.070343 0.059866
0.636520 0.078064 0.056618
0.662807 0.090748 0.058824
0.685540 0.103064 0.058824
0.711458 0.121875 0.062745
0.736274 0.134191 0.062745
0.760110 0.151716 0.064583
0.779167 0.169240 0.063358
0.800613 0.186765 0.063051
0.822059 0.206373 0.064829
0.839583 0.223897 0.064522
0.857108 0.240196 0.063603
0.874633 0.262623 0.066667
0.892157 0.282230 0.068750
0.909742 0.299816 0.070649
0.923284 0.315441 0.069485
0.936887 0.331066 0.070588
0.951594 0.352329 0.074510
0.964277 0.369853 0.076348
0.977696 0.388113 0.081005
0.991299 0.403064 0.087930
1.000000 0.416666 0.088848
1.000000 0.432108 0.095527
1.000000 0.447794 0.104289
1.000000 0.461397 0.109130
1.000000 0.471078 0.116054
1.000000 0.484681 0.126654
1.000000 0.500368 0.135662
1.000000 0.511888 0.143260
1.000000 0.521569 0.152941
0.000000 0.018444 0.006679
0.000000 0.024203 0.009681
0.000000 0.017524 0.003922
0.000000 0.021201 0.006679
0.003677 0.021201 0.002758
0.008517 0.020282 0.003922
0.013358 0.021201 0.003922
0.019363 0.026287 0.003922
0.031557 0.030883 0.003922
0.035723 0.034130 0.004351
0.041728 0.035294 0.006434
0.050490 0.039216 0.007353
0.062010 0.041973 0.010601
0.073529 0.048652 0.014522
0.083456 0.049816 0.012929
0.098162 0.053738 0.015686
0.111764 0.053738 0.015686
0.129289 0.059927 0.020711
0.149571 0.061581 0.019608
0.168260 0.063725 0.023529
0.191176 0.061520 0.023529
0.214767 0.066361 0.028309
0.239889 0.065503 0.027451
0.263419 0.062745 0.027451
0.289706 0.062745 0.029902
0.320527 0.066115 0.034743
0.346569 0.061581 0.038052
0.376409 0.061581 0.036581
0.404902 0.058824 0.039216
0.436030 0.057660 0.042341
0.467035 0.057660 0.043137
0.496078 0.057660 0.044179
0.522733 0.056863 0.048223
0.552574 0.064461 0.053860
0.584988 0.070465 0.055944
0.610233 0.074142 0.054902
0.636520 0.084620 0.056618
0.662807 0.095466 0.058824
0.689093 0.111826 0.058824
0.711458 0.125429 0.059375
0.732537 0.142954 0.062745
0.757720 0.157720 0.062745
0.778554 0.174081 0.062745
0.803370 0.191912 0.063051
0.818137 0.209130 0.062745
0.839583 0.230576 0.064890
0.857108 0.245037 0.062745
0.878492 0.266790 0.063909
0.891177 0.286090 0.065686
0.905760 0.299816 0.066667
0.920466 0.319363 0.066667
0.938051 0.340808 0.070588
0.950491 0.357169 0.074510
0.965196 0.371936 0.074510
0.977696 0.388113 0.081005
0.987806 0.403064 0.083088
1.000000 0.420098 0.090196
1.000000 0.435540 0.096875
1.000000 0.447794 0.099939
1.000000 0.460907 0.105882
1.000000 0.477513 0.120405
1.000000 0.485846 0.123897
1.000000 0.498285 0.131495
1.000000 0.512807 0.141176
1.000000 0.521569 0.151777
0.000000 0.023284 0.007843
0.000000 0.026286 0.010600
0.000000 0.027206 0.007843
0.000000 0.027206 0.008762
0.000000 0.027206 0.007598
0.004596 0.031128 0.003922
0.009682 0.035049 0.006250
0.014522 0.035049 0.003922
0.026961 0.038481 0.007353
0.032046 0.038971 0.003922
0.044485 0.042892 0.007843
0.051593 0.041483 0.007843
0.062010 0.050000 0.011030
0.074694 0.050980 0.011765
0.083456 0.054657 0.014583
0.098162 0.056924 0.015686
0.112745 0.058824 0.015686
0.129289 0.062684 0.015686
0.153555 0.066422 0.022671
0.170037 0.064522 0.021385
0.188726 0.066667 0.019853
0.214828 0.066667 0.023529
0.237132 0.066667 0.020465
0.263419 0.070343 0.027451
0.289706 0.066667 0.026225
0.319363 0.070343 0.031373
0.350123 0.070343 0.035294
0.376409 0.069057 0.035294
0.406618 0.068138 0.039216
0.436030 0.066422 0.042341
0.463235 0.062623 0.046814
0.496997 0.066422 0.047059
0.523529 0.070343 0.045344
0.553738 0.074265 0.050980
0.580269 0.078308 0.051225
0.613113 0.082905 0.054902
0.636520 0.095588 0.055147
0.662807 0.109314 0.058824
0.689093 0.120589 0.058701
0.707782 0.133640 0.058824
0.736274 0.147793 0.059069
0.757720 0.166605 0.064032
0.779167 0.179167 0.062745
0.796997 0.193076 0.062745
0.822059 0.217892 0.065441
0.839583 0.231740 0.061213
0.857108 0.252941 0.062745
0.874633 0.274325 0.066606
0.889216 0.285294 0.060049
0.905760 0.305515 0.062990
0.918505 0.322181 0.066667
0.936887 0.340808 0.070649
0.953432 0.355147 0.074265
0.960417 0.372182 0.068811
0.974020 0.389461 0.074755
0.987806 0.406985 0.081924
1.000000 0.423775 0.089951
1.000000 0.434192 0.091605
1.000000 0.451471 0.100368
1.000000 0.460968 0.104779
1.000000 0.478432 0.113970
1.000000 0.491116 0.122733
1.000000 0.503799 0.131495
1.000000 0.511888 0.139583
1.000000 0.525245 0.152696
0.000000 0.032721 0.011765
0.000000 0.035968 0.012439
0.000000 0.035968 0.011765
0.000000 0.038725 0.014522
0.000000 0.035968 0.008517
0.000674 0.039890 0.008517
0.005515 0.040564 0.006924
0.014277 0.040564 0.007108
0.019608 0.043811 0.007843
0.031802 0.047733 0.007843
0.040564 0.047733 0.004596
0.051593 0.051654 0.007843
0.065196 0.058089 0.011030
0.070956 0.055760 0.008027
0.084559 0.059927 0.011765
0.100061 0.061397 0.013664
0.115686 0.066360 0.017953
0.136396 0.070527 0.018934
0.150736 0.067341 0.018934
0.170711 0.071262 0.021385
0.193076 0.073958 0.022304
0.218689 0.075184 0.023529
0.241054 0.075123 0.023468
0.267341 0.075184 0.027451
0.293627 0.073407 0.027451
0.319915 0.075184 0.034069
0.346569 0.075184 0.032047
0.380944 0.075184 0.035294
0.406618 0.075184 0.035294
0.436826 0.075184 0.042341
0.467035 0.078982 0.043137
0.497243 0.075858 0.044179
0.528738 0.081066 0.047059
0.553738 0.085907 0.050980
0.580024 0.090748 0.054105
0.606986 0.096385 0.051777
0.636520 0.106066 0.054902
0.662807 0.117034 0.054902
0.688419 0.125797 0.058150
0.710907 0.139032 0.054779
0.733027 0.156556 0.058824
0.754473 0.170160 0.058824
0.775858 0.184374 0.062071
0.796997 0.201961 0.058824
0.818137 0.222059 0.062071
0.835662 0.236336 0.058824
0.856433 0.257108 0.062071
0.874633 0.275307 0.059498
0.891483 0.293137 0.062071
0.905760 0.311581 0.063970
0.922611 0.327206 0.062745
0.933149 0.341667 0.062745
0.949755 0.362255 0.066667
0.963419 0.376532 0.071568
0.975123 0.397304 0.074510
0.984558 0.407659 0.075184
1.000000 0.424510 0.086949
1.000000 0.437377 0.091605
1.000000 0.454044 0.096446
1.000000 0.462746 0.105208
1.000000 0.479350 0.114399
1.000000 0.488113 0.118811
1.000000 0.504044 0.131495
1.000000 0.513480 0.137009
1.000000 0.522243 0.145772
0.000000 0.044730 0.015686
0.000000 0.044730 0.015686
0.000000 0.044485 0.015441
0.000000 0.047487 0.015686
0.000000 0.047059 0.015686
0.000000 0.048652 0.011765
0.001593 0.050245 0.009436
0.008762 0.050245 0.006924
0.017524 0.052573 0.007843
0.027880 0.058088 0.012929
0.036397 0.056250 0.007843
0.045404 0.060417 0.007843
0.062010 0.064338 0.009436
0.074694 0.064338 0.010172
0.088971 0.065441 0.011765
0.102083 0.068260 0.011765
0.114338 0.072181 0.015686
0.139400 0.078370 0.015686
0.152329 0.076103 0.017279
0.172181 0.078247 0.019608
0.191299 0.080024 0.019608
0.222304 0.083640 0.023223
0.245956 0.083946 0.023529
0.269731 0.082353 0.025858
0.293627 0.081495 0.027451
0.322243 0.082353 0.029780
0.350123 0.083946 0.034926
0.377696 0.083946 0.035294
0.406618 0.083946 0.035294
0.436826 0.087071 0.039216
0.467035 0.083946 0.037746
0.497794 0.087868 0.043137
0.523529 0.089829 0.043137
0.556617 0.097549 0.051225
0.583824 0.097304 0.053186
0.607108 0.105944 0.050980
0.636642 0.114829 0.052696
0.661213 0.125797 0.055944
0.685172 0.132598 0.054902
0.712500 0.149387 0.056495
0.733823 0.165318 0.054779
0.753003 0.178125 0.056434
0.778554 0.196446 0.060540
0.795404 0.208762 0.053615
0.818137 0.227573 0.056128
0.835662 0.245098 0.057231
0.856250 0.262623 0.056495
0.874633 0.280146 0.058824
0.891177 0.297672 0.058824
0.905760 0.315196 0.058824
0.923284 0.335049 0.063970
0.930821 0.346507 0.061152
0.946569 0.363848 0.063480
0.962500 0.379718 0.066667
0.975123 0.396324 0.070588
0.989706 0.414828 0.082230
1.000000 0.428431 0.082843
1.000000 0.442035 0.090012
1.000000 0.454902 0.094118
1.000000 0.469240 0.103616
1.000000 0.478921 0.110049
1.000000 0.495282 0.121569
1.000000 0.505637 0.129657
1.000000 0.517402 0.139338
1.000000 0.527083 0.146691
0.000000 0.056005 0.018199
0.000000 0.056005 0.016605
0.000000 0.055331 0.019608
0.000000 0.057415 0.019608
0.000000 0.056005 0.018199
0.000000 0.057415 0.015686
0.000000 0.062255 0.016605
0.003922 0.059926 0.011765
0.012684 0.065258 0.014277
0.021445 0.065258 0.011765
0.030209 0.069179 0.011765
0.045404 0.071446 0.011765
0.058763 0.073101 0.011765
0.068444 0.073101 0.005514
0.087378 0.075919 0.013174
0.103983 0.077022 0.011765
0.115257 0.077022 0.011765
0.133210 0.082292 0.011765
0.151593 0.079289 0.014031
0.173958 0.084866 0.017095
0.196140 0.084866 0.019608
0.217586 0.087377 0.019608
0.242463 0.088787 0.021017
0.269853 0.088787 0.023529
0.293627 0.088787 0.023468
0.322426 0.091299 0.030821
0.356189 0.092709 0.031373
0.380331 0.092709 0.031373
0.410539 0.096936 0.035294
0.436826 0.092096 0.035294
0.467035 0.096630 0.039216
0.494363 0.099142 0.040258
0.525490 0.102512 0.042585
0.556617 0.107353 0.047427
0.583946 0.110906 0.047059
0.610233 0.120956 0.050980
0.637316 0.125797 0.050980
0.662929 0.138603 0.052389
0.684131 0.147243 0.050980
0.713419 0.162439 0.054902
0.731312 0.171568 0.052389
0.755208 0.189216 0.053921
0.778554 0.205208 0.055699
0.800613 0.222427 0.058518
0.815441 0.233824 0.052389
0.835662 0.251348 0.054167
0.856250 0.270527 0.054902
0.877084 0.291361 0.054902
0.891176 0.305454 0.057844
0.905760 0.319424 0.054289
0.919363 0.337561 0.054902
0.934375 0.355086 0.060050
0.949755 0.374387 0.062745
0.962439 0.382843 0.064154
0.973775 0.401226 0.066728
0.987806 0.418750 0.075491
1.000000 0.431863 0.079840
1.000000 0.447058 0.088787
1.000000 0.459743 0.092525
1.000000 0.473162 0.101287
1.000000 0.485110 0.109804
1.000000 0.497795 0.117402
1.000000 0.507966 0.125061
1.000000 0.519731 0.136336
1.000000 0.531924 0.147611
0.000000 0.066177 0.019608
0.000000 0.066177 0.026041
0.000000 0.064094 0.023039
0.000000 0.065013 0.019608
0.000000 0.066177 0.019608
0.000000 0.070098 0.019608
0.000000 0.073530 0.021446
0.000000 0.070098 0.015686
0.003922 0.070588 0.015686
0.012683 0.074020 0.011765
0.022794 0.077941 0.011765
0.037561 0.081373 0.011765
0.054167 0.085295 0.015931
0.063788 0.082047 0.011765
0.084559 0.088113 0.011765
0.103492 0.089216 0.015196
0.116176 0.085785 0.011765
0.136642 0.089644 0.011765
0.158579 0.090196 0.015686
0.177880 0.093628 0.014031
0.199755 0.097059 0.018382
0.222426 0.097549 0.019608
0.244975 0.094731 0.016790
0.271262 0.100981 0.023529
0.297549 0.100000 0.023529
0.327819 0.101471 0.027451
0.354044 0.105392 0.031373
0.378186 0.101961 0.029229
0.410539 0.105392 0.031863
0.440747 0.108824 0.035294
0.467157 0.109314 0.039216
0.497243 0.112745 0.036827
0.525490 0.109804 0.037746
0.553738 0.120588 0.043137
0.580147 0.124510 0.043260
0.612868 0.132353 0.047059
0.630883 0.138480 0.045344
0.658885 0.145956 0.047059
0.689216 0.160049 0.051103
0.710907 0.172610 0.054350
0.733823 0.186275 0.049019
0.753799 0.197978 0.052512
0.775245 0.210540 0.051593
0.800122 0.227573 0.050980
0.815441 0.245098 0.050980
0.834376 0.257414 0.049693
0.853186 0.276225 0.050980
0.867340 0.293750 0.050980
0.890687 0.313725 0.050980
0.903860 0.325368 0.053002
0.919363 0.341789 0.050367
0.933149 0.360416 0.054902
0.946569 0.374020 0.056128
0.959007 0.393320 0.059314
0.973775 0.408579 0.065319
0.987377 0.422671 0.070649
0.996568 0.432353 0.078431
1.000000 0.448468 0.082843
1.000000 0.464584 0.089093
1.000000 0.473162 0.093934
1.000000 0.482843 0.102695
0.997242 0.496446 0.109190
1.000000 0.510049 0.123652
1.000000 0.520650 0.132904
1.000000 0.532843 0.145098
0.000000 0.078860 0.023958
0.000000 0.078860 0.027941
0.000000 0.075368 0.023958
0.000000 0.075368 0.027451
0.000000 0.078860 0.027451
0.000000 0.078615 0.026777
0.000000 0.082782 0.025122
0.000000 0.082782 0.023529
0.000000 0.079780 0.016606
0.003493 0.086704 0.019179
0.014032 0.087133 0.016115
0.031127 0.090625 0.015686
0.045588 0.091054 0.012194
0.063113 0.094731 0.011949
0.080208 0.094976 0.011091
0.099755 0.098468 0.015257
0.115686 0.098468 0.009253
0.133639 0.098897 0.012194
0.155515 0.099326 0.011765
0.180025 0.102390 0.015686
0.200245 0.105086 0.017953
0.222916 0.105882 0.015686
0.248897 0.106127 0.019608
0.275184 0.106740 0.018505
0.301470 0.112684 0.023529
0.324265 0.110662 0.023529
0.354044 0.114154 0.027451
0.380760 0.114154 0.027451
0.412745 0.114583 0.031373
0.443444 0.121201 0.034498
0.470527 0.121998 0.034865
0.497243 0.122427 0.035294
0.527023 0.125919 0.038787
0.553738 0.130270 0.039216
0.580024 0.134191 0.039216
0.606312 0.142402 0.043505
0.634314 0.151593 0.043137
0.662378 0.160355 0.046630
0.685172 0.172243 0.046630
0.706985 0.181924 0.046630
0.734865 0.195527 0.048101
0.753799 0.209130 0.049020
0.778125 0.229535 0.049939
0.796691 0.236765 0.047059
0.814216 0.253431 0.046630
0.830024 0.267463 0.040993
0.855821 0.284987 0.043137
0.870711 0.298223 0.042769
0.887255 0.315564 0.045650
0.901838 0.333640 0.043137
0.916544 0.351164 0.047059
0.936458 0.368259 0.053860
0.945833 0.381863 0.051286
0.960172 0.395895 0.056128
0.971201 0.412990 0.060969
0.983885 0.427023 0.062745
0.996568 0.440135 0.071078
1.000000 0.452818 0.080821
1.000000 0.467402 0.082353
1.000000 0.481005 0.093444
1.000000 0.490257 0.101593
1.000000 0.504289 0.110968
1.000000 0.517464 0.125307
1.000000 0.524571 0.131986
1.000000 0.536826 0.140747
0.000000 0.088971 0.027451
0.000000 0.088971 0.028799
0.000000 0.091544 0.031373
0.000000 0.086213 0.026042
0.000000 0.091300 0.028799
0.000000 0.091544 0.030699
0.000000 0.091299 0.027206
0.000000 0.092892 0.027451
0.000000 0.093382 0.024877
0.000000 0.095895 0.020037
0.003922 0.100735 0.020956
0.017218 0.103002 0.017034
0.038970 0.107230 0.016421
0.057843 0.107230 0.015686
0.075368 0.108333 0.015686
0.096814 0.112500 0.015686
0.114338 0.111152 0.015686
0.133210 0.108639 0.011826
0.158089 0.112010 0.015686
0.180025 0.115073 0.015686
0.204166 0.112500 0.013113
0.226532 0.115073 0.017953
0.252206 0.118995 0.018260
0.275184 0.118995 0.018260
0.301470 0.118995 0.019608
0.327758 0.122365 0.019608
0.354412 0.123285 0.022549
0.384252 0.126838 0.027451
0.409682 0.128186 0.027451
0.445650 0.131311 0.033150
0.468383 0.132108 0.031373
0.497243 0.136029 0.031067
0.525490 0.140564 0.035294
0.553738 0.143872 0.035294
0.577573 0.147794 0.035417
0.610784 0.159559 0.039216
0.632598 0.163480 0.039216
0.657598 0.173958 0.039216
0.681618 0.184927 0.041789
0.707536 0.194608 0.041789
0.729902 0.208211 0.043260
0.753799 0.221814 0.041789
0.772672 0.235417 0.039829
0.797733 0.248714 0.042831
0.814216 0.262623 0.041789
0.833885 0.275429 0.037071
0.849264 0.293750 0.037868
0.865503 0.306066 0.037868
0.887255 0.323530 0.037500
0.901838 0.342954 0.042341
0.918014 0.358578 0.040441
0.929228 0.369792 0.041789
0.945833 0.385785 0.045711
0.958517 0.403309 0.049632
0.972426 0.416912 0.053554
0.981312 0.431862 0.058824
0.996568 0.444117 0.065809
1.000000 0.457721 0.071997
1.000000 0.471324 0.081005
1.000000 0.479106 0.086275
1.000000 0.494363 0.095833
1.000000 0.504289 0.105698
1.000000 0.515809 0.118382
1.000000 0.527574 0.128799
1.000000 0.535907 0.135907
0.000000 0.104228 0.035294
0.000000 0.101225 0.033640
0.000000 0.104657 0.035723
0.000000 0.102573 0.033640
0.000000 0.104228 0.035294
0.000000 0.105821 0.031373
0.000000 0.104228 0.033701
0.000000 0.106495 0.032230
0.000000 0.108149 0.030883
0.000000 0.108578 0.029718
0.000000 0.109497 0.025796
0.003922 0.115992 0.023529
0.021446 0.115073 0.018689
0.051348 0.122181 0.021692
0.070527 0.121017 0.016789
0.090074 0.124204 0.017953
0.111764 0.123162 0.015012
0.134803 0.131617 0.021201
0.155515 0.127757 0.015686
0.180025 0.128248 0.016176
0.201471 0.127757 0.015686
0.231802 0.131372 0.017034
0.252818 0.127757 0.015686
0.279841 0.130024 0.018076
0.301287 0.130024 0.015686
0.330024 0.135049 0.019608
0.357966 0.137867 0.023529
0.386519 0.137867 0.023529
0.412745 0.141728 0.023468
0.440747 0.141789 0.027451
0.470956 0.147365 0.029106
0.499510 0.149632 0.031373
0.525184 0.153248 0.029106
0.553738 0.157475 0.031373
0.583824 0.165196 0.036826
0.606312 0.170037 0.033027
0.634804 0.178799 0.037500
0.656250 0.184926 0.036949
0.679963 0.196324 0.035294
0.703615 0.205637 0.035294
0.728431 0.220220 0.037745
0.752267 0.230576 0.037071
0.772365 0.244179 0.034682
0.790809 0.257782 0.033027
0.812990 0.271385 0.031801
0.831740 0.289032 0.033027
0.850919 0.302512 0.033027
0.870649 0.322243 0.035233
0.884314 0.333640 0.030086
0.897917 0.347242 0.029106
0.917095 0.364767 0.035845
0.929228 0.376899 0.033027
0.943566 0.393628 0.036949
0.956250 0.407231 0.040257
0.969547 0.423100 0.047059
0.985110 0.438358 0.052635
0.994915 0.449817 0.059314
1.000000 0.461643 0.069730
1.000000 0.475183 0.076838
1.000000 0.488848 0.083333
1.000000 0.500551 0.094363
1.000000 0.513235 0.104779
1.000000 0.521997 0.115809
1.000000 0.530759 0.125306
1.000000 0.541176 0.134988
0.000000 0.116912 0.039216
0.000000 0.116176 0.038481
0.000000 0.116912 0.039216
0.000000 0.117340 0.039216
0.000000 0.116912 0.039216
0.000000 0.113665 0.035968
0.000000 0.116912 0.036887
0.000000 0.120098 0.035294
0.000000 0.120834 0.035294
0.000000 0.124019 0.037316
0.000000 0.127941 0.033211
0.000000 0.127941 0.028370
0.003922 0.131862 0.026716
0.029473 0.128860 0.022794
0.064951 0.141788 0.024877
0.086397 0.139705 0.019608
0.107598 0.140441 0.016421
0.129289 0.143627 0.019608
0.157843 0.143627 0.018873
0.180025 0.143627 0.015686
0.204166 0.143137 0.015686
0.226103 0.143627 0.015686
0.252818 0.143627 0.015686
0.280760 0.143627 0.017340
0.305392 0.144363 0.015686
0.330943 0.146998 0.015686
0.357966 0.144730 0.016421
0.386887 0.152206 0.020343
0.414461 0.155392 0.023529
0.440747 0.155331 0.023529
0.467157 0.159436 0.020465
0.495098 0.161091 0.024264
0.522304 0.165931 0.024264
0.553738 0.175000 0.028493
0.580024 0.178799 0.028064
0.603922 0.181250 0.031373
0.634804 0.194607 0.033579
0.659436 0.201165 0.031373
0.681618 0.206372 0.027819
0.710171 0.225245 0.031373
0.726715 0.232108 0.028922
0.748345 0.239338 0.026654
0.770588 0.252696 0.027328
0.792770 0.270160 0.028186
0.808333 0.278187 0.024264
0.832782 0.298713 0.024264
0.849264 0.311275 0.024264
0.866790 0.328737 0.027390
0.883333 0.341422 0.023285
0.899939 0.358027 0.025551
0.915441 0.373530 0.023161
0.929044 0.387132 0.024264
0.942647 0.400735 0.028922
0.956250 0.414338 0.033762
0.971201 0.428677 0.039951
0.979963 0.441973 0.043872
0.996568 0.458578 0.058824
1.000000 0.465564 0.060968
1.000000 0.479167 0.069730
1.000000 0.489461 0.078492
1.000000 0.502206 0.087254
1.000000 0.514890 0.099939
1.000000 0.526839 0.111887
1.000000 0.535601 0.120650
1.000000 0.548285 0.133333
0.000000 0.133517 0.047059
0.000000 0.132782 0.043321
0.000000 0.128125 0.043321
0.000000 0.130944 0.044486
0.000000 0.133456 0.046997
0.000000 0.130454 0.047733
0.000000 0.135110 0.048652
0.000000 0.136213 0.043505
0.000000 0.140871 0.043321
0.000000 0.137623 0.042892
0.000000 0.142708 0.038052
0.000000 0.143811 0.035478
0.000000 0.142280 0.032291
0.007843 0.145466 0.027635
0.039338 0.150490 0.027635
0.072365 0.151287 0.021691
0.105699 0.153492 0.019792
0.129044 0.160908 0.019608
0.151593 0.157414 0.018934
0.176103 0.161152 0.019608
0.206678 0.163848 0.022121
0.226532 0.161152 0.015686
0.253431 0.161764 0.015686
0.279106 0.161152 0.015686
0.305392 0.161152 0.009498
0.331863 0.161152 0.011949
0.358150 0.161152 0.015502
0.385539 0.162439 0.016789
0.414461 0.165074 0.017708
0.437807 0.165869 0.016300
0.470956 0.172917 0.019424
0.501164 0.176839 0.018566
0.527451 0.180760 0.019608
0.553738 0.187561 0.023345
0.583639 0.192217 0.026961
0.606312 0.196446 0.023345
0.632598 0.205822 0.023345
0.658885 0.217218 0.023345
0.677696 0.223346 0.023345
