Color/Polaroid/Polaroid PX-70 1 -- 65x.cube
TITLE "Polaroid PX-70 1 --"
LUT_3D_SIZE 65
DOMAIN_MIN 0.000000 0.000000 0.000000
DOMAIN_MAX 1.000000 1.000000 1.000000
0.000000 0.000000 0.000000
0.000000 0.000000 0.000000
0.000000 0.003922 0.003922
0.000000 0.001164 0.001164
0.000000 0.003922 0.000000
0.000000 0.004596 0.003922
0.000000 0.011765 0.007843
0.000000 0.011765 0.007843
0.000000 0.015196 0.011275
0.003922 0.016115 0.011765
0.013113 0.020956 0.013113
0.017953 0.023529 0.014032
0.030638 0.027451 0.018873
0.043505 0.031373 0.019608
0.059927 0.031373 0.019608
0.074632 0.033395 0.025551
0.089216 0.035294 0.023529
0.105759 0.035294 0.027390
0.127206 0.038358 0.031373
0.148284 0.037071 0.033150
0.172794 0.036520 0.035294
0.191544 0.031679 0.035294
0.217524 0.031373 0.039829
0.243811 0.027451 0.043137
0.270098 0.025000 0.045588
0.296385 0.020159 0.047059
0.330147 0.019240 0.054902
0.356801 0.010478 0.054902
0.384804 0.005637 0.058824
0.416422 0.000000 0.061949
0.443627 0.000000 0.062868
0.477635 0.000000 0.066667
0.507844 0.000000 0.068628
0.538051 0.000000 0.070588
0.564461 0.000000 0.070711
0.595343 0.000000 0.074510
0.628676 0.009559 0.078431
0.654964 0.022242 0.075797
0.681250 0.045956 0.078431
0.707536 0.067770 0.078431
0.732353 0.089216 0.078431
0.753799 0.110661 0.076042
0.779167 0.132108 0.078431
0.796997 0.153860 0.074816
0.820833 0.178922 0.078431
0.837806 0.198591 0.076654
0.853186 0.217892 0.074510
0.874510 0.243198 0.074510
0.884314 0.261765 0.074510
0.897917 0.280209 0.070588
0.911519 0.302573 0.073407
0.921569 0.317463 0.070772
0.934068 0.338726 0.074510
0.946753 0.360172 0.076164
0.955515 0.377696 0.078431
0.964277 0.394791 0.081924
0.972549 0.408823 0.082353
0.980392 0.426348 0.087684
0.988971 0.442279 0.092525
0.995404 0.457476 0.100613
1.000000 0.471078 0.105882
1.000000 0.484681 0.110968
1.000000 0.500123 0.121569
1.000000 0.515809 0.131495
1.000000 0.525490 0.141176
0.000000 0.003922 0.000919
0.000000 0.007843 0.003922
0.000000 0.004841 0.000919
0.000000 0.007843 0.003922
0.000000 0.011520 0.003922
0.000000 0.011765 0.007843
0.000000 0.013358 0.008517
0.000000 0.012684 0.007843
0.000000 0.016605 0.007843
0.004841 0.020956 0.011765
0.013542 0.024877 0.013113
0.021139 0.029718 0.017953
0.034559 0.034559 0.019608
0.042769 0.031557 0.019608
0.058027 0.033395 0.020711
0.075551 0.036213 0.025551
0.092157 0.036213 0.026471
0.106741 0.039216 0.027451
0.128064 0.040074 0.031312
0.150429 0.039216 0.036152
0.172794 0.038909 0.036765
0.192463 0.039216 0.032598
0.221446 0.039522 0.043137
0.244731 0.032292 0.043137
0.274019 0.029841 0.047059
0.300307 0.027451 0.047059
0.326961 0.019608 0.050428
0.356434 0.015318 0.054902
0.387010 0.010478 0.058824
0.414216 0.005637 0.061949
0.447427 0.004719 0.062745
0.477635 0.000919 0.066667
0.507844 -0.001042 0.067586
0.538051 -0.001961 0.070588
0.565257 0.004718 0.074387
0.598468 0.006557 0.074633
0.627757 0.020037 0.074510
0.651961 0.034559 0.072795
0.681250 0.056005 0.075429
0.707536 0.079902 0.078431
0.734375 0.098529 0.078982
0.753799 0.120894 0.076042
0.776164 0.137868 0.078431
0.797610 0.157782 0.074510
0.818137 0.182843 0.077206
0.838664 0.202512 0.074510
0.853186 0.222733 0.074510
0.866851 0.243321 0.070649
0.884314 0.264706 0.070527
0.899939 0.286152 0.073591
0.909619 0.303676 0.070588
0.925122 0.324939 0.074326
0.934068 0.342647 0.070404
0.947488 0.360172 0.074510
0.955515 0.376041 0.072856
0.964277 0.398713 0.081924
0.973039 0.413174 0.082843
0.980882 0.429351 0.086275
0.986642 0.443873 0.092525
0.995404 0.458150 0.100367
1.000000 0.474755 0.105208
1.000000 0.488603 0.113970
1.000000 0.501041 0.118566
1.000000 0.516728 0.131496
1.000000 0.526409 0.137255
0.000000 0.009681 0.005760
0.000000 0.009681 0.003922
0.000000 0.013603 0.005760
0.000000 0.010846 0.003003
0.000000 0.013603 0.007598
0.000000 0.016850 0.007169
0.000000 0.017524 0.005515
0.000000 0.017524 0.007843
0.000000 0.026961 0.013358
0.004351 0.029289 0.012194
0.013113 0.029289 0.016176
0.024142 0.031556 0.017953
0.033823 0.034559 0.015686
0.047427 0.039032 0.019608
0.061765 0.037132 0.021446
0.076532 0.039216 0.023529
0.093137 0.038113 0.024510
0.113602 0.043137 0.027451
0.128921 0.040074 0.028309
0.150429 0.041054 0.033211
0.174020 0.043137 0.035294
0.199081 0.042831 0.038910
0.223284 0.040442 0.044362
0.250123 0.039522 0.047365
0.273407 0.034681 0.047059
0.302390 0.031373 0.052512
0.330515 0.025367 0.051348
0.360723 0.024080 0.056740
0.387010 0.014951 0.056740
0.415135 0.013603 0.058824
0.445711 0.007843 0.061029
0.479473 0.009681 0.066667
0.505760 0.005637 0.066667
0.535968 0.007598 0.068505
0.568259 0.013480 0.070588
0.598468 0.023284 0.074510
0.626593 0.030637 0.074510
0.654964 0.050245 0.078431
0.681250 0.063848 0.074510
0.707536 0.087132 0.078431
0.732353 0.104902 0.076593
0.755637 0.126654 0.078431
0.777083 0.145711 0.075123
0.796997 0.163542 0.074510
0.818137 0.186765 0.077206
0.835662 0.206128 0.074510
0.853186 0.225735 0.071446
0.872487 0.249020 0.072426
0.887255 0.268628 0.072672
0.900000 0.288052 0.072672
0.911519 0.306495 0.070588
0.921385 0.325122 0.070588
0.934068 0.344485 0.070588
0.944669 0.362010 0.074510
0.953432 0.379534 0.077083
0.964277 0.399142 0.081924
0.973039 0.412745 0.081005
0.979719 0.428186 0.088113
0.990564 0.447794 0.092034
0.995404 0.461397 0.097365
1.000000 0.475000 0.104289
1.000000 0.488603 0.110294
1.000000 0.504289 0.121814
1.000000 0.518812 0.131495
1.000000 0.529412 0.137255
0.000000 0.014522 0.006679
0.000000 0.018444 0.010601
0.000000 0.018444 0.007843
0.000000 0.018444 0.010601
0.000000 0.018444 0.006679
0.000000 0.020282 0.007843
0.000000 0.021201 0.007843
0.000000 0.026287 0.007843
0.000000 0.030883 0.012439
0.007109 0.030637 0.014522
0.013113 0.029964 0.012929
0.021385 0.035294 0.015686
0.034559 0.038052 0.015257
0.050184 0.041973 0.022365
0.063848 0.041973 0.019608
0.081312 0.041238 0.023529
0.094914 0.041973 0.023529
0.113602 0.048162 0.027451
0.133885 0.045895 0.028309
0.155331 0.048039 0.034130
0.176715 0.045833 0.034007
0.203003 0.047059 0.040074
0.222059 0.045895 0.039829
0.250490 0.039216 0.043137
0.276471 0.039216 0.045588
0.304228 0.038052 0.051593
0.330883 0.034130 0.051348
0.360723 0.031679 0.056189
0.386458 0.023529 0.058824
0.417218 0.019240 0.061949
0.450184 0.018444 0.065503
0.480392 0.017280 0.063787
0.507047 0.013725 0.065871
0.540931 0.020159 0.069424
0.572059 0.026164 0.075552
0.598468 0.031005 0.073713
0.626471 0.044240 0.074510
0.654964 0.059007 0.074510
0.681250 0.076532 0.074510
0.707536 0.090687 0.074510
0.733823 0.113052 0.075980
0.753432 0.130269 0.075674
0.778554 0.150551 0.074510
0.796997 0.171997 0.077267
0.815441 0.187990 0.074510
0.838419 0.210355 0.074510
0.853186 0.232414 0.070282
0.867954 0.251103 0.071752
0.886275 0.274325 0.070773
0.897917 0.292831 0.070588
0.908701 0.307598 0.067770
0.926287 0.332782 0.071752
0.932047 0.349326 0.071323
0.945098 0.364093 0.073346
0.954167 0.384375 0.074510
0.960784 0.399142 0.074510
0.970282 0.413909 0.082353
0.980638 0.430270 0.083762
0.987806 0.445037 0.089767
0.994914 0.460907 0.096875
1.000000 0.475000 0.108640
1.000000 0.489767 0.109375
1.000000 0.504963 0.119731
1.000000 0.516728 0.129657
1.000000 0.529412 0.137255
0.000000 0.019608 0.011520
0.000000 0.023284 0.014523
0.000000 0.021446 0.011765
0.000000 0.024448 0.012684
0.000000 0.026961 0.011520
0.000000 0.030883 0.011520
0.000000 0.029044 0.011765
0.000000 0.029964 0.010356
0.000000 0.034804 0.015441
0.004351 0.031802 0.011765
0.014461 0.038971 0.015686
0.024142 0.037561 0.015686
0.041421 0.042892 0.018873
0.054841 0.043137 0.019608
0.067524 0.046814 0.022426
0.080576 0.045159 0.021874
0.099755 0.047059 0.028186
0.117463 0.050919 0.027451
0.138726 0.053798 0.031373
0.152451 0.048836 0.033150
0.176961 0.050980 0.035294
0.203064 0.047059 0.035294
0.225367 0.047059 0.036153
0.251655 0.046814 0.040992
0.277941 0.043137 0.047059
0.304228 0.042892 0.050429
0.334436 0.042525 0.054902
0.360723 0.037683 0.054902
0.390931 0.032844 0.058824
0.420343 0.031128 0.061949
0.447549 0.027206 0.066422
0.481556 0.029840 0.066667
0.509804 0.027206 0.066667
0.541973 0.031128 0.070588
0.568504 0.035049 0.070833
0.598468 0.043689 0.070588
0.628676 0.058088 0.072550
0.656250 0.072733 0.075797
0.681127 0.085295 0.078431
0.707536 0.102819 0.074510
0.732353 0.120342 0.076961
0.757475 0.141544 0.079718
0.775491 0.155638 0.075123
0.796997 0.173468 0.074510
0.821814 0.198285 0.077206
0.835662 0.214277 0.069056
0.853186 0.237255 0.074265
0.870649 0.255025 0.074449
0.884314 0.273529 0.067647
0.894240 0.291973 0.066912
0.907843 0.311520 0.065809
0.925122 0.332782 0.070649
0.937744 0.347304 0.070588
0.940808 0.368015 0.068566
0.951838 0.381863 0.070833
0.960600 0.399142 0.074326
0.976226 0.419852 0.082353
0.977880 0.432782 0.086275
0.986642 0.447794 0.092525
0.995404 0.460968 0.097365
1.000000 0.482353 0.105882
1.000000 0.495036 0.110968
1.000000 0.507721 0.119731
1.000000 0.519731 0.128493
1.000000 0.533088 0.140931
0.000000 0.028799 0.015686
0.000000 0.032047 0.016360
0.000000 0.032047 0.015686
0.000000 0.034805 0.018444
0.000000 0.032721 0.015686
0.000000 0.036642 0.015686
0.000000 0.036642 0.012439
0.000000 0.042402 0.012439
0.000000 0.040379 0.015686
0.004351 0.043811 0.015686
0.013113 0.043811 0.015686
0.028064 0.047733 0.016360
0.041666 0.050245 0.022121
0.052022 0.048407 0.019608
0.068873 0.047733 0.020711
0.084375 0.054902 0.023529
0.102941 0.054596 0.026471
0.124632 0.054902 0.027451
0.138971 0.054902 0.031557
0.158946 0.055576 0.032047
0.181311 0.055576 0.034743
0.206924 0.055576 0.039216
0.229289 0.054902 0.043137
0.255576 0.054902 0.043137
0.280086 0.051654 0.047059
0.308150 0.050980 0.053676
0.335110 0.048039 0.051348
0.364644 0.048346 0.059437
0.390931 0.043811 0.058824
0.424265 0.043811 0.062745
0.455821 0.040564 0.066544
0.482598 0.040564 0.066667
0.511764 0.043811 0.069914
0.544853 0.047365 0.070588
0.572059 0.052206 0.070588
0.599264 0.057843 0.071385
0.630392 0.069730 0.074510
0.653003 0.082414 0.074510
0.684498 0.097978 0.074510
0.707536 0.111581 0.074510
0.730576 0.128309 0.074510
0.756189 0.146629 0.074510
0.778493 0.164766 0.071201
0.797365 0.181985 0.074878
0.818137 0.203125 0.073836
0.835662 0.220649 0.070588
0.853186 0.241421 0.067525
0.871323 0.259682 0.067341
0.884314 0.281372 0.066667
0.897917 0.299816 0.068566
0.908701 0.319363 0.066667
0.921385 0.330576 0.066667
0.934068 0.354412 0.066667
0.942831 0.371936 0.071568
0.955515 0.389461 0.073836
0.961030 0.403737 0.074510
0.973223 0.420588 0.082353
0.977145 0.434866 0.083027
0.986642 0.451716 0.088603
0.992157 0.462746 0.094118
1.000000 0.479595 0.102206
1.000000 0.492034 0.110968
1.000000 0.510049 0.119731
1.000000 0.520405 0.128493
1.000000 0.530760 0.134007
0.000000 0.040809 0.019608
0.000000 0.040809 0.019608
0.000000 0.040564 0.019363
0.000000 0.043567 0.022365
0.000000 0.044730 0.019608
0.000000 0.047978 0.020527
0.000000 0.046323 0.017279
0.000000 0.048652 0.014767
0.000000 0.054412 0.021446
0.005515 0.054167 0.020772
0.011520 0.052328 0.017034
0.024142 0.052573 0.017279
0.038481 0.056495 0.019608
0.059008 0.056495 0.019608
0.073284 0.056495 0.021201
0.085968 0.056066 0.023529
0.102573 0.060417 0.025122
0.127635 0.060417 0.031312
0.141421 0.060417 0.029902
0.164338 0.062745 0.035294
0.183456 0.060417 0.035294
0.208517 0.064033 0.040502
0.233211 0.063725 0.043137
0.259559 0.060417 0.045466
0.283334 0.057966 0.047059
0.308701 0.058824 0.052757
0.338358 0.056495 0.054902
0.366238 0.056802 0.056495
0.394853 0.054779 0.059437
0.422733 0.054167 0.061949
0.451470 0.052573 0.062745
0.483149 0.054167 0.067219
0.511765 0.056127 0.066667
0.544853 0.063297 0.071875
0.572181 0.068137 0.070588
0.599264 0.074571 0.070588
0.630392 0.085049 0.074633
0.654964 0.097059 0.075552
0.679289 0.104780 0.068627
0.707536 0.121936 0.074510
0.729779 0.139338 0.074510
0.753799 0.154596 0.072120
0.778554 0.176226 0.076226
0.795404 0.189154 0.069301
0.815441 0.209192 0.070588
0.835662 0.229963 0.068995
0.853186 0.250000 0.069730
0.872242 0.268382 0.066667
0.884926 0.285907 0.066667
0.897917 0.303431 0.066667
0.913848 0.326103 0.066667
0.921385 0.338480 0.060600
0.930883 0.355147 0.066667
0.942831 0.373529 0.066667
0.953187 0.391054 0.070588
0.966176 0.412807 0.076410
0.973039 0.424509 0.077328
0.977696 0.438113 0.082169
0.986642 0.453309 0.086275
0.997059 0.469240 0.099020
1.000000 0.484191 0.103554
1.000000 0.496446 0.109375
1.000000 0.509559 0.117402
1.000000 0.523652 0.127574
1.000000 0.534926 0.137255
0.000000 0.052083 0.022120
0.000000 0.052083 0.026042
0.000000 0.051409 0.026042
0.000000 0.053493 0.026042
0.000000 0.057169 0.025797
0.000000 0.056005 0.025367
0.000000 0.057415 0.024448
0.000000 0.057415 0.019608
0.000000 0.061336 0.023529
-0.002084 0.061336 0.019608
0.010601 0.062745 0.022181
0.021630 0.065258 0.021875
0.037745 0.065258 0.023529
0.055270 0.065258 0.019608
0.075613 0.065258 0.023529
0.090319 0.064767 0.023529
0.107843 0.065258 0.023529
0.125367 0.065258 0.027451
0.143750 0.063603 0.028309
0.166115 0.069179 0.033150
0.188297 0.069179 0.035294
0.209743 0.069179 0.037807
0.236519 0.066667 0.043137
0.262010 0.070159 0.045650
0.285784 0.066728 0.047059
0.315441 0.068627 0.050429
0.342279 0.071324 0.054902
0.368566 0.065258 0.054902
0.398775 0.067769 0.061336
0.425061 0.065258 0.058824
0.455270 0.065258 0.062745
0.482598 0.067769 0.065258
0.513726 0.071140 0.066116
0.544853 0.078860 0.070956
0.575981 0.083334 0.070588
0.600674 0.089584 0.071997
0.628676 0.099142 0.072794
0.659007 0.109742 0.071997
0.683763 0.121936 0.073101
0.710907 0.138909 0.074510
0.731312 0.150552 0.071997
0.753677 0.165563 0.071997
0.779963 0.186397 0.071997
0.802818 0.205331 0.070588
0.812929 0.215441 0.065380
0.833150 0.235662 0.068444
0.853186 0.255699 0.066667
0.870649 0.273223 0.069118
0.883333 0.293688 0.065687
0.897917 0.307660 0.062745
0.908701 0.325797 0.062745
0.922611 0.344730 0.062745
0.935846 0.366544 0.068444
0.942831 0.379780 0.064154
0.951593 0.393382 0.066667
0.960784 0.409927 0.070588
0.972549 0.427941 0.078431
0.977880 0.443138 0.082353
0.986642 0.455637 0.086275
0.992157 0.473162 0.093444
1.000000 0.485356 0.104473
1.000000 0.498958 0.109558
1.000000 0.511888 0.117218
1.000000 0.523162 0.124571
1.000000 0.539767 0.137255
0.000000 0.061765 0.026961
0.000000 0.062255 0.027451
0.000000 0.060171 0.025367
0.000000 0.061091 0.026287
0.000000 0.062255 0.026961
0.000000 0.066177 0.030209
0.000000 0.069608 0.029289
0.000000 0.068688 0.023529
0.000000 0.070098 0.023529
0.000000 0.070528 0.023039
0.005270 0.074020 0.025612
0.017953 0.077451 0.023039
0.034559 0.078186 0.026961
0.051531 0.074203 0.023713
0.072794 0.077451 0.026961
0.095649 0.079350 0.028860
0.107353 0.074020 0.026471
0.128799 0.074020 0.027451
0.150736 0.074510 0.031373
0.170037 0.077941 0.033150
0.192402 0.077941 0.038726
0.215073 0.077941 0.039216
0.234314 0.077941 0.039829
0.266851 0.077941 0.048959
0.289706 0.077941 0.047059
0.319424 0.077941 0.050980
0.346201 0.081373 0.054902
0.372487 0.077941 0.052757
0.398775 0.077941 0.058824
0.428983 0.081373 0.062745
0.459192 0.078064 0.066177
0.488909 0.085294 0.066667
0.514216 0.083824 0.066667
0.545895 0.092647 0.070098
0.576103 0.097059 0.070588
0.602390 0.104902 0.070588
0.626960 0.111029 0.070588
0.658394 0.123223 0.070588
0.685295 0.136029 0.074633
0.710907 0.145710 0.073958
0.731372 0.160784 0.068627
0.752758 0.178370 0.068689
0.775736 0.194362 0.067157
0.800122 0.211397 0.070098
0.815441 0.228922 0.066667
0.835662 0.245159 0.066667
0.853554 0.264829 0.063603
0.866790 0.281984 0.059375
0.883333 0.299510 0.065196
0.896017 0.317035 0.059314
0.908701 0.334559 0.058211
0.921385 0.352083 0.062745
0.927451 0.366177 0.062745
0.942831 0.383701 0.063235
0.950735 0.399878 0.065809
0.960845 0.414767 0.070649
0.969117 0.428431 0.074510
0.980392 0.447977 0.078921
0.986642 0.459559 0.085172
0.991483 0.473162 0.090196
1.000000 0.489952 0.098284
0.997242 0.500367 0.107046
1.000000 0.513971 0.115809
1.000000 0.527574 0.124142
1.000000 0.540686 0.133823
0.000000 0.074939 0.031802
0.000000 0.074939 0.035784
0.000000 0.071446 0.031802
0.000000 0.074939 0.031802
0.000000 0.075368 0.031802
0.000000 0.078860 0.034620
0.000000 0.080453 0.032966
0.000000 0.081373 0.031373
0.000000 0.082782 0.028371
0.000000 0.086275 0.030944
0.000000 0.088052 0.027880
0.011519 0.090625 0.027451
0.025980 0.090319 0.027880
0.047610 0.086888 0.027880
0.068873 0.087133 0.027451
0.090319 0.090625 0.029473
0.108272 0.087133 0.027880
0.129718 0.087133 0.027880
0.154657 0.083211 0.031373
0.177880 0.086704 0.035294
0.196752 0.086704 0.037990
0.218995 0.086704 0.039216
0.244791 0.086520 0.043137
0.267769 0.087133 0.043566
0.297549 0.090625 0.053002
0.320343 0.087133 0.047488
0.350184 0.090625 0.054902
0.372916 0.087133 0.054902
0.404902 0.092831 0.058824
0.432904 0.097672 0.061949
0.462990 0.094976 0.062745
0.489400 0.098468 0.062745
0.521140 0.102390 0.066238
0.549816 0.109190 0.066667
0.572610 0.110539 0.066667
0.602390 0.118872 0.066667
0.632598 0.129350 0.071875
0.658885 0.136826 0.067954
0.684804 0.145587 0.070159
0.707536 0.158272 0.066667
0.733823 0.175919 0.071630
0.756189 0.189522 0.070159
0.778554 0.207047 0.070159
0.797120 0.220650 0.066667
0.817708 0.238971 0.062745
0.830024 0.250062 0.060601
0.849264 0.269301 0.062316
0.866790 0.286459 0.058824
0.879840 0.303799 0.057844
0.893995 0.321875 0.056802
0.905209 0.337010 0.056005
0.924694 0.363725 0.062133
0.930147 0.374020 0.059130
0.940564 0.388052 0.060478
0.951593 0.403002 0.062745
0.960355 0.419607 0.066667
0.969117 0.436213 0.071078
0.977880 0.453799 0.079411
0.980821 0.461582 0.080760
0.994976 0.481005 0.089522
1.000000 0.490686 0.097855
1.000000 0.503554 0.107046
1.000000 0.521385 0.117463
1.000000 0.531495 0.124143
1.000000 0.544669 0.133333
0.000000 0.085049 0.035294
0.000000 0.085049 0.036642
0.000000 0.089461 0.041054
0.000000 0.087623 0.039216
0.000000 0.085049 0.036642
0.000000 0.090870 0.039890
0.000000 0.091544 0.039216
0.000000 0.094056 0.036642
0.000000 0.092892 0.033210
0.000000 0.095895 0.031802
0.000000 0.100735 0.032721
0.000000 0.100735 0.032721
0.019362 0.103309 0.029535
0.046078 0.103309 0.031373
0.066054 0.103309 0.031373
0.090319 0.104657 0.032721
0.113357 0.103309 0.033946
0.135722 0.103309 0.028861
0.155515 0.100735 0.035294
0.180025 0.098958 0.035294
0.201593 0.096814 0.037990
0.226532 0.099081 0.041483
0.248897 0.099387 0.042402
0.271079 0.099387 0.043137
0.297549 0.099387 0.047059
0.323836 0.099387 0.047059
0.350123 0.103309 0.054902
0.377696 0.103309 0.054841
0.404044 0.104657 0.056250
0.436030 0.107782 0.061949
0.463113 0.108578 0.063970
0.489400 0.112500 0.062745
0.521569 0.114461 0.064706
0.547243 0.117769 0.064093
0.573653 0.124265 0.066667
0.606312 0.136029 0.071139
0.632598 0.139951 0.066667
0.657598 0.150429 0.065380
0.685172 0.161765 0.066667
0.706740 0.172426 0.065871
0.733823 0.188603 0.066667
0.756189 0.202206 0.066667
0.778554 0.213848 0.060784
0.796691 0.229412 0.061397
0.818137 0.246936 0.061397
0.833088 0.261887 0.058824
0.849264 0.278922 0.057476
0.865441 0.294302 0.052267
0.881985 0.316054 0.053554
0.896569 0.330637 0.055454
0.910171 0.346814 0.053554
0.917463 0.361949 0.051164
0.930147 0.377942 0.052941
0.940564 0.395466 0.059130
0.950246 0.410417 0.058824
0.960355 0.421875 0.066238
0.969117 0.440196 0.067157
0.973897 0.453738 0.071997
0.985294 0.468995 0.081740
0.991483 0.479106 0.083701
1.000000 0.494608 0.093260
1.000000 0.507046 0.101777
1.000000 0.519731 0.114460
1.000000 0.534069 0.122304
1.000000 0.543750 0.131985
0.000000 0.100306 0.043137
0.000000 0.097304 0.040135
0.000000 0.100735 0.045833
0.000000 0.098652 0.044240
0.000000 0.102573 0.045404
0.000000 0.100306 0.043137
0.000000 0.104228 0.043811
0.000000 0.106740 0.043995
0.000000 0.107660 0.041483
0.000000 0.110416 0.041483
0.000000 0.109497 0.036642
0.000000 0.115992 0.039216
0.000000 0.115073 0.034375
0.037501 0.124265 0.035294
0.063786 0.117095 0.035294
0.088419 0.118260 0.033395
0.107843 0.118260 0.034620
0.138664 0.119914 0.040809
0.158579 0.115992 0.040625
0.182292 0.116483 0.039706
0.204166 0.111642 0.039216
0.231802 0.115686 0.042831
0.252818 0.110416 0.043137
0.277451 0.112806 0.045404
0.301470 0.110416 0.047059
0.326103 0.114338 0.050429
0.354044 0.112439 0.051348
0.382598 0.118260 0.054902
0.408823 0.118199 0.054841
0.435172 0.120527 0.057169
0.464768 0.123836 0.060478
0.495588 0.127145 0.062745
0.521569 0.129718 0.062745
0.548162 0.133946 0.062745
0.579902 0.143321 0.068199
0.606312 0.146507 0.061274
0.634804 0.156924 0.066667
0.658885 0.165686 0.064032
0.685172 0.171508 0.061458
0.707536 0.186029 0.062745
0.732353 0.199816 0.065196
0.756189 0.213236 0.062868
0.776287 0.228493 0.060478
0.796691 0.242096 0.058824
0.814216 0.258394 0.057598
0.835785 0.273223 0.056679
0.850919 0.290748 0.051838
0.868996 0.310478 0.054841
0.880392 0.321875 0.048713
0.891728 0.335110 0.046691
0.909252 0.356924 0.051531
0.917463 0.366789 0.047243
0.930147 0.385785 0.052635
0.938909 0.399387 0.052635
0.949939 0.414951 0.057476
0.960355 0.429289 0.060478
0.965196 0.442463 0.063235
0.977880 0.459988 0.071997
0.986703 0.473591 0.080821
0.991483 0.485601 0.085601
0.996323 0.500551 0.094363
1.000000 0.512132 0.103125
1.000000 0.525919 0.111887
1.000000 0.537684 0.120650
1.000000 0.547365 0.129412
0.000000 0.112990 0.047059
0.000000 0.116176 0.050245
0.000000 0.112990 0.047059
0.000000 0.112990 0.047059
0.000000 0.112500 0.050245
0.000000 0.116176 0.050245
0.000000 0.114584 0.047059
0.000000 0.116912 0.047059
0.000000 0.120098 0.047059
0.000000 0.124019 0.046324
0.000000 0.129780 0.048897
0.000000 0.127941 0.044056
0.000000 0.131862 0.043137
0.010968 0.128860 0.042219
0.061030 0.141788 0.041300
0.084497 0.135784 0.039216
0.107598 0.132598 0.039216
0.132475 0.135784 0.042402
0.161764 0.138113 0.042402
0.181802 0.134007 0.043137
0.206863 0.131862 0.041912
0.230025 0.127513 0.042402
0.256740 0.127941 0.043137
0.282292 0.124019 0.046324
0.305392 0.127941 0.047059
0.330943 0.128125 0.047059
0.354412 0.127941 0.050980
0.384252 0.128677 0.051715
0.413726 0.136765 0.054902
0.439951 0.135784 0.054841
0.470221 0.136641 0.058824
0.494363 0.140747 0.056680
0.523529 0.142402 0.059559
0.554044 0.151470 0.062745
0.579902 0.156005 0.063358
0.607108 0.164032 0.060355
0.637990 0.172795 0.064951
0.663358 0.182108 0.062745
0.684804 0.190319 0.059927
0.710723 0.203002 0.065379
0.730638 0.215686 0.059559
0.753003 0.223652 0.058824
0.774510 0.240318 0.055515
0.796691 0.257659 0.058518
0.812255 0.265687 0.049019
0.833517 0.286948 0.052757
0.849264 0.299510 0.047794
0.866728 0.320160 0.050919
0.879412 0.330637 0.043872
0.894118 0.346262 0.043872
0.907598 0.361765 0.043872
0.918015 0.379841 0.043872
0.930147 0.392892 0.044608
0.938909 0.406495 0.045527
0.948407 0.420833 0.051715
0.956863 0.434130 0.055637
0.971814 0.451226 0.065932
0.972182 0.461643 0.068076
0.982721 0.478431 0.072059
0.988235 0.488787 0.082353
1.000000 0.502206 0.087254
1.000000 0.514890 0.101961
1.000000 0.530759 0.109804
1.000000 0.539338 0.117463
1.000000 0.552206 0.129412
0.000000 0.129780 0.054902
0.000000 0.129780 0.054167
0.000000 0.129780 0.049509
0.000000 0.129780 0.055086
0.000000 0.133456 0.055086
0.000000 0.130454 0.055086
0.000000 0.133517 0.055086
0.000000 0.133701 0.055086
0.000000 0.140871 0.055086
0.000000 0.137623 0.054657
0.000000 0.142708 0.054902
0.000000 0.143811 0.053247
0.000000 0.145466 0.047977
0.000000 0.145466 0.047059
0.032414 0.154228 0.047243
0.074387 0.153309 0.041299
0.109620 0.153492 0.043321
0.136826 0.153309 0.043137
0.155698 0.152635 0.043321
0.183946 0.153309 0.047059
0.210784 0.153309 0.045833
0.230638 0.145957 0.039705
0.260662 0.149388 0.047059
0.286765 0.149204 0.047059
0.307047 0.141727 0.043321
0.335784 0.141727 0.050429
0.362071 0.141544 0.047427
0.389461 0.146568 0.052083
0.414461 0.145466 0.050980
0.441544 0.149388 0.051777
0.471140 0.153309 0.054902
0.497427 0.157231 0.057782
0.527451 0.161152 0.060601
0.556617 0.167954 0.058824
0.583824 0.176409 0.062440
0.605699 0.177635 0.058824
0.636520 0.186397 0.062561
0.662807 0.195160 0.058824
0.688909 0.207292 0.058640
