Color/Polaroid/Polaroid Polachrome 65x.cube
TITLE "Polaroid Polachrome"
LUT_3D_SIZE 65
DOMAIN_MIN 0.000000 0.000000 0.000000
DOMAIN_MAX 1.000000 1.000000 1.000000
0.000000 0.000000 0.000000
0.000000 0.000000 0.000000
0.003922 0.000000 0.000000
0.006679 0.000000 0.000000
0.007843 0.000000 0.000000
0.012439 0.000000 0.000000
0.017279 0.000000 0.000000
0.022120 0.000000 0.000000
0.027451 0.000000 0.000000
0.035723 0.000000 0.000000
0.040564 0.000000 0.000000
0.049326 0.000000 0.000000
0.058089 0.000000 0.000000
0.066851 0.000000 0.000000
0.075613 0.000000 0.000000
0.084375 0.003922 0.002022
0.093137 0.003922 0.003922
0.105759 0.003922 0.003922
0.115441 0.003922 0.003922
0.129044 0.005699 0.003922
0.142647 0.007843 0.006618
0.156557 0.007843 0.007843
0.173774 0.011765 0.008456
0.191299 0.011765 0.011765
0.208824 0.015686 0.014216
0.222978 0.019056 0.015686
0.240319 0.023529 0.019608
0.261397 0.024816 0.023529
0.278922 0.029657 0.025735
0.300368 0.035294 0.030576
0.321814 0.039339 0.035417
0.343260 0.047059 0.040258
0.366667 0.050980 0.045098
0.389032 0.057782 0.053860
0.415318 0.062622 0.058701
0.441606 0.071385 0.063542
0.467892 0.076225 0.072304
0.491545 0.082353 0.077144
0.516544 0.089828 0.082353
0.534987 0.094669 0.086826
0.555882 0.099510 0.094118
0.575796 0.104350 0.098039
0.594853 0.109191 0.101961
0.608456 0.113725 0.106188
0.625980 0.117647 0.109804
0.639583 0.121569 0.113725
0.657108 0.124632 0.117647
0.670711 0.129412 0.121569
0.684314 0.133333 0.125490
0.699939 0.135233 0.127390
0.715441 0.140073 0.132230
0.729044 0.144914 0.137071
0.742647 0.145833 0.137990
0.756250 0.150674 0.142831
0.771201 0.152941 0.145098
0.783885 0.156863 0.149020
0.800490 0.160784 0.152941
0.813174 0.164706 0.156863
0.828186 0.168627 0.159191
0.841789 0.171875 0.164032
0.855147 0.176471 0.164951
0.866667 0.176471 0.168627
0.866667 0.176471 0.168627
0.866667 0.176471 0.168627
0.866667 0.176471 0.168627
0.000000 0.000919 0.000000
0.000919 0.000919 0.000000
0.003922 0.003922 0.000000
0.007843 0.003922 0.000000
0.008762 0.003922 0.000000
0.015686 0.003922 0.000000
0.021201 0.005515 0.000000
0.026042 0.004841 0.000000
0.031801 0.004841 0.000000
0.039645 0.004351 0.000000
0.048407 0.007843 0.000000
0.053247 0.007843 0.000919
0.062010 0.008762 0.003922
0.070772 0.008762 0.003922
0.079534 0.008762 0.003922
0.089216 0.013787 0.003922
0.097978 0.012684 0.003922
0.113602 0.012684 0.007782
0.123346 0.016605 0.007843
0.136887 0.016605 0.007843
0.150490 0.020527 0.008762
0.161398 0.024143 0.011765
0.178615 0.025367 0.012378
0.196140 0.028370 0.017218
0.213664 0.029289 0.019608
0.230270 0.035662 0.020527
0.248714 0.036581 0.024448
0.266238 0.041054 0.028738
0.283762 0.044975 0.033579
0.307414 0.055025 0.038419
0.325858 0.055944 0.039339
0.348101 0.063664 0.048101
0.369547 0.069547 0.052941
0.396875 0.074387 0.057782
0.420159 0.079228 0.059743
0.446446 0.084069 0.067463
0.471814 0.092831 0.076225
0.498101 0.097672 0.081066
0.520466 0.102512 0.085907
0.538909 0.106801 0.091115
0.559804 0.110723 0.094118
0.578248 0.114644 0.098039
0.595772 0.118566 0.101961
0.612378 0.122488 0.106188
0.629902 0.123714 0.109804
0.643505 0.126409 0.113725
0.654963 0.130331 0.117647
0.674571 0.134252 0.121569
0.688236 0.134252 0.125490
0.701838 0.138174 0.129412
0.713541 0.143995 0.132230
0.729228 0.142095 0.137071
0.742647 0.146752 0.137990
0.758517 0.149939 0.142831
0.773775 0.153860 0.145098
0.787377 0.160355 0.149020
0.800490 0.161274 0.152941
0.814584 0.164706 0.156863
0.828186 0.168627 0.159191
0.841789 0.171875 0.164032
0.855147 0.176471 0.164951
0.866667 0.176471 0.168627
0.866667 0.176471 0.168627
0.866667 0.176471 0.168627
0.866667 0.176471 0.168627
0.000000 0.003922 0.000000
0.003922 0.005760 0.000000
0.005760 0.005760 0.000000
0.007843 0.007843 0.000000
0.011765 0.007843 0.000000
0.016360 0.007843 0.000000
0.021201 0.009681 0.000000
0.027451 0.009681 0.000000
0.034804 0.009681 0.000000
0.041483 0.011765 0.000429
0.048407 0.011765 0.003922
0.057169 0.013603 0.003922
0.063849 0.013603 0.003922
0.070956 0.015686 0.003922
0.083456 0.017524 0.003922
0.092218 0.017524 0.005944
0.103921 0.017524 0.005760
0.113664 0.023468 0.007843
0.126348 0.020466 0.007843
0.136887 0.025367 0.009620
0.154412 0.028064 0.011765
0.168014 0.029289 0.015380
0.183456 0.033824 0.017524
0.199142 0.037132 0.019608
0.216667 0.041054 0.021446
0.234191 0.044975 0.026899
0.251715 0.049265 0.029289
0.271078 0.054105 0.033211
0.288603 0.058946 0.037500
0.311336 0.063787 0.042341
0.331495 0.068628 0.043260
0.352145 0.073468 0.052818
0.374387 0.078309 0.056863
0.400797 0.083150 0.061703
0.425000 0.088113 0.064583
0.449449 0.095956 0.071385
0.475735 0.101593 0.080269
0.497304 0.106434 0.084988
0.524387 0.111274 0.089828
0.544117 0.115563 0.090748
0.563725 0.119485 0.095588
0.581250 0.123407 0.099877
0.598775 0.127328 0.103799
0.615992 0.131250 0.109804
0.629902 0.135171 0.111642
0.645282 0.137316 0.113725
0.661029 0.139093 0.117647
0.674633 0.143014 0.121569
0.688236 0.143995 0.125490
0.701777 0.146936 0.127390
0.719363 0.150858 0.132230
0.732965 0.150858 0.133333
0.747671 0.154779 0.137990
0.760172 0.158701 0.142831
0.773775 0.158701 0.145098
0.787377 0.160784 0.149020
0.800980 0.161274 0.152941
0.814584 0.166544 0.156863
0.828186 0.168627 0.159191
0.841789 0.170465 0.164032
0.855147 0.176471 0.164951
0.866667 0.176471 0.168627
0.866667 0.176471 0.168627
0.866667 0.176471 0.168627
0.866667 0.176471 0.168627
0.002758 0.007843 0.000000
0.006679 0.010601 0.000000
0.007843 0.010601 0.000000
0.010601 0.010601 0.000000
0.011765 0.011765 0.000000
0.016360 0.011765 0.000000
0.023529 0.014522 0.000000
0.029964 0.014522 0.002758
0.034130 0.014522 0.003922
0.043566 0.015686 0.003922
0.050980 0.018444 0.003922
0.057169 0.018444 0.003922
0.065932 0.018444 0.003922
0.074694 0.022365 0.003922
0.086213 0.022365 0.005025
0.094975 0.021630 0.007843
0.104902 0.026471 0.007843
0.117524 0.026287 0.007843
0.127206 0.030209 0.011765
0.140809 0.034130 0.011765
0.154412 0.034069 0.014522
0.171936 0.038052 0.015686
0.185539 0.041973 0.019608
0.203064 0.045895 0.022365
0.220588 0.049816 0.023529
0.238113 0.053738 0.027451
0.255637 0.055270 0.031373
0.273161 0.060111 0.032660
0.293444 0.067708 0.037500
0.312133 0.072549 0.041973
0.333578 0.077267 0.047182
0.357782 0.079473 0.052022
0.378432 0.087071 0.061581
0.400674 0.091912 0.065625
0.427083 0.096752 0.070465
0.453370 0.104718 0.075306
0.478493 0.107598 0.080147
0.502022 0.115196 0.089032
0.523591 0.120037 0.093750
0.546201 0.124326 0.094669
0.563725 0.128248 0.099510
0.581250 0.132169 0.104718
0.598775 0.136642 0.109191
0.616299 0.140012 0.112561
0.629902 0.141238 0.113725
0.647426 0.143934 0.115870
0.661029 0.147856 0.120711
0.674633 0.151777 0.121569
0.691176 0.150000 0.125490
0.705760 0.155699 0.127390
0.719363 0.158517 0.132230
0.731985 0.159620 0.133333
0.746569 0.163542 0.137990
0.760172 0.162439 0.142831
0.773775 0.167463 0.145098
0.787806 0.167463 0.149020
0.800980 0.171385 0.152941
0.814584 0.171385 0.156863
0.828186 0.170956 0.159191
0.841299 0.175797 0.164032
0.855147 0.176471 0.164951
0.866667 0.179228 0.168627
0.866667 0.179228 0.168627
0.866667 0.179228 0.168627
0.866667 0.179228 0.168627
0.003922 0.011765 0.000000
0.007843 0.015441 0.000000
0.011520 0.015441 0.000000
0.011765 0.014522 0.000000
0.015441 0.015686 0.000000
0.019608 0.019363 0.003677
0.025122 0.019363 0.001593
0.029964 0.019363 0.003922
0.038726 0.019608 0.003922
0.043566 0.023284 0.003922
0.052328 0.023284 0.003922
0.062500 0.021875 0.003922
0.069608 0.023529 0.007598
0.078615 0.027206 0.007843
0.087378 0.024632 0.007843
0.096140 0.031128 0.007843
0.108579 0.030392 0.007843
0.117586 0.035049 0.011520
0.133947 0.038971 0.011765
0.146630 0.037071 0.015441
0.158333 0.042892 0.015686
0.171936 0.046814 0.019363
0.189460 0.050735 0.023284
0.206986 0.054657 0.023529
0.224265 0.058579 0.025980
0.241789 0.061948 0.030821
0.259314 0.066422 0.031741
0.274448 0.070343 0.036581
0.294608 0.074265 0.041422
0.315257 0.077635 0.046262
0.333701 0.086030 0.054657
0.356066 0.089951 0.055944
0.384068 0.093873 0.060784
0.404718 0.096997 0.069301
0.431005 0.105514 0.074387
0.457047 0.110355 0.082108
0.479657 0.117402 0.084069
0.503309 0.121324 0.088909
0.528432 0.125245 0.093750
0.546201 0.133088 0.101716
0.565196 0.134559 0.105637
0.585171 0.139399 0.109559
0.602696 0.140563 0.109804
0.616299 0.141482 0.117402
0.636275 0.148775 0.114951
0.647426 0.152696 0.121324
0.661887 0.152083 0.121569
0.678492 0.153002 0.125490
0.692157 0.160539 0.129167
0.705760 0.162439 0.129412
0.719363 0.164461 0.132230
0.733149 0.168443 0.133333
0.746569 0.169118 0.137990
0.762439 0.172304 0.139154
0.778799 0.171201 0.145098
0.791483 0.176226 0.149020
0.804412 0.173039 0.152941
0.817095 0.180147 0.156863
0.829780 0.180147 0.159191
0.842463 0.180147 0.160355
0.855392 0.184069 0.164951
0.866667 0.184069 0.168627
0.866667 0.184069 0.168627
0.866667 0.184069 0.168627
0.866667 0.184069 0.168627
0.007843 0.020282 0.000674
0.008517 0.020282 0.000674
0.013603 0.020282 0.003922
0.015686 0.020282 0.003922
0.016360 0.023529 0.003922
0.020282 0.024203 0.003922
0.024203 0.024203 0.003922
0.033885 0.024203 0.003922
0.042647 0.024203 0.003922
0.047488 0.028125 0.004596
0.056250 0.028125 0.004596
0.061765 0.033640 0.007843
0.073039 0.032047 0.007843
0.078799 0.035968 0.007843
0.091299 0.035968 0.008517
0.100061 0.035968 0.011765
0.109497 0.039890 0.011765
0.125367 0.043751 0.015625
0.135049 0.043811 0.015686
0.148652 0.047733 0.017463
0.160233 0.051654 0.019608
0.179779 0.055270 0.020282
0.193382 0.059498 0.024203
0.210907 0.061030 0.028983
0.228432 0.065870 0.031373
0.245956 0.070711 0.032047
0.259927 0.075184 0.039890
0.281005 0.079718 0.044424
0.300735 0.084559 0.049265
0.316728 0.086949 0.054105
0.337623 0.090992 0.055025
0.360662 0.095834 0.059498
0.386275 0.100674 0.068628
0.406434 0.108762 0.073468
0.434926 0.110478 0.075184
0.457966 0.118321 0.083027
0.483578 0.123959 0.086949
0.507231 0.128799 0.096752
0.528677 0.133640 0.101593
0.550123 0.137929 0.102512
0.567647 0.141850 0.107353
0.585171 0.145772 0.112193
0.602696 0.152328 0.117034
0.620221 0.153615 0.118321
0.633824 0.153615 0.121569
0.651348 0.157537 0.122243
0.664951 0.163848 0.128554
0.678554 0.165380 0.129412
0.691850 0.165380 0.130086
0.707782 0.169301 0.133333
0.723284 0.169301 0.134007
0.736887 0.173223 0.140992
0.750491 0.177145 0.141176
0.764093 0.177145 0.141850
0.775796 0.181066 0.145098
0.788481 0.181066 0.149020
0.804902 0.184988 0.152941
0.818505 0.184988 0.157598
0.832108 0.184988 0.159191
0.845711 0.188909 0.160784
0.859069 0.188909 0.164951
0.867341 0.188909 0.168627
0.867341 0.188909 0.168627
0.867341 0.188909 0.168627
0.867341 0.188909 0.168627
0.009436 0.025122 0.003922
0.013358 0.024448 0.003922
0.015686 0.029044 0.003922
0.017279 0.029044 0.003922
0.023284 0.029044 0.003922
0.024203 0.028125 0.003922
0.029044 0.032966 0.003922
0.035478 0.032966 0.006434
0.042647 0.032966 0.005515
0.052573 0.036887 0.007843
0.056250 0.036887 0.007843
0.065012 0.036887 0.007843
0.073775 0.040809 0.011030
0.084130 0.039400 0.011765
0.092892 0.044730 0.011765
0.103983 0.044730 0.011765
0.115686 0.048652 0.013358
0.125429 0.052513 0.015686
0.139706 0.052573 0.016544
0.152574 0.056495 0.019608
0.165073 0.060417 0.021201
0.183701 0.064033 0.027145
0.197304 0.068260 0.029044
0.214829 0.069792 0.031373
0.232353 0.074632 0.032966
0.247549 0.079473 0.036887
0.265074 0.080392 0.044730
0.284926 0.085233 0.048652
0.304657 0.090074 0.053186
0.321569 0.097243 0.058027
0.341544 0.098162 0.058947
0.363909 0.104596 0.063787
0.390196 0.109436 0.072549
0.411275 0.114277 0.077389
0.438848 0.119240 0.080024
0.461214 0.127083 0.087071
0.487500 0.131005 0.091789
0.508824 0.134926 0.095711
0.530270 0.142402 0.105514
0.550674 0.146691 0.106434
0.571569 0.150613 0.111397
0.589093 0.153003 0.116115
0.606618 0.154534 0.117647
0.620221 0.157169 0.123162
0.638113 0.162377 0.122794
0.651348 0.166850 0.127635
0.663481 0.166299 0.129412
0.678554 0.170220 0.133333
0.695098 0.174142 0.134926
0.709681 0.174142 0.137255
0.723284 0.178064 0.138848
0.734743 0.184130 0.141176
0.750491 0.181127 0.141911
0.764031 0.185907 0.146753
0.779044 0.185907 0.146691
0.795220 0.189828 0.149020
0.804902 0.188725 0.152941
0.821017 0.193750 0.154350
0.833701 0.193750 0.159191
0.846385 0.193750 0.160784
0.859069 0.197671 0.163358
0.870588 0.197671 0.168627
0.870588 0.197671 0.168627
0.870588 0.197671 0.168627
0.870588 0.197671 0.168627
0.014277 0.033885 0.003922
0.018199 0.036397 0.003922
0.017524 0.037807 0.003922
0.022120 0.037807 0.003922
0.027206 0.037807 0.006434
0.028125 0.037807 0.006434
0.032966 0.041728 0.007843
0.037807 0.041728 0.007843
0.046569 0.041728 0.007843
0.051409 0.045650 0.007843
0.060172 0.045650 0.010356
0.069179 0.045650 0.010110
0.076286 0.049571 0.011765
0.086459 0.049755 0.011765
0.097733 0.053493 0.012868
0.106005 0.056005 0.015686
0.119608 0.057415 0.018627
0.129351 0.061274 0.018199
0.144546 0.061336 0.022120
0.156495 0.065258 0.023529
0.169914 0.069179 0.026042
0.187622 0.072794 0.031067
0.201225 0.073713 0.033885
0.218750 0.078554 0.037807
0.234865 0.083395 0.037745
0.252390 0.088235 0.041728
0.269914 0.089155 0.049571
0.286213 0.093995 0.053493
0.308885 0.098836 0.057415
0.326409 0.103676 0.061949
0.345466 0.108395 0.062868
0.367831 0.112316 0.070221
0.394669 0.118199 0.077022
0.416115 0.123039 0.081311
0.442769 0.127880 0.084866
0.465135 0.132721 0.090993
0.492218 0.139767 0.095833
0.513787 0.143689 0.100552
0.536152 0.147611 0.109436
0.554044 0.152084 0.112316
0.574080 0.154412 0.116238
0.589093 0.159375 0.117647
0.606618 0.163297 0.120160
0.626348 0.167218 0.128003
0.637745 0.171140 0.126716
0.651348 0.171140 0.131924
0.668872 0.175062 0.133333
0.684926 0.178983 0.133394
0.696079 0.177451 0.139767
0.709681 0.182905 0.139154
0.722978 0.187132 0.143689
0.737071 0.186826 0.145098
0.753676 0.190748 0.145833
0.766360 0.189890 0.149020
0.781618 0.194669 0.151532
0.795220 0.194669 0.152941
0.808333 0.198591 0.155454
0.823530 0.198591 0.156863
0.836214 0.202513 0.159191
0.846385 0.202513 0.160784
0.859314 0.200245 0.164706
0.870588 0.203922 0.168627
0.870588 0.203922 0.168627
0.870588 0.203922 0.168627
0.870588 0.203922 0.168627
0.019118 0.042647 0.007353
0.023039 0.046569 0.007843
0.021446 0.046569 0.007843
0.026961 0.046569 0.007843
0.031128 0.046569 0.007843
0.032047 0.047242 0.007843
0.036887 0.050490 0.007843
0.041728 0.050490 0.011275
0.050490 0.050490 0.011275
0.055331 0.054412 0.011765
0.063604 0.054412 0.011765
0.072366 0.056679 0.011765
0.081128 0.058334 0.015196
0.090380 0.058517 0.015686
0.102573 0.062255 0.019118
0.111335 0.064278 0.017708
0.124019 0.066177 0.019608
0.133272 0.070036 0.023039
0.149387 0.070956 0.026961
0.160417 0.074020 0.027451
0.177451 0.077941 0.030147
0.191544 0.081556 0.034988
0.205147 0.085785 0.038726
0.222672 0.087316 0.042647
0.241176 0.092157 0.043137
0.257231 0.096997 0.049938
0.274755 0.097917 0.054412
0.292769 0.102757 0.058334
0.313725 0.107598 0.062255
0.330943 0.112438 0.066177
0.349388 0.117157 0.066790
0.371752 0.121079 0.075061
0.399510 0.126961 0.081863
0.420404 0.131801 0.085233
0.446691 0.136642 0.093505
0.469057 0.141483 0.094914
0.497059 0.146324 0.099755
0.518505 0.152451 0.104595
0.540073 0.156373 0.113357
0.557966 0.160846 0.117157
0.575490 0.164216 0.121079
0.593014 0.168137 0.120037
0.610662 0.172059 0.124877
0.624142 0.175981 0.132843
0.640441 0.173775 0.130637
0.655270 0.179902 0.136765
0.668872 0.182966 0.136397
0.682476 0.183884 0.137316
0.696079 0.187745 0.144608
0.711704 0.191667 0.143076
0.727819 0.191667 0.148530
0.740808 0.195894 0.149020
0.757107 0.196324 0.152451
0.768015 0.199510 0.152941
0.781618 0.198652 0.156373
0.795220 0.203432 0.156373
0.808823 0.200490 0.156863
0.822427 0.207353 0.160294
0.836030 0.207353 0.160784
0.849632 0.211275 0.160784
0.862990 0.211275 0.164706
0.874020 0.211275 0.168627
0.874020 0.211275 0.168627
0.874020 0.211275 0.168627
0.874020 0.211275 0.168627
0.023529 0.055331 0.008272
0.023958 0.055331 0.008272
0.027880 0.055331 0.011765
0.034130 0.058088 0.011765
0.038971 0.055760 0.011765
0.039645 0.059253 0.011765
0.043566 0.059253 0.011765
0.047488 0.059253 0.012194
0.051409 0.059682 0.012194
0.059253 0.063174 0.015686
0.064522 0.063174 0.015686
0.073284 0.067096 0.017953
0.082047 0.067096 0.016115
0.094731 0.071017 0.020037
0.103493 0.071017 0.020037
0.115747 0.074939 0.023529
0.124939 0.074939 0.023958
0.137622 0.078860 0.027451
0.151165 0.079289 0.027880
0.168260 0.084559 0.031802
0.179596 0.086704 0.035723
0.199387 0.090625 0.042831
0.212990 0.094547 0.043750
0.227022 0.094976 0.043566
0.244547 0.100919 0.047488
0.262071 0.105760 0.051409
0.279595 0.110233 0.059253
0.297120 0.114154 0.064032
0.318138 0.114583 0.068873
0.336091 0.121201 0.073713
0.357537 0.125919 0.074633
0.378983 0.129841 0.078860
0.402389 0.135722 0.084742
0.428248 0.140564 0.093076
0.451042 0.145404 0.094547
0.476900 0.150246 0.102390
0.499265 0.155085 0.107598
0.519424 0.159927 0.112438
0.543995 0.164766 0.114154
0.561887 0.169056 0.122120
0.579412 0.172978 0.121998
0.596936 0.175367 0.125919
0.607660 0.176900 0.132720
0.628064 0.180821 0.133762
0.641667 0.184743 0.138480
0.659191 0.184743 0.137684
0.672794 0.188664 0.144240
0.686765 0.192586 0.145527
0.700000 0.193566 0.145527
0.713603 0.196507 0.150919
0.724817 0.202819 0.149449
0.740992 0.200429 0.156679
0.754412 0.204351 0.156863
0.766789 0.204351 0.156863
0.782966 0.210417 0.157292
0.795649 0.208272 0.164277
0.808762 0.212255 0.161213
0.824938 0.212194 0.164706
0.837623 0.212194 0.164706
0.850306 0.216115 0.164706
0.863235 0.216115 0.164951
0.874510 0.216115 0.168627
0.874510 0.216115 0.168627
0.874510 0.216115 0.168627
0.874510 0.216115 0.168627
0.028799 0.064093 0.011765
0.032721 0.065441 0.013113
0.034559 0.065441 0.013113
0.036642 0.068015 0.013113
0.040564 0.068015 0.013113
0.043811 0.068015 0.015686
0.050000 0.069363 0.015686
0.054841 0.071936 0.018199
0.062255 0.071936 0.017034
0.064522 0.073284 0.016115
0.071936 0.073284 0.019608
0.078125 0.075858 0.021875
0.086887 0.079044 0.020956
0.099571 0.079779 0.024877
0.108333 0.080882 0.024877
0.121691 0.083701 0.029473
0.129779 0.085049 0.028799
0.142464 0.087623 0.035233
0.159069 0.091544 0.036642
0.171752 0.095466 0.040993
0.187132 0.098162 0.040564
0.203309 0.099387 0.044485
0.218260 0.104657 0.048407
0.234437 0.107230 0.052512
0.249387 0.111152 0.057353
0.266912 0.112500 0.062194
0.284436 0.118995 0.064093
0.301899 0.122917 0.068015
0.324265 0.126838 0.071936
0.340931 0.130760 0.075858
0.361152 0.134681 0.079902
0.384865 0.139951 0.084743
0.409804 0.144485 0.092157
0.430637 0.149326 0.095466
0.458456 0.151716 0.103186
0.481372 0.159008 0.106679
0.502819 0.163848 0.111152
0.524265 0.168689 0.115073
0.547917 0.173530 0.118995
0.562438 0.177819 0.126838
0.583333 0.181740 0.129412
0.595895 0.184130 0.130760
0.614461 0.185662 0.136642
0.628064 0.189583 0.138603
0.645710 0.193505 0.142524
0.659191 0.193505 0.142524
0.671079 0.197426 0.148162
0.686398 0.197487 0.149020
0.700000 0.201348 0.150000
0.715625 0.205270 0.154841
0.728309 0.205270 0.154289
0.744730 0.211581 0.156863
0.757598 0.208578 0.160784
0.770282 0.213113 0.160784
0.785539 0.213113 0.162132
0.799142 0.219179 0.164706
0.812255 0.217034 0.166054
0.824938 0.221017 0.166054
0.837623 0.220956 0.168627
0.850306 0.220956 0.168627
0.863235 0.224877 0.169975
0.874510 0.224877 0.172549
0.874510 0.224877 0.172549
0.874510 0.224877 0.172549
0.874510 0.224877 0.172549
0.035294 0.076777 0.015686
0.036213 0.076777 0.015686
0.041483 0.076777 0.017953
0.045895 0.079044 0.017953
0.049080 0.079044 0.017953
0.053247 0.080698 0.019608
0.057169 0.080698 0.019608
0.061091 0.083211 0.019608
0.065012 0.082966 0.021875
0.072855 0.084620 0.021875
0.075858 0.086887 0.023529
0.084620 0.086887 0.025796
0.091728 0.088542 0.025796
0.104412 0.088726 0.029718
0.113174 0.092463 0.028554
0.125858 0.094485 0.033640
0.134620 0.096385 0.033640
0.147304 0.098652 0.037561
0.162500 0.101164 0.041483
0.178370 0.106495 0.045404
0.193627 0.108149 0.045404
0.205882 0.110416 0.049326
0.223101 0.112684 0.051593
0.238358 0.117524 0.057169
0.255883 0.122365 0.061091
0.273407 0.127206 0.066115
0.287378 0.128125 0.067035
0.308456 0.132966 0.071875
0.328248 0.137867 0.076716
0.345773 0.142647 0.080698
0.367340 0.143566 0.088542
0.389706 0.148407 0.092463
0.413725 0.153248 0.096078
0.438358 0.159130 0.100306
0.462377 0.166850 0.108027
0.484743 0.170894 0.110600
0.507108 0.174816 0.115441
0.529473 0.178738 0.119914
0.548285 0.182659 0.123836
0.568076 0.186581 0.131679
0.583333 0.190502 0.133333
0.600858 0.192892 0.135600
0.618383 0.194424 0.140563
0.631986 0.198345 0.143443
0.645588 0.199571 0.145098
0.660968 0.202267 0.147243
0.676715 0.205331 0.149020
0.690257 0.206251 0.149081
0.705209 0.210110 0.155208
0.717525 0.212010 0.156863
0.731127 0.214032 0.159130
0.744730 0.217770 0.160784
0.758334 0.217953 0.161519
0.771936 0.221875 0.164706
0.785539 0.221875 0.167279
0.797917 0.221875 0.168627
0.812745 0.225796 0.168627
0.826348 0.225796 0.170894
0.839951 0.229780 0.172549
0.853554 0.229718 0.172549
0.866912 0.229718 0.174816
0.874510 0.229718 0.174816
0.874510 0.229718 0.174816
0.874510 0.229718 0.174816
0.874510 0.229718 0.174816
0.042402 0.089461 0.019608
0.046324 0.089461 0.019608
0.050245 0.092647 0.019608
0.049816 0.092647 0.019608
0.054167 0.092647 0.022794
0.055576 0.093383 0.022794
0.060417 0.093383 0.023529
0.065258 0.096568 0.023529
0.073285 0.096568 0.023529
0.074939 0.097304 0.026716
0.082966 0.100490 0.024877
0.091728 0.100490 0.027451
0.097304 0.101226 0.030638
0.106066 0.104411 0.034559
0.118015 0.105147 0.032476
0.130698 0.108333 0.038481
0.139215 0.109069 0.038236
0.152144 0.112254 0.042402
0.166422 0.116176 0.046324
0.183211 0.120098 0.050245
0.198039 0.119608 0.054167
0.214338 0.124019 0.054167
0.231250 0.125368 0.058824
0.245465 0.131862 0.060356
0.259804 0.135784 0.065932
0.277328 0.136520 0.070037
0.294853 0.143627 0.070956
0.312377 0.147549 0.075797
0.333088 0.148285 0.080637
0.351348 0.152206 0.085478
0.375981 0.159313 0.093383
0.397427 0.163235 0.097304
0.417647 0.165931 0.100000
0.443199 0.170772 0.104840
0.465687 0.175000 0.112867
0.488665 0.180454 0.114522
0.511029 0.185294 0.119363
0.533946 0.190135 0.124203
0.552206 0.194975 0.128677
0.569730 0.195895 0.133333
0.587255 0.199265 0.134804
0.605576 0.203187 0.140441
0.618383 0.206495 0.141176
0.631986 0.210294 0.145098
0.651471 0.211030 0.146324
0.663113 0.214215 0.152206
0.676715 0.214951 0.152083
0.690319 0.215013 0.156128
0.703922 0.218873 0.156863
0.717525 0.222794 0.158762
0.732230 0.222794 0.160784
0.744914 0.226532 0.163971
0.758334 0.226716 0.167892
0.771936 0.228370 0.166360
0.786887 0.230638 0.168627
0.799571 0.230638 0.172120
0.812745 0.234559 0.172549
0.826348 0.234559 0.172549
0.839951 0.234559 0.175736
0.853554 0.238481 0.175736
0.866912 0.238481 0.176471
0.878431 0.238481 0.176471
0.878431 0.238481 0.176471
0.878431 0.238481 0.176471
0.878431 0.238481 0.176471
0.051164 0.102329 0.023529
0.052083 0.102329 0.023529
0.055086 0.102329 0.025367
0.061581 0.106066 0.023713
0.059008 0.106066 0.023713
0.063603 0.106250 0.023713
0.068444 0.106250 0.027451
0.073284 0.106250 0.027451
0.078126 0.109988 0.027635
0.082966 0.110172 0.027635
0.091544 0.110172 0.032721
0.096569 0.113909 0.031557
0.105331 0.114093 0.035294
0.110172 0.117831 0.035478
0.122672 0.118934 0.040319
0.131618 0.121753 0.039400
0.144301 0.121937 0.046078
0.160661 0.125674 0.043321
0.174265 0.125858 0.050980
0.186275 0.129780 0.051164
0.201654 0.136213 0.055086
0.218995 0.133701 0.062439
0.232782 0.141360 0.063358
0.250123 0.141544 0.068199
0.267647 0.147732 0.066851
0.281435 0.152574 0.070772
0.298958 0.153492 0.078799
0.316483 0.158334 0.083640
0.339951 0.163173 0.088481
0.355454 0.164890 0.093321
0.376839 0.168995 0.094241
0.399387 0.173774 0.098223
0.425490 0.178616 0.102145
0.445159 0.180760 0.112683
0.474142 0.184682 0.117524
0.496508 0.193137 0.121569
0.517157 0.197978 0.125490
0.534865 0.202818 0.125674
0.556128 0.204106 0.129596
