Color/Polaroid/Polaroid PX-100UV+ Cold 1 -- 65x.cube
TITLE "Polaroid PX-100UV+ Cold 1 --"
LUT_3D_SIZE 9
DOMAIN_MIN 0.000000 0.000000 0.000000
DOMAIN_MAX 1.000000 1.000000 1.000000
0.000000 0.000000 0.000000
0.023039 0.023039 0.026471
0.085295 0.100981 0.100981
0.208824 0.232353 0.236275
0.331372 0.350981 0.354902
0.421078 0.440686 0.440686
0.488236 0.506862 0.500000
0.556863 0.573039 0.560784
0.639216 0.658824 0.631373
0.026961 0.030883 0.030883
0.038726 0.043137 0.043137
0.092157 0.103921 0.108333
0.216667 0.236275 0.240196
0.333334 0.352941 0.356863
0.422549 0.444118 0.444118
0.490196 0.506862 0.501961
0.557353 0.573039 0.557842
0.639216 0.658824 0.631373
0.130392 0.146079 0.150000
0.134804 0.150000 0.153922
0.181373 0.201961 0.204902
0.266667 0.286274 0.290196
0.346079 0.365686 0.369608
0.430393 0.447549 0.444608
0.494117 0.512746 0.505883
0.557353 0.576961 0.561274
0.642157 0.661765 0.634314
0.279412 0.300490 0.304412
0.283334 0.305392 0.309314
0.299510 0.321569 0.322549
0.342157 0.361765 0.365686
0.398039 0.416177 0.417647
0.443137 0.461275 0.458824
0.495098 0.512256 0.506862
0.559314 0.580882 0.565196
0.648529 0.668137 0.636765
0.392157 0.409804 0.411764
0.390687 0.410295 0.410295
0.390196 0.410784 0.409804
0.414216 0.431373 0.431373
0.441176 0.458824 0.456863
0.484314 0.503922 0.498039
0.523529 0.540196 0.531373
0.571078 0.590686 0.573039
0.652941 0.672549 0.643138
0.468137 0.483824 0.481372
0.469608 0.487745 0.483824
0.468137 0.486275 0.482353
0.475980 0.493138 0.489215
0.495588 0.510785 0.507353
0.520588 0.538725 0.528431
0.562745 0.582843 0.567157
0.613726 0.633334 0.610784
0.687745 0.704902 0.672059
0.547059 0.562745 0.550981
0.547059 0.565686 0.550981
0.543137 0.562745 0.548039
0.544608 0.564215 0.550000
0.561764 0.581373 0.565686
0.585294 0.601961 0.585294
0.609804 0.629412 0.605883
0.664706 0.684314 0.651961
0.747059 0.762745 0.719608
0.647549 0.663235 0.635784
0.644117 0.663725 0.639215
0.644117 0.663725 0.635784
0.643627 0.663235 0.635784
0.651961 0.671568 0.640196
0.680392 0.698529 0.664706
0.710784 0.730883 0.691667
0.753921 0.769607 0.726470
0.820098 0.831373 0.780882
0.815686 0.823529 0.776471
0.815686 0.823529 0.776471
0.812745 0.824510 0.777451
0.815686 0.827451 0.780392
0.815686 0.827451 0.780392
0.840686 0.848529 0.801471
0.874510 0.878431 0.827451
0.906372 0.906372 0.858824
0.941176 0.937255 0.886275
0.038726 0.046569 0.046569
0.065687 0.077451 0.077451
0.158333 0.177451 0.181373
0.280392 0.300000 0.303921
0.372549 0.392157 0.396079
0.444608 0.460294 0.460294
0.501471 0.521079 0.513236
0.564706 0.581372 0.565196
0.647059 0.666667 0.635294
0.066177 0.077451 0.077451
0.108333 0.124019 0.127451
0.189706 0.212745 0.213725
0.287745 0.310294 0.314216
0.374020 0.393627 0.395588
0.444608 0.463726 0.461765
0.502941 0.519118 0.513726
0.565686 0.584804 0.569117
0.647059 0.666667 0.639216
0.219608 0.239706 0.243137
0.213725 0.236275 0.240196
0.241176 0.264216 0.267647
0.310294 0.330392 0.334314
0.381373 0.400981 0.401471
0.448039 0.464216 0.464216
0.504902 0.522549 0.514706
0.569117 0.588725 0.572059
0.652941 0.672549 0.641667
0.325000 0.347059 0.348530
0.329902 0.350000 0.353922
0.334314 0.353922 0.357843
0.366666 0.386274 0.390196
0.417157 0.435294 0.435785
0.456373 0.473039 0.472059
0.509314 0.526471 0.518628
0.573039 0.592647 0.576471
0.654902 0.674510 0.645588
0.415196 0.434804 0.434804
0.415686 0.433334 0.435295
0.413235 0.430393 0.430393
0.428922 0.448039 0.448039
0.456863 0.472549 0.470588
0.492157 0.509804 0.503922
0.530392 0.548039 0.538235
0.578922 0.597059 0.579412
0.662745 0.682353 0.650980
0.481863 0.499510 0.495588
0.483824 0.502941 0.497059
0.482353 0.499510 0.495588
0.487745 0.505882 0.499510
0.503922 0.523039 0.515196
0.530882 0.546569 0.538725
0.570098 0.589706 0.574020
0.620098 0.639706 0.615686
0.693628 0.711765 0.674510
0.554902 0.571568 0.558824
0.557843 0.574510 0.561764
0.554902 0.574019 0.558824
0.553921 0.570588 0.557843
0.570098 0.586765 0.571078
0.589706 0.609314 0.589706
0.617647 0.637255 0.612745
0.671568 0.690686 0.656373
0.753431 0.769117 0.725980
0.651960 0.671568 0.640196
0.651960 0.671568 0.640686
0.652451 0.671568 0.643137
0.651961 0.671078 0.640196
0.658824 0.678431 0.647549
0.683333 0.700490 0.667647
0.718137 0.734804 0.695588
0.757353 0.773039 0.729902
0.823529 0.831863 0.784804
0.819608 0.831373 0.784314
0.819608 0.831373 0.783824
0.819608 0.830883 0.783824
0.820588 0.828922 0.781863
0.823039 0.831373 0.784314
0.845098 0.854902 0.803922
0.874510 0.881863 0.830883
0.906863 0.906863 0.855883
0.941176 0.937745 0.886765
0.178431 0.198039 0.201961
0.208824 0.229412 0.232843
0.256863 0.279412 0.283334
0.331863 0.353922 0.355392
0.413725 0.431373 0.432353
0.475980 0.491667 0.487745
0.532353 0.549020 0.540196
0.591667 0.611275 0.591177
0.665687 0.685294 0.653922
0.209804 0.232843 0.236275
0.244608 0.265196 0.268627
0.280882 0.304412 0.308333
0.351961 0.371568 0.375000
0.424510 0.441176 0.441176
0.482843 0.500490 0.496569
0.532843 0.550000 0.540686
0.591177 0.610785 0.591177
0.670098 0.689216 0.657843
0.260784 0.283334 0.287255
0.283334 0.303431 0.307353
0.323529 0.346079 0.350000
0.380883 0.400491 0.401471
0.437255 0.455882 0.454902
0.483824 0.502451 0.498530
0.533333 0.552941 0.541176
0.593137 0.612255 0.592647
0.672549 0.692157 0.656863
0.377941 0.397549 0.398529
0.390196 0.409314 0.410784
0.394117 0.413235 0.413725
0.412745 0.432353 0.432353
0.449020 0.465196 0.464706
0.486765 0.504412 0.498529
0.534313 0.553921 0.542156
0.595588 0.615196 0.595098
0.678431 0.698039 0.662745
0.458823 0.477451 0.474510
0.460294 0.476961 0.475980
0.453921 0.473529 0.469608
0.461275 0.480392 0.476961
0.480392 0.500000 0.494118
0.512746 0.530392 0.522549
0.549019 0.568628 0.553922
0.601961 0.620098 0.600000
0.682353 0.701960 0.667647
0.511275 0.529902 0.520588
0.513236 0.530882 0.523039
0.512746 0.528432 0.521569
0.508824 0.528432 0.520588
0.525980 0.544608 0.534804
0.548039 0.566176 0.552941
0.586765 0.606373 0.586765
0.634804 0.654412 0.627941
0.707353 0.724510 0.687745
0.578432 0.597059 0.578432
0.577451 0.596568 0.577451
0.576471 0.596078 0.579412
0.576471 0.596078 0.577451
0.585294 0.602941 0.585294
0.605883 0.623039 0.602451
0.631373 0.650000 0.625490
0.686275 0.704412 0.668628
0.764706 0.780392 0.737255
0.671568 0.691176 0.659314
0.674020 0.691176 0.659314
0.672549 0.691176 0.659314
0.671568 0.691176 0.656863
0.673039 0.692647 0.658334
0.697549 0.715687 0.679902
0.730392 0.746078 0.706863
0.767157 0.781863 0.738235
0.835784 0.846078 0.796568
0.831373 0.839216 0.792157
0.831863 0.840196 0.792647
0.831373 0.840196 0.792157
0.833824 0.843137 0.794608
0.834314 0.843137 0.795098
0.850980 0.858824 0.809314
0.879412 0.883333 0.833333
0.910784 0.910784 0.862255
0.945098 0.941176 0.890196
0.334314 0.357843 0.359314
0.352451 0.372059 0.373529
0.382843 0.401471 0.402451
0.408824 0.424510 0.425980
0.443137 0.460785 0.459314
0.504902 0.521569 0.515196
0.553921 0.573530 0.559314
0.616176 0.635784 0.611765
0.698039 0.717647 0.682353
0.357843 0.377451 0.380883
0.369608 0.389216 0.393137
0.394608 0.413235 0.414216
0.416667 0.433824 0.433824
0.456373 0.474510 0.472059
0.508333 0.527941 0.520098
0.559804 0.577451 0.563725
0.622059 0.639706 0.616176
0.705882 0.725000 0.686275
0.366666 0.386274 0.389706
0.385294 0.402942 0.405882
0.414216 0.433824 0.433824
0.440686 0.458823 0.456373
0.477451 0.496078 0.492157
0.523039 0.541176 0.530882
0.570588 0.589215 0.573530
0.630883 0.650000 0.624019
0.710294 0.729902 0.690686
0.406373 0.425980 0.425980
0.418137 0.437745 0.437745
0.440196 0.456863 0.456863
0.467647 0.484804 0.480882
0.496569 0.515686 0.508333
0.531863 0.551471 0.539706
0.578922 0.597059 0.578922
0.631863 0.651470 0.624019
0.716177 0.731863 0.692647
0.482843 0.498530 0.494608
0.488726 0.507843 0.500981
0.500000 0.518138 0.511765
0.504412 0.522549 0.516177
0.516177 0.533824 0.525981
0.545098 0.564215 0.550980
0.582353 0.599510 0.582353
0.637255 0.656863 0.629412
0.720098 0.737254 0.698530
0.547549 0.564706 0.552941
0.554412 0.571568 0.558333
0.553922 0.572549 0.559314
0.552941 0.571078 0.556863
0.558333 0.575000 0.562255
0.575000 0.593627 0.576471
0.613235 0.631373 0.609314
0.659314 0.678921 0.647549
0.731863 0.749020 0.708333
0.612255 0.631863 0.609804
0.613726 0.632843 0.609314
0.613236 0.631863 0.608333
0.612745 0.630883 0.608824
0.610784 0.629412 0.606863
0.630392 0.649020 0.622549
0.653921 0.673529 0.643627
0.708333 0.727451 0.689706
0.786275 0.799019 0.754902
0.702941 0.721079 0.683333
0.705392 0.725000 0.685785
0.702941 0.722059 0.685294
0.702451 0.720098 0.682843
0.700490 0.718627 0.682843
0.717647 0.735294 0.696079
0.748530 0.764216 0.722059
0.785784 0.800980 0.753921
0.855392 0.862745 0.812255
0.850980 0.858824 0.810294
0.854902 0.860294 0.811765
0.854412 0.858824 0.811765
0.854902 0.861275 0.811765
0.852941 0.860785 0.810294
0.861765 0.868137 0.818627
0.890196 0.894118 0.843137
0.921569 0.921569 0.870588
0.951471 0.945098 0.894118
0.445098 0.462746 0.460785
0.452941 0.470588 0.468627
0.468627 0.487255 0.483333
0.492157 0.507843 0.503922
0.507843 0.525490 0.517648
0.523039 0.542647 0.531373
0.584314 0.602941 0.584314
0.649019 0.667157 0.639216
0.733333 0.749020 0.709804
0.456863 0.472549 0.472549
0.462255 0.479902 0.477941
0.476471 0.495588 0.491667
0.496078 0.515686 0.507843
0.511765 0.529902 0.522059
0.530882 0.549020 0.538725
0.590196 0.608824 0.589215
0.651471 0.669608 0.641177
0.737255 0.752941 0.712255
0.470588 0.487255 0.483333
0.480392 0.498039 0.494117
0.491177 0.508824 0.502941
0.510784 0.525981 0.518138
0.522549 0.542157 0.531373
0.545098 0.563726 0.551471
0.601961 0.620588 0.600000
0.662255 0.680882 0.649510
0.747059 0.764706 0.722549
0.476471 0.492157 0.488236
0.486274 0.503921 0.498530
0.499020 0.515686 0.510784
0.522059 0.541667 0.531863
0.539706 0.556863 0.545098
0.570588 0.589706 0.574020
0.617647 0.637255 0.612745
0.675490 0.693137 0.661765
0.763235 0.778922 0.735294
0.503922 0.521568 0.513726
0.509314 0.527451 0.519608
0.519608 0.538235 0.529411
0.537745 0.556863 0.543137
0.558823 0.578431 0.562745
0.590196 0.609804 0.590196
0.631373 0.650000 0.625490
0.684804 0.704412 0.669118
0.764706 0.780393 0.737254
0.564706 0.581863 0.568137
0.572059 0.589706 0.572549
0.578431 0.598039 0.578431
0.594118 0.613235 0.593627
0.599510 0.619117 0.597549
0.611274 0.629412 0.605882
0.646568 0.665686 0.637255
0.692157 0.711765 0.676471
0.776471 0.790196 0.747059
0.641177 0.660785 0.632353
0.645098 0.664706 0.636765
0.651961 0.671569 0.643137
0.656863 0.676471 0.646568
0.656863 0.674510 0.645098
0.661765 0.681372 0.650000
0.690196 0.707843 0.672549
0.740686 0.758333 0.715197
0.813726 0.824510 0.777451
0.747549 0.763235 0.720098
0.748530 0.765686 0.722549
0.747549 0.763725 0.720588
0.747549 0.763235 0.720098
0.743627 0.761764 0.720098
0.744117 0.761764 0.718627
0.775000 0.790686 0.743627
0.812745 0.822549 0.775490
0.878921 0.882843 0.833334
0.878431 0.882353 0.831373
0.880392 0.884314 0.835294
0.878431 0.882353 0.831373
0.880392 0.884314 0.834804
0.878431 0.882353 0.833333
0.880882 0.884804 0.835294
0.900980 0.902941 0.851961
0.929902 0.929412 0.878431
0.956863 0.952941 0.901961
0.526961 0.546569 0.534804
0.532843 0.550490 0.540686
0.542647 0.560784 0.549020
0.560784 0.580392 0.564706
0.581863 0.601471 0.581863
0.593627 0.610784 0.589706
0.600981 0.620098 0.597058
0.675490 0.692647 0.659804
0.774020 0.789706 0.742647
0.534804 0.553922 0.542157
0.542157 0.558333 0.546569
0.550490 0.568627 0.556373
0.566176 0.583824 0.569607
0.583823 0.601961 0.584314
0.595588 0.613725 0.593627
0.608823 0.627451 0.604902
0.679412 0.699019 0.663725
0.777941 0.792157 0.746569
0.547059 0.566666 0.554902
0.553432 0.570098 0.558333
0.562255 0.579412 0.564706
0.575491 0.594118 0.576961
0.593627 0.611274 0.588725
0.604412 0.624020 0.601471
0.621078 0.639216 0.615686
0.694608 0.714216 0.678921
0.786274 0.800490 0.754902
0.549020 0.568627 0.554412
0.559314 0.578922 0.563235
0.572549 0.592647 0.575491
0.585784 0.605392 0.585784
0.603431 0.623039 0.601471
0.619608 0.639216 0.615686
0.642647 0.661275 0.632843
0.717647 0.735294 0.696079
0.802451 0.814216 0.767157
0.564215 0.583823 0.568137
0.570098 0.587745 0.570588
0.577941 0.597549 0.576961
0.592157 0.610294 0.590686
0.617157 0.634804 0.611274
0.636275 0.654412 0.626961
0.674510 0.693137 0.661275
0.737255 0.754902 0.712745
0.817157 0.828921 0.781863
0.587255 0.606863 0.587255
0.593137 0.612745 0.591667
0.600490 0.620098 0.599020
0.613235 0.632843 0.609314
0.632843 0.652451 0.625000
0.661765 0.679902 0.648529
0.702941 0.720098 0.683824
0.758333 0.774020 0.730882
0.834314 0.844608 0.795098
0.660785 0.680392 0.649020
0.666177 0.684804 0.653431
0.674019 0.692647 0.660785
0.685785 0.703922 0.669118
0.705392 0.721569 0.684804
0.715687 0.731863 0.695098
0.732843 0.750000 0.709313
0.780392 0.795098 0.750490
0.848039 0.855883 0.805392
0.769607 0.784804 0.739216
0.773529 0.786275 0.742156
0.780392 0.795588 0.749020
0.791176 0.804412 0.758333
0.802941 0.814706 0.767647
0.800980 0.812745 0.765686
0.813236 0.825000 0.777942
0.848039 0.855882 0.804902
0.900980 0.903431 0.852941
0.905882 0.905882 0.856373
0.905882 0.905882 0.855392
0.911274 0.911274 0.860294
0.911274 0.911274 0.860294
0.911274 0.911764 0.862745
0.913725 0.913725 0.862745
0.918627 0.917647 0.867647
0.941666 0.937745 0.889216
0.968627 0.960784 0.909804
0.624510 0.644118 0.616667
0.626961 0.644117 0.620588
0.635294 0.653921 0.627451
0.648039 0.666176 0.636275
0.666667 0.684314 0.652941
0.688726 0.708333 0.672059
0.700000 0.718628 0.680392
0.699019 0.715687 0.679902
0.800981 0.812745 0.765686
0.625490 0.645098 0.620098
0.633334 0.651961 0.625490
0.637255 0.656863 0.628431
0.651470 0.671078 0.640196
0.671078 0.690686 0.658334
0.695098 0.716667 0.677941
0.703922 0.721078 0.684804
0.703431 0.719608 0.683824
0.806373 0.819118 0.771078
0.636274 0.655882 0.629412
0.640196 0.659804 0.631373
0.645098 0.664706 0.636275
0.660295 0.679902 0.648530
0.678431 0.698039 0.664706
0.700490 0.721569 0.683334
0.712745 0.730392 0.691176
0.717157 0.734313 0.695098
0.817647 0.829412 0.782353
0.644118 0.663725 0.633824
0.652941 0.672549 0.640196
0.658824 0.676961 0.647059
0.668628 0.688236 0.656863
0.685294 0.704902 0.669608
0.710785 0.730392 0.691176
0.724020 0.740686 0.700490
0.738235 0.754412 0.712745
0.836274 0.845588 0.796078
0.639216 0.657843 0.630392
0.645098 0.663726 0.636275
0.658824 0.678431 0.646078
0.678922 0.696569 0.664706
0.700980 0.717647 0.681372
0.724510 0.742647 0.700980
0.741176 0.756863 0.715687
0.770588 0.783824 0.740686
0.861765 0.868627 0.817647
0.660294 0.679902 0.648529
0.666177 0.685785 0.654412
0.674510 0.694118 0.657353
0.685785 0.703922 0.670098
0.703922 0.722549 0.684314
0.742156 0.757843 0.714706
0.765686 0.781373 0.737255
0.810784 0.822549 0.775000
0.886275 0.890196 0.839216
0.689216 0.708823 0.672549
0.695098 0.714706 0.678921
0.702941 0.719608 0.684314
0.714216 0.732353 0.692157
0.732353 0.749020 0.708823
0.759804 0.774510 0.731373
0.798039 0.809804 0.765686
0.846078 0.852941 0.805883
0.906862 0.907843 0.856863
0.797058 0.808823 0.761764
0.798039 0.812745 0.765686
0.805883 0.818137 0.770588
0.819608 0.827941 0.780882
0.834314 0.844117 0.794608
0.855882 0.861275 0.813236
0.867647 0.872059 0.821569
0.887255 0.891176 0.840196
0.930392 0.926471 0.878431
0.921569 0.921569 0.870588
0.922549 0.921569 0.871568
0.926471 0.923530 0.872549
0.931863 0.929412 0.879412
0.938235 0.935294 0.884314
0.949020 0.945098 0.894118
0.946079 0.942157 0.891177
0.957353 0.953431 0.902451
0.980392 0.972549 0.921569
0.753431 0.769117 0.725980
0.754412 0.770098 0.726961
0.764216 0.779902 0.734313
0.773529 0.789215 0.745588
0.790686 0.802451 0.757353
0.810294 0.821079 0.773529
0.835294 0.843627 0.796078
0.840196 0.848039 0.800980
0.844117 0.851961 0.804412
0.753921 0.769607 0.726470
0.761274 0.776961 0.733333
0.768627 0.781372 0.736765
0.777451 0.791176 0.746078
0.793137 0.807843 0.760784
0.810785 0.822549 0.774510
0.836274 0.845098 0.797058
0.840686 0.851470 0.801471
0.844608 0.855392 0.804412
0.762255 0.777942 0.733333
0.765687 0.780882 0.737255
0.773529 0.788725 0.742156
0.783824 0.797058 0.751961
0.797549 0.811765 0.763725
0.819608 0.830883 0.778922
0.841177 0.849020 0.800980
0.848530 0.855882 0.807843
0.850980 0.858334 0.807843
0.769607 0.785294 0.740196
0.777942 0.789215 0.745588
0.781372 0.794608 0.750000
0.793137 0.806863 0.761274
0.806863 0.818627 0.771568
0.828922 0.838235 0.789705
0.850000 0.857843 0.805393
0.859804 0.865686 0.816666
0.859314 0.867157 0.816176
0.771078 0.786765 0.741666
0.777451 0.791176 0.746078
0.785294 0.800980 0.753921
0.800980 0.814706 0.767647
0.816666 0.826470 0.778922
0.835784 0.844117 0.796568
0.857843 0.863725 0.814706
0.869608 0.875000 0.825980
0.880882 0.884804 0.835295
0.769607 0.785294 0.739216
0.772059 0.787254 0.743627
0.778432 0.791667 0.747059
0.796078 0.809804 0.762745
0.820098 0.832353 0.785294
0.845098 0.852941 0.804412
0.868138 0.876471 0.825490
0.886765 0.890686 0.839706
0.913725 0.913725 0.862745
0.798529 0.810784 0.763235
0.801961 0.813726 0.769607
0.811275 0.823039 0.773529
0.814706 0.825980 0.776961
0.831373 0.840686 0.792157
0.848530 0.856373 0.806863
0.884314 0.887745 0.837255
0.907353 0.907353 0.860294
0.946079 0.942156 0.891176
0.836274 0.847549 0.796568
0.839216 0.847059 0.800000
0.844117 0.851470 0.804412
0.851961 0.859804 0.810294
0.865686 0.871568 0.822549
0.884804 0.888236 0.840196
0.907353 0.910294 0.859314
0.934313 0.933823 0.882843
0.969117 0.961274 0.910294
0.937255 0.933333 0.882353
0.940196 0.936765 0.885785
0.941666 0.937745 0.886765
0.949020 0.945098 0.894118
0.954902 0.950981 0.900000
0.965196 0.959804 0.908824
0.976471 0.968627 0.917647
0.980882 0.972549 0.922059
0.996078 0.984314 0.936765
0.909804 0.913725 0.862745
0.913725 0.913725 0.862745
0.914706 0.914706 0.863726
0.921569 0.921569 0.870588
0.929412 0.929412 0.878431
0.941176 0.937255 0.886275
0.949020 0.945098 0.894118
0.960784 0.956863 0.905882
0.964706 0.956863 0.905882
0.909804 0.913725 0.862745
0.914215 0.914215 0.863235
0.917647 0.917647 0.866667
0.924020 0.921569 0.870588
0.929412 0.929412 0.878431
0.938725 0.934804 0.886275
0.950000 0.946079 0.895098
0.964216 0.953431 0.902451
0.968137 0.960784 0.909804
0.916666 0.916666 0.865686
0.917647 0.917647 0.866667
0.921569 0.917647 0.870588
0.925490 0.925490 0.874510
0.932353 0.929412 0.878431
0.941176 0.937255 0.886275
0.950000 0.946079 0.895098
0.964706 0.956863 0.903431
0.967647 0.960784 0.909804
0.917647 0.917647 0.866667
0.921569 0.921569 0.870588
0.925490 0.924510 0.875000
0.929412 0.929412 0.878431
0.937255 0.933333 0.884314
0.944117 0.940196 0.889215
0.953922 0.949020 0.896568
0.968627 0.960784 0.909804
0.972549 0.964706 0.913725
0.925490 0.923530 0.872549
0.928922 0.925490 0.874510
0.927451 0.925490 0.874510
0.933333 0.933823 0.882353
0.941176 0.939215 0.888235
0.953431 0.945098 0.898529
0.960784 0.951960 0.900981
0.970588 0.966667 0.915686
0.976471 0.968627 0.917647
0.917647 0.917647 0.866667
0.921569 0.923530 0.872549
0.924019 0.925490 0.874510
0.934804 0.930882 0.879902
0.945098 0.941176 0.890196
0.954412 0.949020 0.898039
0.968627 0.960784 0.909804
0.976471 0.968627 0.917647
0.984314 0.974020 0.923039
0.929412 0.926471 0.875490
0.930392 0.929412 0.878431
0.933333 0.932353 0.881373
0.937255 0.933333 0.882353
0.945098 0.941176 0.890196
0.959804 0.952941 0.901961
0.973530 0.965686 0.914706
0.988725 0.976471 0.925490
0.992157 0.981372 0.930392
0.952941 0.949020 0.898039
0.952941 0.945588 0.894608
0.956863 0.950000 0.901961
0.960294 0.952941 0.901961
0.961274 0.955393 0.906372
0.969117 0.964706 0.913725
0.976471 0.968627 0.917647
0.992157 0.983824 0.933333
1.000000 0.992157 0.941176
0.972549 0.964706 0.913725
0.972549 0.964706 0.913725
0.976471 0.968627 0.917647
0.977941 0.970098 0.919118
0.982353 0.972549 0.923530
0.985784 0.976471 0.925490
0.993137 0.981372 0.933333
1.000000 0.992157 0.941176
1.000000 1.000000 0.949020
