Color/Polaroid/Polaroid 690 1 -- 65x.cube
TITLE "Polaroid 690 1 --"
LUT_3D_SIZE 9
DOMAIN_MIN 0.000000 0.000000 0.000000
DOMAIN_MAX 1.000000 1.000000 1.000000
0.000000 0.000000 0.000000
0.050000 0.000000 0.000000
0.154902 0.000000 0.000000
0.318628 0.000000 0.000000
0.490197 0.000000 0.000000
0.657843 0.000000 0.000000
0.802941 0.000000 0.000000
0.942156 0.000000 0.000000
1.000000 0.000000 0.000000
0.000000 0.046569 0.000000
0.050490 0.054412 0.000000
0.189216 0.043137 0.000000
0.359804 0.000000 0.000000
0.523529 0.000000 0.000000
0.690196 0.000000 0.000000
0.825490 0.000000 0.000000
0.953921 0.000000 0.000000
1.000000 0.000000 0.000000
0.000000 0.180392 0.000000
0.000000 0.185294 0.000000
0.186274 0.205882 0.000000
0.405882 0.204902 0.000000
0.609804 0.169608 0.000000
0.753921 0.048530 0.000000
0.873529 0.000000 0.000000
0.977451 0.000000 0.000000
1.000000 0.000000 0.000000
0.000000 0.350000 0.000000
0.000000 0.359804 0.000000
0.123039 0.368627 0.000000
0.377451 0.399510 0.000000
0.605882 0.404902 0.000000
0.788725 0.405882 0.000000
0.911765 0.382353 0.000000
1.000000 0.347059 0.000000
1.000000 0.343137 0.000000
0.000000 0.509804 0.000000
0.000000 0.510295 0.000000
0.000000 0.505883 0.000000
0.321079 0.529902 0.000000
0.549019 0.556863 0.000000
0.748039 0.573039 0.000000
0.896079 0.578431 0.000000
1.000000 0.594117 0.000000
1.000000 0.584314 0.000000
0.000000 0.638235 0.000000
0.000000 0.642157 0.000000
0.000000 0.636765 0.000000
0.302941 0.642157 0.000000
0.511274 0.661765 0.000000
0.708824 0.682843 0.000000
0.864706 0.695588 0.000000
0.984804 0.704902 0.000000
1.000000 0.712745 0.000000
0.000000 0.755882 0.000000
0.000000 0.761275 0.000000
0.188235 0.750981 0.000000
0.363235 0.748529 0.000000
0.539216 0.757843 0.000000
0.704412 0.769607 0.000000
0.846078 0.778432 0.000000
0.961764 0.794118 0.000000
1.000000 0.800981 0.000000
0.303432 0.859314 0.000000
0.341666 0.859314 0.000000
0.408334 0.855882 0.000000
0.507354 0.851470 0.000000
0.618627 0.851470 0.000000
0.744117 0.860785 0.000000
0.855883 0.871078 0.000000
0.957353 0.883333 0.000000
1.000000 0.894608 0.000000
0.533333 0.976471 0.164706
0.549020 0.976471 0.157353
0.588235 0.973530 0.138235
0.645588 0.972549 0.095588
0.715687 0.972549 0.000000
0.795098 0.976471 0.000000
0.878431 0.983334 0.000000
0.957843 0.988235 0.000000
1.000000 0.996078 0.000000
0.003922 0.003922 0.042647
0.050000 0.003432 0.046569
0.150490 0.000000 0.041666
0.314706 0.000000 0.042647
0.480883 0.000000 0.026961
0.642647 0.000000 0.013725
0.785294 0.000000 0.000000
0.923040 0.000000 0.000000
1.000000 0.000000 0.000000
0.000490 0.047059 0.043137
0.054412 0.054412 0.050490
0.189216 0.034314 0.046079
0.351961 0.000000 0.038236
0.517157 0.000000 0.025000
0.673529 0.000000 0.011275
0.810294 0.000000 0.000000
0.942156 0.000000 0.000000
1.000000 0.000000 0.000000
0.000000 0.199020 0.041666
0.003922 0.197059 0.034314
0.201961 0.212745 0.012255
0.417647 0.212255 0.010784
0.598039 0.165196 0.003432
0.735784 0.037255 0.000000
0.860295 0.000000 0.000000
0.972549 0.000000 0.000000
1.000000 0.000000 0.000000
0.000000 0.362745 0.000000
0.000000 0.372059 0.000000
0.153922 0.373529 0.000000
0.389216 0.404412 0.000000
0.610784 0.408334 0.000000
0.788725 0.408824 0.000000
0.905882 0.376471 0.000000
0.997059 0.339216 0.000000
1.000000 0.333823 0.000000
0.000000 0.519608 0.000000
0.000000 0.521568 0.000000
0.057843 0.513726 0.000000
0.336274 0.533334 0.000000
0.556863 0.560785 0.000000
0.750000 0.571079 0.000000
0.896079 0.580392 0.000000
1.000000 0.596569 0.000000
1.000000 0.580392 0.000000
0.000000 0.644608 0.000000
0.000000 0.650000 0.000000
0.020588 0.643137 0.000000
0.318628 0.646078 0.000000
0.520098 0.662745 0.000000
0.712745 0.685784 0.000000
0.865196 0.696079 0.000000
0.983824 0.705882 0.000000
1.000000 0.713236 0.000000
0.000000 0.758824 0.000000
0.000000 0.759314 0.000000
0.210294 0.754902 0.000000
0.371569 0.747549 0.000000
0.542647 0.758333 0.000000
0.703431 0.768137 0.000000
0.848529 0.781373 0.000000
0.961764 0.792647 0.000000
1.000000 0.801961 0.000000
0.300490 0.859314 0.000000
0.338726 0.859314 0.000000
0.411275 0.855883 0.000000
0.507843 0.851961 0.000000
0.620098 0.851470 0.000000
0.740686 0.859804 0.000000
0.855883 0.871078 0.000000
0.956863 0.883333 0.000000
1.000000 0.890686 0.000000
0.529902 0.976471 0.226961
0.545098 0.976471 0.223039
0.583824 0.975981 0.207843
0.642647 0.973530 0.178432
0.715687 0.972549 0.126471
0.794118 0.976471 0.079902
0.875000 0.982843 0.000000
0.954412 0.985294 0.000000
1.000000 0.992647 0.000000
0.000000 0.007843 0.181373
0.000000 0.003922 0.193137
0.177451 0.000000 0.208824
0.329902 0.000000 0.166666
0.489216 0.000000 0.158823
0.630392 0.000000 0.147059
0.750980 0.000000 0.133333
0.902941 0.000000 0.080392
1.000000 0.000000 0.055883
0.000000 0.054412 0.182353
0.024019 0.061765 0.198529
0.201471 0.050980 0.217157
0.346078 0.011765 0.179412
0.509804 0.000000 0.174020
0.643628 0.000000 0.156373
0.778922 0.000000 0.110294
0.918627 0.000000 0.087745
1.000000 0.000000 0.059804
0.000000 0.197059 0.204902
0.019608 0.204902 0.212745
0.220588 0.223529 0.228432
0.403921 0.193627 0.212745
0.567647 0.137255 0.190196
0.703922 0.000000 0.161765
0.832353 0.000000 0.134314
0.953921 0.000000 0.103921
1.000000 0.000000 0.065686
0.000000 0.384314 0.216667
0.000000 0.396569 0.224510
0.198529 0.396078 0.214216
0.413726 0.415196 0.203922
0.619117 0.416667 0.214216
0.775000 0.401471 0.217157
0.886765 0.351471 0.176961
0.984804 0.311765 0.136274
1.000000 0.299510 0.088726
0.000000 0.543137 0.207843
0.000000 0.548529 0.204412
0.148039 0.537254 0.186275
0.364216 0.541667 0.166176
0.572549 0.568628 0.143137
0.756863 0.576961 0.150000
0.897059 0.588235 0.202941
0.996568 0.589706 0.224020
1.000000 0.565686 0.176470
0.000000 0.661765 0.171078
0.000000 0.666176 0.171078
0.135294 0.660294 0.151471
0.341176 0.650980 0.117647
0.534313 0.669608 0.097059
0.719118 0.689216 0.060294
0.868628 0.699510 0.085294
0.983334 0.707353 0.173529
1.000000 0.719118 0.275490
0.000000 0.766667 0.150980
0.046079 0.765686 0.146569
0.242157 0.761764 0.124510
0.391177 0.754902 0.077941
0.546079 0.756863 0.024510
0.707353 0.768137 0.002941
0.847059 0.782353 0.000000
0.962255 0.794118 0.025000
1.000000 0.801961 0.160784
0.300980 0.863235 0.181863
0.338726 0.863235 0.177941
0.411765 0.860294 0.159314
0.504902 0.855392 0.115196
0.614706 0.851470 0.022549
0.738725 0.859314 0.007843
0.851961 0.871078 0.000000
0.953921 0.883333 0.000000
1.000000 0.894608 0.069608
0.518628 0.976471 0.332353
0.534313 0.973530 0.332353
0.572549 0.973530 0.320588
0.633333 0.972549 0.300980
0.707843 0.973529 0.268627
0.785784 0.976471 0.245098
0.867647 0.980392 0.221568
0.953431 0.988235 0.173530
1.000000 0.996078 0.011764
0.000000 0.010294 0.375980
0.000000 0.006863 0.387745
0.119608 0.000000 0.416667
0.379902 0.000000 0.430882
0.531373 0.000000 0.366667
0.651471 0.000000 0.318628
0.774510 0.000000 0.299020
0.893137 0.000000 0.277451
1.000000 0.000000 0.254412
0.000000 0.068627 0.375980
0.000000 0.072549 0.391666
0.166176 0.066667 0.419608
0.399510 0.011275 0.436275
0.540686 0.000000 0.376470
0.660294 0.000000 0.331372
0.782353 0.000000 0.306863
0.898529 0.000000 0.279412
1.000000 0.000000 0.250490
0.000000 0.189706 0.369117
0.000000 0.201961 0.384804
0.208824 0.229412 0.420588
0.426471 0.247058 0.453432
0.551961 0.214706 0.388725
0.681372 0.125000 0.356372
0.795588 0.000000 0.317157
0.907353 0.000000 0.273039
1.000000 0.000000 0.214706
0.000000 0.382843 0.404902
0.000000 0.398039 0.420588
0.232353 0.415196 0.434804
0.430882 0.434804 0.454412
0.592156 0.389706 0.416667
0.726961 0.340196 0.376961
0.850490 0.286275 0.338725
0.957843 0.223530 0.297059
1.000000 0.179412 0.262255
0.000000 0.563235 0.423040
0.000000 0.572549 0.428922
0.221078 0.575000 0.428922
0.399510 0.565196 0.413235
0.586765 0.580392 0.407353
0.763725 0.590686 0.423039
0.886765 0.592647 0.435294
0.979902 0.555882 0.387745
1.000000 0.531373 0.342157
0.000000 0.686275 0.400490
0.000000 0.691667 0.408824
0.225491 0.687745 0.402941
0.383823 0.677451 0.379902
0.547059 0.675980 0.362745
0.724510 0.695588 0.366666
0.870098 0.705882 0.385784
0.975981 0.712746 0.428431
1.000000 0.724510 0.482353
0.021079 0.779412 0.385784
0.154412 0.778432 0.384804
0.280392 0.774510 0.370098
0.414706 0.769607 0.350980
0.546078 0.758824 0.317157
0.705883 0.770588 0.324020
0.846078 0.784804 0.332353
0.959314 0.795588 0.354902
1.000000 0.805883 0.411274
0.295588 0.867647 0.381863
0.334313 0.869608 0.380392
0.403922 0.866667 0.368137
0.498529 0.860785 0.344118
0.605883 0.854902 0.310785
0.727451 0.858334 0.300490
0.844117 0.871078 0.305392
0.949510 0.883333 0.313235
1.000000 0.894608 0.350000
0.501961 0.976471 0.463726
0.519118 0.977941 0.463726
0.556863 0.976471 0.455882
0.615686 0.976471 0.437745
0.690196 0.974510 0.412745
0.774020 0.976471 0.385294
0.859804 0.983334 0.380392
0.945588 0.988235 0.363725
1.000000 0.994608 0.325000
0.000000 0.007843 0.560785
0.000000 0.002451 0.570588
0.000000 0.000000 0.592156
0.368627 0.000000 0.627451
0.605882 0.000000 0.637255
0.713235 0.000000 0.561275
0.802941 0.000000 0.495098
0.914215 0.000000 0.474509
1.000000 0.000000 0.460784
0.000000 0.081863 0.557353
0.000000 0.082843 0.570098
0.103921 0.081863 0.592156
0.394118 0.058334 0.631373
0.613726 0.000000 0.637745
0.715686 0.000000 0.565196
0.804412 0.000000 0.500981
0.916176 0.000000 0.476470
1.000000 0.000000 0.460784
0.000000 0.212745 0.557843
0.000000 0.227451 0.573039
0.187255 0.238235 0.593137
0.417647 0.258333 0.625981
0.622549 0.258823 0.641177
0.718137 0.224510 0.569118
0.812745 0.172549 0.513726
0.920098 0.000000 0.481373
1.000000 0.000000 0.451961
0.000000 0.358333 0.541667
0.000000 0.373529 0.556862
0.196079 0.384314 0.564216
0.419118 0.425490 0.607843
0.619607 0.448529 0.635294
0.713235 0.408334 0.570588
0.820588 0.328432 0.526471
0.923040 0.202451 0.472059
1.000000 0.000000 0.417157
0.000000 0.556863 0.578431
0.000000 0.564705 0.585784
0.253922 0.572549 0.594117
0.438235 0.586275 0.607843
0.607843 0.603921 0.627451
0.735294 0.559804 0.586765
0.849020 0.506863 0.538235
0.953431 0.456372 0.487745
1.000000 0.415686 0.439216
0.073530 0.703431 0.596078
0.197059 0.707353 0.602451
0.319608 0.706372 0.600490
0.453922 0.707353 0.600490
0.576470 0.697059 0.578431
0.732353 0.704902 0.576961
0.867647 0.715196 0.600490
0.964706 0.720098 0.624510
1.000000 0.693137 0.575490
0.201961 0.793137 0.581373
0.256373 0.794118 0.582353
0.342157 0.792157 0.575490
0.457843 0.785294 0.564705
0.568628 0.774510 0.535294
0.699020 0.771568 0.519608
0.845098 0.790196 0.536274
0.953921 0.800981 0.561275
1.000000 0.808823 0.611765
0.324510 0.876961 0.570588
0.357353 0.875981 0.569118
0.413235 0.875000 0.558824
0.498530 0.869118 0.538725
0.598529 0.863235 0.509804
0.707353 0.855882 0.474510
0.830392 0.871078 0.491667
0.939706 0.885294 0.507844
1.000000 0.896569 0.544608
0.492157 0.978432 0.609804
0.509804 0.980392 0.607843
0.542156 0.976471 0.600000
0.601961 0.978432 0.588236
0.670588 0.976471 0.564705
0.754412 0.976471 0.535784
0.845098 0.981372 0.529411
0.934313 0.988725 0.529412
1.000000 0.994117 0.513726
0.000000 0.011765 0.712745
0.000000 0.001961 0.720588
0.000000 0.000000 0.736274
0.370588 0.000000 0.759804
0.609804 0.000000 0.785784
0.783333 0.000000 0.781863
0.863726 0.000000 0.723530
0.938235 0.000000 0.670098
1.000000 0.000000 0.646078
0.000000 0.100981 0.712745
0.000000 0.104902 0.724020
0.108333 0.100981 0.738725
0.391666 0.092647 0.758333
0.618138 0.086275 0.783823
0.783823 0.063235 0.779902
0.864216 0.001471 0.725000
0.937255 0.001961 0.670588
1.000000 0.000000 0.647549
0.000000 0.235294 0.712255
0.000000 0.241176 0.720588
0.191176 0.249019 0.732353
0.417157 0.266667 0.753432
0.624020 0.291177 0.778432
0.783333 0.296569 0.779412
0.861275 0.263235 0.724020
0.933823 0.233824 0.670588
1.000000 0.140686 0.649020
0.000000 0.359314 0.679902
0.000000 0.375490 0.696569
0.212745 0.395588 0.714216
0.420588 0.420588 0.734804
0.616667 0.456863 0.764215
0.772549 0.477941 0.776471
0.845588 0.430392 0.719608
0.925000 0.382843 0.666667
1.000000 0.274510 0.640686
0.000000 0.525980 0.685784
0.000000 0.533334 0.691667
0.205392 0.537254 0.695588
0.388235 0.541667 0.701961
0.594117 0.588236 0.740686
0.757843 0.621568 0.768137
0.829902 0.573039 0.713235
0.922059 0.483824 0.659804
1.000000 0.363235 0.606372
0.065196 0.689216 0.712745
0.194118 0.695098 0.716667
0.330392 0.698530 0.722059
0.475490 0.703431 0.730882
0.619607 0.711275 0.742647
0.751961 0.724510 0.763725
0.840196 0.687745 0.723530
0.933823 0.638726 0.670098
1.000000 0.596569 0.620098
0.383824 0.801961 0.743627
0.414216 0.802451 0.744117
0.470588 0.801961 0.744117
0.547549 0.799510 0.741177
0.633333 0.798039 0.737255
0.720588 0.786765 0.716667
0.841177 0.798529 0.718137
0.945588 0.809314 0.741177
1.000000 0.820098 0.773529
0.429412 0.882843 0.733333
0.449020 0.882843 0.732353
0.490687 0.882843 0.731373
0.549020 0.879902 0.721569
0.626470 0.875980 0.709804
0.707353 0.867157 0.675980
0.816666 0.870588 0.664706
0.928922 0.887255 0.688236
0.997549 0.896079 0.717647
0.519118 0.980392 0.748039
0.529412 0.980392 0.746569
0.551961 0.981863 0.741667
0.605392 0.980392 0.736274
0.664706 0.980392 0.720588
0.738725 0.980392 0.695588
0.825490 0.981863 0.673529
0.921079 0.988235 0.677451
1.000000 0.996078 0.681372
0.000000 0.048039 0.844118
0.000000 0.043137 0.848039
0.174510 0.027451 0.853921
0.411274 0.000000 0.863726
0.612745 0.000000 0.878431
0.791666 0.075980 0.895098
0.910784 0.125491 0.887255
0.977451 0.097549 0.849020
1.000000 0.171568 0.817647
0.000000 0.133823 0.840196
0.000000 0.137745 0.848039
0.216667 0.136275 0.851961
0.430392 0.136275 0.863235
0.620098 0.151470 0.877941
0.794118 0.205392 0.895098
0.908333 0.229902 0.884804
0.973530 0.200980 0.849510
1.000000 0.235294 0.816176
0.000000 0.259804 0.836275
0.004902 0.261275 0.841177
0.259804 0.268627 0.844118
0.448039 0.283334 0.856863
0.629412 0.310785 0.872549
0.790196 0.359314 0.888726
0.900000 0.377451 0.886275
0.965196 0.339216 0.845098
1.000000 0.338235 0.815686
0.000000 0.384314 0.816667
0.018627 0.395588 0.825490
0.267647 0.408334 0.832353
0.447549 0.425490 0.845098
0.619117 0.455392 0.859804
0.776961 0.509804 0.878431
0.883333 0.526471 0.879412
0.948039 0.478431 0.840686
1.000000 0.454412 0.808333
0.000000 0.498039 0.784314
0.000000 0.505883 0.792157
0.191176 0.517648 0.801961
0.408824 0.543627 0.820098
0.600000 0.581373 0.842157
0.759804 0.631373 0.867647
0.868628 0.648039 0.873529
0.930883 0.601471 0.833824
1.000000 0.558824 0.798039
0.000000 0.662255 0.798529
0.042647 0.664706 0.803432
0.249020 0.667647 0.802451
0.402451 0.665686 0.806373
0.552941 0.667647 0.812255
0.738725 0.711765 0.848039
0.862745 0.742647 0.871568
0.914706 0.693627 0.825490
0.999019 0.625490 0.784804
0.335294 0.786275 0.821569
0.375000 0.789216 0.824509
0.445098 0.790196 0.828432
0.540196 0.790196 0.830882
0.648039 0.794118 0.837255
0.755392 0.804412 0.848039
0.855883 0.820588 0.867647
0.923040 0.778432 0.825980
1.000000 0.740196 0.787255
0.558334 0.890686 0.852941
0.571568 0.890686 0.853431
0.601471 0.890686 0.853921
0.644118 0.890196 0.855392
0.697059 0.888236 0.851961
0.758333 0.887255 0.845098
0.817647 0.875490 0.821569
0.922059 0.894118 0.832353
1.000000 0.902451 0.852451
0.604902 0.980392 0.859804
0.616176 0.980392 0.860785
0.633334 0.978432 0.857843
0.662255 0.980392 0.855883
0.700000 0.981373 0.848039
0.753922 0.984314 0.839706
0.813726 0.984314 0.813726
0.906862 0.988725 0.805393
1.000000 0.999019 0.817647
0.163235 0.141666 0.941176
0.236765 0.138725 0.938235
0.360294 0.140686 0.944117
0.505882 0.145588 0.945588
0.652941 0.163235 0.950981
0.791666 0.215687 0.957353
0.910294 0.308333 0.964706
0.992647 0.342647 0.957353
1.000000 0.331373 0.945588
0.190686 0.200000 0.934313
0.267157 0.207353 0.941176
0.378431 0.207843 0.941666
0.511765 0.217157 0.945588
0.658333 0.237745 0.949510
0.789215 0.278431 0.951470
0.906863 0.365686 0.964706
0.989215 0.389215 0.956863
1.000000 0.374020 0.945098
0.237255 0.307843 0.933333
0.291177 0.311765 0.933333
0.395098 0.320098 0.937745
0.523039 0.330392 0.941666
0.659314 0.353431 0.945588
0.787745 0.399020 0.952451
0.899020 0.467157 0.955883
0.978432 0.485294 0.953431
1.000000 0.455883 0.938235
0.213235 0.425000 0.924020
0.283823 0.432353 0.925980
0.388725 0.442157 0.927941
0.519118 0.456373 0.933823
0.654902 0.481373 0.937745
0.781863 0.528431 0.945588
0.883824 0.585784 0.952941
0.965196 0.593627 0.949510
1.000000 0.555882 0.930392
0.065196 0.537254 0.909804
0.187255 0.541667 0.910294
0.326471 0.547549 0.911765
0.482353 0.565196 0.920588
0.633824 0.592647 0.926470
0.766176 0.631373 0.935784
0.872549 0.674509 0.945588
0.954902 0.682353 0.947059
1.000000 0.643628 0.925980
0.000000 0.650000 0.891176
0.000000 0.650980 0.894608
0.202451 0.644607 0.892157
0.385784 0.649020 0.897549
0.579902 0.672549 0.908823
0.740196 0.707353 0.922059
0.864706 0.747549 0.938725
0.948040 0.764706 0.944117
1.000000 0.724510 0.922059
0.281863 0.775490 0.899510
0.319118 0.777942 0.902451
0.392648 0.777451 0.902451
0.480883 0.769118 0.899510
0.584804 0.768627 0.902451
0.689706 0.762255 0.899510
0.841177 0.802451 0.923040
0.942647 0.841177 0.941666
0.997059 0.794608 0.914706
0.506862 0.878921 0.913725
0.525490 0.878921 0.913235
0.563725 0.881373 0.913725
0.618627 0.880392 0.914215
0.690686 0.881373 0.916176
0.771568 0.886765 0.919608
0.852941 0.894608 0.925980
0.937745 0.914215 0.937745
1.000000 0.871568 0.906862
0.686275 0.979902 0.929902
0.697059 0.979902 0.932843
0.713726 0.977941 0.929902
0.742156 0.980392 0.933823
0.775000 0.982353 0.931863
0.812745 0.983334 0.929902
0.855392 0.985294 0.925980
0.902941 0.988235 0.906862
1.000000 0.999510 0.914215
0.478431 0.317647 1.000000
0.505392 0.321569 1.000000
0.555883 0.322549 1.000000
0.636275 0.335784 1.000000
0.727451 0.356863 1.000000
0.821078 0.393627 1.000000
0.902941 0.444117 1.000000
0.976961 0.514216 1.000000
1.000000 0.541176 1.000000
0.482353 0.356373 1.000000
0.509804 0.360784 1.000000
0.559313 0.364706 1.000000
0.637745 0.375981 1.000000
0.727451 0.395588 1.000000
0.818627 0.428432 1.000000
0.900000 0.478922 1.000000
0.973039 0.541667 1.000000
1.000000 0.564216 1.000000
0.497059 0.440196 1.000000
0.521079 0.442157 1.000000
0.567647 0.446079 1.000000
0.641667 0.456863 1.000000
0.727451 0.476470 1.000000
0.813235 0.505392 1.000000
0.895098 0.548039 1.000000
0.966176 0.599510 1.000000
1.000000 0.609804 1.000000
0.494118 0.531863 0.996078
0.521569 0.539706 0.996568
0.569117 0.543627 1.000490
0.641667 0.555392 1.000000
0.725490 0.571078 0.998039
0.808333 0.596079 0.997549
0.887255 0.626961 0.997059
0.961274 0.665686 1.000000
1.000000 0.671569 1.000000
0.474510 0.627451 0.992157
0.501471 0.631373 0.992157
0.551961 0.631373 0.992157
0.630392 0.641177 0.992157
0.715687 0.654902 0.994117
0.801471 0.674509 0.996568
0.883333 0.697059 0.994117
0.958824 0.729411 0.996078
1.000000 0.733333 0.996078
0.423529 0.704902 0.984314
0.456863 0.707353 0.984314
0.511275 0.708824 0.988235
0.590686 0.708823 0.985784
0.692647 0.719118 0.988235
0.789706 0.738725 0.988235
0.879412 0.762255 0.992157
0.950981 0.791176 0.992157
1.000000 0.799019 0.992157
0.482353 0.798039 0.980392
0.497059 0.798039 0.984314
0.530392 0.797059 0.986275
0.576961 0.790196 0.978921
0.646078 0.785294 0.984314
0.758824 0.793137 0.984314
0.864706 0.817647 0.988235
0.949510 0.855883 0.991667
1.000000 0.867647 0.988235
0.600490 0.895098 0.984314
0.604902 0.894608 0.980392
0.630882 0.894608 0.984314
0.663235 0.892157 0.983824
0.712255 0.891176 0.980882
0.769117 0.890686 0.984314
0.832353 0.879411 0.984314
0.937255 0.906372 0.987745
1.000000 0.937255 0.988235
0.690196 0.984314 0.980392
0.697549 0.984314 0.980392
0.713726 0.984314 0.980392
0.738725 0.985784 0.981863
0.776471 0.986274 0.982353
0.821078 0.988235 0.980392
0.875490 0.989216 0.981372
0.937745 0.992647 0.984314
1.000000 1.000000 0.988235
