Black-and-White/Kodak/Kodak TRI-X 400 1 - 65x.cube
TITLE "Kodak TRI-X 400 1 -"
LUT_3D_SIZE 5
DOMAIN_MIN 0.000000 0.000000 0.000000
DOMAIN_MAX 1.000000 1.000000 1.000000
0.000000 0.000000 0.000000
0.042157 0.042157 0.042157
0.158824 0.158824 0.158824
0.314706 0.314706 0.314706
0.509804 0.509804 0.509804
0.142157 0.142157 0.142157
0.201961 0.201961 0.201961
0.326471 0.326471 0.326471
0.418627 0.418627 0.418627
0.584313 0.584313 0.584313
0.386274 0.386274 0.386274
0.365686 0.365686 0.365686
0.492157 0.492157 0.492157
0.624510 0.624510 0.624510
0.758823 0.758823 0.758823
0.628431 0.628431 0.628431
0.615687 0.615687 0.615687
0.650000 0.650000 0.650000
0.768628 0.768628 0.768628
0.907843 0.907843 0.907843
0.929412 0.929412 0.929412
0.926471 0.926471 0.926471
0.913725 0.913725 0.913725
0.960784 0.960784 0.960784
0.992157 0.992157 0.992157
0.077451 0.077451 0.077451
0.158823 0.158823 0.158823
0.286274 0.286274 0.286274
0.335294 0.335294 0.335294
0.500980 0.500980 0.500980
0.220588 0.220588 0.220588
0.248039 0.248039 0.248039
0.330392 0.330392 0.330392
0.426471 0.426471 0.426471
0.580392 0.580392 0.580392
0.465687 0.465687 0.465687
0.442157 0.442157 0.442157
0.510784 0.510784 0.510784
0.631373 0.631373 0.631373
0.752941 0.752941 0.752941
0.673529 0.673529 0.673529
0.663725 0.663725 0.663725
0.662745 0.662745 0.662745
0.776471 0.776471 0.776471
0.907843 0.907843 0.907843
0.937255 0.937255 0.937255
0.934313 0.934313 0.934313
0.925490 0.925490 0.925490
0.960784 0.960784 0.960784
0.995098 0.995098 0.995098
0.256863 0.256863 0.256863
0.312746 0.312746 0.312746
0.419608 0.419608 0.419608
0.588235 0.588235 0.588235
0.674509 0.674509 0.674509
0.333333 0.333333 0.333333
0.383333 0.383333 0.383333
0.465686 0.465686 0.465686
0.608824 0.608824 0.608824
0.673530 0.673530 0.673530
0.515686 0.515686 0.515686
0.531373 0.531373 0.531373
0.560785 0.560785 0.560785
0.624510 0.624510 0.624510
0.733333 0.733333 0.733333
0.768628 0.768628 0.768628
0.769608 0.769608 0.769608
0.736274 0.736274 0.736274
0.800000 0.800000 0.800000
0.914706 0.914706 0.914706
0.962745 0.962745 0.962745
0.960784 0.960784 0.960784
0.952941 0.952941 0.952941
0.961765 0.961765 0.961765
0.992157 0.992157 0.992157
0.480392 0.480392 0.480392
0.510785 0.510785 0.510785
0.594118 0.594118 0.594118
0.680392 0.680392 0.680392
0.828432 0.828432 0.828432
0.525490 0.525490 0.525490
0.552941 0.552941 0.552941
0.627451 0.627451 0.627451
0.708824 0.708824 0.708824
0.848039 0.848039 0.848039
0.550000 0.550000 0.550000
0.597059 0.597059 0.597059
0.685294 0.685294 0.685294
0.756863 0.756863 0.756863
0.893137 0.893137 0.893137
0.789216 0.789216 0.789216
0.799019 0.799019 0.799019
0.811764 0.811764 0.811764
0.841177 0.841177 0.841177
0.903922 0.903922 0.903922
0.988235 0.988235 0.988235
0.986275 0.986275 0.986275
0.985294 0.985294 0.985294
0.980392 0.980392 0.980392
1.000000 1.000000 1.000000
0.811765 0.811765 0.811765
0.824510 0.824510 0.824510
0.862745 0.862745 0.862745
0.910784 0.910784 0.910784
0.949020 0.949020 0.949020
0.825490 0.825490 0.825490
0.838235 0.838235 0.838235
0.873530 0.873530 0.873530
0.917647 0.917647 0.917647
0.951961 0.951961 0.951961
0.841176 0.841176 0.841176
0.855882 0.855882 0.855882
0.888235 0.888235 0.888235
0.930392 0.930392 0.930392
0.966666 0.966666 0.966666
0.884314 0.884314 0.884314
0.886274 0.886274 0.886274
0.879412 0.879412 0.879412
0.950981 0.950981 0.950981
0.984314 0.984314 0.984314
0.992157 0.992157 0.992157
0.996078 0.996078 0.996078
0.996078 0.996078 0.996078
0.996078 0.996078 0.996078
1.000000 1.000000 1.000000
