Black-and-White/Kodak/Kodak T-Max 100 65x.cube
TITLE "Kodak T-Max 100"
LUT_3D_SIZE 5
DOMAIN_MIN 0.000000 0.000000 0.000000
DOMAIN_MAX 1.000000 1.000000 1.000000
0.000000 0.000000 0.000000
0.003922 0.003922 0.003922
0.033334 0.033334 0.033334
0.114706 0.114706 0.114706
0.254902 0.254902 0.254902
0.136274 0.136274 0.136274
0.155883 0.155883 0.155883
0.193137 0.193137 0.193137
0.262746 0.262746 0.262746
0.383333 0.383333 0.383333
0.333334 0.333334 0.333334
0.345098 0.345098 0.345098
0.376471 0.376471 0.376471
0.435295 0.435295 0.435295
0.531373 0.531373 0.531373
0.590196 0.590196 0.590196
0.594118 0.594118 0.594118
0.612745 0.612745 0.612745
0.644118 0.644118 0.644118
0.699019 0.699019 0.699019
0.854902 0.854902 0.854902
0.858824 0.858824 0.858824
0.866667 0.866667 0.866667
0.879412 0.879412 0.879412
0.909804 0.909804 0.909804
0.015686 0.015686 0.015686
0.050000 0.050000 0.050000
0.097059 0.097059 0.097059
0.177451 0.177451 0.177451
0.309804 0.309804 0.309804
0.182353 0.182353 0.182353
0.198039 0.198039 0.198039
0.236275 0.236275 0.236275
0.303921 0.303921 0.303921
0.422549 0.422549 0.422549
0.368627 0.368627 0.368627
0.379412 0.379412 0.379412
0.410784 0.410784 0.410784
0.466667 0.466667 0.466667
0.558823 0.558823 0.558823
0.609804 0.609804 0.609804
0.613726 0.613726 0.613726
0.631373 0.631373 0.631373
0.660785 0.660785 0.660785
0.714706 0.714706 0.714706
0.866667 0.866667 0.866667
0.869608 0.869608 0.869608
0.874510 0.874510 0.874510
0.890196 0.890196 0.890196
0.921569 0.921569 0.921569
0.076470 0.076470 0.076470
0.115686 0.115686 0.115686
0.162745 0.162745 0.162745
0.237255 0.237255 0.237255
0.370588 0.370588 0.370588
0.244118 0.244118 0.244118
0.261765 0.261765 0.261765
0.299020 0.299020 0.299020
0.367647 0.367647 0.367647
0.481372 0.481372 0.481372
0.435295 0.435295 0.435295
0.443137 0.443137 0.443137
0.474510 0.474510 0.474510
0.525490 0.525490 0.525490
0.603921 0.603921 0.603921
0.650000 0.650000 0.650000
0.653922 0.653922 0.653922
0.669608 0.669608 0.669608
0.697059 0.697059 0.697059
0.748039 0.748039 0.748039
0.890196 0.890196 0.890196
0.892157 0.892157 0.892157
0.898039 0.898039 0.898039
0.911764 0.911764 0.911764
0.937255 0.937255 0.937255
0.177451 0.177451 0.177451
0.216666 0.216666 0.216666
0.260784 0.260784 0.260784
0.334313 0.334313 0.334313
0.458824 0.458824 0.458824
0.349020 0.349020 0.349020
0.364706 0.364706 0.364706
0.399019 0.399019 0.399019
0.462745 0.462745 0.462745
0.557843 0.557843 0.557843
0.525490 0.525490 0.525490
0.533334 0.533334 0.533334
0.559804 0.559804 0.559804
0.599019 0.599019 0.599019
0.663725 0.663725 0.663725
0.703922 0.703922 0.703922
0.710784 0.710784 0.710784
0.723530 0.723530 0.723530
0.747059 0.747059 0.747059
0.794118 0.794118 0.794118
0.921569 0.921569 0.921569
0.925490 0.925490 0.925490
0.929412 0.929412 0.929412
0.941176 0.941176 0.941176
0.964706 0.964706 0.964706
0.325490 0.325490 0.325490
0.360784 0.360784 0.360784
0.401961 0.401961 0.401961
0.467647 0.467647 0.467647
0.568627 0.568627 0.568627
0.489216 0.489216 0.489216
0.504902 0.504902 0.504902
0.536274 0.536274 0.536274
0.583333 0.583333 0.583333
0.650980 0.650980 0.650980
0.637255 0.637255 0.637255
0.641177 0.641177 0.641177
0.660784 0.660784 0.660784
0.692157 0.692157 0.692157
0.745098 0.745098 0.745098
0.789215 0.789215 0.789215
0.793137 0.793137 0.793137
0.804902 0.804902 0.804902
0.824510 0.824510 0.824510
0.863726 0.863726 0.863726
0.968627 0.968627 0.968627
0.968627 0.968627 0.968627
0.976471 0.976471 0.976471
0.984314 0.984314 0.984314
1.000000 1.000000 1.000000
