Black-and-White/Kodak/Kodak TMAX 3200 3 Alt 65x.cube
TITLE "Kodak TMAX 3200 3 Alt"
LUT_3D_SIZE 5
DOMAIN_MIN 0.000000 0.000000 0.000000
DOMAIN_MAX 1.000000 1.000000 1.000000
0.000000 0.000000 0.000000
0.000000 0.000000 0.000000
0.011765 0.011765 0.011765
0.059804 0.059804 0.059804
0.188235 0.188235 0.188235
0.128432 0.128432 0.128432
0.147059 0.147059 0.147059
0.181373 0.181373 0.181373
0.253922 0.253922 0.253922
0.398039 0.398039 0.398039
0.415686 0.415686 0.415686
0.429412 0.429412 0.429412
0.466667 0.466667 0.466667
0.526471 0.526471 0.526471
0.611765 0.611765 0.611765
0.710784 0.710784 0.710784
0.714706 0.714706 0.714706
0.726471 0.726471 0.726471
0.747059 0.747059 0.747059
0.785294 0.785294 0.785294
0.925490 0.925490 0.925490
0.925490 0.925490 0.925490
0.929412 0.929412 0.929412
0.937255 0.937255 0.937255
0.952941 0.952941 0.952941
0.007843 0.007843 0.007843
0.023529 0.023529 0.023529
0.050980 0.050980 0.050980
0.118627 0.118627 0.118627
0.257844 0.257844 0.257844
0.174510 0.174510 0.174510
0.190196 0.190196 0.190196
0.229412 0.229412 0.229412
0.304902 0.304902 0.304902
0.452941 0.452941 0.452941
0.460784 0.460784 0.460784
0.473529 0.473529 0.473529
0.507844 0.507844 0.507844
0.560785 0.560785 0.560785
0.635294 0.635294 0.635294
0.726471 0.726471 0.726471
0.729412 0.729412 0.729412
0.740196 0.740196 0.740196
0.760784 0.760784 0.760784
0.797058 0.797058 0.797058
0.929412 0.929412 0.929412
0.933333 0.933333 0.933333
0.937255 0.937255 0.937255
0.942157 0.942157 0.942157
0.956863 0.956863 0.956863
0.041177 0.041177 0.041177
0.069608 0.069608 0.069608
0.111765 0.111765 0.111765
0.185294 0.185294 0.185294
0.335294 0.335294 0.335294
0.245098 0.245098 0.245098
0.264706 0.264706 0.264706
0.309804 0.309804 0.309804
0.390196 0.390196 0.390196
0.526471 0.526471 0.526471
0.535294 0.535294 0.535294
0.545098 0.545098 0.545098
0.572549 0.572549 0.572549
0.611765 0.611765 0.611765
0.676470 0.676470 0.676470
0.755882 0.755882 0.755882
0.758824 0.758824 0.758824
0.769607 0.769607 0.769607
0.787255 0.787255 0.787255
0.820588 0.820588 0.820588
0.945098 0.945098 0.945098
0.945098 0.945098 0.945098
0.949020 0.949020 0.949020
0.956863 0.956863 0.956863
0.968627 0.968627 0.968627
0.134314 0.134314 0.134314
0.171569 0.171569 0.171569
0.217647 0.217647 0.217647
0.300000 0.300000 0.300000
0.463726 0.463726 0.463726
0.375490 0.375490 0.375490
0.395098 0.395098 0.395098
0.446078 0.446078 0.446078
0.516667 0.516667 0.516667
0.608824 0.608824 0.608824
0.618627 0.618627 0.618627
0.626470 0.626470 0.626470
0.646078 0.646078 0.646078
0.677451 0.677451 0.677451
0.728431 0.728431 0.728431
0.797058 0.797058 0.797058
0.798039 0.798039 0.798039
0.808823 0.808823 0.808823
0.824510 0.824510 0.824510
0.851961 0.851961 0.851961
0.960784 0.960784 0.960784
0.961765 0.961765 0.961765
0.964706 0.964706 0.964706
0.972549 0.972549 0.972549
0.980392 0.980392 0.980392
0.305882 0.305882 0.305882
0.349020 0.349020 0.349020
0.401961 0.401961 0.401961
0.490196 0.490196 0.490196
0.596078 0.596078 0.596078
0.554902 0.554902 0.554902
0.567647 0.567647 0.567647
0.597059 0.597059 0.597059
0.636275 0.636275 0.636275
0.700981 0.700981 0.700981
0.711765 0.711765 0.711765
0.719608 0.719608 0.719608
0.735294 0.735294 0.735294
0.758823 0.758823 0.758823
0.798039 0.798039 0.798039
0.851961 0.851961 0.851961
0.855882 0.855882 0.855882
0.863725 0.863725 0.863725
0.875490 0.875490 0.875490
0.899020 0.899020 0.899020
0.984314 0.984314 0.984314
0.988235 0.988235 0.988235
0.988235 0.988235 0.988235
0.996078 0.996078 0.996078
1.000000 1.000000 1.000000
