Black-and-White/Kodak/Kodak TMAX 3200 3 Alt 65x.cube
TITLE "Kodak TMAX 3200 3 Alt"
LUT_3D_SIZE 65
DOMAIN_MIN 0.000000 0.000000 0.000000
DOMAIN_MAX 1.000000 1.000000 1.000000
0.000000 0.000000 0.000000
0.000000 0.000000 0.000000
0.000000 0.000000 0.000000
0.000000 0.000000 0.000000
0.000000 0.000000 0.000000
0.000000 0.000000 0.000000
0.000000 0.000000 0.000000
0.000000 0.000000 0.000000
0.000000 0.000000 0.000000
0.000000 0.000000 0.000000
0.000000 0.000000 0.000000
0.000000 0.000000 0.000000
0.000000 0.000000 0.000000
0.000000 0.000000 0.000000
0.000000 0.000000 0.000000
0.000000 0.000000 0.000000
0.000000 0.000000 0.000000
0.000000 0.000000 0.000000
0.000000 0.000000 0.000000
0.003922 0.003922 0.003922
0.003922 0.003922 0.003922
0.003922 0.003922 0.003922
0.003922 0.003922 0.003922
0.003922 0.003922 0.003922
0.003922 0.003922 0.003922
0.003922 0.003922 0.003922
0.004290 0.004290 0.004290
0.007843 0.007843 0.007843
0.007843 0.007843 0.007843
0.007843 0.007843 0.007843
0.007966 0.007966 0.007966
0.011765 0.011765 0.011765
0.011765 0.011765 0.011765
0.011765 0.011765 0.011765
0.015686 0.015686 0.015686
0.015686 0.015686 0.015686
0.019608 0.019608 0.019608
0.019608 0.019608 0.019608
0.023529 0.023529 0.023529
0.027451 0.027451 0.027451
0.027451 0.027451 0.027451
0.031373 0.031373 0.031373
0.034681 0.034681 0.034681
0.039216 0.039216 0.039216
0.043137 0.043137 0.043137
0.045282 0.045282 0.045282
0.050122 0.050122 0.050122
0.054963 0.054963 0.054963
0.059804 0.059804 0.059804
0.066667 0.066667 0.066667
0.070588 0.070588 0.070588
0.074510 0.074510 0.074510
0.083088 0.083088 0.083088
0.087929 0.087929 0.087929
0.096691 0.096691 0.096691
0.105453 0.105453 0.105453
0.110294 0.110294 0.110294
0.119056 0.119056 0.119056
0.127819 0.127819 0.127819
0.136581 0.136581 0.136581
0.145343 0.145343 0.145343
0.154105 0.154105 0.154105
0.166789 0.166789 0.166789
0.175552 0.175552 0.175552
0.188235 0.188235 0.188235
0.000919 0.000919 0.000919
0.000919 0.000919 0.000919
0.003922 0.003922 0.003922
0.003922 0.003922 0.003922
0.003922 0.003922 0.003922
0.003922 0.003922 0.003922
0.003922 0.003922 0.003922
0.006434 0.006434 0.006434
0.004841 0.004841 0.004841
0.004841 0.004841 0.004841
0.004841 0.004841 0.004841
0.004841 0.004841 0.004841
0.007843 0.007843 0.007843
0.008762 0.008762 0.008762
0.008762 0.008762 0.008762
0.008762 0.008762 0.008762
0.008762 0.008762 0.008762
0.008762 0.008762 0.008762
0.011765 0.011765 0.011765
0.012684 0.012684 0.012684
0.012684 0.012684 0.012684
0.012684 0.012684 0.012684
0.013297 0.013297 0.013297
0.016605 0.016605 0.016605
0.016605 0.016605 0.016605
0.016605 0.016605 0.016605
0.020527 0.020527 0.020527
0.020527 0.020527 0.020527
0.022733 0.022733 0.022733
0.021446 0.021446 0.021446
0.025367 0.025367 0.025367
0.025367 0.025367 0.025367
0.030331 0.030331 0.030331
0.032292 0.032292 0.032292
0.033211 0.033211 0.033211
0.037132 0.037132 0.037132
0.040135 0.040135 0.040135
0.041054 0.041054 0.041054
0.044975 0.044975 0.044975
0.048897 0.048897 0.048897
0.052818 0.052818 0.052818
0.058211 0.058211 0.058211
0.060049 0.060049 0.060049
0.064583 0.064583 0.064583
0.068505 0.068505 0.068505
0.072426 0.072426 0.072426
0.079412 0.079412 0.079412
0.084191 0.084191 0.084191
0.089093 0.089093 0.089093
0.093934 0.093934 0.093934
0.099877 0.099877 0.099877
0.107536 0.107536 0.107536
0.112378 0.112378 0.112378
0.121140 0.121140 0.121140
0.125980 0.125980 0.125980
0.134742 0.134742 0.134742
0.143933 0.143933 0.143933
0.148346 0.148346 0.148346
0.157108 0.157108 0.157108
0.165870 0.165870 0.165870
0.175551 0.175551 0.175551
0.184313 0.184313 0.184313
0.196079 0.196079 0.196079
0.205759 0.205759 0.205759
0.218443 0.218443 0.218443
0.003922 0.003922 0.003922
0.005760 0.005760 0.005760
0.005760 0.005760 0.005760
0.005760 0.005760 0.005760
0.007843 0.007843 0.007843
0.007843 0.007843 0.007843
0.007843 0.007843 0.007843
0.009681 0.009681 0.009681
0.009681 0.009681 0.009681
0.009681 0.009681 0.009681
0.011765 0.011765 0.011765
0.011765 0.011765 0.011765
0.011765 0.011765 0.011765
0.013603 0.013603 0.013603
0.013603 0.013603 0.013603
0.013603 0.013603 0.013603
0.015686 0.015686 0.015686
0.019547 0.019547 0.019547
0.017524 0.017524 0.017524
0.017524 0.017524 0.017524
0.019608 0.019608 0.019608
0.021446 0.021446 0.021446
0.021446 0.021446 0.021446
0.023529 0.023529 0.023529
0.025367 0.025367 0.025367
0.025367 0.025367 0.025367
0.029289 0.029289 0.029289
0.029289 0.029289 0.029289
0.031495 0.031495 0.031495
0.033211 0.033211 0.033211
0.033334 0.033334 0.033334
0.037132 0.037132 0.037132
0.041054 0.041054 0.041054
0.041054 0.041054 0.041054
0.044975 0.044975 0.044975
0.048897 0.048897 0.048897
0.050613 0.050613 0.050613
0.055454 0.055454 0.055454
0.056740 0.056740 0.056740
0.062500 0.062500 0.062500
0.066421 0.066421 0.066421
0.068505 0.068505 0.068505
0.072426 0.072426 0.072426
0.076655 0.076655 0.076655
0.081495 0.081495 0.081495
0.086029 0.086029 0.086029
0.089951 0.089951 0.089951
0.096018 0.096018 0.096018
0.102696 0.102696 0.102696
0.109620 0.109620 0.109620
0.113480 0.113480 0.113480
0.121139 0.121139 0.121139
0.128063 0.128063 0.128063
0.132905 0.132905 0.132905
0.141667 0.141667 0.141667
0.150429 0.150429 0.150429
0.155269 0.155269 0.155269
0.164031 0.164031 0.164031
0.172794 0.172794 0.172794
0.181557 0.181557 0.181557
0.190318 0.190318 0.190318
0.200919 0.200919 0.200919
0.211764 0.211764 0.211764
0.222365 0.222365 0.222365
0.235049 0.235049 0.235049
0.007843 0.007843 0.007843
0.010601 0.010601 0.010601
0.010601 0.010601 0.010601
0.010601 0.010601 0.010601
0.011765 0.011765 0.011765
0.011765 0.011765 0.011765
0.011765 0.011765 0.011765
0.011765 0.011765 0.011765
0.014522 0.014522 0.014522
0.012194 0.012194 0.012194
0.015686 0.015686 0.015686
0.015686 0.015686 0.015686
0.018444 0.018444 0.018444
0.018444 0.018444 0.018444
0.016789 0.016789 0.016789
0.019608 0.019608 0.019608
0.022365 0.022365 0.022365
0.022365 0.022365 0.022365
0.020466 0.020466 0.020466
0.023529 0.023529 0.023529
0.026287 0.026287 0.026287
0.026287 0.026287 0.026287
0.030209 0.030209 0.030209
0.030209 0.030209 0.030209
0.029902 0.029902 0.029902
0.034130 0.034130 0.034130
0.031741 0.031741 0.031741
0.038052 0.038052 0.038052
0.038052 0.038052 0.038052
0.041973 0.041973 0.041973
0.042096 0.042096 0.042096
0.045895 0.045895 0.045895
0.049816 0.049816 0.049816
0.049816 0.049816 0.049816
0.053738 0.053738 0.053738
0.057660 0.057660 0.057660
0.059375 0.059375 0.059375
0.064216 0.064216 0.064216
0.069056 0.069056 0.069056
0.069976 0.069976 0.069976
0.074816 0.074816 0.074816
0.079657 0.079657 0.079657
0.084498 0.084498 0.084498
0.089032 0.089032 0.089032
0.092954 0.092954 0.092954
0.099633 0.099633 0.099633
0.103860 0.103860 0.103860
0.111397 0.111397 0.111397
0.113542 0.113542 0.113542
0.118382 0.118382 0.118382
0.127145 0.127145 0.127145
0.131985 0.131985 0.131985
0.136825 0.136825 0.136825
0.145588 0.145588 0.145588
0.150429 0.150429 0.150429
0.159191 0.159191 0.159191
0.167954 0.167954 0.167954
0.172794 0.172794 0.172794
0.181557 0.181557 0.181557
0.193566 0.193566 0.193566
0.199325 0.199325 0.199325
0.211764 0.211764 0.211764
0.223284 0.223284 0.223284
0.233211 0.233211 0.233211
0.245895 0.245895 0.245895
0.011765 0.011765 0.011765
0.015441 0.015441 0.015441
0.015441 0.015441 0.015441
0.015441 0.015441 0.015441
0.015441 0.015441 0.015441
0.015686 0.015686 0.015686
0.019363 0.019363 0.019363
0.019363 0.019363 0.019363
0.019363 0.019363 0.019363
0.019608 0.019608 0.019608
0.019608 0.019608 0.019608
0.023284 0.023284 0.023284
0.023284 0.023284 0.023284
0.023529 0.023529 0.023529
0.023529 0.023529 0.023529
0.027206 0.027206 0.027206
0.027206 0.027206 0.027206
0.027206 0.027206 0.027206
0.031128 0.031128 0.031128
0.031128 0.031128 0.031128
0.030147 0.030147 0.030147
0.035049 0.035049 0.035049
0.031986 0.031986 0.031986
0.038971 0.038971 0.038971
0.038971 0.038971 0.038971
0.042340 0.042340 0.042340
0.042892 0.042892 0.042892
0.046814 0.046814 0.046814
0.046814 0.046814 0.046814
0.049938 0.049938 0.049938
0.050858 0.050858 0.050858
0.054657 0.054657 0.054657
0.056618 0.056618 0.056618
0.058579 0.058579 0.058579
0.062500 0.062500 0.062500
0.066422 0.066422 0.066422
0.070343 0.070343 0.070343
0.072978 0.072978 0.072978
0.077818 0.077818 0.077818
0.078738 0.078738 0.078738
0.083579 0.083579 0.083579
0.088419 0.088419 0.088419
0.093260 0.093260 0.093260
0.097794 0.097794 0.097794
0.102941 0.102941 0.102941
0.107782 0.107782 0.107782
0.112622 0.112622 0.112622
0.117463 0.117463 0.117463
0.122303 0.122303 0.122303
0.132843 0.132843 0.132843
0.135907 0.135907 0.135907
0.140686 0.140686 0.140686
0.152451 0.152451 0.152451
0.154351 0.154351 0.154351
0.163113 0.163113 0.163113
0.167953 0.167953 0.167953
0.176715 0.176715 0.176715
0.185477 0.185477 0.185477
0.194240 0.194240 0.194240
0.203003 0.203003 0.203003
0.211764 0.211764 0.211764
0.220526 0.220526 0.220526
0.233210 0.233210 0.233210
0.244976 0.244976 0.244976
0.258334 0.258334 0.258334
0.019608 0.019608 0.019608
0.020282 0.020282 0.020282
0.020282 0.020282 0.020282
0.020282 0.020282 0.020282
0.020282 0.020282 0.020282
0.023529 0.023529 0.023529
0.024203 0.024203 0.024203
0.024203 0.024203 0.024203
0.024203 0.024203 0.024203
0.023958 0.023958 0.023958
0.028125 0.028125 0.028125
0.028125 0.028125 0.028125
0.028125 0.028125 0.028125
0.032047 0.032047 0.032047
0.032047 0.032047 0.032047
0.032047 0.032047 0.032047
0.038236 0.038236 0.038236
0.035968 0.035968 0.035968
0.035968 0.035968 0.035968
0.039890 0.039890 0.039890
0.039890 0.039890 0.039890
0.043506 0.043506 0.043506
0.043811 0.043811 0.043811
0.045343 0.045343 0.045343
0.047733 0.047733 0.047733
0.047733 0.047733 0.047733
0.051654 0.051654 0.051654
0.052941 0.052941 0.052941
0.055576 0.055576 0.055576
0.058701 0.058701 0.058701
0.059498 0.059498 0.059498
0.063419 0.063419 0.063419
0.065380 0.065380 0.065380
0.070221 0.070221 0.070221
0.071262 0.071262 0.071262
0.075184 0.075184 0.075184
0.079105 0.079105 0.079105
0.079779 0.079779 0.079779
0.086580 0.086580 0.086580
0.090870 0.090870 0.090870
0.094792 0.094792 0.094792
0.098713 0.098713 0.098713
0.102635 0.102635 0.102635
0.106862 0.106862 0.106862
0.111152 0.111152 0.111152
0.118321 0.118321 0.118321
0.125307 0.125307 0.125307
0.130086 0.130086 0.130086
0.134987 0.134987 0.134987
0.139829 0.139829 0.139829
0.145772 0.145772 0.145772
0.153432 0.153432 0.153432
0.158272 0.158272 0.158272
0.165380 0.165380 0.165380
0.171875 0.171875 0.171875
0.180638 0.180638 0.180638
0.185478 0.185478 0.185478
0.194240 0.194240 0.194240
0.203002 0.203002 0.203002
0.211764 0.211764 0.211764
0.221201 0.221201 0.221201
0.233211 0.233211 0.233211
0.244057 0.244057 0.244057
0.254657 0.254657 0.254657
0.267341 0.267341 0.267341
0.025122 0.025122 0.025122
0.025122 0.025122 0.025122
0.025122 0.025122 0.025122
0.027451 0.027451 0.027451
0.029044 0.029044 0.029044
0.029044 0.029044 0.029044
0.029044 0.029044 0.029044
0.033885 0.033885 0.033885
0.032966 0.032966 0.032966
0.032966 0.032966 0.032966
0.032721 0.032721 0.032721
0.036887 0.036887 0.036887
0.036887 0.036887 0.036887
0.037071 0.037071 0.037071
0.040809 0.040809 0.040809
0.040809 0.040809 0.040809
0.040809 0.040809 0.040809
0.044730 0.044730 0.044730
0.044730 0.044730 0.044730
0.046507 0.046507 0.046507
0.048652 0.048652 0.048652
0.052268 0.052268 0.052268
0.052573 0.052573 0.052573
0.054105 0.054105 0.054105
0.056495 0.056495 0.056495
0.056495 0.056495 0.056495
0.060417 0.060417 0.060417
0.061704 0.061704 0.061704
0.064338 0.064338 0.064338
0.067463 0.067463 0.067463
0.068383 0.068383 0.068383
0.072181 0.072181 0.072181
0.076103 0.076103 0.076103
0.078983 0.078983 0.078983
0.080024 0.080024 0.080024
0.084743 0.084743 0.084743
0.089584 0.089584 0.089584
0.091789 0.091789 0.091789
0.095711 0.095711 0.095711
0.101225 0.101225 0.101225
0.105147 0.105147 0.105147
0.109865 0.109865 0.109865
0.114706 0.114706 0.114706
0.119240 0.119240 0.119240
0.124755 0.124755 0.124755
0.129228 0.129228 0.129228
0.134069 0.134069 0.134069
0.138910 0.138910 0.138910
0.143750 0.143750 0.143750
0.148284 0.148284 0.148284
0.157353 0.157353 0.157353
0.162194 0.162194 0.162194
0.167035 0.167035 0.167035
0.175796 0.175796 0.175796
0.179657 0.179657 0.179657
0.189400 0.189400 0.189400
0.198162 0.198162 0.198162
0.204596 0.204596 0.204596
0.213358 0.213358 0.213358
0.222120 0.222120 0.222120
0.233211 0.233211 0.233211
0.243566 0.243566 0.243566
0.254657 0.254657 0.254657
0.265012 0.265012 0.265012
0.280024 0.280024 0.280024
0.033885 0.033885 0.033885
0.033885 0.033885 0.033885
0.033885 0.033885 0.033885
0.033885 0.033885 0.033885
0.037807 0.037807 0.037807
0.037807 0.037807 0.037807
0.037807 0.037807 0.037807
0.037807 0.037807 0.037807
0.041728 0.041728 0.041728
0.041728 0.041728 0.041728
0.041728 0.041728 0.041728
0.043995 0.043995 0.043995
0.045650 0.045650 0.045650
0.045650 0.045650 0.045650
0.049571 0.049571 0.049571
0.049571 0.049571 0.049571
0.049571 0.049571 0.049571
0.053493 0.053493 0.053493
0.053493 0.053493 0.053493
0.055270 0.055270 0.055270
0.057415 0.057415 0.057415
0.061029 0.061029 0.061029
0.061336 0.061336 0.061336
0.062868 0.062868 0.062868
0.065258 0.065258 0.065258
0.068627 0.068627 0.068627
0.069179 0.069179 0.069179
0.073101 0.073101 0.073101
0.073101 0.073101 0.073101
0.077022 0.077022 0.077022
0.077145 0.077145 0.077145
0.080944 0.080944 0.080944
0.084866 0.084866 0.084866
0.087377 0.087377 0.087377
0.092586 0.092586 0.092586
0.093505 0.093505 0.093505
0.098346 0.098346 0.098346
0.103186 0.103186 0.103186
0.108027 0.108027 0.108027
0.108945 0.108945 0.108945
0.113787 0.113787 0.113787
0.118627 0.118627 0.118627
0.122671 0.122671 0.122671
0.128308 0.128308 0.128308
0.133150 0.133150 0.133150
0.137990 0.137990 0.137990
0.143689 0.143689 0.143689
0.147671 0.147671 0.147671
0.155454 0.155454 0.155454
0.161887 0.161887 0.161887
0.166115 0.166115 0.166115
0.169730 0.169730 0.169730
0.181495 0.181495 0.181495
0.184558 0.184558 0.184558
0.193321 0.193321 0.193321
0.197181 0.197181 0.197181
0.206925 0.206925 0.206925
0.215687 0.215687 0.215687
0.224449 0.224449 0.224449
0.233211 0.233211 0.233211
0.244485 0.244485 0.244485
0.254657 0.254657 0.254657
0.265502 0.265502 0.265502
0.279105 0.279105 0.279105
0.291299 0.291299 0.291299
0.042647 0.042647 0.042647
0.042647 0.042647 0.042647
0.042647 0.042647 0.042647
0.042647 0.042647 0.042647
0.046569 0.046569 0.046569
0.046569 0.046569 0.046569
0.046569 0.046569 0.046569
0.046569 0.046569 0.046569
0.050490 0.050490 0.050490
0.050490 0.050490 0.050490
0.050490 0.050490 0.050490
0.052758 0.052758 0.052758
0.054412 0.054412 0.054412
0.054596 0.054596 0.054596
0.058334 0.058334 0.058334
0.058334 0.058334 0.058334
0.061274 0.061274 0.061274
0.062255 0.062255 0.062255
0.062255 0.062255 0.062255
0.066177 0.066177 0.066177
0.066177 0.066177 0.066177
0.069608 0.069608 0.069608
0.070098 0.070098 0.070098
0.071630 0.071630 0.071630
0.074020 0.074020 0.074020
0.077389 0.077389 0.077389
0.081373 0.081373 0.081373
0.081863 0.081863 0.081863
0.084069 0.084069 0.084069
0.085785 0.085785 0.085785
0.089706 0.089706 0.089706
0.090748 0.090748 0.090748
0.097059 0.097059 0.097059
0.097549 0.097549 0.097549
0.101471 0.101471 0.101471
0.108824 0.108824 0.108824
0.109314 0.109314 0.109314
0.113235 0.113235 0.113235
0.116667 0.116667 0.116667
0.124510 0.124510 0.124510
0.128432 0.128432 0.128432
0.132353 0.132353 0.132353
0.136275 0.136275 0.136275
0.137070 0.137070 0.137070
0.144608 0.144608 0.144608
0.151961 0.151961 0.151961
0.155515 0.155515 0.155515
0.163726 0.163726 0.163726
0.165195 0.165195 0.165195
0.170037 0.170037 0.170037
0.175981 0.175981 0.175981
0.183640 0.183640 0.183640
0.188481 0.188481 0.188481
0.199020 0.199020 0.199020
0.202084 0.202084 0.202084
0.210846 0.210846 0.210846
0.219118 0.219118 0.219118
0.227881 0.227881 0.227881
0.236642 0.236642 0.236642
0.245405 0.245405 0.245405
0.254657 0.254657 0.254657
0.264583 0.264583 0.264583
0.276102 0.276102 0.276102
0.288787 0.288787 0.288787
0.301471 0.301471 0.301471
0.051409 0.051409 0.051409
0.051409 0.051409 0.051409
0.051409 0.051409 0.051409
0.054167 0.054167 0.054167
0.055331 0.055331 0.055331
0.055331 0.055331 0.055331
0.055331 0.055331 0.055331
0.057843 0.057843 0.057843
0.059253 0.059253 0.059253
0.059253 0.059253 0.059253
0.059253 0.059253 0.059253
0.061520 0.061520 0.061520
0.063174 0.063174 0.063174
0.063358 0.063358 0.063358
0.067096 0.067096 0.067096
0.067096 0.067096 0.067096
0.070037 0.070037 0.070037
0.071017 0.071017 0.071017
0.071875 0.071875 0.071875
0.074939 0.074939 0.074939
0.074939 0.074939 0.074939
0.078860 0.078860 0.078860
0.079473 0.079473 0.079473
0.082782 0.082782 0.082782
0.082782 0.082782 0.082782
0.086704 0.086704 0.086704
0.090625 0.090625 0.090625
0.090625 0.090625 0.090625
0.094547 0.094547 0.094547
0.097672 0.097672 0.097672
0.098590 0.098590 0.098590
0.102390 0.102390 0.102390
0.102819 0.102819 0.102819
0.109190 0.109190 0.109190
0.114032 0.114032 0.114032
0.114951 0.114951 0.114951
0.119791 0.119791 0.119791
0.124633 0.124633 0.124633
0.129472 0.129472 0.129472
0.130392 0.130392 0.130392
0.135232 0.135232 0.135232
0.140074 0.140074 0.140074
0.144914 0.144914 0.144914
0.149449 0.149449 0.149449
0.154595 0.154595 0.154595
0.159437 0.159437 0.159437
0.164276 0.164276 0.164276
0.169117 0.169117 0.169117
0.173958 0.173958 0.173958
0.177329 0.177329 0.177329
0.187562 0.187562 0.187562
0.192401 0.192401 0.192401
0.196936 0.196936 0.196936
0.206005 0.206005 0.206005
0.214768 0.214768 0.214768
0.216544 0.216544 0.216544
0.228370 0.228370 0.228370
0.237132 0.237132 0.237132
0.245894 0.245894 0.245894
0.254657 0.254657 0.254657
0.267341 0.267341 0.267341
0.277268 0.277268 0.277268
0.288787 0.288787 0.288787
0.297978 0.297978 0.297978
0.314155 0.314155 0.314155
0.060172 0.060172 0.060172
0.060172 0.060172 0.060172
0.062010 0.062010 0.062010
0.064093 0.064093 0.064093
0.064093 0.064093 0.064093
0.064093 0.064093 0.064093
0.065686 0.065686 0.065686
0.068015 0.068015 0.068015
0.068015 0.068015 0.068015
0.068015 0.068015 0.068015
0.069363 0.069363 0.069363
0.071936 0.071936 0.071936
0.071936 0.071936 0.071936
0.075858 0.075858 0.075858
0.075858 0.075858 0.075858
0.075858 0.075858 0.075858
0.079779 0.079779 0.079779
0.079779 0.079779 0.079779
0.080637 0.080637 0.080637
0.083701 0.083701 0.083701
0.085049 0.085049 0.085049
0.087623 0.087623 0.087623
0.091544 0.091544 0.091544
0.091544 0.091544 0.091544
0.092892 0.092892 0.092892
0.095466 0.095466 0.095466
0.099387 0.099387 0.099387
0.100674 0.100674 0.100674
0.103309 0.103309 0.103309
0.107230 0.107230 0.107230
0.111152 0.111152 0.111152
0.112500 0.112500 0.112500
0.115073 0.115073 0.115073
0.116421 0.116421 0.116421
0.120343 0.120343 0.120343
0.126838 0.126838 0.126838
0.130760 0.130760 0.130760
0.132108 0.132108 0.132108
0.138235 0.138235 0.138235
0.142524 0.142524 0.142524
0.146446 0.146446 0.146446
0.150368 0.150368 0.150368
0.154289 0.154289 0.154289
0.158518 0.158518 0.158518
0.163357 0.163357 0.163357
0.167402 0.167402 0.167402
0.173897 0.173897 0.173897
0.177880 0.177880 0.177880
0.185662 0.185662 0.185662
0.191482 0.191482 0.191482
0.196324 0.196324 0.196324
0.205085 0.205085 0.205085
0.209926 0.209926 0.209926
0.214461 0.214461 0.214461
0.223530 0.223530 0.223530
0.232291 0.232291 0.232291
0.238480 0.238480 0.238480
0.247242 0.247242 0.247242
0.258578 0.258578 0.258578
0.267340 0.267340 0.267340
0.277451 0.277451 0.277451
0.288787 0.288787 0.288787
0.299632 0.299632 0.299632
0.313235 0.313235 0.313235
0.324265 0.324265 0.324265
0.071201 0.071201 0.071201
0.072855 0.072855 0.072855
0.072855 0.072855 0.072855
0.072855 0.072855 0.072855
0.072855 0.072855 0.072855
0.075122 0.075122 0.075122
0.076777 0.076777 0.076777
0.076777 0.076777 0.076777
0.076777 0.076777 0.076777
0.077206 0.077206 0.077206
0.080698 0.080698 0.080698
0.080698 0.080698 0.080698
0.083885 0.083885 0.083885
0.084620 0.084620 0.084620
0.086887 0.086887 0.086887
0.088542 0.088542 0.088542
0.088542 0.088542 0.088542
0.090809 0.090809 0.090809
0.092463 0.092463 0.092463
0.094240 0.094240 0.094240
0.096385 0.096385 0.096385
0.100000 0.100000 0.100000
0.100306 0.100306 0.100306
0.101838 0.101838 0.101838
0.104228 0.104228 0.104228
0.106495 0.106495 0.106495
0.110416 0.110416 0.110416
0.112071 0.112071 0.112071
0.114277 0.114277 0.114277
0.119118 0.119118 0.119118
0.122181 0.122181 0.122181
0.123836 0.123836 0.123836
0.125797 0.125797 0.125797
0.130637 0.130637 0.130637
0.135478 0.135478 0.135478
0.136396 0.136396 0.136396
0.141789 0.141789 0.141789
0.146079 0.146079 0.146079
0.147365 0.147365 0.147365
0.151839 0.151839 0.151839
0.156679 0.156679 0.156679
0.161520 0.161520 0.161520
0.166360 0.166360 0.166360
0.170894 0.170894 0.170894
0.174816 0.174816 0.174816
0.181005 0.181005 0.181005
0.185723 0.185723 0.185723
0.192769 0.192769 0.192769
0.195405 0.195405 0.195405
0.200245 0.200245 0.200245
0.209008 0.209008 0.209008
0.213848 0.213848 0.213848
0.218688 0.218688 0.218688
0.227451 0.227451 0.227451
0.234559 0.234559 0.234559
0.239828 0.239828 0.239828
0.249817 0.249817 0.249817
0.258578 0.258578 0.258578
0.269608 0.269608 0.269608
0.278370 0.278370 0.278370
0.288787 0.288787 0.288787
0.298713 0.298713 0.298713
0.312500 0.312500 0.312500
0.322916 0.322916 0.322916
0.335600 0.335600 0.335600
0.081618 0.081618 0.081618
0.081618 0.081618 0.081618
0.084804 0.084804 0.084804
0.084375 0.084375 0.084375
0.085540 0.085540 0.085540
0.085540 0.085540 0.085540
0.088725 0.088725 0.088725
0.088725 0.088725 0.088725
0.089461 0.089461 0.089461
0.089461 0.089461 0.089461
0.092647 0.092647 0.092647
0.091728 0.091728 0.091728
0.093383 0.093383 0.093383
0.093566 0.093566 0.093566
0.097304 0.097304 0.097304
0.097304 0.097304 0.097304
0.100245 0.100245 0.100245
0.101226 0.101226 0.101226
0.102083 0.102083 0.102083
0.105147 0.105147 0.105147
0.107843 0.107843 0.107843
0.109069 0.109069 0.109069
0.109681 0.109681 0.109681
0.112990 0.112990 0.112990
0.115441 0.115441 0.115441
0.120282 0.120282 0.120282
0.120834 0.120834 0.120834
0.122120 0.122120 0.122120
0.127941 0.127941 0.127941
0.128677 0.128677 0.128677
0.132598 0.132598 0.132598
0.133640 0.133640 0.133640
0.139705 0.139705 0.139705
0.140441 0.140441 0.140441
0.143627 0.143627 0.143627
0.148285 0.148285 0.148285
0.152206 0.152206 0.152206
0.154841 0.154841 0.154841
0.159313 0.159313 0.159313
0.163971 0.163971 0.163971
0.165441 0.165441 0.165441
0.170282 0.170282 0.170282
0.175736 0.175736 0.175736
0.179964 0.179964 0.179964
0.184803 0.184803 0.184803
0.189645 0.189645 0.189645
0.194485 0.194485 0.194485
0.199326 0.199326 0.199326
0.207108 0.207108 0.207108
0.214215 0.214215 0.214215
0.217770 0.217770 0.217770
0.226532 0.226532 0.226532
0.231372 0.231372 0.231372
0.239400 0.239400 0.239400
0.244976 0.244976 0.244976
0.253738 0.253738 0.253738
0.262501 0.262501 0.262501
0.271263 0.271263 0.271263
0.280025 0.280025 0.280025
0.292035 0.292035 0.292035
0.301470 0.301470 0.301470
0.313419 0.313419 0.313419
0.322916 0.322916 0.322916
0.334681 0.334681 0.334681
0.348285 0.348285 0.348285
0.094302 0.094302 0.094302
0.094302 0.094302 0.094302
0.094302 0.094302 0.094302
0.097059 0.097059 0.097059
0.094486 0.094486 0.094486
0.098223 0.098223 0.098223
0.098223 0.098223 0.098223
0.098223 0.098223 0.098223
0.101654 0.101654 0.101654
0.102145 0.102145 0.102145
0.102145 0.102145 0.102145
0.104412 0.104412 0.104412
0.106066 0.106066 0.106066
0.106066 0.106066 0.106066
0.106250 0.106250 0.106250
0.109988 0.109988 0.109988
0.112929 0.112929 0.112929
0.113909 0.113909 0.113909
0.114767 0.114767 0.114767
0.117831 0.117831 0.117831
0.117831 0.117831 0.117831
0.118015 0.118015 0.118015
0.122366 0.122366 0.122366
0.125674 0.125674 0.125674
0.128124 0.128124 0.128124
0.129596 0.129596 0.129596
0.129780 0.129780 0.129780
0.134803 0.134803 0.134803
0.137439 0.137439 0.137439
0.137623 0.137623 0.137623
0.141482 0.141482 0.141482
0.145282 0.145282 0.145282
0.149204 0.149204 0.149204
0.152084 0.152084 0.152084
0.156923 0.156923 0.156923
0.157843 0.157843 0.157843
0.162683 0.162683 0.162683
0.167525 0.167525 0.167525
0.172365 0.172365 0.172365
