Black-and-White/Kodak/Kodak TMAX 3200 1 - 65x.cube
TITLE "Kodak TMAX 3200 1 -"
LUT_3D_SIZE 9
DOMAIN_MIN 0.000000 0.000000 0.000000
DOMAIN_MAX 1.000000 1.000000 1.000000
0.000000 0.000000 0.000000
0.003922 0.003922 0.003922
0.011765 0.011765 0.011765
0.037745 0.037745 0.037745
0.088235 0.088235 0.088235
0.156863 0.156863 0.156863
0.216666 0.216666 0.216666
0.275000 0.275000 0.275000
0.352941 0.352941 0.352941
0.030883 0.030883 0.030883
0.046569 0.046569 0.046569
0.097059 0.097059 0.097059
0.123039 0.123039 0.123039
0.156863 0.156863 0.156863
0.208824 0.208824 0.208824
0.254412 0.254412 0.254412
0.309314 0.309314 0.309314
0.379902 0.379902 0.379902
0.146079 0.146079 0.146079
0.153922 0.153922 0.153922
0.183334 0.183334 0.183334
0.239216 0.239216 0.239216
0.284314 0.284314 0.284314
0.307843 0.307843 0.307843
0.338235 0.338235 0.338235
0.375980 0.375980 0.375980
0.447059 0.447059 0.447059
0.259804 0.259804 0.259804
0.267647 0.267647 0.267647
0.283824 0.283824 0.283824
0.314706 0.314706 0.314706
0.369608 0.369608 0.369608
0.411765 0.411765 0.411765
0.446568 0.446568 0.446568
0.485294 0.485294 0.485294
0.551471 0.551471 0.551471
0.366667 0.366667 0.366667
0.371078 0.371078 0.371078
0.377451 0.377451 0.377451
0.398039 0.398039 0.398039
0.429412 0.429412 0.429412
0.488236 0.488236 0.488236
0.538235 0.538235 0.538235
0.608334 0.608334 0.608334
0.674510 0.674510 0.674510
0.469608 0.469608 0.469608
0.477451 0.477451 0.477451
0.479902 0.479902 0.479902
0.490687 0.490687 0.490687
0.516667 0.516667 0.516667
0.553431 0.553431 0.553431
0.617647 0.617647 0.617647
0.684314 0.684314 0.684314
0.767647 0.767647 0.767647
0.600000 0.600000 0.600000
0.602941 0.602941 0.602941
0.602941 0.602941 0.602941
0.612255 0.612255 0.612255
0.632354 0.632354 0.632354
0.661765 0.661765 0.661765
0.694117 0.694117 0.694117
0.759804 0.759804 0.759804
0.837255 0.837255 0.837255
0.753431 0.753431 0.753431
0.753921 0.753921 0.753921
0.754412 0.754412 0.754412
0.763725 0.763725 0.763725
0.773529 0.773529 0.773529
0.797059 0.797059 0.797059
0.824510 0.824510 0.824510
0.855882 0.855882 0.855882
0.898529 0.898529 0.898529
0.905882 0.905882 0.905882
0.905882 0.905882 0.905882
0.906862 0.906862 0.906862
0.913725 0.913725 0.913725
0.917647 0.917647 0.917647
0.926961 0.926961 0.926961
0.941176 0.941176 0.941176
0.956863 0.956863 0.956863
0.972549 0.972549 0.972549
0.000000 0.000000 0.000000
0.011275 0.011275 0.011275
0.023039 0.023039 0.023039
0.065196 0.065196 0.065196
0.123529 0.123529 0.123529
0.177941 0.177941 0.177941
0.230883 0.230883 0.230883
0.282353 0.282353 0.282353
0.349020 0.349020 0.349020
0.038726 0.038726 0.038726
0.084804 0.084804 0.084804
0.107843 0.107843 0.107843
0.142647 0.142647 0.142647
0.179412 0.179412 0.179412
0.224510 0.224510 0.224510
0.262745 0.262745 0.262745
0.310784 0.310784 0.310784
0.379902 0.379902 0.379902
0.184804 0.184804 0.184804
0.185784 0.185784 0.185784
0.206373 0.206373 0.206373
0.256373 0.256373 0.256373
0.287745 0.287745 0.287745
0.308333 0.308333 0.308333
0.337745 0.337745 0.337745
0.382353 0.382353 0.382353
0.446568 0.446568 0.446568
0.277941 0.277941 0.277941
0.287255 0.287255 0.287255
0.296569 0.296569 0.296569
0.327451 0.327451 0.327451
0.376471 0.376471 0.376471
0.418137 0.418137 0.418137
0.449510 0.449510 0.449510
0.487745 0.487745 0.487745
0.550000 0.550000 0.550000
0.382353 0.382353 0.382353
0.384804 0.384804 0.384804
0.389706 0.389706 0.389706
0.408824 0.408824 0.408824
0.439215 0.439215 0.439215
0.490196 0.490196 0.490196
0.544118 0.544118 0.544118
0.612255 0.612255 0.612255
0.672549 0.672549 0.672549
0.479902 0.479902 0.479902
0.489216 0.489216 0.489216
0.490196 0.490196 0.490196
0.501961 0.501961 0.501961
0.525490 0.525490 0.525490
0.559804 0.559804 0.559804
0.623039 0.623039 0.623039
0.687255 0.687255 0.687255
0.772059 0.772059 0.772059
0.603921 0.603921 0.603921
0.610784 0.610784 0.610784
0.614216 0.614216 0.614216
0.617647 0.617647 0.617647
0.639706 0.639706 0.639706
0.667157 0.667157 0.667157
0.700490 0.700490 0.700490
0.763725 0.763725 0.763725
0.839706 0.839706 0.839706
0.753921 0.753921 0.753921
0.757843 0.757843 0.757843
0.761274 0.761274 0.761274
0.765686 0.765686 0.765686
0.777451 0.777451 0.777451
0.798529 0.798529 0.798529
0.827941 0.827941 0.827941
0.855882 0.855882 0.855882
0.898529 0.898529 0.898529
0.909804 0.909804 0.909804
0.909804 0.909804 0.909804
0.909314 0.909314 0.909314
0.911274 0.911274 0.911274
0.917647 0.917647 0.917647
0.929412 0.929412 0.929412
0.943627 0.943627 0.943627
0.953922 0.953922 0.953922
0.969117 0.969117 0.969117
0.007843 0.007843 0.007843
0.019608 0.019608 0.019608
0.061765 0.061765 0.061765
0.088726 0.088726 0.088726
0.143137 0.143137 0.143137
0.194608 0.194608 0.194608
0.243137 0.243137 0.243137
0.293138 0.293138 0.293138
0.351961 0.351961 0.351961
0.058334 0.058334 0.058334
0.097549 0.097549 0.097549
0.140196 0.140196 0.140196
0.154902 0.154902 0.154902
0.194117 0.194117 0.194117
0.234314 0.234314 0.234314
0.274020 0.274020 0.274020
0.321079 0.321079 0.321079
0.379902 0.379902 0.379902
0.174510 0.174510 0.174510
0.198039 0.198039 0.198039
0.241176 0.241176 0.241176
0.264216 0.264216 0.264216
0.289216 0.289216 0.289216
0.313235 0.313235 0.313235
0.344118 0.344118 0.344118
0.384314 0.384314 0.384314
0.443138 0.443138 0.443138
0.304412 0.304412 0.304412
0.319118 0.319118 0.319118
0.330882 0.330882 0.330882
0.352941 0.352941 0.352941
0.394118 0.394118 0.394118
0.425981 0.425981 0.425981
0.449019 0.449019 0.449019
0.487255 0.487255 0.487255
0.547059 0.547059 0.547059
0.411765 0.411765 0.411765
0.416667 0.416667 0.416667
0.417647 0.417647 0.417647
0.431863 0.431863 0.431863
0.456863 0.456863 0.456863
0.505883 0.505883 0.505883
0.557843 0.557843 0.557843
0.614706 0.614706 0.614706
0.666667 0.666667 0.666667
0.504902 0.504902 0.504902
0.512745 0.512745 0.512745
0.515196 0.515196 0.515196
0.521569 0.521569 0.521569
0.544118 0.544118 0.544118
0.574019 0.574019 0.574019
0.633824 0.633824 0.633824
0.696079 0.696079 0.696079
0.779412 0.779412 0.779412
0.623530 0.623530 0.623530
0.626961 0.626961 0.626961
0.629412 0.629412 0.629412
0.636274 0.636274 0.636274
0.650981 0.650981 0.650981
0.677451 0.677451 0.677451
0.708823 0.708823 0.708823
0.773039 0.773039 0.773039
0.843137 0.843137 0.843137
0.765686 0.765686 0.765686
0.769607 0.769607 0.769607
0.773039 0.773039 0.773039
0.776961 0.776961 0.776961
0.783824 0.783824 0.783824
0.807353 0.807353 0.807353
0.832353 0.832353 0.832353
0.859804 0.859804 0.859804
0.905882 0.905882 0.905882
0.909804 0.909804 0.909804
0.910784 0.910784 0.910784
0.910784 0.910784 0.910784
0.916176 0.916176 0.916176
0.921569 0.921569 0.921569
0.929412 0.929412 0.929412
0.941176 0.941176 0.941176
0.957353 0.957353 0.957353
0.972549 0.972549 0.972549
0.019608 0.019608 0.019608
0.037745 0.037745 0.037745
0.100981 0.100981 0.100981
0.161765 0.161765 0.161765
0.176961 0.176961 0.176961
0.210785 0.210785 0.210785
0.254902 0.254902 0.254902
0.300490 0.300490 0.300490
0.349020 0.349020 0.349020
0.099510 0.099510 0.099510
0.123039 0.123039 0.123039
0.167156 0.167156 0.167156
0.207353 0.207353 0.207353
0.220098 0.220098 0.220098
0.245588 0.245588 0.245588
0.283334 0.283334 0.283334
0.325980 0.325980 0.325980
0.372549 0.372549 0.372549
0.171079 0.171079 0.171079
0.203432 0.203432 0.203432
0.256373 0.256373 0.256373
0.291177 0.291177 0.291177
0.296078 0.296078 0.296078
0.321079 0.321079 0.321079
0.349020 0.349020 0.349020
0.383333 0.383333 0.383333
0.435294 0.435294 0.435294
0.290196 0.290196 0.290196
0.309314 0.309314 0.309314
0.342157 0.342157 0.342157
0.389216 0.389216 0.389216
0.402451 0.402451 0.402451
0.420588 0.420588 0.420588
0.448039 0.448039 0.448039
0.481372 0.481372 0.481372
0.538235 0.538235 0.538235
0.424020 0.424020 0.424020
0.437255 0.437255 0.437255
0.451961 0.451961 0.451961
0.467157 0.467157 0.467157
0.486765 0.486765 0.486765
0.531373 0.531373 0.531373
0.574510 0.574510 0.574510
0.607353 0.607353 0.607353
0.660784 0.660784 0.660784
0.534804 0.534804 0.534804
0.546569 0.546569 0.546569
0.551471 0.551471 0.551471
0.555882 0.555882 0.555882
0.568137 0.568137 0.568137
0.595098 0.595098 0.595098
0.651961 0.651961 0.651961
0.711765 0.711765 0.711765
0.788725 0.788725 0.788725
0.650981 0.650981 0.650981
0.653921 0.653921 0.653921
0.657353 0.657353 0.657353
0.661765 0.661765 0.661765
0.669118 0.669118 0.669118
0.694117 0.694117 0.694117
0.723039 0.723039 0.723039
0.785294 0.785294 0.785294
0.852941 0.852941 0.852941
0.781372 0.781372 0.781372
0.787745 0.787745 0.787745
0.788725 0.788725 0.788725
0.790686 0.790686 0.790686
0.797058 0.797058 0.797058
0.815686 0.815686 0.815686
0.840196 0.840196 0.840196
0.867647 0.867647 0.867647
0.913725 0.913725 0.913725
0.913725 0.913725 0.913725
0.917647 0.917647 0.917647
0.917647 0.917647 0.917647
0.921569 0.921569 0.921569
0.925490 0.925490 0.925490
0.932353 0.932353 0.932353
0.945098 0.945098 0.945098
0.960784 0.960784 0.960784
0.972549 0.972549 0.972549
0.049019 0.049019 0.049019
0.072549 0.072549 0.072549
0.132353 0.132353 0.132353
0.202451 0.202451 0.202451
0.249020 0.249020 0.249020
0.252451 0.252451 0.252451
0.274510 0.274510 0.274510
0.315686 0.315686 0.315686
0.364706 0.364706 0.364706
0.130882 0.130882 0.130882
0.148039 0.148039 0.148039
0.187745 0.187745 0.187745
0.242647 0.242647 0.242647
0.278431 0.278431 0.278431
0.280392 0.280392 0.280392
0.300000 0.300000 0.300000
0.339216 0.339216 0.339216
0.386274 0.386274 0.386274
0.227451 0.227451 0.227451
0.249509 0.249509 0.249509
0.272549 0.272549 0.272549
0.309804 0.309804 0.309804
0.341176 0.341176 0.341176
0.343137 0.343137 0.343137
0.361765 0.361765 0.361765
0.395588 0.395588 0.395588
0.435294 0.435294 0.435294
0.283334 0.283334 0.283334
0.306373 0.306373 0.306373
0.338725 0.338725 0.338725
0.397059 0.397059 0.397059
0.426470 0.426470 0.426470
0.429902 0.429902 0.429902
0.449510 0.449510 0.449510
0.473529 0.473529 0.473529
0.510294 0.510294 0.510294
0.403921 0.403921 0.403921
0.417157 0.417157 0.417157
0.439215 0.439215 0.439215
0.476961 0.476961 0.476961
0.525490 0.525490 0.525490
0.539706 0.539706 0.539706
0.560785 0.560785 0.560785
0.588726 0.588726 0.588726
0.633333 0.633333 0.633333
0.542647 0.542647 0.542647
0.554412 0.554412 0.554412
0.566176 0.566176 0.566176
0.589706 0.589706 0.589706
0.603431 0.603431 0.603431
0.625000 0.625000 0.625000
0.674019 0.674019 0.674019
0.726961 0.726961 0.726961
0.775490 0.775490 0.775490
0.668627 0.668627 0.668627
0.675490 0.675490 0.675490
0.684314 0.684314 0.684314
0.693627 0.693627 0.693627
0.700980 0.700980 0.700980
0.713726 0.713726 0.713726
0.746078 0.746078 0.746078
0.802451 0.802451 0.802451
0.863726 0.863726 0.863726
0.802941 0.802941 0.802941
0.805883 0.805883 0.805883
0.810294 0.810294 0.810294
0.813725 0.813725 0.813725
0.818137 0.818137 0.818137
0.826470 0.826470 0.826470
0.849510 0.849510 0.849510
0.877451 0.877451 0.877451
0.924020 0.924020 0.924020
0.921569 0.921569 0.921569
0.925490 0.925490 0.925490
0.925490 0.925490 0.925490
0.928922 0.928922 0.928922
0.929412 0.929412 0.929412
0.937255 0.937255 0.937255
0.949020 0.949020 0.949020
0.964706 0.964706 0.964706
0.972549 0.972549 0.972549
0.101961 0.101961 0.101961
0.123039 0.123039 0.123039
0.166176 0.166176 0.166176
0.227451 0.227451 0.227451
0.291667 0.291667 0.291667
0.323039 0.323039 0.323039
0.322549 0.322549 0.322549
0.347059 0.347059 0.347059
0.384314 0.384314 0.384314
0.167647 0.167647 0.167647
0.183334 0.183334 0.183334
0.215196 0.215196 0.215196
0.260784 0.260784 0.260784
0.317647 0.317647 0.317647
0.346569 0.346569 0.346569
0.348530 0.348530 0.348530
0.366667 0.366667 0.366667
0.403922 0.403922 0.403922
0.258333 0.258333 0.258333
0.268627 0.268627 0.268627
0.289216 0.289216 0.289216
0.325981 0.325981 0.325981
0.370588 0.370588 0.370588
0.400490 0.400490 0.400490
0.400490 0.400490 0.400490
0.416176 0.416176 0.416176
0.451961 0.451961 0.451961
0.313726 0.313726 0.313726
0.336765 0.336765 0.336765
0.377941 0.377941 0.377941
0.406373 0.406373 0.406373
0.446568 0.446568 0.446568
0.476961 0.476961 0.476961
0.474510 0.474510 0.474510
0.488236 0.488236 0.488236
0.522549 0.522549 0.522549
0.394608 0.394608 0.394608
0.407844 0.407844 0.407844
0.430882 0.430882 0.430882
0.467647 0.467647 0.467647
0.530882 0.530882 0.530882
0.562745 0.562745 0.562745
0.565686 0.565686 0.565686
0.581863 0.581863 0.581863
0.607843 0.607843 0.607843
0.515196 0.515196 0.515196
0.526471 0.526471 0.526471
0.545588 0.545588 0.545588
0.574020 0.574020 0.574020
0.611274 0.611274 0.611274
0.661765 0.661765 0.661765
0.680882 0.680882 0.680882
0.704412 0.704412 0.704412
0.744117 0.744117 0.744117
0.674510 0.674510 0.674510
0.681372 0.681372 0.681372
0.692157 0.692157 0.692157
0.707353 0.707353 0.707353
0.729902 0.729902 0.729902
0.748039 0.748039 0.748039
0.769118 0.769118 0.769118
0.819117 0.819117 0.819117
0.875490 0.875490 0.875490
0.808823 0.808823 0.808823
0.812745 0.812745 0.812745
0.822059 0.822059 0.822059
0.830392 0.830392 0.830392
0.844608 0.844608 0.844608
0.851470 0.851470 0.851470
0.867157 0.867157 0.867157
0.891176 0.891176 0.891176
0.930882 0.930882 0.930882
0.931863 0.931863 0.931863
0.929902 0.929902 0.929902
0.934804 0.934804 0.934804
0.937255 0.937255 0.937255
0.941176 0.941176 0.941176
0.945098 0.945098 0.945098
0.952941 0.952941 0.952941
0.965196 0.965196 0.965196
0.976471 0.976471 0.976471
0.161765 0.161765 0.161765
0.175981 0.175981 0.175981
0.210784 0.210784 0.210784
0.257353 0.257353 0.257353
0.318628 0.318628 0.318628
0.386275 0.386275 0.386275
0.412745 0.412745 0.412745
0.404902 0.404902 0.404902
0.436275 0.436275 0.436275
0.206863 0.206863 0.206863
0.220098 0.220098 0.220098
0.243137 0.243137 0.243137
0.288235 0.288235 0.288235
0.342647 0.342647 0.342647
0.408824 0.408824 0.408824
0.429902 0.429902 0.429902
0.421569 0.421569 0.421569
0.454412 0.454412 0.454412
0.281373 0.281373 0.281373
0.289706 0.289706 0.289706
0.309804 0.309804 0.309804
0.347059 0.347059 0.347059
0.394117 0.394117 0.394117
0.451471 0.451471 0.451471
0.476471 0.476471 0.476471
0.466667 0.466667 0.466667
0.494117 0.494117 0.494117
0.363235 0.363235 0.363235
0.378922 0.378922 0.378922
0.396569 0.396569 0.396569
0.423039 0.423039 0.423039
0.463236 0.463236 0.463236
0.516177 0.516177 0.516177
0.539706 0.539706 0.539706
0.532353 0.532353 0.532353
0.553921 0.553921 0.553921
0.394118 0.394118 0.394118
0.408824 0.408824 0.408824
0.442157 0.442157 0.442157
0.500980 0.500980 0.500980
0.545098 0.545098 0.545098
0.587745 0.587745 0.587745
0.616667 0.616667 0.616667
0.612745 0.612745 0.612745
0.625490 0.625490 0.625490
0.503922 0.503922 0.503922
0.515687 0.515687 0.515687
0.533824 0.533824 0.533824
0.559804 0.559804 0.559804
0.598529 0.598529 0.598529
0.672549 0.672549 0.672549
0.707353 0.707353 0.707353
0.708333 0.708333 0.708333
0.730882 0.730882 0.730882
0.639216 0.639216 0.639216
0.649020 0.649020 0.649020
0.660785 0.660785 0.660785
0.681372 0.681372 0.681372
0.713726 0.713726 0.713726
0.755882 0.755882 0.755882
0.806863 0.806863 0.806863
0.822549 0.822549 0.822549
0.852941 0.852941 0.852941
0.816666 0.816666 0.816666
0.820098 0.820098 0.820098
0.825490 0.825490 0.825490
0.839216 0.839216 0.839216
0.852941 0.852941 0.852941
0.872059 0.872059 0.872059
0.887255 0.887255 0.887255
0.906862 0.906862 0.906862
0.941176 0.941176 0.941176
0.933333 0.933333 0.933333
0.934314 0.934314 0.934314
0.937255 0.937255 0.937255
0.943627 0.943627 0.943627
0.947059 0.947059 0.947059
0.956863 0.956863 0.956863
0.960784 0.960784 0.960784
0.969117 0.969117 0.969117
0.984314 0.984314 0.984314
0.219608 0.219608 0.219608
0.228432 0.228432 0.228432
0.258334 0.258334 0.258334
0.304412 0.304412 0.304412
0.359314 0.359314 0.359314
0.426961 0.426961 0.426961
0.507353 0.507353 0.507353
0.523039 0.523039 0.523039
0.514706 0.514706 0.514706
0.248039 0.248039 0.248039
0.262745 0.262745 0.262745
0.288725 0.288725 0.288725
0.325000 0.325000 0.325000
0.381863 0.381863 0.381863
0.443137 0.443137 0.443137
0.523039 0.523039 0.523039
0.538235 0.538235 0.538235
0.529902 0.529902 0.529902
0.312255 0.312255 0.312255
0.320588 0.320588 0.320588
0.344118 0.344118 0.344118
0.377941 0.377941 0.377941
0.425000 0.425000 0.425000
0.488725 0.488725 0.488725
0.557843 0.557843 0.557843
0.575490 0.575490 0.575490
0.562745 0.562745 0.562745
0.390686 0.390686 0.390686
0.401471 0.401471 0.401471
0.418137 0.418137 0.418137
0.449510 0.449510 0.449510
0.490687 0.490687 0.490687
0.545098 0.545098 0.545098
0.607353 0.607353 0.607353
0.626961 0.626961 0.626961
0.614706 0.614706 0.614706
0.437255 0.437255 0.437255
0.454412 0.454412 0.454412
0.485295 0.485295 0.485295
0.525981 0.525981 0.525981
0.564705 0.564705 0.564705
0.611765 0.611765 0.611765
0.664216 0.664216 0.664216
0.688726 0.688726 0.688726
0.680392 0.680392 0.680392
0.480882 0.480882 0.480882
0.489216 0.489216 0.489216
0.500490 0.500490 0.500490
0.542647 0.542647 0.542647
0.625490 0.625490 0.625490
0.685294 0.685294 0.685294
0.735784 0.735784 0.735784
0.766667 0.766667 0.766667
0.766667 0.766667 0.766667
0.631373 0.631373 0.631373
0.638235 0.638235 0.638235
0.650000 0.650000 0.650000
0.668137 0.668137 0.668137
0.700980 0.700980 0.700980
0.740196 0.740196 0.740196
0.814706 0.814706 0.814706
0.852941 0.852941 0.852941
0.857353 0.857353 0.857353
0.781372 0.781372 0.781372
0.788235 0.788235 0.788235
0.795588 0.795588 0.795588
0.810294 0.810294 0.810294
0.832353 0.832353 0.832353
0.861275 0.861275 0.861275
0.895589 0.895589 0.895589
0.929902 0.929902 0.929902
0.941666 0.941666 0.941666
0.936765 0.936765 0.936765
0.936275 0.936275 0.936275
0.941176 0.941176 0.941176
0.945588 0.945588 0.945588
0.952941 0.952941 0.952941
0.960784 0.960784 0.960784
0.969607 0.969607 0.969607
0.976471 0.976471 0.976471
0.984314 0.984314 0.984314
0.294118 0.294118 0.294118
0.305882 0.305882 0.305882
0.330392 0.330392 0.330392
0.376471 0.376471 0.376471
0.437255 0.437255 0.437255
0.515196 0.515196 0.515196
0.597059 0.597059 0.597059
0.686765 0.686765 0.686765
0.690196 0.690196 0.690196
0.313726 0.313726 0.313726
0.329412 0.329412 0.329412
0.351961 0.351961 0.351961
0.394608 0.394608 0.394608
0.452941 0.452941 0.452941
0.526961 0.526961 0.526961
0.612254 0.612254 0.612254
0.694117 0.694117 0.694117
0.701471 0.701471 0.701471
0.366666 0.366666 0.366666
0.375491 0.375491 0.375491
0.398039 0.398039 0.398039
0.436765 0.436765 0.436765
0.491177 0.491177 0.491177
0.561275 0.561275 0.561275
0.638235 0.638235 0.638235
0.714216 0.714216 0.714216
0.723529 0.723529 0.723529
0.422059 0.422059 0.422059
0.432843 0.432843 0.432843
0.457844 0.457844 0.457844
0.492647 0.492647 0.492647
0.543627 0.543627 0.543627
0.605392 0.605392 0.605392
0.672549 0.672549 0.672549
0.748039 0.748039 0.748039
0.760784 0.760784 0.760784
0.488236 0.488236 0.488236
0.500000 0.500000 0.500000
0.518628 0.518628 0.518628
0.553432 0.553432 0.553432
0.600000 0.600000 0.600000
0.658824 0.658824 0.658824
0.720588 0.720588 0.720588
0.788726 0.788726 0.788726
0.803921 0.803921 0.803921
0.466667 0.466667 0.466667
0.480882 0.480882 0.480882
0.513726 0.513726 0.513726
0.580393 0.580393 0.580393
0.658333 0.658333 0.658333
0.715196 0.715196 0.715196
0.777451 0.777451 0.777451
0.836765 0.836765 0.836765
0.860294 0.860294 0.860294
0.588236 0.588236 0.588236
0.592157 0.592157 0.592157
0.601961 0.601961 0.601961
0.611765 0.611765 0.611765
0.646078 0.646078 0.646078
0.763725 0.763725 0.763725
0.838235 0.838235 0.838235
0.891177 0.891177 0.891177
0.911765 0.911765 0.911765
0.797549 0.797549 0.797549
0.797549 0.797549 0.797549
0.808823 0.808823 0.808823
0.820098 0.820098 0.820098
0.832844 0.832844 0.832844
0.857353 0.857353 0.857353
0.879411 0.879411 0.879411
0.941176 0.941176 0.941176
0.960784 0.960784 0.960784
0.925490 0.925490 0.925490
0.928922 0.928922 0.928922
0.933333 0.933333 0.933333
0.937255 0.937255 0.937255
0.945098 0.945098 0.945098
0.956863 0.956863 0.956863
0.968627 0.968627 0.968627
0.980392 0.980392 0.980392
0.988235 0.988235 0.988235
