Black-and-White/Kodak/Kodak TRI-X 400 3 Alt 65x.cube
TITLE "Kodak TRI-X 400 3 Alt"
LUT_3D_SIZE 65
DOMAIN_MIN 0.000000 0.000000 0.000000
DOMAIN_MAX 1.000000 1.000000 1.000000
0.000000 0.000000 0.000000
0.000000 0.000000 0.000000
0.000000 0.000000 0.000000
0.000000 0.000000 0.000000
0.000000 0.000000 0.000000
0.000000 0.000000 0.000000
0.000000 0.000000 0.000000
0.000000 0.000000 0.000000
0.000000 0.000000 0.000000
0.000000 0.000000 0.000000
0.000000 0.000000 0.000000
0.000000 0.000000 0.000000
0.000000 0.000000 0.000000
0.000000 0.000000 0.000000
0.000000 0.000000 0.000000
0.000000 0.000000 0.000000
0.000000 0.000000 0.000000
0.003922 0.003922 0.003922
0.003922 0.003922 0.003922
0.003922 0.003922 0.003922
0.003922 0.003922 0.003922
0.003922 0.003922 0.003922
0.003922 0.003922 0.003922
0.005454 0.005454 0.005454
0.007843 0.007843 0.007843
0.007843 0.007843 0.007843
0.007843 0.007843 0.007843
0.009130 0.009130 0.009130
0.011765 0.011765 0.011765
0.011765 0.011765 0.011765
0.011888 0.011888 0.011888
0.015686 0.015686 0.015686
0.019608 0.019608 0.019608
0.019608 0.019608 0.019608
0.023529 0.023529 0.023529
0.027451 0.027451 0.027451
0.031373 0.031373 0.031373
0.035294 0.035294 0.035294
0.042769 0.042769 0.042769
0.047610 0.047610 0.047610
0.056373 0.056373 0.056373
0.061213 0.061213 0.061213
0.069975 0.069975 0.069975
0.082659 0.082659 0.082659
0.092647 0.092647 0.092647
0.104105 0.104105 0.104105
0.115931 0.115931 0.115931
0.125613 0.125613 0.125613
0.139216 0.139216 0.139216
0.150919 0.150919 0.150919
0.163603 0.163603 0.163603
0.176103 0.176103 0.176103
0.188970 0.188970 0.188970
0.201655 0.201655 0.201655
0.216912 0.216912 0.216912
0.230944 0.230944 0.230944
0.247549 0.247549 0.247549
0.261643 0.261643 0.261643
0.275245 0.275245 0.275245
0.292770 0.292770 0.292770
0.310049 0.310049 0.310049
0.323897 0.323897 0.323897
0.341422 0.341422 0.341422
0.355944 0.355944 0.355944
0.372549 0.372549 0.372549
0.000000 0.000000 0.000000
0.000000 0.000000 0.000000
0.000000 0.000000 0.000000
0.000000 0.000000 0.000000
0.000000 0.000000 0.000000
0.000000 0.000000 0.000000
0.000000 0.000000 0.000000
0.002513 0.002513 0.002513
0.000919 0.000919 0.000919
0.000429 0.000429 0.000429
0.003922 0.003922 0.003922
0.003922 0.003922 0.003922
0.003922 0.003922 0.003922
0.003922 0.003922 0.003922
0.003922 0.003922 0.003922
0.005944 0.005944 0.005944
0.004841 0.004841 0.004841
0.004841 0.004841 0.004841
0.007843 0.007843 0.007843
0.007843 0.007843 0.007843
0.010539 0.010539 0.010539
0.008762 0.008762 0.008762
0.011765 0.011765 0.011765
0.011765 0.011765 0.011765
0.012684 0.012684 0.012684
0.012684 0.012684 0.012684
0.016605 0.016605 0.016605
0.016605 0.016605 0.016605
0.020527 0.020527 0.020527
0.020527 0.020527 0.020527
0.024448 0.024448 0.024448
0.028370 0.028370 0.028370
0.032292 0.032292 0.032292
0.036213 0.036213 0.036213
0.037132 0.037132 0.037132
0.044853 0.044853 0.044853
0.050613 0.050613 0.050613
0.056740 0.056740 0.056740
0.064216 0.064216 0.064216
0.072978 0.072978 0.072978
0.081740 0.081740 0.081740
0.090503 0.090503 0.090503
0.102574 0.102574 0.102574
0.111949 0.111949 0.111949
0.124633 0.124633 0.124633
0.133394 0.133394 0.133394
0.143076 0.143076 0.143076
0.154840 0.154840 0.154840
0.167525 0.167525 0.167525
0.180208 0.180208 0.180208
0.188970 0.188970 0.188970
0.201654 0.201654 0.201654
0.215074 0.215074 0.215074
0.228676 0.228676 0.228676
0.242279 0.242279 0.242279
0.258884 0.258884 0.258884
0.272916 0.272916 0.272916
0.285601 0.285601 0.285601
0.300613 0.300613 0.300613
0.317218 0.317218 0.317218
0.331495 0.331495 0.331495
0.344178 0.344178 0.344178
0.361949 0.361949 0.361949
0.375551 0.375551 0.375551
0.389154 0.389154 0.389154
0.000000 0.000000 0.000000
0.000000 0.000000 0.000000
0.000000 0.000000 0.000000
0.000000 0.000000 0.000000
0.003677 0.003677 0.003677
0.001838 0.001838 0.001838
0.003922 0.003922 0.003922
0.003922 0.003922 0.003922
0.003922 0.003922 0.003922
0.003922 0.003922 0.003922
0.003922 0.003922 0.003922
0.003922 0.003922 0.003922
0.007108 0.007108 0.007108
0.004106 0.004106 0.004106
0.007843 0.007843 0.007843
0.007843 0.007843 0.007843
0.007843 0.007843 0.007843
0.007843 0.007843 0.007843
0.009681 0.009681 0.009681
0.011765 0.011765 0.011765
0.011765 0.011765 0.011765
0.011765 0.011765 0.011765
0.012378 0.012378 0.012378
0.015686 0.015686 0.015686
0.017524 0.017524 0.017524
0.019608 0.019608 0.019608
0.021446 0.021446 0.021446
0.023529 0.023529 0.023529
0.025367 0.025367 0.025367
0.030576 0.030576 0.030576
0.033211 0.033211 0.033211
0.037132 0.037132 0.037132
0.041177 0.041177 0.041177
0.044975 0.044975 0.044975
0.052696 0.052696 0.052696
0.058578 0.058578 0.058578
0.062378 0.062378 0.062378
0.071140 0.071140 0.071140
0.079902 0.079902 0.079902
0.088665 0.088665 0.088665
0.097427 0.097427 0.097427
0.106189 0.106189 0.106189
0.116790 0.116790 0.116790
0.127634 0.127634 0.127634
0.138235 0.138235 0.138235
0.149081 0.149081 0.149081
0.157843 0.157843 0.157843
0.170527 0.170527 0.170527
0.180270 0.180270 0.180270
0.191973 0.191973 0.191973
0.202573 0.202573 0.202573
0.217157 0.217157 0.217157
0.230024 0.230024 0.230024
0.242709 0.242709 0.242709
0.255392 0.255392 0.255392
0.271569 0.271569 0.271569
0.284681 0.284681 0.284681
0.299204 0.299204 0.299204
0.312377 0.312377 0.312377
0.325980 0.325980 0.325980
0.339584 0.339584 0.339584
0.355943 0.355943 0.355943
0.368628 0.368628 0.368628
0.381312 0.381312 0.381312
0.397916 0.397916 0.397916
0.000000 0.000000 0.000000
0.002758 0.002758 0.002758
0.002758 0.002758 0.002758
0.003922 0.003922 0.003922
0.003922 0.003922 0.003922
0.003922 0.003922 0.003922
0.003922 0.003922 0.003922
0.003922 0.003922 0.003922
0.003922 0.003922 0.003922
0.006679 0.006679 0.006679
0.006679 0.006679 0.006679
0.007843 0.007843 0.007843
0.007843 0.007843 0.007843
0.007843 0.007843 0.007843
0.007843 0.007843 0.007843
0.010601 0.010601 0.010601
0.010601 0.010601 0.010601
0.011765 0.011765 0.011765
0.011765 0.011765 0.011765
0.014522 0.014522 0.014522
0.014461 0.014461 0.014461
0.015686 0.015686 0.015686
0.018444 0.018444 0.018444
0.019608 0.019608 0.019608
0.022365 0.022365 0.022365
0.023529 0.023529 0.023529
0.026287 0.026287 0.026287
0.030209 0.030209 0.030209
0.029657 0.029657 0.029657
0.034130 0.034130 0.034130
0.038174 0.038174 0.038174
0.043015 0.043015 0.043015
0.047855 0.047855 0.047855
0.053738 0.053738 0.053738
0.057660 0.057660 0.057660
0.066299 0.066299 0.066299
0.071140 0.071140 0.071140
0.079902 0.079902 0.079902
0.088664 0.088664 0.088664
0.100184 0.100184 0.100184
0.108946 0.108946 0.108946
0.118873 0.118873 0.118873
0.127635 0.127635 0.127635
0.139154 0.139154 0.139154
0.149081 0.149081 0.149081
0.157843 0.157843 0.157843
0.169363 0.169363 0.169363
0.179290 0.179290 0.179290
0.191972 0.191972 0.191972
0.202634 0.202634 0.202634
0.213419 0.213419 0.213419
0.224939 0.224939 0.224939
0.241544 0.241544 0.241544
0.254228 0.254228 0.254228
0.264155 0.264155 0.264155
0.280331 0.280331 0.280331
0.293443 0.293443 0.293443
0.306128 0.306128 0.306128
0.321140 0.321140 0.321140
0.334743 0.334743 0.334743
0.345588 0.345588 0.345588
0.361948 0.361948 0.361948
0.375551 0.375551 0.375551
0.389154 0.389154 0.389154
0.402758 0.402758 0.402758
0.003922 0.003922 0.003922
0.003922 0.003922 0.003922
0.003922 0.003922 0.003922
0.003922 0.003922 0.003922
0.003922 0.003922 0.003922
0.003922 0.003922 0.003922
0.003922 0.003922 0.003922
0.007598 0.007598 0.007598
0.007353 0.007353 0.007353
0.007843 0.007843 0.007843
0.007843 0.007843 0.007843
0.007843 0.007843 0.007843
0.007843 0.007843 0.007843
0.008027 0.008027 0.008027
0.011765 0.011765 0.011765
0.011765 0.011765 0.011765
0.011765 0.011765 0.011765
0.015625 0.015625 0.015625
0.015686 0.015686 0.015686
0.015686 0.015686 0.015686
0.019363 0.019363 0.019363
0.019608 0.019608 0.019608
0.023284 0.023284 0.023284
0.023529 0.023529 0.023529
0.027206 0.027206 0.027206
0.027451 0.027451 0.027451
0.027819 0.027819 0.027819
0.035049 0.035049 0.035049
0.038971 0.038971 0.038971
0.042892 0.042892 0.042892
0.046814 0.046814 0.046814
0.050735 0.050735 0.050735
0.056618 0.056618 0.056618
0.061458 0.061458 0.061458
0.070220 0.070220 0.070220
0.075061 0.075061 0.075061
0.083824 0.083824 0.083824
0.092586 0.092586 0.092586
0.101348 0.101348 0.101348
0.110109 0.110109 0.110109
0.118873 0.118873 0.118873
0.127635 0.127635 0.127635
0.136397 0.136397 0.136397
0.149080 0.149080 0.149080
0.157843 0.157843 0.157843
0.168750 0.168750 0.168750
0.179289 0.179289 0.179289
0.191728 0.191728 0.191728
0.200735 0.200735 0.200735
0.211397 0.211397 0.211397
0.222181 0.222181 0.222181
0.234865 0.234865 0.234865
0.248284 0.248284 0.248284
0.261888 0.261888 0.261888
0.276593 0.276593 0.276593
0.289093 0.289093 0.289093
0.302205 0.302205 0.302205
0.314889 0.314889 0.314889
0.327574 0.327574 0.327574
0.339828 0.339828 0.339828
0.356862 0.356862 0.356862
0.369547 0.369547 0.369547
0.382231 0.382231 0.382231
0.394914 0.394914 0.394914
0.407598 0.407598 0.407598
0.003922 0.003922 0.003922
0.004841 0.004841 0.004841
0.004596 0.004596 0.004596
0.004596 0.004596 0.004596
0.007843 0.007843 0.007843
0.007843 0.007843 0.007843
0.007843 0.007843 0.007843
0.007843 0.007843 0.007843
0.011275 0.011275 0.011275
0.008272 0.008272 0.008272
0.011765 0.011765 0.011765
0.011765 0.011765 0.011765
0.011765 0.011765 0.011765
0.012439 0.012439 0.012439
0.015686 0.015686 0.015686
0.015686 0.015686 0.015686
0.016360 0.016360 0.016360
0.016360 0.016360 0.016360
0.020466 0.020466 0.020466
0.020282 0.020282 0.020282
0.023529 0.023529 0.023529
0.024203 0.024203 0.024203
0.028125 0.028125 0.028125
0.028125 0.028125 0.028125
0.032047 0.032047 0.032047
0.035417 0.035417 0.035417
0.039890 0.039890 0.039890
0.041177 0.041177 0.041177
0.046017 0.046017 0.046017
0.050858 0.050858 0.050858
0.055576 0.055576 0.055576
0.060540 0.060540 0.060540
0.065380 0.065380 0.065380
0.074142 0.074142 0.074142
0.078983 0.078983 0.078983
0.087746 0.087746 0.087746
0.096508 0.096508 0.096508
0.102022 0.102022 0.102022
0.110784 0.110784 0.110784
0.122794 0.122794 0.122794
0.131557 0.131557 0.131557
0.140319 0.140319 0.140319
0.149080 0.149080 0.149080
0.157843 0.157843 0.157843
0.167280 0.167280 0.167280
0.179290 0.179290 0.179290
0.191115 0.191115 0.191115
0.200735 0.200735 0.200735
0.210478 0.210478 0.210478
0.222182 0.222182 0.222182
0.231618 0.231618 0.231618
0.247365 0.247365 0.247365
0.257047 0.257047 0.257047
0.270650 0.270650 0.270650
0.284252 0.284252 0.284252
0.297855 0.297855 0.297855
0.310968 0.310968 0.310968
0.323652 0.323652 0.323652
0.337990 0.337990 0.337990
0.351593 0.351593 0.351593
0.361703 0.361703 0.361703
0.374387 0.374387 0.374387
0.387071 0.387071 0.387071
0.402084 0.402084 0.402084
0.412439 0.412439 0.412439
0.007843 0.007843 0.007843
0.007843 0.007843 0.007843
0.007843 0.007843 0.007843
0.007843 0.007843 0.007843
0.007843 0.007843 0.007843
0.009436 0.009436 0.009436
0.009436 0.009436 0.009436
0.011765 0.011765 0.011765
0.011765 0.011765 0.011765
0.011765 0.011765 0.011765
0.013358 0.013358 0.013358
0.013358 0.013358 0.013358
0.015686 0.015686 0.015686
0.017279 0.017279 0.017279
0.016789 0.016789 0.016789
0.019608 0.019608 0.019608
0.021201 0.021201 0.021201
0.021201 0.021201 0.021201
0.025122 0.025122 0.025122
0.025122 0.025122 0.025122
0.030147 0.030147 0.030147
0.029044 0.029044 0.029044
0.032966 0.032966 0.032966
0.036887 0.036887 0.036887
0.039338 0.039338 0.039338
0.040809 0.040809 0.040809
0.045098 0.045098 0.045098
0.049939 0.049939 0.049939
0.054779 0.054779 0.054779
0.059620 0.059620 0.059620
0.064460 0.064460 0.064460
0.069302 0.069302 0.069302
0.073774 0.073774 0.073774
0.082905 0.082905 0.082905
0.091667 0.091667 0.091667
0.098101 0.098101 0.098101
0.106863 0.106863 0.106863
0.112990 0.112990 0.112990
0.122794 0.122794 0.122794
0.131557 0.131557 0.131557
0.140319 0.140319 0.140319
0.150674 0.150674 0.150674
0.159436 0.159436 0.159436
0.166912 0.166912 0.166912
0.179290 0.179290 0.179290
0.190196 0.190196 0.190196
0.200735 0.200735 0.200735
0.209497 0.209497 0.209497
0.222182 0.222182 0.222182
0.232843 0.232843 0.232843
0.243628 0.243628 0.243628
0.253983 0.253983 0.253983
0.268995 0.268995 0.268995
0.281679 0.281679 0.281679
0.293015 0.293015 0.293015
0.306617 0.306617 0.306617
0.319730 0.319730 0.319730
0.329902 0.329902 0.329902
0.343505 0.343505 0.343505
0.353861 0.353861 0.353861
0.370465 0.370465 0.370465
0.380392 0.380392 0.380392
0.391911 0.391911 0.391911
0.404595 0.404595 0.404595
0.419608 0.419608 0.419608
0.010356 0.010356 0.010356
0.010356 0.010356 0.010356
0.011765 0.011765 0.011765
0.011765 0.011765 0.011765
0.011765 0.011765 0.011765
0.011765 0.011765 0.011765
0.014277 0.014277 0.014277
0.014277 0.014277 0.014277
0.015686 0.015686 0.015686
0.015686 0.015686 0.015686
0.018199 0.018199 0.018199
0.018199 0.018199 0.018199
0.019608 0.019608 0.019608
0.022120 0.022120 0.022120
0.020711 0.020711 0.020711
0.023529 0.023529 0.023529
0.026042 0.026042 0.026042
0.026042 0.026042 0.026042
0.029964 0.029964 0.029964
0.033885 0.033885 0.033885
0.033885 0.033885 0.033885
0.037807 0.037807 0.037807
0.041728 0.041728 0.041728
0.043260 0.043260 0.043260
0.045650 0.045650 0.045650
0.049571 0.049571 0.049571
0.053860 0.053860 0.053860
0.058701 0.058701 0.058701
0.063542 0.063542 0.063542
0.067769 0.067769 0.067769
0.073222 0.073222 0.073222
0.080944 0.080944 0.080944
0.086826 0.086826 0.086826
0.095588 0.095588 0.095588
0.102941 0.102941 0.102941
0.109191 0.109191 0.109191
0.117953 0.117953 0.117953
0.126716 0.126716 0.126716
0.135478 0.135478 0.135478
0.144240 0.144240 0.144240
0.153003 0.153003 0.153003
0.161765 0.161765 0.161765
0.170527 0.170527 0.170527
0.179290 0.179290 0.179290
0.190564 0.190564 0.190564
0.200735 0.200735 0.200735
0.209498 0.209498 0.209498
0.218321 0.218321 0.218321
0.230943 0.230943 0.230943
0.241605 0.241605 0.241605
0.255209 0.255209 0.255209
0.265074 0.265074 0.265074
0.277758 0.277758 0.277758
0.290442 0.290442 0.290442
0.301716 0.301716 0.301716
0.315380 0.315380 0.315380
0.325061 0.325061 0.325061
0.338664 0.338664 0.338664
0.349755 0.349755 0.349755
0.362623 0.362623 0.362623
0.373039 0.373039 0.373039
0.387991 0.387991 0.387991
0.400674 0.400674 0.400674
0.412439 0.412439 0.412439
0.423529 0.423529 0.423529
0.011765 0.011765 0.011765
0.015196 0.015196 0.015196
0.015196 0.015196 0.015196
0.014522 0.014522 0.014522
0.015686 0.015686 0.015686
0.015686 0.015686 0.015686
0.019118 0.019118 0.019118
0.019118 0.019118 0.019118
0.019118 0.019118 0.019118
0.019608 0.019608 0.019608
0.023039 0.023039 0.023039
0.021875 0.021875 0.021875
0.023529 0.023529 0.023529
0.026961 0.026961 0.026961
0.030883 0.030883 0.030883
0.030883 0.030883 0.030883
0.030392 0.030392 0.030392
0.034804 0.034804 0.034804
0.038726 0.038726 0.038726
0.037071 0.037071 0.037071
0.042647 0.042647 0.042647
0.046569 0.046569 0.046569
0.050490 0.050490 0.050490
0.052022 0.052022 0.052022
0.056863 0.056863 0.056863
0.061765 0.061765 0.061765
0.066177 0.066177 0.066177
0.070098 0.070098 0.070098
0.077451 0.077451 0.077451
0.081066 0.081066 0.081066
0.085906 0.085906 0.085906
0.090748 0.090748 0.090748
0.100981 0.100981 0.100981
0.107782 0.107782 0.107782
0.112745 0.112745 0.112745
0.121875 0.121875 0.121875
0.130637 0.130637 0.130637
0.140196 0.140196 0.140196
0.147672 0.147672 0.147672
0.156434 0.156434 0.156434
0.165196 0.165196 0.165196
0.173959 0.173959 0.173959
0.182721 0.182721 0.182721
0.188358 0.188358 0.188358
0.200735 0.200735 0.200735
0.212929 0.212929 0.212929
0.222181 0.222181 0.222181
0.234375 0.234375 0.234375
0.240687 0.240687 0.240687
0.252390 0.252390 0.252390
0.265074 0.265074 0.265074
0.277573 0.277573 0.277573
0.287255 0.287255 0.287255
0.299204 0.299204 0.299204
0.311888 0.311888 0.311888
0.324142 0.324142 0.324142
0.333823 0.333823 0.333823
0.343995 0.343995 0.343995
0.358701 0.358701 0.358701
0.371385 0.371385 0.371385
0.384068 0.384068 0.384068
0.393995 0.393995 0.393995
0.405514 0.405514 0.405514
0.418199 0.418199 0.418199
0.430883 0.430883 0.430883
0.016115 0.016115 0.016115
0.019608 0.019608 0.019608
0.021446 0.021446 0.021446
0.020037 0.020037 0.020037
0.020037 0.020037 0.020037
0.020037 0.020037 0.020037
0.023529 0.023529 0.023529
0.023958 0.023958 0.023958
0.023958 0.023958 0.023958
0.023958 0.023958 0.023958
0.027880 0.027880 0.027880
0.027880 0.027880 0.027880
0.034559 0.034559 0.034559
0.031557 0.031557 0.031557
0.035723 0.035723 0.035723
0.037745 0.037745 0.037745
0.039645 0.039645 0.039645
0.043506 0.043506 0.043506
0.044424 0.044424 0.044424
0.047488 0.047488 0.047488
0.051409 0.051409 0.051409
0.055331 0.055331 0.055331
0.059253 0.059253 0.059253
0.063174 0.063174 0.063174
0.063603 0.063603 0.063603
0.067525 0.067525 0.067525
0.075307 0.075307 0.075307
0.079289 0.079289 0.079289
0.085417 0.085417 0.085417
0.093750 0.093750 0.093750
0.098590 0.098590 0.098590
0.107352 0.107352 0.107352
0.112194 0.112194 0.112194
0.117462 0.117462 0.117462
0.122427 0.122427 0.122427
0.134558 0.134558 0.134558
0.143321 0.143321 0.143321
0.152084 0.152084 0.152084
0.153799 0.153799 0.153799
0.165686 0.165686 0.165686
0.174448 0.174448 0.174448
0.183210 0.183210 0.183210
0.189093 0.189093 0.189093
0.200735 0.200735 0.200735
0.209926 0.209926 0.209926
0.222182 0.222182 0.222182
0.234007 0.234007 0.234007
0.243627 0.243627 0.243627
0.253370 0.253370 0.253370
0.261581 0.261581 0.261581
0.276654 0.276654 0.276654
0.286519 0.286519 0.286519
0.299203 0.299203 0.299203
0.307966 0.307966 0.307966
0.320649 0.320649 0.320649
0.332904 0.332904 0.332904
0.342095 0.342095 0.342095
0.354779 0.354779 0.354779
0.369363 0.369363 0.369363
0.376225 0.376225 0.376225
0.388909 0.388909 0.388909
0.402328 0.402328 0.402328
0.410355 0.410355 0.410355
0.425613 0.425613 0.425613
0.435723 0.435723 0.435723
0.023529 0.023529 0.023529
0.024877 0.024877 0.024877
0.024877 0.024877 0.024877
0.024877 0.024877 0.024877
0.024877 0.024877 0.024877
0.028799 0.028799 0.028799
0.028799 0.028799 0.028799
0.028799 0.028799 0.028799
0.034804 0.034804 0.034804
0.032721 0.032721 0.032721
0.034069 0.034069 0.034069
0.036642 0.036642 0.036642
0.039828 0.039828 0.039828
0.040564 0.040564 0.040564
0.044485 0.044485 0.044485
0.046507 0.046507 0.046507
0.048407 0.048407 0.048407
0.049755 0.049755 0.049755
0.053186 0.053186 0.053186
0.058027 0.058027 0.058027
0.062868 0.062868 0.062868
0.067708 0.067708 0.067708
0.068628 0.068628 0.068628
0.073468 0.073468 0.073468
0.078309 0.078309 0.078309
0.083150 0.083150 0.083150
0.088971 0.088971 0.088971
0.092831 0.092831 0.092831
0.099020 0.099020 0.099020
0.106434 0.106434 0.106434
0.111275 0.111275 0.111275
0.117463 0.117463 0.117463
0.124878 0.124878 0.124878
0.131066 0.131066 0.131066
0.138480 0.138480 0.138480
0.147242 0.147242 0.147242
0.153431 0.153431 0.153431
0.159559 0.159559 0.159559
0.169608 0.169608 0.169608
0.178371 0.178371 0.178371
0.187133 0.187133 0.187133
0.195895 0.195895 0.195895
0.204657 0.204657 0.204657
0.213420 0.213420 0.213420
0.222181 0.222181 0.222181
0.232292 0.232292 0.232292
0.243628 0.243628 0.243628
0.252450 0.252450 0.252450
0.265073 0.265073 0.265073
0.273835 0.273835 0.273835
0.283946 0.283946 0.283946
0.295281 0.295281 0.295281
0.307966 0.307966 0.307966
0.318383 0.318383 0.318383
0.329411 0.329411 0.329411
0.341666 0.341666 0.341666
0.350858 0.350858 0.350858
0.363541 0.363541 0.363541
0.372304 0.372304 0.372304
0.386887 0.386887 0.386887
0.397671 0.397671 0.397671
0.406434 0.406434 0.406434
0.419853 0.419853 0.419853
0.427880 0.427880 0.427880
0.440564 0.440564 0.440564
0.029718 0.029718 0.029718
0.028370 0.028370 0.028370
0.033640 0.033640 0.033640
0.033640 0.033640 0.033640
0.033640 0.033640 0.033640
0.034314 0.034314 0.034314
0.037561 0.037561 0.037561
0.037561 0.037561 0.037561
0.040992 0.040992 0.040992
0.041483 0.041483 0.041483
0.042831 0.042831 0.042831
0.045404 0.045404 0.045404
0.048590 0.048590 0.048590
0.051593 0.051593 0.051593
0.053247 0.053247 0.053247
0.055270 0.055270 0.055270
0.060110 0.060110 0.060110
0.061091 0.061091 0.061091
0.065012 0.065012 0.065012
0.068934 0.068934 0.068934
0.071201 0.071201 0.071201
0.075122 0.075122 0.075122
0.082966 0.082966 0.082966
0.086887 0.086887 0.086887
0.090993 0.090993 0.090993
0.095833 0.095833 0.095833
0.102573 0.102573 0.102573
0.105515 0.105515 0.105515
0.112622 0.112622 0.112622
0.119118 0.119118 0.119118
0.123959 0.123959 0.123959
0.128799 0.128799 0.128799
0.137867 0.137867 0.137867
0.141789 0.141789 0.141789
0.151164 0.151164 0.151164
0.158272 0.158272 0.158272
0.164767 0.164767 0.164767
0.173530 0.173530 0.173530
0.182292 0.182292 0.182292
0.189400 0.189400 0.189400
0.198162 0.198162 0.198162
0.206924 0.206924 0.206924
0.215686 0.215686 0.215686
0.224449 0.224449 0.224449
0.232169 0.232169 0.232169
0.243628 0.243628 0.243628
0.255454 0.255454 0.255454
0.265073 0.265073 0.265073
0.273835 0.273835 0.273835
0.284865 0.284865 0.284865
0.295282 0.295282 0.295282
0.307782 0.307782 0.307782
0.316729 0.316729 0.316729
0.327145 0.327145 0.327145
0.338174 0.338174 0.338174
0.346936 0.346936 0.346936
0.359621 0.359621 0.359621
0.367525 0.367525 0.367525
0.381067 0.381067 0.381067
0.389829 0.389829 0.389829
0.402512 0.402512 0.402512
0.412929 0.412929 0.412929
0.423958 0.423958 0.423958
0.437378 0.437378 0.437378
0.445404 0.445404 0.445404
0.038481 0.038481 0.038481
0.038481 0.038481 0.038481
0.042402 0.042402 0.042402
0.042402 0.042402 0.042402
0.042402 0.042402 0.042402
0.043077 0.043077 0.043077
0.046324 0.046324 0.046324
0.046324 0.046324 0.046324
0.049509 0.049509 0.049509
0.050245 0.050245 0.050245
0.051593 0.051593 0.051593
0.054167 0.054167 0.054167
0.058089 0.058089 0.058089
0.058272 0.058272 0.058272
0.065196 0.065196 0.065196
0.065932 0.065932 0.065932
0.068872 0.068872 0.068872
0.073714 0.073714 0.073714
0.074632 0.074632 0.074632
0.079473 0.079473 0.079473
0.084314 0.084314 0.084314
0.088725 0.088725 0.088725
0.096568 0.096568 0.096568
0.100490 0.100490 0.100490
0.104411 0.104411 0.104411
0.108517 0.108517 0.108517
0.116176 0.116176 0.116176
0.118199 0.118199 0.118199
0.123039 0.123039 0.123039
0.131862 0.131862 0.131862
0.139705 0.139705 0.139705
0.141483 0.141483 0.141483
0.149509 0.149509 0.149509
0.155086 0.155086 0.155086
0.163848 0.163848 0.163848
0.168689 0.168689 0.168689
0.177451 0.177451 0.177451
0.186764 0.186764 0.186764
0.190686 0.190686 0.190686
0.199816 0.199816 0.199816
0.208579 0.208579 0.208579
0.217341 0.217341 0.217341
0.226103 0.226103 0.226103
0.234866 0.234866 0.234866
0.243628 0.243628 0.243628
0.255577 0.255577 0.255577
0.265074 0.265074 0.265074
0.273835 0.273835 0.273835
0.285784 0.285784 0.285784
0.295282 0.295282 0.295282
0.304044 0.304044 0.304044
0.316544 0.316544 0.316544
0.325491 0.325491 0.325491
0.334253 0.334253 0.334253
0.346936 0.346936 0.346936
0.355699 0.355699 0.355699
0.368383 0.368383 0.368383
0.377144 0.377144 0.377144
0.386642 0.386642 0.386642
0.398591 0.398591 0.398591
0.404412 0.404412 0.404412
0.420036 0.420036 0.420036
0.427696 0.427696 0.427696
0.441483 0.441483 0.441483
0.450980 0.450980 0.450980
0.047243 0.047243 0.047243
0.047427 0.047427 0.047427
0.051164 0.051164 0.051164
0.051164 0.051164 0.051164
0.054841 0.054841 0.054841
0.055086 0.055086 0.055086
0.055086 0.055086 0.055086
0.055270 0.055270 0.055270
0.059008 0.059008 0.059008
0.059192 0.059192 0.059192
0.062929 0.062929 0.062929
0.063113 0.063113 0.063113
0.070037 0.070037 0.070037
0.070956 0.070956 0.070956
0.074694 0.074694 0.074694
0.074878 0.074878 0.074878
0.078799 0.078799 0.078799
0.086397 0.086397 0.086397
0.086643 0.086643 0.086643
0.090564 0.090564 0.090564
0.094486 0.094486 0.094486
0.098407 0.098407 0.098407
0.106679 0.106679 0.106679
0.111520 0.111520 0.111520
0.116360 0.116360 0.116360
0.121200 0.121200 0.121200
0.126041 0.126041 0.126041
0.130883 0.130883 0.130883
0.133701 0.133701 0.133701
0.141360 0.141360 0.141360
0.149388 0.149388 0.149388
0.154166 0.154166 0.154166
0.157231 0.157231 0.157231
0.167770 0.167770 0.167770
0.168995 0.168995 0.168995
0.181372 0.181372 0.181372
0.190134 0.190134 0.190134
0.194976 0.194976 0.194976
0.203737 0.203737 0.203737
