Black-and-White/Kodak/Kodak TRI-X 400 3 Alt 65x.cube
TITLE "Kodak TRI-X 400 3 Alt"
LUT_3D_SIZE 5
DOMAIN_MIN 0.000000 0.000000 0.000000
DOMAIN_MAX 1.000000 1.000000 1.000000
0.000000 0.000000 0.000000
0.000000 0.000000 0.000000
0.019608 0.019608 0.019608
0.139216 0.139216 0.139216
0.372549 0.372549 0.372549
0.084314 0.084314 0.084314
0.119608 0.119608 0.119608
0.193137 0.193137 0.193137
0.321568 0.321568 0.321568
0.470588 0.470588 0.470588
0.337255 0.337255 0.337255
0.354902 0.354902 0.354902
0.400000 0.400000 0.400000
0.468628 0.468628 0.468628
0.566666 0.566666 0.566666
0.550000 0.550000 0.550000
0.557843 0.557843 0.557843
0.579412 0.579412 0.579412
0.617647 0.617647 0.617647
0.687255 0.687255 0.687255
0.772549 0.772549 0.772549
0.776471 0.776471 0.776471
0.788235 0.788235 0.788235
0.807843 0.807843 0.807843
0.854902 0.854902 0.854902
0.015686 0.015686 0.015686
0.050000 0.050000 0.050000
0.132353 0.132353 0.132353
0.272549 0.272549 0.272549
0.450000 0.450000 0.450000
0.190196 0.190196 0.190196
0.221568 0.221568 0.221568
0.294118 0.294118 0.294118
0.394117 0.394117 0.394117
0.516667 0.516667 0.516667
0.397059 0.397059 0.397059
0.412745 0.412745 0.412745
0.448039 0.448039 0.448039
0.507843 0.507843 0.507843
0.598039 0.598039 0.598039
0.578432 0.578432 0.578432
0.586275 0.586275 0.586275
0.606863 0.606863 0.606863
0.644118 0.644118 0.644118
0.710784 0.710784 0.710784
0.791176 0.791176 0.791176
0.792157 0.792157 0.792157
0.803922 0.803922 0.803922
0.823529 0.823529 0.823529
0.866667 0.866667 0.866667
0.123529 0.123529 0.123529
0.193137 0.193137 0.193137
0.274509 0.274509 0.274509
0.386274 0.386274 0.386274
0.515686 0.515686 0.515686
0.334314 0.334314 0.334314
0.361765 0.361765 0.361765
0.408824 0.408824 0.408824
0.479412 0.479412 0.479412
0.576471 0.576471 0.576471
0.490197 0.490197 0.490197
0.500000 0.500000 0.500000
0.529411 0.529411 0.529411
0.576470 0.576470 0.576470
0.652941 0.652941 0.652941
0.640196 0.640196 0.640196
0.646078 0.646078 0.646078
0.665686 0.665686 0.665686
0.696079 0.696079 0.696079
0.753922 0.753922 0.753922
0.827451 0.827451 0.827451
0.829412 0.829412 0.829412
0.839216 0.839216 0.839216
0.856863 0.856863 0.856863
0.896079 0.896079 0.896079
0.342156 0.342156 0.342156
0.390196 0.390196 0.390196
0.440196 0.440196 0.440196
0.503922 0.503922 0.503922
0.600000 0.600000 0.600000
0.483333 0.483333 0.483333
0.500981 0.500981 0.500981
0.533333 0.533333 0.533333
0.581373 0.581373 0.581373
0.655883 0.655883 0.655883
0.595098 0.595098 0.595098
0.602941 0.602941 0.602941
0.626470 0.626470 0.626470
0.663725 0.663725 0.663725
0.723529 0.723529 0.723529
0.719608 0.719608 0.719608
0.723530 0.723530 0.723530
0.739216 0.739216 0.739216
0.765686 0.765686 0.765686
0.812745 0.812745 0.812745
0.878431 0.878431 0.878431
0.879412 0.879412 0.879412
0.887255 0.887255 0.887255
0.901961 0.901961 0.901961
0.934313 0.934313 0.934313
0.525490 0.525490 0.525490
0.552941 0.552941 0.552941
0.584314 0.584314 0.584314
0.631373 0.631373 0.631373
0.698039 0.698039 0.698039
0.627451 0.627451 0.627451
0.638235 0.638235 0.638235
0.660784 0.660784 0.660784
0.698039 0.698039 0.698039
0.752941 0.752941 0.752941
0.719608 0.719608 0.719608
0.728431 0.728431 0.728431
0.743137 0.743137 0.743137
0.770588 0.770588 0.770588
0.813725 0.813725 0.813725
0.823529 0.823529 0.823529
0.830393 0.830393 0.830393
0.839216 0.839216 0.839216
0.858824 0.858824 0.858824
0.891177 0.891177 0.891177
0.952941 0.952941 0.952941
0.952941 0.952941 0.952941
0.960784 0.960784 0.960784
0.972549 0.972549 0.972549
1.000000 1.000000 1.000000
