Black-and-White/Kodak/Kodak TMAX 3200 1 - 65x.cube
TITLE "Kodak TMAX 3200 1 -"
LUT_3D_SIZE 5
DOMAIN_MIN 0.000000 0.000000 0.000000
DOMAIN_MAX 1.000000 1.000000 1.000000
0.000000 0.000000 0.000000
0.011765 0.011765 0.011765
0.088235 0.088235 0.088235
0.216666 0.216666 0.216666
0.352941 0.352941 0.352941
0.146079 0.146079 0.146079
0.183334 0.183334 0.183334
0.284314 0.284314 0.284314
0.338235 0.338235 0.338235
0.447059 0.447059 0.447059
0.366667 0.366667 0.366667
0.377451 0.377451 0.377451
0.429412 0.429412 0.429412
0.538235 0.538235 0.538235
0.674510 0.674510 0.674510
0.600000 0.600000 0.600000
0.602941 0.602941 0.602941
0.632354 0.632354 0.632354
0.694117 0.694117 0.694117
0.837255 0.837255 0.837255
0.905882 0.905882 0.905882
0.906862 0.906862 0.906862
0.917647 0.917647 0.917647
0.941176 0.941176 0.941176
0.972549 0.972549 0.972549
0.007843 0.007843 0.007843
0.061765 0.061765 0.061765
0.143137 0.143137 0.143137
0.243137 0.243137 0.243137
0.351961 0.351961 0.351961
0.174510 0.174510 0.174510
0.241176 0.241176 0.241176
0.289216 0.289216 0.289216
0.344118 0.344118 0.344118
0.443138 0.443138 0.443138
0.411765 0.411765 0.411765
0.417647 0.417647 0.417647
0.456863 0.456863 0.456863
0.557843 0.557843 0.557843
0.666667 0.666667 0.666667
0.623530 0.623530 0.623530
0.629412 0.629412 0.629412
0.650981 0.650981 0.650981
0.708823 0.708823 0.708823
0.843137 0.843137 0.843137
0.909804 0.909804 0.909804
0.910784 0.910784 0.910784
0.921569 0.921569 0.921569
0.941176 0.941176 0.941176
0.972549 0.972549 0.972549
0.049019 0.049019 0.049019
0.132353 0.132353 0.132353
0.249020 0.249020 0.249020
0.274510 0.274510 0.274510
0.364706 0.364706 0.364706
0.227451 0.227451 0.227451
0.272549 0.272549 0.272549
0.341176 0.341176 0.341176
0.361765 0.361765 0.361765
0.435294 0.435294 0.435294
0.403921 0.403921 0.403921
0.439215 0.439215 0.439215
0.525490 0.525490 0.525490
0.560785 0.560785 0.560785
0.633333 0.633333 0.633333
0.668627 0.668627 0.668627
0.684314 0.684314 0.684314
0.700980 0.700980 0.700980
0.746078 0.746078 0.746078
0.863726 0.863726 0.863726
0.921569 0.921569 0.921569
0.925490 0.925490 0.925490
0.929412 0.929412 0.929412
0.949020 0.949020 0.949020
0.972549 0.972549 0.972549
0.161765 0.161765 0.161765
0.210784 0.210784 0.210784
0.318628 0.318628 0.318628
0.412745 0.412745 0.412745
0.436275 0.436275 0.436275
0.281373 0.281373 0.281373
0.309804 0.309804 0.309804
0.394117 0.394117 0.394117
0.476471 0.476471 0.476471
0.494117 0.494117 0.494117
0.394118 0.394118 0.394118
0.442157 0.442157 0.442157
0.545098 0.545098 0.545098
0.616667 0.616667 0.616667
0.625490 0.625490 0.625490
0.639216 0.639216 0.639216
0.660785 0.660785 0.660785
0.713726 0.713726 0.713726
0.806863 0.806863 0.806863
0.852941 0.852941 0.852941
0.933333 0.933333 0.933333
0.937255 0.937255 0.937255
0.947059 0.947059 0.947059
0.960784 0.960784 0.960784
0.984314 0.984314 0.984314
0.294118 0.294118 0.294118
0.330392 0.330392 0.330392
0.437255 0.437255 0.437255
0.597059 0.597059 0.597059
0.690196 0.690196 0.690196
0.366666 0.366666 0.366666
0.398039 0.398039 0.398039
0.491177 0.491177 0.491177
0.638235 0.638235 0.638235
0.723529 0.723529 0.723529
0.488236 0.488236 0.488236
0.518628 0.518628 0.518628
0.600000 0.600000 0.600000
0.720588 0.720588 0.720588
0.803921 0.803921 0.803921
0.588236 0.588236 0.588236
0.601961 0.601961 0.601961
0.646078 0.646078 0.646078
0.838235 0.838235 0.838235
0.911765 0.911765 0.911765
0.925490 0.925490 0.925490
0.933333 0.933333 0.933333
0.945098 0.945098 0.945098
0.968627 0.968627 0.968627
0.988235 0.988235 0.988235
