Black-and-White/Kodak/Kodak TMAX 3200 1 - 65x.cube
TITLE "Kodak TMAX 3200 1 -"
LUT_3D_SIZE 65
DOMAIN_MIN 0.000000 0.000000 0.000000
DOMAIN_MAX 1.000000 1.000000 1.000000
0.000000 0.000000 0.000000
0.000000 0.000000 0.000000
0.000000 0.000000 0.000000
0.000000 0.000000 0.000000
0.000000 0.000000 0.000000
0.000000 0.000000 0.000000
0.003922 0.003922 0.003922
0.000000 0.000000 0.000000
0.003922 0.003922 0.003922
0.003922 0.003922 0.003922
0.005270 0.005270 0.005270
0.006189 0.006189 0.006189
0.007843 0.007843 0.007843
0.007843 0.007843 0.007843
0.010662 0.010662 0.010662
0.013787 0.013787 0.013787
0.011765 0.011765 0.011765
0.015625 0.015625 0.015625
0.018750 0.018750 0.018750
0.021385 0.021385 0.021385
0.023529 0.023529 0.023529
0.023529 0.023529 0.023529
0.028064 0.028064 0.028064
0.032905 0.032905 0.032905
0.037745 0.037745 0.037745
0.039216 0.039216 0.039216
0.047427 0.047427 0.047427
0.052267 0.052267 0.052267
0.058824 0.058824 0.058824
0.065870 0.065870 0.065870
0.070833 0.070833 0.070833
0.082353 0.082353 0.082353
0.088235 0.088235 0.088235
0.100919 0.100919 0.100919
0.105882 0.105882 0.105882
0.113725 0.113725 0.113725
0.123284 0.123284 0.123284
0.132046 0.132046 0.132046
0.140808 0.140808 0.140808
0.149571 0.149571 0.149571
0.156863 0.156863 0.156863
0.164706 0.164706 0.164706
0.172549 0.172549 0.172549
0.180698 0.180698 0.180698
0.189461 0.189461 0.189461
0.194301 0.194301 0.194301
0.203064 0.203064 0.203064
0.211765 0.211765 0.211765
0.216666 0.216666 0.216666
0.221507 0.221507 0.221507
0.230270 0.230270 0.230270
0.235294 0.235294 0.235294
0.243872 0.243872 0.243872
0.252635 0.252635 0.252635
0.261397 0.261397 0.261397
0.269730 0.269730 0.269730
0.275000 0.275000 0.275000
0.283762 0.283762 0.283762
0.292525 0.292525 0.292525
0.301287 0.301287 0.301287
0.310049 0.310049 0.310049
0.318811 0.318811 0.318811
0.327574 0.327574 0.327574
0.339338 0.339338 0.339338
0.352941 0.352941 0.352941
0.000000 0.000000 0.000000
0.003003 0.003003 0.003003
0.000919 0.000919 0.000919
0.003922 0.003922 0.003922
0.003922 0.003922 0.003922
0.007843 0.007843 0.007843
0.007843 0.007843 0.007843
0.004841 0.004841 0.004841
0.007843 0.007843 0.007843
0.008762 0.008762 0.008762
0.009191 0.009191 0.009191
0.011029 0.011029 0.011029
0.012684 0.012684 0.012684
0.011949 0.011949 0.011949
0.013787 0.013787 0.013787
0.016605 0.016605 0.016605
0.016605 0.016605 0.016605
0.020527 0.020527 0.020527
0.021385 0.021385 0.021385
0.025306 0.025306 0.025306
0.027145 0.027145 0.027145
0.028370 0.028370 0.028370
0.036213 0.036213 0.036213
0.036213 0.036213 0.036213
0.045588 0.045588 0.045588
0.044056 0.044056 0.044056
0.051348 0.051348 0.051348
0.056740 0.056740 0.056740
0.063664 0.063664 0.063664
0.071630 0.071630 0.071630
0.083272 0.083272 0.083272
0.088236 0.088236 0.088236
0.096998 0.096998 0.096998
0.102880 0.102880 0.102880
0.110600 0.110600 0.110600
0.119363 0.119363 0.119363
0.126409 0.126409 0.126409
0.134252 0.134252 0.134252
0.145650 0.145650 0.145650
0.153493 0.153493 0.153493
0.162255 0.162255 0.162255
0.171017 0.171017 0.171017
0.176777 0.176777 0.176777
0.185233 0.185233 0.185233
0.193382 0.193382 0.193382
0.198223 0.198223 0.198223
0.206985 0.206985 0.206985
0.211826 0.211826 0.211826
0.220588 0.220588 0.220588
0.229351 0.229351 0.229351
0.232292 0.232292 0.232292
0.239950 0.239950 0.239950
0.247794 0.247794 0.247794
0.256557 0.256557 0.256557
0.259743 0.259743 0.259743
0.273652 0.273652 0.273652
0.278921 0.278921 0.278921
0.287684 0.287684 0.287684
0.296446 0.296446 0.296446
0.305208 0.305208 0.305208
0.309375 0.309375 0.309375
0.322733 0.322733 0.322733
0.328492 0.328492 0.328492
0.340257 0.340257 0.340257
0.352941 0.352941 0.352941
0.001838 0.001838 0.001838
0.001838 0.001838 0.001838
0.005760 0.005760 0.005760
0.003922 0.003922 0.003922
0.007598 0.007598 0.007598
0.007843 0.007843 0.007843
0.009681 0.009681 0.009681
0.009681 0.009681 0.009681
0.015196 0.015196 0.015196
0.012194 0.012194 0.012194
0.013603 0.013603 0.013603
0.015870 0.015870 0.015870
0.015686 0.015686 0.015686
0.019608 0.019608 0.019608
0.017524 0.017524 0.017524
0.019424 0.019424 0.019424
0.023529 0.023529 0.023529
0.027390 0.027390 0.027390
0.026225 0.026225 0.026225
0.029289 0.029289 0.029289
0.033211 0.033211 0.033211
0.036827 0.036827 0.036827
0.041054 0.041054 0.041054
0.044975 0.044975 0.044975
0.048897 0.048897 0.048897
0.054350 0.054350 0.054350
0.059192 0.059192 0.059192
0.068505 0.068505 0.068505
0.070343 0.070343 0.070343
0.079473 0.079473 0.079473
0.086398 0.086398 0.086398
0.095160 0.095160 0.095160
0.101838 0.101838 0.101838
0.110600 0.110600 0.110600
0.119363 0.119363 0.119363
0.127328 0.127328 0.127328
0.132966 0.132966 0.132966
0.143811 0.143811 0.143811
0.146936 0.146936 0.146936
0.159253 0.159253 0.159253
0.166176 0.166176 0.166176
0.176777 0.176777 0.176777
0.183701 0.183701 0.183701
0.186459 0.186459 0.186459
0.196078 0.196078 0.196078
0.202145 0.202145 0.202145
0.205760 0.205760 0.205760
0.219362 0.219362 0.219362
0.224510 0.224510 0.224510
0.231250 0.231250 0.231250
0.236030 0.236030 0.236030
0.241054 0.241054 0.241054
0.252818 0.252818 0.252818
0.258395 0.258395 0.258395
0.267892 0.267892 0.267892
0.277573 0.277573 0.277573
0.279412 0.279412 0.279412
0.289523 0.289523 0.289523
0.298285 0.298285 0.298285
0.308456 0.308456 0.308456
0.313971 0.313971 0.313971
0.323897 0.323897 0.323897
0.333579 0.333579 0.333579
0.343260 0.343260 0.343260
0.356863 0.356863 0.356863
0.003922 0.003922 0.003922
0.009681 0.009681 0.009681
0.005760 0.005760 0.005760
0.006679 0.006679 0.006679
0.011520 0.011520 0.011520
0.008517 0.008517 0.008517
0.011765 0.011765 0.011765
0.014277 0.014277 0.014277
0.019118 0.019118 0.019118
0.018444 0.018444 0.018444
0.019608 0.019608 0.019608
0.019608 0.019608 0.019608
0.022365 0.022365 0.022365
0.025123 0.025123 0.025123
0.023529 0.023529 0.023529
0.025551 0.025551 0.025551
0.026287 0.026287 0.026287
0.031312 0.031312 0.031312
0.034130 0.034130 0.034130
0.038052 0.038052 0.038052
0.037990 0.037990 0.037990
0.041973 0.041973 0.041973
0.046507 0.046507 0.046507
0.048591 0.048591 0.048591
0.056189 0.056189 0.056189
0.065564 0.065564 0.065564
0.072182 0.072182 0.072182
0.074632 0.074632 0.074632
0.080637 0.080637 0.080637
0.088235 0.088235 0.088235
0.096875 0.096875 0.096875
0.101838 0.101838 0.101838
0.107843 0.107843 0.107843
0.118321 0.118321 0.118321
0.125367 0.125367 0.125367
0.132169 0.132169 0.132169
0.139522 0.139522 0.139522
0.147856 0.147856 0.147856
0.155331 0.155331 0.155331
0.164092 0.164092 0.164092
0.172855 0.172855 0.172855
0.178860 0.178860 0.178860
0.183150 0.183150 0.183150
0.192463 0.192463 0.192463
0.197304 0.197304 0.197304
0.206066 0.206066 0.206066
0.210601 0.210601 0.210601
0.219669 0.219669 0.219669
0.227451 0.227451 0.227451
0.234130 0.234130 0.234130
0.238113 0.238113 0.238113
0.250612 0.250612 0.250612
0.255637 0.255637 0.255637
0.260478 0.260478 0.260478
0.269240 0.269240 0.269240
0.273346 0.273346 0.273346
0.286275 0.286275 0.286275
0.292954 0.292954 0.292954
0.300368 0.300368 0.300368
0.309130 0.309130 0.309130
0.314216 0.314216 0.314216
0.323897 0.323897 0.323897
0.334253 0.334253 0.334253
0.344179 0.344179 0.344179
0.359620 0.359620 0.359620
0.007598 0.007598 0.007598
0.010600 0.010600 0.010600
0.007843 0.007843 0.007843
0.011520 0.011520 0.011520
0.011520 0.011520 0.011520
0.015441 0.015441 0.015441
0.015686 0.015686 0.015686
0.019363 0.019363 0.019363
0.023284 0.023284 0.023284
0.020037 0.020037 0.020037
0.027206 0.027206 0.027206
0.027206 0.027206 0.027206
0.030392 0.030392 0.030392
0.031128 0.031128 0.031128
0.031128 0.031128 0.031128
0.033149 0.033149 0.033149
0.035049 0.035049 0.035049
0.038910 0.038910 0.038910
0.042892 0.042892 0.042892
0.044670 0.044670 0.044670
0.045833 0.045833 0.045833
0.050735 0.050735 0.050735
0.051593 0.051593 0.051593
0.060110 0.060110 0.060110
0.064952 0.064952 0.064952
0.069791 0.069791 0.069791
0.081863 0.081863 0.081863
0.085785 0.085785 0.085785
0.089951 0.089951 0.089951
0.096997 0.096997 0.096997
0.101838 0.101838 0.101838
0.110600 0.110600 0.110600
0.117402 0.117402 0.117402
0.125245 0.125245 0.125245
0.129167 0.129167 0.129167
0.137806 0.137806 0.137806
0.146814 0.146814 0.146814
0.156618 0.156618 0.156618
0.164093 0.164093 0.164093
0.168934 0.168934 0.168934
0.174020 0.174020 0.174020
0.187745 0.187745 0.187745
0.191912 0.191912 0.191912
0.192770 0.192770 0.192770
0.207598 0.207598 0.207598
0.209988 0.209988 0.209988
0.218505 0.218505 0.218505
0.227206 0.227206 0.227206
0.228431 0.228431 0.228431
0.233272 0.233272 0.233272
0.242034 0.242034 0.242034
0.250796 0.250796 0.250796
0.259313 0.259313 0.259313
0.264400 0.264400 0.264400
0.269485 0.269485 0.269485
0.278002 0.278002 0.278002
0.289951 0.289951 0.289951
0.297794 0.297794 0.297794
0.302696 0.302696 0.302696
0.309130 0.309130 0.309130
0.317892 0.317892 0.317892
0.326654 0.326654 0.326654
0.339093 0.339093 0.339093
0.347182 0.347182 0.347182
0.364461 0.364461 0.364461
0.012439 0.012439 0.012439
0.012439 0.012439 0.012439
0.012439 0.012439 0.012439
0.015197 0.015197 0.015197
0.012439 0.012439 0.012439
0.016360 0.016360 0.016360
0.020282 0.020282 0.020282
0.023469 0.023469 0.023469
0.027451 0.027451 0.027451
0.028554 0.028554 0.028554
0.033395 0.033395 0.033395
0.036642 0.036642 0.036642
0.043077 0.043077 0.043077
0.040564 0.040564 0.040564
0.040564 0.040564 0.040564
0.044485 0.044485 0.044485
0.047427 0.047427 0.047427
0.051594 0.051594 0.051594
0.051654 0.051654 0.051654
0.054105 0.054105 0.054105
0.058946 0.058946 0.058946
0.060172 0.060172 0.060172
0.067954 0.067954 0.067954
0.072794 0.072794 0.072794
0.075858 0.075858 0.075858
0.082476 0.082476 0.082476
0.087317 0.087317 0.087317
0.096079 0.096079 0.096079
0.100919 0.100919 0.100919
0.109681 0.109681 0.109681
0.115073 0.115073 0.115073
0.120037 0.120037 0.120037
0.128125 0.128125 0.128125
0.133640 0.133640 0.133640
0.141728 0.141728 0.141728
0.147365 0.147365 0.147365
0.155331 0.155331 0.155331
0.164093 0.164093 0.164093
0.172181 0.172181 0.172181
0.173774 0.173774 0.173774
0.181740 0.181740 0.181740
0.191298 0.191298 0.191298
0.196752 0.196752 0.196752
0.201654 0.201654 0.201654
0.209742 0.209742 0.209742
0.214584 0.214584 0.214584
0.220282 0.220282 0.220282
0.228186 0.228186 0.228186
0.236274 0.236274 0.236274
0.241790 0.241790 0.241790
0.249877 0.249877 0.249877
0.251654 0.251654 0.251654
0.260233 0.260233 0.260233
0.268321 0.268321 0.268321
0.275184 0.275184 0.275184
0.282598 0.282598 0.282598
0.291360 0.291360 0.291360
0.296875 0.296875 0.296875
0.307292 0.307292 0.307292
0.313725 0.313725 0.313725
0.323591 0.323591 0.323591
0.328002 0.328002 0.328002
0.340687 0.340687 0.340687
0.349449 0.349449 0.349449
0.355637 0.355637 0.355637
0.015686 0.015686 0.015686
0.015686 0.015686 0.015686
0.019608 0.019608 0.019608
0.020036 0.020036 0.020036
0.019608 0.019608 0.019608
0.024448 0.024448 0.024448
0.025122 0.025122 0.025122
0.027635 0.027635 0.027635
0.035294 0.035294 0.035294
0.041973 0.041973 0.041973
0.040564 0.040564 0.040564
0.046997 0.046997 0.046997
0.052573 0.052573 0.052573
0.058088 0.058088 0.058088
0.058088 0.058088 0.058088
0.057659 0.057659 0.057659
0.062010 0.062010 0.062010
0.068198 0.068198 0.068198
0.067525 0.067525 0.067525
0.069853 0.069853 0.069853
0.072549 0.072549 0.072549
0.077390 0.077390 0.077390
0.083211 0.083211 0.083211
0.085478 0.085478 0.085478
0.089461 0.089461 0.089461
0.095711 0.095711 0.095711
0.105147 0.105147 0.105147
0.106434 0.106434 0.106434
0.113603 0.113603 0.113603
0.120036 0.120036 0.120036
0.123285 0.123285 0.123285
0.132598 0.132598 0.132598
0.136887 0.136887 0.136887
0.145650 0.145650 0.145650
0.150490 0.150490 0.150490
0.155331 0.155331 0.155331
0.165809 0.165809 0.165809
0.172855 0.172855 0.172855
0.175735 0.175735 0.175735
0.184130 0.184130 0.184130
0.191176 0.191176 0.191176
0.197671 0.197671 0.197671
0.204902 0.204902 0.204902
0.208456 0.208456 0.208456
0.214584 0.214584 0.214584
0.221201 0.221201 0.221201
0.228186 0.228186 0.228186
0.236887 0.236887 0.236887
0.241790 0.241790 0.241790
0.246323 0.246323 0.246323
0.257721 0.257721 0.257721
0.260233 0.260233 0.260233
0.267402 0.267402 0.267402
0.272181 0.272181 0.272181
0.282598 0.282598 0.282598
0.293260 0.293260 0.293260
0.299632 0.299632 0.299632
0.303370 0.303370 0.303370
0.311397 0.311397 0.311397
0.324142 0.324142 0.324142
0.327328 0.327328 0.327328
0.338419 0.338419 0.338419
0.346936 0.346936 0.346936
0.358946 0.358946 0.358946
0.370220 0.370220 0.370220
0.022120 0.022120 0.022120
0.023040 0.023040 0.023040
0.023959 0.023959 0.023959
0.026042 0.026042 0.026042
0.029718 0.029718 0.029718
0.029964 0.029964 0.029964
0.033885 0.033885 0.033885
0.033885 0.033885 0.033885
0.041237 0.041237 0.041237
0.046078 0.046078 0.046078
0.053493 0.053493 0.053493
0.055760 0.055760 0.055760
0.061336 0.061336 0.061336
0.065441 0.065441 0.065441
0.075612 0.075612 0.075612
0.079534 0.079534 0.079534
0.079534 0.079534 0.079534
0.079534 0.079534 0.079534
0.078738 0.078738 0.078738
0.087377 0.087377 0.087377
0.090074 0.090074 0.090074
0.090197 0.090197 0.090197
0.096630 0.096630 0.096630
0.100674 0.100674 0.100674
0.103002 0.103002 0.103002
0.110355 0.110355 0.110355
0.118750 0.118750 0.118750
0.122671 0.122671 0.122671
0.129105 0.129105 0.129105
0.130514 0.130514 0.130514
0.135967 0.135967 0.135967
0.140809 0.140809 0.140809
0.149571 0.149571 0.149571
0.157292 0.157292 0.157292
0.163174 0.163174 0.163174
0.168015 0.168015 0.168015
0.177573 0.177573 0.177573
0.183027 0.183027 0.183027
0.188971 0.188971 0.188971
0.195221 0.195221 0.195221
0.200061 0.200061 0.200061
0.206311 0.206311 0.206311
0.213664 0.213664 0.213664
0.218504 0.218504 0.218504
0.220833 0.220833 0.220833
0.229596 0.229596 0.229596
0.236949 0.236949 0.236949
0.244240 0.244240 0.244240
0.249571 0.249571 0.249571
0.252880 0.252880 0.252880
0.257415 0.257415 0.257415
0.266483 0.266483 0.266483
0.275612 0.275612 0.275612
0.280086 0.280086 0.280086
0.284866 0.284866 0.284866
0.292709 0.292709 0.292709
0.304473 0.304473 0.304473
0.309804 0.309804 0.309804
0.316054 0.316054 0.316054
0.324081 0.324081 0.324081
0.335846 0.335846 0.335846
0.343444 0.343444 0.343444
0.351103 0.351103 0.351103
0.362868 0.362868 0.362868
0.377573 0.377573 0.377573
0.030883 0.030883 0.030883
0.030883 0.030883 0.030883
0.030883 0.030883 0.030883
0.030883 0.030883 0.030883
0.030883 0.030883 0.030883
0.038726 0.038726 0.038726
0.042157 0.042157 0.042157
0.042647 0.042647 0.042647
0.046569 0.046569 0.046569
0.047917 0.047917 0.047917
0.059681 0.059681 0.059681
0.067953 0.067953 0.067953
0.073530 0.073530 0.073530
0.078126 0.078126 0.078126
0.085295 0.085295 0.085295
0.093138 0.093138 0.093138
0.097059 0.097059 0.097059
0.100490 0.100490 0.100490
0.104902 0.104902 0.104902
0.106679 0.106679 0.106679
0.107598 0.107598 0.107598
0.112745 0.112745 0.112745
0.113357 0.113357 0.113357
0.120588 0.120588 0.120588
0.123039 0.123039 0.123039
0.128432 0.128432 0.128432
0.132720 0.132720 0.132720
0.134130 0.134130 0.134130
0.140686 0.140686 0.140686
0.148040 0.148040 0.148040
0.152083 0.152083 0.152083
0.159804 0.159804 0.159804
0.156863 0.156863 0.156863
0.167647 0.167647 0.167647
0.172059 0.172059 0.172059
0.183334 0.183334 0.183334
0.185539 0.185539 0.185539
0.190380 0.190380 0.190380
0.199142 0.199142 0.199142
0.203432 0.203432 0.203432
0.208824 0.208824 0.208824
0.215196 0.215196 0.215196
0.218995 0.218995 0.218995
0.226778 0.226778 0.226778
0.232107 0.232107 0.232107
0.236949 0.236949 0.236949
0.242647 0.242647 0.242647
0.243260 0.243260 0.243260
0.254412 0.254412 0.254412
0.262255 0.262255 0.262255
0.264461 0.264461 0.264461
0.274326 0.274326 0.274326
0.278677 0.278677 0.278677
0.284008 0.284008 0.284008
0.292770 0.292770 0.292770
0.301532 0.301532 0.301532
0.309314 0.309314 0.309314
0.317157 0.317157 0.317157
0.325000 0.325000 0.325000
0.328738 0.328738 0.328738
0.337009 0.337009 0.337009
0.343505 0.343505 0.343505
0.355025 0.355025 0.355025
0.366789 0.366789 0.366789
0.379902 0.379902 0.379902
0.039645 0.039645 0.039645
0.039645 0.039645 0.039645
0.040074 0.040074 0.040074
0.039645 0.039645 0.039645
0.043566 0.043566 0.043566
0.046814 0.046814 0.046814
0.049081 0.049081 0.049081
0.051409 0.051409 0.051409
0.055331 0.055331 0.055331
0.063174 0.063174 0.063174
0.064951 0.064951 0.064951
0.079044 0.079044 0.079044
0.086397 0.086397 0.086397
0.090809 0.090809 0.090809
0.094976 0.094976 0.094976
0.104412 0.104412 0.104412
0.109252 0.109252 0.109252
0.114523 0.114523 0.114523
0.122856 0.122856 0.122856
0.126348 0.126348 0.126348
0.129044 0.129044 0.129044
0.130270 0.130270 0.130270
0.134191 0.134191 0.134191
0.138113 0.138113 0.138113
0.144056 0.144056 0.144056
0.145404 0.145404 0.145404
0.149878 0.149878 0.149878
0.151164 0.151164 0.151164
0.156005 0.156005 0.156005
0.164338 0.164338 0.164338
0.165564 0.165564 0.165564
0.169485 0.169485 0.169485
0.173407 0.173407 0.173407
0.183700 0.183700 0.183700
0.185172 0.185172 0.185172
0.193383 0.193383 0.193383
0.198223 0.198223 0.198223
0.204351 0.204351 0.204351
0.207905 0.207905 0.207905
0.212745 0.212745 0.212745
0.222549 0.222549 0.222549
0.226348 0.226348 0.226348
0.231188 0.231188 0.231188
0.236152 0.236152 0.236152
0.240441 0.240441 0.240441
0.243566 0.243566 0.243566
0.250552 0.250552 0.250552
0.255392 0.255392 0.255392
0.259682 0.259682 0.259682
0.268996 0.268996 0.268996
0.271446 0.271446 0.271446
0.285907 0.285907 0.285907
0.287010 0.287010 0.287010
0.292279 0.292279 0.292279
0.298468 0.298468 0.298468
0.302819 0.302819 0.302819
0.314645 0.314645 0.314645
0.324388 0.324388 0.324388
0.328247 0.328247 0.328247
0.337009 0.337009 0.337009
0.345343 0.345343 0.345343
0.354534 0.354534 0.354534
0.364951 0.364951 0.364951
0.374633 0.374633 0.374633
0.388235 0.388235 0.388235
0.048407 0.048407 0.048407
0.049755 0.049755 0.049755
0.054167 0.054167 0.054167
0.052328 0.052328 0.052328
0.052328 0.052328 0.052328
0.056250 0.056250 0.056250
0.060172 0.060172 0.060172
0.062684 0.062684 0.062684
0.065441 0.065441 0.065441
0.072365 0.072365 0.072365
0.077206 0.077206 0.077206
0.083394 0.083394 0.083394
0.094730 0.094730 0.094730
0.104657 0.104657 0.104657
0.108333 0.108333 0.108333
0.117095 0.117095 0.117095
0.121936 0.121936 0.121936
0.124265 0.124265 0.124265
0.135539 0.135539 0.135539
0.144301 0.144301 0.144301
0.149142 0.149142 0.149142
0.151410 0.151410 0.151410
0.155637 0.155637 0.155637
0.155637 0.155637 0.155637
0.158088 0.158088 0.158088
0.159559 0.159559 0.159559
0.163848 0.163848 0.163848
0.167341 0.167341 0.167341
0.171323 0.171323 0.171323
0.180147 0.180147 0.180147
0.179167 0.179167 0.179167
0.182782 0.182782 0.182782
0.188971 0.188971 0.188971
0.193811 0.193811 0.193811
0.198774 0.198774 0.198774
0.206618 0.206618 0.206618
0.206618 0.206618 0.206618
0.214461 0.214461 0.214461
0.220588 0.220588 0.220588
0.225429 0.225429 0.225429
0.230270 0.230270 0.230270
0.234069 0.234069 0.234069
0.237990 0.237990 0.237990
0.244485 0.244485 0.244485
0.249633 0.249633 0.249633
0.254473 0.254473 0.254473
0.256250 0.256250 0.256250
0.262806 0.262806 0.262806
0.270588 0.270588 0.270588
0.276409 0.276409 0.276409
0.281250 0.281250 0.281250
0.283701 0.283701 0.283701
0.295466 0.295466 0.295466
0.301041 0.301041 0.301041
0.308456 0.308456 0.308456
0.314644 0.314644 0.314644
0.318627 0.318627 0.318627
0.326838 0.326838 0.326838
0.335662 0.335662 0.335662
0.341851 0.341851 0.341851
0.349265 0.349265 0.349265
0.358027 0.358027 0.358027
0.366054 0.366054 0.366054
0.375552 0.375552 0.375552
0.389461 0.389461 0.389461
0.068934 0.068934 0.068934
0.065931 0.065931 0.065931
0.069363 0.069363 0.069363
0.067279 0.067279 0.067279
0.071201 0.071201 0.071201
0.071201 0.071201 0.071201
0.075122 0.075122 0.075122
0.077635 0.077635 0.077635
0.084130 0.084130 0.084130
0.087316 0.087316 0.087316
0.089890 0.089890 0.089890
0.098652 0.098652 0.098652
0.102573 0.102573 0.102573
0.119914 0.119914 0.119914
0.124939 0.124939 0.124939
0.127880 0.127880 0.127880
0.133946 0.133946 0.133946
0.144975 0.144975 0.144975
0.147365 0.147365 0.147365
0.153554 0.153554 0.153554
0.159130 0.159130 0.159130
0.166666 0.166666 0.166666
0.169853 0.169853 0.169853
0.175429 0.175429 0.175429
0.175429 0.175429 0.175429
0.180454 0.180454 0.180454
0.181373 0.181373 0.181373
0.187194 0.187194 0.187194
0.187071 0.187071 0.187071
0.191115 0.191115 0.191115
0.194547 0.194547 0.194547
0.202880 0.202880 0.202880
0.204228 0.204228 0.204228
0.208456 0.208456 0.208456
0.216177 0.216177 0.216177
0.220220 0.220220 0.220220
0.223591 0.223591 0.223591
0.228064 0.228064 0.228064
0.231985 0.231985 0.231985
0.236459 0.236459 0.236459
0.241483 0.241483 0.241483
0.247794 0.247794 0.247794
0.249326 0.249326 0.249326
0.253554 0.253554 0.253554
0.261091 0.261091 0.261091
0.265012 0.265012 0.265012
0.268934 0.268934 0.268934
0.276777 0.276777 0.276777
0.276471 0.276471 0.276471
0.282598 0.282598 0.282598
0.291361 0.291361 0.291361
0.294730 0.294730 0.294730
0.304228 0.304228 0.304228
0.309804 0.309804 0.309804
0.316912 0.316912 0.316912
0.323407 0.323407 0.323407
0.328247 0.328247 0.328247
0.337009 0.337009 0.337009
0.345772 0.345772 0.345772
0.352267 0.352267 0.352267
0.359375 0.359375 0.359375
0.369791 0.369791 0.369791
0.376899 0.376899 0.376899
0.388664 0.388664 0.388664
0.402267 0.402267 0.402267
0.080882 0.080882 0.080882
0.084804 0.084804 0.084804
0.081618 0.081618 0.081618
0.081618 0.081618 0.081618
0.084804 0.084804 0.084804
0.082292 0.082292 0.082292
0.087132 0.087132 0.087132
0.089461 0.089461 0.089461
0.096813 0.096813 0.096813
0.100490 0.100490 0.100490
0.106985 0.106985 0.106985
0.109069 0.109069 0.109069
0.116176 0.116176 0.116176
0.121017 0.121017 0.121017
0.133701 0.133701 0.133701
0.143627 0.143627 0.143627
0.144118 0.144118 0.144118
0.151470 0.151470 0.151470
0.159313 0.159313 0.159313
0.163971 0.163971 0.163971
0.170588 0.170588 0.170588
0.175000 0.175000 0.175000
0.184191 0.184191 0.184191
0.193872 0.193872 0.193872
0.194607 0.194607 0.194607
0.197978 0.197978 0.197978
0.198529 0.198529 0.198529
0.202451 0.202451 0.202451
0.206372 0.206372 0.206372
0.209498 0.209498 0.209498
0.207353 0.207353 0.207353
0.215257 0.215257 0.215257
0.218873 0.218873 0.218873
0.225980 0.225980 0.225980
0.229780 0.229780 0.229780
0.231433 0.231433 0.231433
0.237745 0.237745 0.237745
0.241666 0.241666 0.241666
0.242034 0.242034 0.242034
0.252696 0.252696 0.252696
0.254167 0.254167 0.254167
0.256557 0.256557 0.256557
0.261274 0.261274 0.261274
0.269117 0.269117 0.269117
0.265196 0.265196 0.265196
0.276960 0.276960 0.276960
0.280882 0.280882 0.280882
0.288725 0.288725 0.288725
0.289461 0.289461 0.289461
0.296568 0.296568 0.296568
0.300123 0.300123 0.300123
0.305698 0.305698 0.305698
0.312990 0.312990 0.312990
0.318567 0.318567 0.318567
0.324142 0.324142 0.324142
0.328677 0.328677 0.328677
0.343627 0.343627 0.343627
0.345772 0.345772 0.345772
0.352941 0.352941 0.352941
0.359313 0.359313 0.359313
0.368138 0.368138 0.368138
0.376899 0.376899 0.376899
0.385661 0.385661 0.385661
0.394424 0.394424 0.394424
0.411030 0.411030 0.411030
0.098223 0.098223 0.098223
0.097488 0.097488 0.097488
0.098407 0.098407 0.098407
0.098407 0.098407 0.098407
0.102084 0.102084 0.102084
0.099081 0.099081 0.099081
0.103738 0.103738 0.103738
0.106250 0.106250 0.106250
0.113420 0.113420 0.113420
0.114093 0.114093 0.114093
0.119179 0.119179 0.119179
0.124020 0.124020 0.124020
0.125858 0.125858 0.125858
0.129780 0.129780 0.129780
0.138726 0.138726 0.138726
0.145282 0.145282 0.145282
0.159988 0.159988 0.159988
0.164890 0.164890 0.164890
0.169852 0.169852 0.169852
0.178432 0.178432 0.178432
0.183272 0.183272 0.183272
0.188113 0.188113 0.188113
0.196875 0.196875 0.196875
0.201715 0.201715 0.201715
0.204290 0.204290 0.204290
0.215319 0.215319 0.215319
0.216421 0.216421 0.216421
0.217341 0.217341 0.217341
0.222182 0.222182 0.222182
0.220956 0.220956 0.220956
0.227941 0.227941 0.227941
0.232782 0.232782 0.232782
0.235662 0.235662 0.235662
0.242280 0.242280 0.242280
0.247119 0.247119 0.247119
0.247427 0.247427 0.247427
0.252880 0.252880 0.252880
0.257720 0.257720 0.257720
0.259008 0.259008 0.259008
