Black-and-White/Kodak/Kodak TRI-X 400 1 - 65x.cube
TITLE "Kodak TRI-X 400 1 -"
LUT_3D_SIZE 65
DOMAIN_MIN 0.000000 0.000000 0.000000
DOMAIN_MAX 1.000000 1.000000 1.000000
0.000000 0.000000 0.000000
0.000000 0.000000 0.000000
0.003922 0.003922 0.003922
0.003922 0.003922 0.003922
0.003922 0.003922 0.003922
0.007843 0.007843 0.007843
0.011765 0.011765 0.011765
0.011765 0.011765 0.011765
0.015196 0.015196 0.015196
0.015686 0.015686 0.015686
0.019608 0.019608 0.019608
0.021875 0.021875 0.021875
0.026716 0.026716 0.026716
0.031373 0.031373 0.031373
0.035294 0.035294 0.035294
0.037316 0.037316 0.037316
0.042157 0.042157 0.042157
0.046998 0.046998 0.046998
0.054902 0.054902 0.054902
0.058456 0.058456 0.058456
0.065441 0.065441 0.065441
0.070282 0.070282 0.070282
0.075123 0.075123 0.075123
0.083885 0.083885 0.083885
0.088726 0.088726 0.088726
0.097488 0.097488 0.097488
0.106250 0.106250 0.106250
0.113725 0.113725 0.113725
0.121569 0.121569 0.121569
0.131740 0.131740 0.131740
0.137378 0.137378 0.137378
0.149020 0.149020 0.149020
0.158824 0.158824 0.158824
0.167585 0.167585 0.167585
0.172549 0.172549 0.172549
0.185110 0.185110 0.185110
0.197794 0.197794 0.197794
0.206556 0.206556 0.206556
0.218873 0.218873 0.218873
0.224632 0.224632 0.224632
0.236765 0.236765 0.236765
0.245527 0.245527 0.245527
0.258211 0.258211 0.258211
0.263358 0.263358 0.263358
0.275735 0.275735 0.275735
0.286642 0.286642 0.286642
0.293260 0.293260 0.293260
0.305943 0.305943 0.305943
0.314706 0.314706 0.314706
0.323468 0.323468 0.323468
0.335049 0.335049 0.335049
0.344914 0.344914 0.344914
0.354412 0.354412 0.354412
0.366360 0.366360 0.366360
0.377696 0.377696 0.377696
0.387806 0.387806 0.387806
0.400490 0.400490 0.400490
0.410662 0.410662 0.410662
0.424265 0.424265 0.424265
0.433946 0.433946 0.433946
0.447304 0.447304 0.447304
0.459988 0.459988 0.459988
0.472672 0.472672 0.472672
0.491361 0.491361 0.491361
0.509804 0.509804 0.509804
0.000919 0.000919 0.000919
0.007843 0.007843 0.007843
0.007843 0.007843 0.007843
0.008762 0.008762 0.008762
0.015441 0.015441 0.015441
0.016605 0.016605 0.016605
0.017279 0.017279 0.017279
0.016605 0.016605 0.016605
0.017096 0.017096 0.017096
0.024448 0.024448 0.024448
0.025796 0.025796 0.025796
0.030637 0.030637 0.030637
0.032292 0.032292 0.032292
0.035478 0.035478 0.035478
0.037316 0.037316 0.037316
0.044056 0.044056 0.044056
0.046997 0.046997 0.046997
0.051899 0.051899 0.051899
0.059682 0.059682 0.059682
0.064522 0.064522 0.064522
0.070282 0.070282 0.070282
0.075122 0.075122 0.075122
0.083885 0.083885 0.083885
0.088726 0.088726 0.088726
0.095037 0.095037 0.095037
0.102328 0.102328 0.102328
0.110172 0.110172 0.110172
0.118566 0.118566 0.118566
0.127696 0.127696 0.127696
0.133456 0.133456 0.133456
0.145221 0.145221 0.145221
0.153983 0.153983 0.153983
0.161703 0.161703 0.161703
0.171507 0.171507 0.171507
0.181066 0.181066 0.181066
0.189032 0.189032 0.189032
0.199510 0.199510 0.199510
0.207476 0.207476 0.207476
0.220159 0.220159 0.220159
0.231924 0.231924 0.231924
0.240686 0.240686 0.240686
0.249448 0.249448 0.249448
0.259130 0.259130 0.259130
0.267893 0.267893 0.267893
0.279657 0.279657 0.279657
0.288419 0.288419 0.288419
0.297181 0.297181 0.297181
0.306005 0.306005 0.306005
0.315625 0.315625 0.315625
0.327390 0.327390 0.327390
0.334252 0.334252 0.334252
0.345833 0.345833 0.345833
0.357598 0.357598 0.357598
0.370282 0.370282 0.370282
0.377390 0.377390 0.377390
0.391299 0.391299 0.391299
0.401409 0.401409 0.401409
0.413174 0.413174 0.413174
0.422856 0.422856 0.422856
0.437868 0.437868 0.437868
0.447549 0.447549 0.447549
0.464154 0.464154 0.464154
0.473590 0.473590 0.473590
0.489277 0.489277 0.489277
0.509804 0.509804 0.509804
0.007598 0.007598 0.007598
0.004841 0.004841 0.004841
0.011519 0.011519 0.011519
0.013603 0.013603 0.013603
0.019363 0.019363 0.019363
0.019608 0.019608 0.019608
0.021446 0.021446 0.021446
0.021446 0.021446 0.021446
0.030883 0.030883 0.030883
0.031373 0.031373 0.031373
0.033211 0.033211 0.033211
0.035478 0.035478 0.035478
0.037132 0.037132 0.037132
0.043137 0.043137 0.043137
0.046813 0.046813 0.046813
0.048897 0.048897 0.048897
0.052818 0.052818 0.052818
0.062684 0.062684 0.062684
0.065441 0.065441 0.065441
0.070282 0.070282 0.070282
0.076348 0.076348 0.076348
0.082047 0.082047 0.082047
0.089951 0.089951 0.089951
0.095956 0.095956 0.095956
0.102328 0.102328 0.102328
0.109252 0.109252 0.109252
0.115931 0.115931 0.115931
0.124694 0.124694 0.124694
0.131250 0.131250 0.131250
0.140380 0.140380 0.140380
0.145343 0.145343 0.145343
0.157905 0.157905 0.157905
0.164583 0.164583 0.164583
0.173346 0.173346 0.173346
0.184191 0.184191 0.184191
0.194792 0.194792 0.194792
0.203554 0.203554 0.203554
0.214399 0.214399 0.214399
0.223161 0.223161 0.223161
0.233763 0.233763 0.233763
0.244608 0.244608 0.244608
0.255208 0.255208 0.255208
0.260662 0.260662 0.260662
0.272732 0.272732 0.272732
0.283579 0.283579 0.283579
0.290258 0.290258 0.290258
0.299020 0.299020 0.299020
0.311703 0.311703 0.311703
0.322549 0.322549 0.322549
0.331373 0.331373 0.331373
0.337990 0.337990 0.337990
0.348836 0.348836 0.348836
0.359437 0.359437 0.359437
0.372120 0.372120 0.372120
0.380883 0.380883 0.380883
0.395220 0.395220 0.395220
0.400980 0.400980 0.400980
0.415013 0.415013 0.415013
0.427696 0.427696 0.427696
0.439706 0.439706 0.439706
0.451225 0.451225 0.451225
0.465073 0.465073 0.465073
0.478677 0.478677 0.478677
0.492280 0.492280 0.492280
0.509804 0.509804 0.509804
0.010601 0.010601 0.010601
0.014522 0.014522 0.014522
0.013603 0.013603 0.013603
0.018444 0.018444 0.018444
0.023284 0.023284 0.023284
0.024203 0.024203 0.024203
0.025122 0.025122 0.025122
0.029964 0.029964 0.029964
0.034804 0.034804 0.034804
0.038052 0.038052 0.038052
0.039216 0.039216 0.039216
0.041483 0.041483 0.041483
0.044731 0.044731 0.044731
0.052574 0.052574 0.052574
0.053738 0.053738 0.053738
0.057660 0.057660 0.057660
0.060600 0.060600 0.060600
0.066606 0.066606 0.066606
0.070282 0.070282 0.070282
0.077267 0.077267 0.077267
0.083885 0.083885 0.083885
0.089890 0.089890 0.089890
0.091421 0.091421 0.091421
0.100797 0.100797 0.100797
0.107169 0.107169 0.107169
0.115931 0.115931 0.115931
0.124694 0.124694 0.124694
0.129534 0.129534 0.129534
0.135539 0.135539 0.135539
0.144301 0.144301 0.144301
0.153064 0.153064 0.153064
0.158946 0.158946 0.158946
0.170588 0.170588 0.170588
0.182231 0.182231 0.182231
0.191912 0.191912 0.191912
0.196875 0.196875 0.196875
0.208395 0.208395 0.208395
0.218444 0.218444 0.218444
0.230638 0.230638 0.230638
0.238602 0.238602 0.238602
0.246078 0.246078 0.246078
0.257292 0.257292 0.257292
0.266054 0.266054 0.266054
0.277574 0.277574 0.277574
0.283579 0.283579 0.283579
0.295098 0.295098 0.295098
0.303860 0.303860 0.303860
0.313787 0.313787 0.313787
0.324326 0.324326 0.324326
0.334069 0.334069 0.334069
0.340073 0.340073 0.340073
0.352757 0.352757 0.352757
0.362255 0.362255 0.362255
0.375307 0.375307 0.375307
0.385723 0.385723 0.385723
0.395220 0.395220 0.395220
0.405576 0.405576 0.405576
0.414584 0.414584 0.414584
0.429780 0.429780 0.429780
0.438052 0.438052 0.438052
0.451470 0.451470 0.451470
0.465073 0.465073 0.465073
0.479351 0.479351 0.479351
0.493199 0.493199 0.493199
0.512562 0.512562 0.512562
0.015441 0.015441 0.015441
0.018443 0.018443 0.018443
0.013848 0.013848 0.013848
0.023284 0.023284 0.023284
0.023284 0.023284 0.023284
0.034804 0.034804 0.034804
0.032966 0.032966 0.032966
0.038971 0.038971 0.038971
0.042402 0.042402 0.042402
0.043322 0.043322 0.043322
0.048161 0.048161 0.048161
0.050735 0.050735 0.050735
0.058334 0.058334 0.058334
0.058579 0.058579 0.058579
0.062500 0.062500 0.062500
0.064523 0.064523 0.064523
0.070343 0.070343 0.070343
0.074204 0.074204 0.074204
0.082108 0.082108 0.082108
0.083885 0.083885 0.083885
0.088971 0.088971 0.088971
0.093873 0.093873 0.093873
0.098652 0.098652 0.098652
0.107170 0.107170 0.107170
0.112255 0.112255 0.112255
0.120772 0.120772 0.120772
0.129534 0.129534 0.129534
0.137010 0.137010 0.137010
0.144853 0.144853 0.144853
0.151899 0.151899 0.151899
0.160662 0.160662 0.160662
0.169424 0.169424 0.169424
0.174510 0.174510 0.174510
0.183272 0.183272 0.183272
0.191912 0.191912 0.191912
0.200797 0.200797 0.200797
0.213480 0.213480 0.213480
0.222242 0.222242 0.222242
0.234681 0.234681 0.234681
0.239767 0.239767 0.239767
0.254657 0.254657 0.254657
0.262500 0.262500 0.262500
0.269975 0.269975 0.269975
0.275123 0.275123 0.275123
0.291177 0.291177 0.291177
0.296262 0.296262 0.296262
0.308701 0.308701 0.308701
0.317647 0.317647 0.317647
0.323530 0.323530 0.323530
0.334988 0.334988 0.334988
0.342892 0.342892 0.342892
0.356495 0.356495 0.356495
0.365931 0.365931 0.365931
0.372182 0.372182 0.372182
0.386887 0.386887 0.386887
0.395649 0.395649 0.395649
0.412009 0.412009 0.412009
0.420771 0.420771 0.420771
0.433456 0.433456 0.433456
0.441789 0.441789 0.441789
0.455147 0.455147 0.455147
0.467585 0.467585 0.467585
0.480515 0.480515 0.480515
0.495282 0.495282 0.495282
0.517402 0.517402 0.517402
0.020282 0.020282 0.020282
0.020282 0.020282 0.020282
0.020282 0.020282 0.020282
0.026961 0.026961 0.026961
0.024877 0.024877 0.024877
0.032721 0.032721 0.032721
0.041483 0.041483 0.041483
0.046998 0.046998 0.046998
0.051654 0.051654 0.051654
0.056250 0.056250 0.056250
0.056250 0.056250 0.056250
0.062439 0.062439 0.062439
0.070528 0.070528 0.070528
0.068689 0.068689 0.068689
0.072365 0.072365 0.072365
0.073836 0.073836 0.073836
0.082047 0.082047 0.082047
0.086887 0.086887 0.086887
0.087807 0.087807 0.087807
0.093321 0.093321 0.093321
0.098162 0.098162 0.098162
0.106251 0.106251 0.106251
0.110417 0.110417 0.110417
0.115931 0.115931 0.115931
0.124694 0.124694 0.124694
0.129534 0.129534 0.129534
0.135049 0.135049 0.135049
0.146385 0.146385 0.146385
0.151900 0.151900 0.151900
0.160662 0.160662 0.160662
0.169301 0.169301 0.169301
0.175306 0.175306 0.175306
0.183027 0.183027 0.183027
0.189583 0.189583 0.189583
0.200552 0.200552 0.200552
0.210110 0.210110 0.210110
0.219791 0.219791 0.219791
0.230760 0.230760 0.230760
0.242402 0.242402 0.242402
0.244914 0.244914 0.244914
0.253799 0.253799 0.253799
0.265808 0.265808 0.265808
0.271936 0.271936 0.271936
0.283333 0.283333 0.283333
0.292095 0.292095 0.292095
0.300857 0.300857 0.300857
0.309620 0.309620 0.309620
0.319056 0.319056 0.319056
0.331373 0.331373 0.331373
0.341054 0.341054 0.341054
0.348590 0.348590 0.348590
0.354289 0.354289 0.354289
0.366054 0.366054 0.366054
0.379780 0.379780 0.379780
0.391482 0.391482 0.391482
0.396998 0.396998 0.396998
0.413113 0.413113 0.413113
0.418443 0.418443 0.418443
0.432782 0.432782 0.432782
0.443138 0.443138 0.443138
0.456495 0.456495 0.456495
0.466421 0.466421 0.466421
0.481862 0.481862 0.481862
0.494302 0.494302 0.494302
0.505331 0.505331 0.505331
0.027451 0.027451 0.027451
0.025122 0.025122 0.025122
0.027451 0.027451 0.027451
0.029044 0.029044 0.029044
0.035049 0.035049 0.035049
0.040809 0.040809 0.040809
0.046323 0.046323 0.046323
0.053493 0.053493 0.053493
0.066177 0.066177 0.066177
0.069853 0.069853 0.069853
0.072181 0.072181 0.072181
0.074448 0.074448 0.074448
0.077696 0.077696 0.077696
0.083946 0.083946 0.083946
0.085539 0.085539 0.085539
0.089461 0.089461 0.089461
0.091789 0.091789 0.091789
0.099572 0.099572 0.099572
0.098162 0.098162 0.098162
0.103554 0.103554 0.103554
0.110171 0.110171 0.110171
0.118628 0.118628 0.118628
0.119853 0.119853 0.119853
0.127083 0.127083 0.127083
0.131005 0.131005 0.131005
0.140625 0.140625 0.140625
0.148284 0.148284 0.148284
0.153493 0.153493 0.153493
0.160662 0.160662 0.160662
0.169424 0.169424 0.169424
0.174264 0.174264 0.174264
0.183027 0.183027 0.183027
0.191789 0.191789 0.191789
0.200552 0.200552 0.200552
0.209314 0.209314 0.209314
0.218076 0.218076 0.218076
0.228554 0.228554 0.228554
0.237929 0.237929 0.237929
0.244363 0.244363 0.244363
0.254718 0.254718 0.254718
0.265809 0.265809 0.265809
0.272181 0.272181 0.272181
0.283334 0.283334 0.283334
0.290502 0.290502 0.290502
0.300858 0.300858 0.300858
0.308027 0.308027 0.308027
0.317525 0.317525 0.317525
0.327144 0.327144 0.327144
0.335906 0.335906 0.335906
0.344669 0.344669 0.344669
0.355760 0.355760 0.355760
0.362194 0.362194 0.362194
0.374877 0.374877 0.374877
0.383639 0.383639 0.383639
0.397304 0.397304 0.397304
0.409314 0.409314 0.409314
0.417769 0.417769 0.417769
0.428860 0.428860 0.428860
0.436887 0.436887 0.436887
0.453554 0.453554 0.453554
0.464583 0.464583 0.464583
0.475674 0.475674 0.475674
0.488113 0.488113 0.488113
0.504718 0.504718 0.504718
0.523162 0.523162 0.523162
0.036397 0.036397 0.036397
0.033885 0.033885 0.033885
0.029289 0.029289 0.029289
0.033885 0.033885 0.033885
0.041482 0.041482 0.041482
0.045650 0.045650 0.045650
0.051164 0.051164 0.051164
0.057415 0.057415 0.057415
0.068688 0.068688 0.068688
0.080944 0.080944 0.080944
0.084866 0.084866 0.084866
0.087132 0.087132 0.087132
0.091974 0.091974 0.091974
0.092709 0.092709 0.092709
0.099142 0.099142 0.099142
0.103063 0.103063 0.103063
0.103063 0.103063 0.103063
0.108334 0.108334 0.108334
0.109252 0.109252 0.109252
0.116238 0.116238 0.116238
0.120160 0.120160 0.120160
0.125184 0.125184 0.125184
0.131924 0.131924 0.131924
0.138357 0.138357 0.138357
0.142218 0.142218 0.142218
0.149571 0.149571 0.149571
0.159375 0.159375 0.159375
0.165808 0.165808 0.165808
0.173652 0.173652 0.173652
0.178186 0.178186 0.178186
0.180637 0.180637 0.180637
0.191789 0.191789 0.191789
0.200552 0.200552 0.200552
0.209314 0.209314 0.209314
0.218076 0.218076 0.218076
0.225122 0.225122 0.225122
0.235601 0.235601 0.235601
0.245772 0.245772 0.245772
0.253125 0.253125 0.253125
0.267769 0.267769 0.267769
0.269608 0.269608 0.269608
0.280821 0.280821 0.280821
0.289583 0.289583 0.289583
0.300552 0.300552 0.300552
0.305699 0.305699 0.305699
0.311949 0.311949 0.311949
0.323223 0.323223 0.323223
0.331986 0.331986 0.331986
0.343689 0.343689 0.343689
0.348897 0.348897 0.348897
0.358272 0.358272 0.358272
0.368443 0.368443 0.368443
0.379719 0.379719 0.379719
0.387623 0.387623 0.387623
0.397243 0.397243 0.397243
0.409927 0.409927 0.409927
0.420098 0.420098 0.420098
0.431372 0.431372 0.431372
0.444057 0.444057 0.444057
0.454228 0.454228 0.454228
0.469425 0.469425 0.469425
0.479351 0.479351 0.479351
0.492280 0.492280 0.492280
0.506556 0.506556 0.506556
0.528003 0.528003 0.528003
0.042647 0.042647 0.042647
0.039216 0.039216 0.039216
0.038726 0.038726 0.038726
0.038726 0.038726 0.038726
0.042892 0.042892 0.042892
0.047733 0.047733 0.047733
0.058334 0.058334 0.058334
0.061336 0.061336 0.061336
0.070098 0.070098 0.070098
0.079289 0.079289 0.079289
0.097059 0.097059 0.097059
0.099326 0.099326 0.099326
0.104902 0.104902 0.104902
0.105577 0.105577 0.105577
0.109926 0.109926 0.109926
0.116667 0.116667 0.116667
0.116176 0.116176 0.116176
0.120589 0.120589 0.120589
0.128432 0.128432 0.128432
0.132353 0.132353 0.132353
0.135049 0.135049 0.135049
0.140196 0.140196 0.140196
0.138480 0.138480 0.138480
0.151961 0.151961 0.151961
0.154902 0.154902 0.154902
0.163726 0.163726 0.163726
0.168505 0.168505 0.168505
0.173346 0.173346 0.173346
0.182108 0.182108 0.182108
0.191177 0.191177 0.191177
0.195711 0.195711 0.195711
0.206863 0.206863 0.206863
0.207844 0.207844 0.207844
0.221507 0.221507 0.221507
0.226961 0.226961 0.226961
0.235601 0.235601 0.235601
0.244363 0.244363 0.244363
0.253125 0.253125 0.253125
0.265932 0.265932 0.265932
0.270650 0.270650 0.270650
0.279412 0.279412 0.279412
0.289706 0.289706 0.289706
0.296936 0.296936 0.296936
0.302083 0.302083 0.302083
0.314461 0.314461 0.314461
0.318015 0.318015 0.318015
0.328922 0.328922 0.328922
0.336887 0.336887 0.336887
0.348530 0.348530 0.348530
0.354841 0.354841 0.354841
0.362500 0.362500 0.362500
0.375797 0.375797 0.375797
0.384558 0.384558 0.384558
0.393811 0.393811 0.393811
0.406005 0.406005 0.406005
0.415257 0.415257 0.415257
0.424019 0.424019 0.424019
0.436703 0.436703 0.436703
0.447794 0.447794 0.447794
0.457476 0.457476 0.457476
0.467157 0.467157 0.467157
0.480760 0.480760 0.480760
0.494363 0.494363 0.494363
0.511888 0.511888 0.511888
0.529412 0.529412 0.529412
0.055331 0.055331 0.055331
0.051409 0.051409 0.051409
0.047917 0.047917 0.047917
0.047488 0.047488 0.047488
0.051165 0.051165 0.051165
0.055331 0.055331 0.055331
0.064338 0.064338 0.064338
0.069179 0.069179 0.069179
0.074939 0.074939 0.074939
0.086704 0.086704 0.086704
0.096814 0.096814 0.096814
0.113909 0.113909 0.113909
0.117769 0.117769 0.117769
0.118260 0.118260 0.118260
0.122427 0.122427 0.122427
0.127941 0.127941 0.127941
0.132782 0.132782 0.132782
0.134191 0.134191 0.134191
0.138971 0.138971 0.138971
0.145956 0.145956 0.145956
0.148652 0.148652 0.148652
0.156985 0.156985 0.156985
0.157721 0.157721 0.157721
0.163174 0.163174 0.163174
0.171507 0.171507 0.171507
0.173407 0.173407 0.173407
0.181189 0.181189 0.181189
0.186458 0.186458 0.186458
0.196998 0.196998 0.196998
0.203554 0.203554 0.203554
0.208394 0.208394 0.208394
0.216115 0.216115 0.216115
0.221998 0.221998 0.221998
0.228309 0.228309 0.228309
0.239521 0.239521 0.239521
0.248285 0.248285 0.248285
0.257046 0.257046 0.257046
0.265808 0.265808 0.265808
0.270650 0.270650 0.270650
0.279411 0.279411 0.279411
0.288175 0.288175 0.288175
0.296937 0.296937 0.296937
0.308579 0.308579 0.308579
0.310968 0.310968 0.310968
0.319301 0.319301 0.319301
0.322427 0.322427 0.322427
0.336397 0.336397 0.336397
0.341727 0.341727 0.341727
0.353370 0.353370 0.353370
0.364583 0.364583 0.364583
0.371875 0.371875 0.371875
0.383946 0.383946 0.383946
0.389399 0.389399 0.389399
0.399816 0.399816 0.399816
0.410417 0.410417 0.410417
0.419607 0.419607 0.419607
0.428799 0.428799 0.428799
0.444546 0.444546 0.444546
0.449817 0.449817 0.449817
0.462501 0.462501 0.462501
0.475000 0.475000 0.475000
0.487868 0.487868 0.487868
0.502206 0.502206 0.502206
0.515809 0.515809 0.515809
0.537255 0.537255 0.537255
0.064093 0.064093 0.064093
0.061520 0.061520 0.061520
0.060172 0.060172 0.060172
0.054841 0.054841 0.054841
0.056250 0.056250 0.056250
0.064093 0.064093 0.064093
0.068015 0.068015 0.068015
0.074448 0.074448 0.074448
0.083211 0.083211 0.083211
0.091973 0.091973 0.091973
0.100735 0.100735 0.100735
0.111764 0.111764 0.111764
0.124755 0.124755 0.124755
0.136029 0.136029 0.136029
0.135784 0.135784 0.135784
0.144546 0.144546 0.144546
0.143872 0.143872 0.143872
0.147794 0.147794 0.147794
0.155147 0.155147 0.155147
0.159559 0.159559 0.159559
0.166176 0.166176 0.166176
0.167402 0.167402 0.167402
0.174510 0.174510 0.174510
0.179351 0.179351 0.179351
0.183088 0.183088 0.183088
0.187010 0.187010 0.187010
0.193873 0.193873 0.193873
0.202635 0.202635 0.202635
0.206618 0.206618 0.206618
0.213664 0.213664 0.213664
0.218505 0.218505 0.218505
0.225919 0.225919 0.225919
0.236642 0.236642 0.236642
0.240870 0.240870 0.240870
0.252206 0.252206 0.252206
0.261520 0.261520 0.261520
0.265809 0.265809 0.265809
0.273284 0.273284 0.273284
0.283334 0.283334 0.283334
0.287378 0.287378 0.287378
0.296937 0.296937 0.296937
0.305699 0.305699 0.305699
0.311887 0.311887 0.311887
0.319301 0.319301 0.319301
0.328063 0.328063 0.328063
0.334252 0.334252 0.334252
0.341667 0.341667 0.341667
0.349143 0.349143 0.349143
0.361764 0.361764 0.361764
0.370527 0.370527 0.370527
0.376715 0.376715 0.376715
0.385477 0.385477 0.385477
0.396813 0.396813 0.396813
0.407231 0.407231 0.407231
0.414338 0.414338 0.414338
0.424449 0.424449 0.424449
0.437132 0.437132 0.437132
0.445894 0.445894 0.445894
0.457231 0.457231 0.457231
0.467340 0.467340 0.467340
0.477573 0.477573 0.477573
0.491360 0.491360 0.491360
0.504044 0.504044 0.504044
0.518383 0.518383 0.518383
0.537132 0.537132 0.537132
0.078431 0.078431 0.078431
0.071507 0.071507 0.071507
0.074939 0.074939 0.074939
0.071201 0.071201 0.071201
0.067524 0.067524 0.067524
0.072855 0.072855 0.072855
0.076103 0.076103 0.076103
0.083211 0.083211 0.083211
0.093138 0.093138 0.093138
0.100735 0.100735 0.100735
0.106924 0.106924 0.106924
0.119914 0.119914 0.119914
0.128677 0.128677 0.128677
0.147549 0.147549 0.147549
0.152390 0.152390 0.152390
0.157475 0.157475 0.157475
0.161397 0.161397 0.161397
0.166911 0.166911 0.166911
0.167831 0.167831 0.167831
0.175307 0.175307 0.175307
0.177083 0.177083 0.177083
0.186274 0.186274 0.186274
0.189461 0.189461 0.189461
0.196691 0.196691 0.196691
0.199142 0.199142 0.199142
0.202880 0.202880 0.202880
0.212377 0.212377 0.212377
0.218566 0.218566 0.218566
0.222426 0.222426 0.222426
0.226410 0.226410 0.226410
0.233763 0.233763 0.233763
0.243750 0.243750 0.243750
0.247365 0.247365 0.247365
0.255515 0.255515 0.255515
0.264890 0.264890 0.264890
0.269731 0.269731 0.269731
0.278493 0.278493 0.278493
0.287255 0.287255 0.287255
0.290809 0.290809 0.290809
0.302573 0.302573 0.302573
0.310417 0.310417 0.310417
0.316851 0.316851 0.316851
0.323223 0.323223 0.323223
0.326103 0.326103 0.326103
0.339522 0.339522 0.339522
0.345588 0.345588 0.345588
0.354351 0.354351 0.354351
0.365318 0.365318 0.365318
0.368934 0.368934 0.368934
0.376716 0.376716 0.376716
0.389951 0.389951 0.389951
0.392769 0.392769 0.392769
0.404657 0.404657 0.404657
0.415687 0.415687 0.415687
0.422794 0.422794 0.422794
0.433211 0.433211 0.433211
0.442463 0.442463 0.442463
0.453799 0.453799 0.453799
0.467341 0.467341 0.467341
0.477757 0.477757 0.477757
0.489032 0.489032 0.489032
0.500367 0.500367 0.500367
0.514154 0.514154 0.514154
0.530576 0.530576 0.530576
0.547365 0.547365 0.547365
0.089461 0.089461 0.089461
0.088725 0.088725 0.088725
0.085540 0.085540 0.085540
0.081618 0.081618 0.081618
0.081618 0.081618 0.081618
0.078371 0.078371 0.078371
0.083946 0.083946 0.083946
0.088787 0.088787 0.088787
0.097549 0.097549 0.097549
0.105576 0.105576 0.105576
0.116912 0.116912 0.116912
0.123100 0.123100 0.123100
0.135784 0.135784 0.135784
0.141544 0.141544 0.141544
0.165073 0.165073 0.165073
0.173101 0.173101 0.173101
0.175736 0.175736 0.175736
0.178921 0.178921 0.178921
0.186764 0.186764 0.186764
0.190686 0.190686 0.190686
0.194117 0.194117 0.194117
0.198529 0.198529 0.198529
0.203799 0.203799 0.203799
0.213480 0.213480 0.213480
0.218137 0.218137 0.218137
0.221507 0.221507 0.221507
0.223162 0.223162 0.223162
0.230638 0.230638 0.230638
0.237745 0.237745 0.237745
0.241605 0.241605 0.241605
0.249632 0.249632 0.249632
0.255208 0.255208 0.255208
0.263235 0.263235 0.263235
0.273039 0.273039 0.273039
0.276838 0.276838 0.276838
0.285600 0.285600 0.285600
0.291177 0.291177 0.291177
0.300490 0.300490 0.300490
0.304411 0.304411 0.304411
0.312806 0.312806 0.312806
0.318383 0.318383 0.318383
0.325613 0.325613 0.325613
0.331862 0.331862 0.331862
0.340748 0.340748 0.340748
0.343627 0.343627 0.343627
0.356128 0.356128 0.356128
0.363113 0.363113 0.363113
0.375000 0.375000 0.375000
0.376715 0.376715 0.376715
0.387500 0.387500 0.387500
0.397426 0.397426 0.397426
0.403003 0.403003 0.403003
0.412500 0.412500 0.412500
0.418995 0.418995 0.418995
0.433211 0.433211 0.433211
0.438481 0.438481 0.438481
0.457353 0.457353 0.457353
0.463420 0.463420 0.463420
0.471324 0.471324 0.471324
0.484866 0.484866 0.484866
0.494363 0.494363 0.494363
0.507046 0.507046 0.507046
0.524019 0.524019 0.524019
0.535601 0.535601 0.535601
0.556128 0.556128 0.556128
0.102145 0.102145 0.102145
0.101226 0.101226 0.101226
0.096569 0.096569 0.096569
0.098223 0.098223 0.098223
0.094486 0.094486 0.094486
0.091054 0.091054 0.091054
0.095711 0.095711 0.095711
0.100735 0.100735 0.100735
0.109314 0.109314 0.109314
0.114338 0.114338 0.114338
0.122917 0.122917 0.122917
0.133946 0.133946 0.133946
0.133701 0.133701 0.133701
0.149388 0.149388 0.149388
0.162990 0.162990 0.162990
0.170833 0.170833 0.170833
0.197059 0.197059 0.197059
0.196262 0.196262 0.196262
0.196629 0.196629 0.196629
0.204290 0.204290 0.204290
0.213419 0.213419 0.213419
0.212133 0.212133 0.212133
0.220588 0.220588 0.220588
0.223897 0.223897 0.223897
0.227819 0.227819 0.227819
0.239032 0.239032 0.239032
0.243505 0.243505 0.243505
0.248714 0.248714 0.248714
0.253553 0.253553 0.253553
0.259192 0.259192 0.259192
0.267218 0.267218 0.267218
0.271997 0.271997 0.271997
0.280576 0.280576 0.280576
0.285601 0.285601 0.285601
0.294178 0.294178 0.294178
0.298407 0.298407 0.298407
0.306066 0.306066 0.306066
0.312622 0.312622 0.312622
0.317464 0.317464 0.317464
