Black-and-White/Kodak/Kodak TMAX 3200 3 Alt 65x.cube
TITLE "Kodak TMAX 3200 3 Alt"
LUT_3D_SIZE 9
DOMAIN_MIN 0.000000 0.000000 0.000000
DOMAIN_MAX 1.000000 1.000000 1.000000
0.000000 0.000000 0.000000
0.000000 0.000000 0.000000
0.000000 0.000000 0.000000
0.003922 0.003922 0.003922
0.011765 0.011765 0.011765
0.027451 0.027451 0.027451
0.059804 0.059804 0.059804
0.110294 0.110294 0.110294
0.188235 0.188235 0.188235
0.042647 0.042647 0.042647
0.050490 0.050490 0.050490
0.061274 0.061274 0.061274
0.074020 0.074020 0.074020
0.097059 0.097059 0.097059
0.128432 0.128432 0.128432
0.165195 0.165195 0.165195
0.219118 0.219118 0.219118
0.301471 0.301471 0.301471
0.128432 0.128432 0.128432
0.135294 0.135294 0.135294
0.147059 0.147059 0.147059
0.159804 0.159804 0.159804
0.181373 0.181373 0.181373
0.213725 0.213725 0.213725
0.253922 0.253922 0.253922
0.312254 0.312254 0.312254
0.398039 0.398039 0.398039
0.244118 0.244118 0.244118
0.248039 0.248039 0.248039
0.259804 0.259804 0.259804
0.275490 0.275490 0.275490
0.299020 0.299020 0.299020
0.331863 0.331863 0.331863
0.374509 0.374509 0.374509
0.432843 0.432843 0.432843
0.508333 0.508333 0.508333
0.415686 0.415686 0.415686
0.417647 0.417647 0.417647
0.429412 0.429412 0.429412
0.445588 0.445588 0.445588
0.466667 0.466667 0.466667
0.496078 0.496078 0.496078
0.526471 0.526471 0.526471
0.563235 0.563235 0.563235
0.611765 0.611765 0.611765
0.589706 0.589706 0.589706
0.591176 0.591176 0.591176
0.595098 0.595098 0.595098
0.602941 0.602941 0.602941
0.614706 0.614706 0.614706
0.630392 0.630392 0.630392
0.648529 0.648529 0.648529
0.668628 0.668628 0.668628
0.700980 0.700980 0.700980
0.710784 0.710784 0.710784
0.711765 0.711765 0.711765
0.714706 0.714706 0.714706
0.719608 0.719608 0.719608
0.726471 0.726471 0.726471
0.735294 0.735294 0.735294
0.747059 0.747059 0.747059
0.762745 0.762745 0.762745
0.785294 0.785294 0.785294
0.816666 0.816666 0.816666
0.816666 0.816666 0.816666
0.820098 0.820098 0.820098
0.820588 0.820588 0.820588
0.827941 0.827941 0.827941
0.831863 0.831863 0.831863
0.839706 0.839706 0.839706
0.851470 0.851470 0.851470
0.867157 0.867157 0.867157
0.925490 0.925490 0.925490
0.925490 0.925490 0.925490
0.925490 0.925490 0.925490
0.925490 0.925490 0.925490
0.929412 0.929412 0.929412
0.933333 0.933333 0.933333
0.937255 0.937255 0.937255
0.941666 0.941666 0.941666
0.952941 0.952941 0.952941
0.000000 0.000000 0.000000
0.003922 0.003922 0.003922
0.011765 0.011765 0.011765
0.019118 0.019118 0.019118
0.031373 0.031373 0.031373
0.054902 0.054902 0.054902
0.091176 0.091176 0.091176
0.145588 0.145588 0.145588
0.226961 0.226961 0.226961
0.065687 0.065687 0.065687
0.073530 0.073530 0.073530
0.085295 0.085295 0.085295
0.100981 0.100981 0.100981
0.123039 0.123039 0.123039
0.153922 0.153922 0.153922
0.192647 0.192647 0.192647
0.247059 0.247059 0.247059
0.336275 0.336275 0.336275
0.148039 0.148039 0.148039
0.155392 0.155392 0.155392
0.166666 0.166666 0.166666
0.181863 0.181863 0.181863
0.202451 0.202451 0.202451
0.233824 0.233824 0.233824
0.277451 0.277451 0.277451
0.336275 0.336275 0.336275
0.421568 0.421568 0.421568
0.263236 0.263236 0.263236
0.267157 0.267157 0.267157
0.278431 0.278431 0.278431
0.294608 0.294608 0.294608
0.318138 0.318138 0.318138
0.351471 0.351471 0.351471
0.394117 0.394117 0.394117
0.452451 0.452451 0.452451
0.524020 0.524020 0.524020
0.432843 0.432843 0.432843
0.436765 0.436765 0.436765
0.445098 0.445098 0.445098
0.460784 0.460784 0.460784
0.481863 0.481863 0.481863
0.509314 0.509314 0.509314
0.539706 0.539706 0.539706
0.575000 0.575000 0.575000
0.619607 0.619607 0.619607
0.599020 0.599020 0.599020
0.599020 0.599020 0.599020
0.602941 0.602941 0.602941
0.610784 0.610784 0.610784
0.622549 0.622549 0.622549
0.638235 0.638235 0.638235
0.653922 0.653922 0.653922
0.676471 0.676471 0.676471
0.707353 0.707353 0.707353
0.715687 0.715687 0.715687
0.715687 0.715687 0.715687
0.719608 0.719608 0.719608
0.723530 0.723530 0.723530
0.731373 0.731373 0.731373
0.739216 0.739216 0.739216
0.750981 0.750981 0.750981
0.766667 0.766667 0.766667
0.789216 0.789216 0.789216
0.820098 0.820098 0.820098
0.820588 0.820588 0.820588
0.823529 0.823529 0.823529
0.824510 0.824510 0.824510
0.828431 0.828431 0.828431
0.835784 0.835784 0.835784
0.843627 0.843627 0.843627
0.851961 0.851961 0.851961
0.867647 0.867647 0.867647
0.925490 0.925490 0.925490
0.925490 0.925490 0.925490
0.928922 0.928922 0.928922
0.929412 0.929412 0.929412
0.932843 0.932843 0.932843
0.933333 0.933333 0.933333
0.937255 0.937255 0.937255
0.945098 0.945098 0.945098
0.952941 0.952941 0.952941
0.007843 0.007843 0.007843
0.015196 0.015196 0.015196
0.023529 0.023529 0.023529
0.031373 0.031373 0.031373
0.050980 0.050980 0.050980
0.078431 0.078431 0.078431
0.118627 0.118627 0.118627
0.173039 0.173039 0.173039
0.257844 0.257844 0.257844
0.088725 0.088725 0.088725
0.097059 0.097059 0.097059
0.108824 0.108824 0.108824
0.125000 0.125000 0.125000
0.147549 0.147549 0.147549
0.178922 0.178922 0.178922
0.218137 0.218137 0.218137
0.277451 0.277451 0.277451
0.364216 0.364216 0.364216
0.174510 0.174510 0.174510
0.178431 0.178431 0.178431
0.190196 0.190196 0.190196
0.205882 0.205882 0.205882
0.229412 0.229412 0.229412
0.262255 0.262255 0.262255
0.304902 0.304902 0.304902
0.367156 0.367156 0.367156
0.452941 0.452941 0.452941
0.291177 0.291177 0.291177
0.295098 0.295098 0.295098
0.305882 0.305882 0.305882
0.322549 0.322549 0.322549
0.348039 0.348039 0.348039
0.380392 0.380392 0.380392
0.424510 0.424510 0.424510
0.479902 0.479902 0.479902
0.546569 0.546569 0.546569
0.460784 0.460784 0.460784
0.464706 0.464706 0.464706
0.473529 0.473529 0.473529
0.488235 0.488235 0.488235
0.507844 0.507844 0.507844
0.532353 0.532353 0.532353
0.560785 0.560785 0.560785
0.593627 0.593627 0.593627
0.635294 0.635294 0.635294
0.612255 0.612255 0.612255
0.614706 0.614706 0.614706
0.618627 0.618627 0.618627
0.626470 0.626470 0.626470
0.635784 0.635784 0.635784
0.650000 0.650000 0.650000
0.667157 0.667157 0.667157
0.688236 0.688236 0.688236
0.719118 0.719118 0.719118
0.726471 0.726471 0.726471
0.726471 0.726471 0.726471
0.729412 0.729412 0.729412
0.734314 0.734314 0.734314
0.740196 0.740196 0.740196
0.750000 0.750000 0.750000
0.760784 0.760784 0.760784
0.774510 0.774510 0.774510
0.797058 0.797058 0.797058
0.827941 0.827941 0.827941
0.827941 0.827941 0.827941
0.828431 0.828431 0.828431
0.831863 0.831863 0.831863
0.835784 0.835784 0.835784
0.841177 0.841177 0.841177
0.848039 0.848039 0.848039
0.859314 0.859314 0.859314
0.875000 0.875000 0.875000
0.929412 0.929412 0.929412
0.929412 0.929412 0.929412
0.933333 0.933333 0.933333
0.933333 0.933333 0.933333
0.937255 0.937255 0.937255
0.937255 0.937255 0.937255
0.942157 0.942157 0.942157
0.949020 0.949020 0.949020
0.956863 0.956863 0.956863
0.019608 0.019608 0.019608
0.029902 0.029902 0.029902
0.041667 0.041667 0.041667
0.057353 0.057353 0.057353
0.076470 0.076470 0.076470
0.107353 0.107353 0.107353
0.148530 0.148530 0.148530
0.202941 0.202941 0.202941
0.292647 0.292647 0.292647
0.116667 0.116667 0.116667
0.125000 0.125000 0.125000
0.139215 0.139215 0.139215
0.154902 0.154902 0.154902
0.177941 0.177941 0.177941
0.208824 0.208824 0.208824
0.252941 0.252941 0.252941
0.313236 0.313236 0.313236
0.401961 0.401961 0.401961
0.205392 0.205392 0.205392
0.210295 0.210295 0.210295
0.221568 0.221568 0.221568
0.239706 0.239706 0.239706
0.264216 0.264216 0.264216
0.297549 0.297549 0.297549
0.343627 0.343627 0.343627
0.402451 0.402451 0.402451
0.487745 0.487745 0.487745
0.328921 0.328921 0.328921
0.332843 0.332843 0.332843
0.344608 0.344608 0.344608
0.360294 0.360294 0.360294
0.383823 0.383823 0.383823
0.419117 0.419117 0.419117
0.462255 0.462255 0.462255
0.511275 0.511275 0.511275
0.571078 0.571078 0.571078
0.496569 0.496569 0.496569
0.500000 0.500000 0.500000
0.508334 0.508334 0.508334
0.520098 0.520098 0.520098
0.537254 0.537254 0.537254
0.558823 0.558823 0.558823
0.584314 0.584314 0.584314
0.615687 0.615687 0.615687
0.652941 0.652941 0.652941
0.631373 0.631373 0.631373
0.634314 0.634314 0.634314
0.638235 0.638235 0.638235
0.646078 0.646078 0.646078
0.654902 0.654902 0.654902
0.668137 0.668137 0.668137
0.684804 0.684804 0.684804
0.703922 0.703922 0.703922
0.733333 0.733333 0.733333
0.739216 0.739216 0.739216
0.740686 0.740686 0.740686
0.743137 0.743137 0.743137
0.747059 0.747059 0.747059
0.753922 0.753922 0.753922
0.761764 0.761764 0.761764
0.773529 0.773529 0.773529
0.786275 0.786275 0.786275
0.808823 0.808823 0.808823
0.835784 0.835784 0.835784
0.836274 0.836274 0.836274
0.839706 0.839706 0.839706
0.840196 0.840196 0.840196
0.844117 0.844117 0.844117
0.851470 0.851470 0.851470
0.857843 0.857843 0.857843
0.867157 0.867157 0.867157
0.882843 0.882843 0.882843
0.937255 0.937255 0.937255
0.937255 0.937255 0.937255
0.937255 0.937255 0.937255
0.941176 0.941176 0.941176
0.941176 0.941176 0.941176
0.945098 0.945098 0.945098
0.949020 0.949020 0.949020
0.952941 0.952941 0.952941
0.960784 0.960784 0.960784
0.041177 0.041177 0.041177
0.056863 0.056863 0.056863
0.069608 0.069608 0.069608
0.088235 0.088235 0.088235
0.111765 0.111765 0.111765
0.143137 0.143137 0.143137
0.185294 0.185294 0.185294
0.245588 0.245588 0.245588
0.335294 0.335294 0.335294
0.151961 0.151961 0.151961
0.162255 0.162255 0.162255
0.174020 0.174020 0.174020
0.193627 0.193627 0.193627
0.217157 0.217157 0.217157
0.251470 0.251470 0.251470
0.296569 0.296569 0.296569
0.358823 0.358823 0.358823
0.448529 0.448529 0.448529
0.245098 0.245098 0.245098
0.251961 0.251961 0.251961
0.264706 0.264706 0.264706
0.283334 0.283334 0.283334
0.309804 0.309804 0.309804
0.345098 0.345098 0.345098
0.390196 0.390196 0.390196
0.451470 0.451470 0.451470
0.526471 0.526471 0.526471
0.375490 0.375490 0.375490
0.379412 0.379412 0.379412
0.391176 0.391176 0.391176
0.410784 0.410784 0.410784
0.434314 0.434314 0.434314
0.469118 0.469118 0.469118
0.507353 0.507353 0.507353
0.549510 0.549510 0.549510
0.600490 0.600490 0.600490
0.535294 0.535294 0.535294
0.539215 0.539215 0.539215
0.545098 0.545098 0.545098
0.556863 0.556863 0.556863
0.572549 0.572549 0.572549
0.589706 0.589706 0.589706
0.611765 0.611765 0.611765
0.639706 0.639706 0.639706
0.676470 0.676470 0.676470
0.657843 0.657843 0.657843
0.657843 0.657843 0.657843
0.661765 0.661765 0.661765
0.669608 0.669608 0.669608
0.677451 0.677451 0.677451
0.689216 0.689216 0.689216
0.704412 0.704412 0.704412
0.723530 0.723530 0.723530
0.750490 0.750490 0.750490
0.755882 0.755882 0.755882
0.757843 0.757843 0.757843
0.758824 0.758824 0.758824
0.763725 0.763725 0.763725
0.769607 0.769607 0.769607
0.777451 0.777451 0.777451
0.787255 0.787255 0.787255
0.800981 0.800981 0.800981
0.820588 0.820588 0.820588
0.847549 0.847549 0.847549
0.848039 0.848039 0.848039
0.849510 0.849510 0.849510
0.851961 0.851961 0.851961
0.855882 0.855882 0.855882
0.861275 0.861275 0.861275
0.867647 0.867647 0.867647
0.878921 0.878921 0.878921
0.890686 0.890686 0.890686
0.945098 0.945098 0.945098
0.945098 0.945098 0.945098
0.945098 0.945098 0.945098
0.945098 0.945098 0.945098
0.949020 0.949020 0.949020
0.952941 0.952941 0.952941
0.956863 0.956863 0.956863
0.960784 0.960784 0.960784
0.968627 0.968627 0.968627
0.075980 0.075980 0.075980
0.095588 0.095588 0.095588
0.113725 0.113725 0.113725
0.134804 0.134804 0.134804
0.154902 0.154902 0.154902
0.189706 0.189706 0.189706
0.233824 0.233824 0.233824
0.299019 0.299019 0.299019
0.393627 0.393627 0.393627
0.200981 0.200981 0.200981
0.210785 0.210785 0.210785
0.224510 0.224510 0.224510
0.244118 0.244118 0.244118
0.269608 0.269608 0.269608
0.308333 0.308333 0.308333
0.354902 0.354902 0.354902
0.417157 0.417157 0.417157
0.502941 0.502941 0.502941
0.302451 0.302451 0.302451
0.309314 0.309314 0.309314
0.325000 0.325000 0.325000
0.344608 0.344608 0.344608
0.372059 0.372059 0.372059
0.405883 0.405883 0.405883
0.452451 0.452451 0.452451
0.506863 0.506863 0.506863
0.567647 0.567647 0.567647
0.437745 0.437745 0.437745
0.441667 0.441667 0.441667
0.453432 0.453432 0.453432
0.471568 0.471568 0.471568
0.493137 0.493137 0.493137
0.521569 0.521569 0.521569
0.552941 0.552941 0.552941
0.588235 0.588235 0.588235
0.632843 0.632843 0.632843
0.576470 0.576470 0.576470
0.579902 0.579902 0.579902
0.584313 0.584313 0.584313
0.593627 0.593627 0.593627
0.607843 0.607843 0.607843
0.623530 0.623530 0.623530
0.643138 0.643138 0.643138
0.669118 0.669118 0.669118
0.701470 0.701470 0.701470
0.681372 0.681372 0.681372
0.685294 0.685294 0.685294
0.687745 0.687745 0.687745
0.693137 0.693137 0.693137
0.701470 0.701470 0.701470
0.712745 0.712745 0.712745
0.726961 0.726961 0.726961
0.744117 0.744117 0.744117
0.770098 0.770098 0.770098
0.774510 0.774510 0.774510
0.775000 0.775000 0.775000
0.777451 0.777451 0.777451
0.781373 0.781373 0.781373
0.786765 0.786765 0.786765
0.794608 0.794608 0.794608
0.804902 0.804902 0.804902
0.816666 0.816666 0.816666
0.836275 0.836275 0.836275
0.859804 0.859804 0.859804
0.860785 0.860785 0.860785
0.863235 0.863235 0.863235
0.864706 0.864706 0.864706
0.868628 0.868628 0.868628
0.875000 0.875000 0.875000
0.879902 0.879902 0.879902
0.890686 0.890686 0.890686
0.902451 0.902451 0.902451
0.952941 0.952941 0.952941
0.952941 0.952941 0.952941
0.952941 0.952941 0.952941
0.954412 0.954412 0.954412
0.956863 0.956863 0.956863
0.960784 0.960784 0.960784
0.962255 0.962255 0.962255
0.968627 0.968627 0.968627
0.974020 0.974020 0.974020
0.134314 0.134314 0.134314
0.153921 0.153921 0.153921
0.171569 0.171569 0.171569
0.189216 0.189216 0.189216
0.217647 0.217647 0.217647
0.253431 0.253431 0.253431
0.300000 0.300000 0.300000
0.370098 0.370098 0.370098
0.463726 0.463726 0.463726
0.266667 0.266667 0.266667
0.278431 0.278431 0.278431
0.294118 0.294118 0.294118
0.314216 0.314216 0.314216
0.342647 0.342647 0.342647
0.378431 0.378431 0.378431
0.427451 0.427451 0.427451
0.487255 0.487255 0.487255
0.553431 0.553431 0.553431
0.375490 0.375490 0.375490
0.383824 0.383824 0.383824
0.395098 0.395098 0.395098
0.415196 0.415196 0.415196
0.446078 0.446078 0.446078
0.475980 0.475980 0.475980
0.516667 0.516667 0.516667
0.557353 0.557353 0.557353
0.608824 0.608824 0.608824
0.506863 0.506863 0.506863
0.511765 0.511765 0.511765
0.519608 0.519608 0.519608
0.532843 0.532843 0.532843
0.550490 0.550490 0.550490
0.573530 0.573530 0.573530
0.598039 0.598039 0.598039
0.626961 0.626961 0.626961
0.666176 0.666176 0.666176
0.618627 0.618627 0.618627
0.620588 0.620588 0.620588
0.626470 0.626470 0.626470
0.634314 0.634314 0.634314
0.646078 0.646078 0.646078
0.658333 0.658333 0.658333
0.677451 0.677451 0.677451
0.700490 0.700490 0.700490
0.728431 0.728431 0.728431
0.712255 0.712255 0.712255
0.712745 0.712745 0.712745
0.716177 0.716177 0.716177
0.723039 0.723039 0.723039
0.730882 0.730882 0.730882
0.739706 0.739706 0.739706
0.751471 0.751471 0.751471
0.770098 0.770098 0.770098
0.790686 0.790686 0.790686
0.797058 0.797058 0.797058
0.797058 0.797058 0.797058
0.798039 0.798039 0.798039
0.801961 0.801961 0.801961
0.808823 0.808823 0.808823
0.813726 0.813726 0.813726
0.824510 0.824510 0.824510
0.836275 0.836275 0.836275
0.851961 0.851961 0.851961
0.875490 0.875490 0.875490
0.875981 0.875981 0.875981
0.878921 0.878921 0.878921
0.879902 0.879902 0.879902
0.883333 0.883333 0.883333
0.887745 0.887745 0.887745
0.894608 0.894608 0.894608
0.902451 0.902451 0.902451
0.914705 0.914705 0.914705
0.960784 0.960784 0.960784
0.960784 0.960784 0.960784
0.961765 0.961765 0.961765
0.964706 0.964706 0.964706
0.964706 0.964706 0.964706
0.968627 0.968627 0.968627
0.972549 0.972549 0.972549
0.976471 0.976471 0.976471
0.980392 0.980392 0.980392
0.204412 0.204412 0.204412
0.227941 0.227941 0.227941
0.244117 0.244117 0.244117
0.267647 0.267647 0.267647
0.296569 0.296569 0.296569
0.338235 0.338235 0.338235
0.385784 0.385784 0.385784
0.452451 0.452451 0.452451
0.533823 0.533823 0.533823
0.349510 0.349510 0.349510
0.361274 0.361274 0.361274
0.379902 0.379902 0.379902
0.400490 0.400490 0.400490
0.430883 0.430883 0.430883
0.464706 0.464706 0.464706
0.506863 0.506863 0.506863
0.552941 0.552941 0.552941
0.604412 0.604412 0.604412
0.465196 0.465196 0.465196
0.470588 0.470588 0.470588
0.484804 0.484804 0.484804
0.501471 0.501471 0.501471
0.523039 0.523039 0.523039
0.548530 0.548530 0.548530
0.576960 0.576960 0.576960
0.611275 0.611275 0.611275
0.653921 0.653921 0.653921
0.571568 0.571568 0.571568
0.574020 0.574020 0.574020
0.581863 0.581863 0.581863
0.591176 0.591176 0.591176
0.606863 0.606863 0.606863
0.623530 0.623530 0.623530
0.646078 0.646078 0.646078
0.669608 0.669608 0.669608
0.704412 0.704412 0.704412
0.662745 0.662745 0.662745
0.665196 0.665196 0.665196
0.669118 0.669118 0.669118
0.676961 0.676961 0.676961
0.686275 0.686275 0.686275
0.700490 0.700490 0.700490
0.715687 0.715687 0.715687
0.735294 0.735294 0.735294
0.759314 0.759314 0.759314
0.746569 0.746569 0.746569
0.747059 0.747059 0.747059
0.750490 0.750490 0.750490
0.754902 0.754902 0.754902
0.762255 0.762255 0.762255
0.770588 0.770588 0.770588
0.782353 0.782353 0.782353
0.797549 0.797549 0.797549
0.817157 0.817157 0.817157
0.821078 0.821078 0.821078
0.821079 0.821079 0.821079
0.824510 0.824510 0.824510
0.828432 0.828432 0.828432
0.832353 0.832353 0.832353
0.840196 0.840196 0.840196
0.848039 0.848039 0.848039
0.856373 0.856373 0.856373
0.875000 0.875000 0.875000
0.894608 0.894608 0.894608
0.894608 0.894608 0.894608
0.895098 0.895098 0.895098
0.898529 0.898529 0.898529
0.902451 0.902451 0.902451
0.906372 0.906372 0.906372
0.910784 0.910784 0.910784
0.918137 0.918137 0.918137
0.929902 0.929902 0.929902
0.972549 0.972549 0.972549
0.972549 0.972549 0.972549
0.972549 0.972549 0.972549
0.973039 0.973039 0.973039
0.976471 0.976471 0.976471
0.976471 0.976471 0.976471
0.980392 0.980392 0.980392
0.984314 0.984314 0.984314
0.992157 0.992157 0.992157
0.305882 0.305882 0.305882
0.329412 0.329412 0.329412
0.349020 0.349020 0.349020
0.372549 0.372549 0.372549
0.401961 0.401961 0.401961
0.443137 0.443137 0.443137
0.490196 0.490196 0.490196
0.541176 0.541176 0.541176
0.596078 0.596078 0.596078
0.457844 0.457844 0.457844
0.469608 0.469608 0.469608
0.485785 0.485785 0.485785
0.505392 0.505392 0.505392
0.528922 0.528922 0.528922
0.553922 0.553922 0.553922
0.583824 0.583824 0.583824
0.619118 0.619118 0.619118
0.658334 0.658334 0.658334
0.554902 0.554902 0.554902
0.559804 0.559804 0.559804
0.567647 0.567647 0.567647
0.581863 0.581863 0.581863
0.597059 0.597059 0.597059
0.618628 0.618628 0.618628
0.636275 0.636275 0.636275
0.663235 0.663235 0.663235
0.700981 0.700981 0.700981
0.633824 0.633824 0.633824
0.637745 0.637745 0.637745
0.644118 0.644118 0.644118
0.653431 0.653431 0.653431
0.665196 0.665196 0.665196
0.680882 0.680882 0.680882
0.696569 0.696569 0.696569
0.720098 0.720098 0.720098
0.747549 0.747549 0.747549
0.711765 0.711765 0.711765
0.715686 0.715686 0.715686
0.719608 0.719608 0.719608
0.723529 0.723529 0.723529
0.735294 0.735294 0.735294
0.742647 0.742647 0.742647
0.758823 0.758823 0.758823
0.774510 0.774510 0.774510
0.798039 0.798039 0.798039
0.785784 0.785784 0.785784
0.785784 0.785784 0.785784
0.789706 0.789706 0.789706
0.793627 0.793627 0.793627
0.801961 0.801961 0.801961
0.809314 0.809314 0.809314
0.817157 0.817157 0.817157
0.827941 0.827941 0.827941
0.848529 0.848529 0.848529
0.851961 0.851961 0.851961
0.851961 0.851961 0.851961
0.855882 0.855882 0.855882
0.859804 0.859804 0.859804
0.863725 0.863725 0.863725
0.867647 0.867647 0.867647
0.875490 0.875490 0.875490
0.887255 0.887255 0.887255
0.899020 0.899020 0.899020
0.918137 0.918137 0.918137
0.918137 0.918137 0.918137
0.922059 0.922059 0.922059
0.922059 0.922059 0.922059
0.925980 0.925980 0.925980
0.929902 0.929902 0.929902
0.933823 0.933823 0.933823
0.941666 0.941666 0.941666
0.949510 0.949510 0.949510
0.984314 0.984314 0.984314
0.984314 0.984314 0.984314
0.988235 0.988235 0.988235
0.988235 0.988235 0.988235
0.988235 0.988235 0.988235
0.992157 0.992157 0.992157
0.996078 0.996078 0.996078
1.000000 1.000000 1.000000
1.000000 1.000000 1.000000
