Black-and-White/Kodak/Kodak T-Max 400 65x.cube
TITLE "Kodak T-Max 400"
LUT_3D_SIZE 5
DOMAIN_MIN 0.000000 0.000000 0.000000
DOMAIN_MAX 1.000000 1.000000 1.000000
0.000000 0.000000 0.000000
0.000000 0.000000 0.000000
0.000000 0.000000 0.000000
0.000000 0.000000 0.000000
0.000000 0.000000 0.000000
0.132353 0.132353 0.132353
0.135294 0.135294 0.135294
0.136274 0.136274 0.136274
0.135294 0.135294 0.135294
0.127451 0.127451 0.127451
0.419608 0.419608 0.419608
0.419607 0.419607 0.419607
0.423530 0.423530 0.423530
0.423530 0.423530 0.423530
0.417647 0.417647 0.417647
0.688236 0.688236 0.688236
0.688236 0.688236 0.688236
0.693137 0.693137 0.693137
0.692157 0.692157 0.692157
0.692157 0.692157 0.692157
0.925490 0.925490 0.925490
0.925490 0.925490 0.925490
0.929412 0.929412 0.929412
0.929412 0.929412 0.929412
0.933333 0.933333 0.933333
0.007843 0.007843 0.007843
0.007843 0.007843 0.007843
0.007843 0.007843 0.007843
0.007843 0.007843 0.007843
0.003922 0.003922 0.003922
0.190196 0.190196 0.190196
0.190196 0.190196 0.190196
0.194117 0.194117 0.194117
0.193137 0.193137 0.193137
0.182353 0.182353 0.182353
0.450981 0.450981 0.450981
0.453922 0.453922 0.453922
0.454902 0.454902 0.454902
0.457843 0.457843 0.457843
0.453922 0.453922 0.453922
0.705882 0.705882 0.705882
0.706863 0.706863 0.706863
0.707843 0.707843 0.707843
0.707843 0.707843 0.707843
0.707843 0.707843 0.707843
0.933333 0.933333 0.933333
0.933333 0.933333 0.933333
0.933333 0.933333 0.933333
0.937255 0.937255 0.937255
0.937255 0.937255 0.937255
0.043137 0.043137 0.043137
0.047059 0.047059 0.047059
0.050980 0.050980 0.050980
0.050980 0.050980 0.050980
0.043137 0.043137 0.043137
0.276470 0.276470 0.276470
0.280392 0.280392 0.280392
0.283334 0.283334 0.283334
0.286274 0.286274 0.286274
0.279412 0.279412 0.279412
0.513726 0.513726 0.513726
0.513726 0.513726 0.513726
0.517648 0.517648 0.517648
0.519608 0.519608 0.519608
0.517648 0.517648 0.517648
0.739216 0.739216 0.739216
0.740196 0.740196 0.740196
0.743137 0.743137 0.743137
0.744117 0.744117 0.744117
0.744117 0.744117 0.744117
0.945098 0.945098 0.945098
0.945098 0.945098 0.945098
0.949020 0.949020 0.949020
0.949020 0.949020 0.949020
0.950981 0.950981 0.950981
0.154902 0.154902 0.154902
0.165686 0.165686 0.165686
0.173530 0.173530 0.173530
0.174510 0.174510 0.174510
0.170588 0.170588 0.170588
0.396078 0.396078 0.396078
0.400000 0.400000 0.400000
0.403922 0.403922 0.403922
0.407843 0.407843 0.407843
0.407843 0.407843 0.407843
0.592156 0.592156 0.592156
0.595098 0.595098 0.595098
0.599019 0.599019 0.599019
0.602941 0.602941 0.602941
0.602941 0.602941 0.602941
0.786275 0.786275 0.786275
0.786275 0.786275 0.786275
0.789215 0.789215 0.789215
0.790196 0.790196 0.790196
0.790196 0.790196 0.790196
0.961765 0.961765 0.961765
0.964706 0.964706 0.964706
0.964706 0.964706 0.964706
0.965686 0.965686 0.965686
0.968627 0.968627 0.968627
0.352941 0.352941 0.352941
0.360784 0.360784 0.360784
0.368627 0.368627 0.368627
0.376471 0.376471 0.376471
0.380392 0.380392 0.380392
0.536274 0.536274 0.536274
0.540196 0.540196 0.540196
0.548039 0.548039 0.548039
0.551961 0.551961 0.551961
0.555883 0.555883 0.555883
0.696079 0.696079 0.696079
0.699020 0.699020 0.699020
0.703921 0.703921 0.703921
0.707843 0.707843 0.707843
0.711765 0.711765 0.711765
0.851961 0.851961 0.851961
0.851961 0.851961 0.851961
0.855883 0.855883 0.855883
0.859804 0.859804 0.859804
0.859804 0.859804 0.859804
0.988235 0.988235 0.988235
0.988235 0.988235 0.988235
0.992157 0.992157 0.992157
0.996078 0.996078 0.996078
1.000000 1.000000 1.000000
