Black-and-White/Kodak/Kodak HIE (HS Infra) 65x.cube
TITLE "Kodak HIE (HS Infra)"
LUT_3D_SIZE 65
DOMAIN_MIN 0.000000 0.000000 0.000000
DOMAIN_MAX 1.000000 1.000000 1.000000
0.000000 0.000000 0.000000
0.004841 0.004841 0.004841
0.015441 0.015441 0.015441
0.026287 0.026287 0.026287
0.038971 0.038971 0.038971
0.056250 0.056250 0.056250
0.069853 0.069853 0.069853
0.087377 0.087377 0.087377
0.100981 0.100981 0.100981
0.114154 0.114154 0.114154
0.122917 0.122917 0.122917
0.131679 0.131679 0.131679
0.140441 0.140441 0.140441
0.153125 0.153125 0.153125
0.165809 0.165809 0.165809
0.178493 0.178493 0.178493
0.191176 0.191176 0.191176
0.207720 0.207720 0.207720
0.221324 0.221324 0.221324
0.238848 0.238848 0.238848
0.252451 0.252451 0.252451
0.269975 0.269975 0.269975
0.287500 0.287500 0.287500
0.303493 0.303493 0.303493
0.318628 0.318628 0.318628
0.336152 0.336152 0.336152
0.357598 0.357598 0.357598
0.375122 0.375122 0.375122
0.394853 0.394853 0.394853
0.414093 0.414093 0.414093
0.435662 0.435662 0.435662
0.458027 0.458027 0.458027
0.482353 0.482353 0.482353
0.503799 0.503799 0.503799
0.529044 0.529044 0.529044
0.550613 0.550613 0.550613
0.572059 0.572059 0.572059
0.593505 0.593505 0.593505
0.614951 0.614951 0.614951
0.636397 0.636397 0.636397
0.657843 0.657843 0.657843
0.675367 0.675367 0.675367
0.696201 0.696201 0.696201
0.714339 0.714339 0.714339
0.731863 0.731863 0.731863
0.749387 0.749387 0.749387
0.763848 0.763848 0.763848
0.780515 0.780515 0.780515
0.797058 0.797058 0.797058
0.809743 0.809743 0.809743
0.822426 0.822426 0.822426
0.835110 0.835110 0.835110
0.847794 0.847794 0.847794
0.856557 0.856557 0.856557
0.867892 0.867892 0.867892
0.878002 0.878002 0.878002
0.890686 0.890686 0.890686
0.904780 0.904780 0.904780
0.919976 0.919976 0.919976
0.935907 0.935907 0.935907
0.949265 0.949265 0.949265
0.958027 0.958027 0.958027
0.962868 0.962868 0.962868
0.971630 0.971630 0.971630
0.980392 0.980392 0.980392
0.005760 0.005760 0.005760
0.031127 0.031127 0.031127
0.043812 0.043812 0.043812
0.058333 0.058333 0.058333
0.068260 0.068260 0.068260
0.080943 0.080943 0.080943
0.094301 0.094301 0.094301
0.107904 0.107904 0.107904
0.121507 0.121507 0.121507
0.131189 0.131189 0.131189
0.143443 0.143443 0.143443
0.152206 0.152206 0.152206
0.161887 0.161887 0.161887
0.169914 0.169914 0.169914
0.183517 0.183517 0.183517
0.195098 0.195098 0.195098
0.206801 0.206801 0.206801
0.220404 0.220404 0.220404
0.234008 0.234008 0.234008
0.247610 0.247610 0.247610
0.264216 0.264216 0.264216
0.278737 0.278737 0.278737
0.295650 0.295650 0.295650
0.309865 0.309865 0.309865
0.324939 0.324939 0.324939
0.343995 0.343995 0.343995
0.361519 0.361519 0.361519
0.379044 0.379044 0.379044
0.396569 0.396569 0.396569
0.415012 0.415012 0.415012
0.435662 0.435662 0.435662
0.458027 0.458027 0.458027
0.480393 0.480393 0.480393
0.502757 0.502757 0.502757
0.525245 0.525245 0.525245
0.547488 0.547488 0.547488
0.569853 0.569853 0.569853
0.592218 0.592218 0.592218
0.614583 0.614583 0.614583
0.633027 0.633027 0.633027
0.653922 0.653922 0.653922
0.671446 0.671446 0.671446
0.692893 0.692893 0.692893
0.710417 0.710417 0.710417
0.727941 0.727941 0.727941
0.745466 0.745466 0.745466
0.762990 0.762990 0.762990
0.776594 0.776594 0.776594
0.794118 0.794118 0.794118
0.807721 0.807721 0.807721
0.821323 0.821323 0.821323
0.834926 0.834926 0.834926
0.843872 0.843872 0.843872
0.856557 0.856557 0.856557
0.865319 0.865319 0.865319
0.878002 0.878002 0.878002
0.890686 0.890686 0.890686
0.900858 0.900858 0.900858
0.916054 0.916054 0.916054
0.931985 0.931985 0.931985
0.945343 0.945343 0.945343
0.954105 0.954105 0.954105
0.962868 0.962868 0.962868
0.971630 0.971630 0.971630
0.980392 0.980392 0.980392
0.027206 0.027206 0.027206
0.048652 0.048652 0.048652
0.062255 0.062255 0.062255
0.073100 0.073100 0.073100
0.081863 0.081863 0.081863
0.093382 0.093382 0.093382
0.105392 0.105392 0.105392
0.118076 0.118076 0.118076
0.130270 0.130270 0.130270
0.143443 0.143443 0.143443
0.152206 0.152206 0.152206
0.165318 0.165318 0.165318
0.173652 0.173652 0.173652
0.182414 0.182414 0.182414
0.190441 0.190441 0.190441
0.203860 0.203860 0.203860
0.212622 0.212622 0.212622
0.225307 0.225307 0.225307
0.241912 0.241912 0.241912
0.254596 0.254596 0.254596
0.267279 0.267279 0.267279
0.283579 0.283579 0.283579
0.299264 0.299264 0.299264
0.314706 0.314706 0.314706
0.330392 0.330392 0.330392
0.347917 0.347917 0.347917
0.366912 0.366912 0.366912
0.380331 0.380331 0.380331
0.400490 0.400490 0.400490
0.418015 0.418015 0.418015
0.439461 0.439461 0.439461
0.460907 0.460907 0.460907
0.480393 0.480393 0.480393
0.503799 0.503799 0.503799
0.525245 0.525245 0.525245
0.547488 0.547488 0.547488
0.569853 0.569853 0.569853
0.592218 0.592218 0.592218
0.614583 0.614583 0.614583
0.633027 0.633027 0.633027
0.653922 0.653922 0.653922
0.671446 0.671446 0.671446
0.692893 0.692893 0.692893
0.710417 0.710417 0.710417
0.727941 0.727941 0.727941
0.745466 0.745466 0.745466
0.762990 0.762990 0.762990
0.776594 0.776594 0.776594
0.793137 0.793137 0.793137
0.807721 0.807721 0.807721
0.821323 0.821323 0.821323
0.831189 0.831189 0.831189
0.843872 0.843872 0.843872
0.856557 0.856557 0.856557
0.865319 0.865319 0.865319
0.877573 0.877573 0.877573
0.887255 0.887255 0.887255
0.900858 0.900858 0.900858
0.916054 0.916054 0.916054
0.931985 0.931985 0.931985
0.945343 0.945343 0.945343
0.954105 0.954105 0.954105
0.962868 0.962868 0.962868
0.971630 0.971630 0.971630
0.980392 0.980392 0.980392
0.048652 0.048652 0.048652
0.063419 0.063419 0.063419
0.077941 0.077941 0.077941
0.086703 0.086703 0.086703
0.095466 0.095466 0.095466
0.105393 0.105393 0.105393
0.114155 0.114155 0.114155
0.126839 0.126839 0.126839
0.139032 0.139032 0.139032
0.148713 0.148713 0.148713
0.160968 0.160968 0.160968
0.169730 0.169730 0.169730
0.178492 0.178492 0.178492
0.191176 0.191176 0.191176
0.199939 0.199939 0.199939
0.207966 0.207966 0.207966
0.221384 0.221384 0.221384
0.230147 0.230147 0.230147
0.246752 0.246752 0.246752
0.259436 0.259436 0.259436
0.272059 0.272059 0.272059
0.288419 0.288419 0.288419
0.305331 0.305331 0.305331
0.316790 0.316790 0.316790
0.334314 0.334314 0.334314
0.350674 0.350674 0.350674
0.365441 0.365441 0.365441
0.382965 0.382965 0.382965
0.400490 0.400490 0.400490
0.421139 0.421139 0.421139
0.439461 0.439461 0.439461
0.460907 0.460907 0.460907
0.482353 0.482353 0.482353
0.503799 0.503799 0.503799
0.525245 0.525245 0.525245
0.547488 0.547488 0.547488
0.569853 0.569853 0.569853
0.592218 0.592218 0.592218
0.614583 0.614583 0.614583
0.633027 0.633027 0.633027
0.653922 0.653922 0.653922
0.671446 0.671446 0.671446
0.692893 0.692893 0.692893
0.710417 0.710417 0.710417
0.727941 0.727941 0.727941
0.745466 0.745466 0.745466
0.762990 0.762990 0.762990
0.776594 0.776594 0.776594
0.793137 0.793137 0.793137
0.807721 0.807721 0.807721
0.821323 0.821323 0.821323
0.831189 0.831189 0.831189
0.843872 0.843872 0.843872
0.856557 0.856557 0.856557
0.865319 0.865319 0.865319
0.877573 0.877573 0.877573
0.887255 0.887255 0.887255
0.900858 0.900858 0.900858
0.916054 0.916054 0.916054
0.931985 0.931985 0.931985
0.945343 0.945343 0.945343
0.954105 0.954105 0.954105
0.962868 0.962868 0.962868
0.971630 0.971630 0.971630
0.980392 0.980392 0.980392
0.066177 0.066177 0.066177
0.076103 0.076103 0.076103
0.087867 0.087867 0.087867
0.096630 0.096630 0.096630
0.105392 0.105392 0.105392
0.114155 0.114155 0.114155
0.126593 0.126593 0.126593
0.135601 0.135601 0.135601
0.144118 0.144118 0.144118
0.157046 0.157046 0.157046
0.169731 0.169731 0.169731
0.178492 0.178492 0.178492
0.187255 0.187255 0.187255
0.196018 0.196018 0.196018
0.208702 0.208702 0.208702
0.217464 0.217464 0.217464
0.226226 0.226226 0.226226
0.239093 0.239093 0.239093
0.251594 0.251594 0.251594
0.264278 0.264278 0.264278
0.275980 0.275980 0.275980
0.289583 0.289583 0.289583
0.306863 0.306863 0.306863
0.320711 0.320711 0.320711
0.339460 0.339460 0.339460
0.351838 0.351838 0.351838
0.369362 0.369362 0.369362
0.386887 0.386887 0.386887
0.404412 0.404412 0.404412
0.421936 0.421936 0.421936
0.439584 0.439584 0.439584
0.464583 0.464583 0.464583
0.482353 0.482353 0.482353
0.503799 0.503799 0.503799
0.525245 0.525245 0.525245
0.547488 0.547488 0.547488
0.569853 0.569853 0.569853
0.592218 0.592218 0.592218
0.614583 0.614583 0.614583
0.633027 0.633027 0.633027
0.653922 0.653922 0.653922
0.671446 0.671446 0.671446
0.692893 0.692893 0.692893
0.710417 0.710417 0.710417
0.727941 0.727941 0.727941
0.745466 0.745466 0.745466
0.762990 0.762990 0.762990
0.776594 0.776594 0.776594
0.793137 0.793137 0.793137
0.807721 0.807721 0.807721
0.821323 0.821323 0.821323
0.831189 0.831189 0.831189
0.843872 0.843872 0.843872
0.856557 0.856557 0.856557
0.865319 0.865319 0.865319
0.877573 0.877573 0.877573
0.887255 0.887255 0.887255
0.900858 0.900858 0.900858
0.914461 0.914461 0.914461
0.931985 0.931985 0.931985
0.945343 0.945343 0.945343
0.954105 0.954105 0.954105
0.962868 0.962868 0.962868
0.971630 0.971630 0.971630
0.980392 0.980392 0.980392
0.083701 0.083701 0.083701
0.092463 0.092463 0.092463
0.101225 0.101225 0.101225
0.107230 0.107230 0.107230
0.118076 0.118076 0.118076
0.126838 0.126838 0.126838
0.135600 0.135600 0.135600
0.144363 0.144363 0.144363
0.153126 0.153126 0.153126
0.165809 0.165809 0.165809
0.174571 0.174571 0.174571
0.183333 0.183333 0.183333
0.192095 0.192095 0.192095
0.204780 0.204780 0.204780
0.213542 0.213542 0.213542
0.222304 0.222304 0.222304
0.231066 0.231066 0.231066
0.243076 0.243076 0.243076
0.252512 0.252512 0.252512
0.265196 0.265196 0.265196
0.280577 0.280577 0.280577
0.297426 0.297426 0.297426
0.311091 0.311091 0.311091
0.323775 0.323775 0.323775
0.342157 0.342157 0.342157
0.353064 0.353064 0.353064
0.373284 0.373284 0.373284
0.390808 0.390808 0.390808
0.405086 0.405086 0.405086
0.422610 0.422610 0.422610
0.443382 0.443382 0.443382
0.464828 0.464828 0.464828
0.484314 0.484314 0.484314
0.506679 0.506679 0.506679
0.529044 0.529044 0.529044
0.550613 0.550613 0.550613
0.572059 0.572059 0.572059
0.593505 0.593505 0.593505
0.614583 0.614583 0.614583
0.633027 0.633027 0.633027
0.653921 0.653921 0.653921
0.673836 0.673836 0.673836
0.692893 0.692893 0.692893
0.710417 0.710417 0.710417
0.727941 0.727941 0.727941
0.745466 0.745466 0.745466
0.762990 0.762990 0.762990
0.776594 0.776594 0.776594
0.793137 0.793137 0.793137
0.807721 0.807721 0.807721
0.821323 0.821323 0.821323
0.831189 0.831189 0.831189
0.843872 0.843872 0.843872
0.856557 0.856557 0.856557
0.865319 0.865319 0.865319
0.877573 0.877573 0.877573
0.887255 0.887255 0.887255
0.900858 0.900858 0.900858
0.914461 0.914461 0.914461
0.931985 0.931985 0.931985
0.945343 0.945343 0.945343
0.954105 0.954105 0.954105
0.962868 0.962868 0.962868
0.971630 0.971630 0.971630
0.980392 0.980392 0.980392
0.097304 0.097304 0.097304
0.109068 0.109068 0.109068
0.112990 0.112990 0.112990
0.121997 0.121997 0.121997
0.124755 0.124755 0.124755
0.135600 0.135600 0.135600
0.144363 0.144363 0.144363
0.153125 0.153125 0.153125
0.161888 0.161888 0.161888
0.169485 0.169485 0.169485
0.183333 0.183333 0.183333
0.192095 0.192095 0.192095
0.200858 0.200858 0.200858
0.209620 0.209620 0.209620
0.220711 0.220711 0.220711
0.229473 0.229473 0.229473
0.238236 0.238236 0.238236
0.250857 0.250857 0.250857
0.261275 0.261275 0.261275
0.270037 0.270037 0.270037
0.285416 0.285416 0.285416
0.301348 0.301348 0.301348
0.315932 0.315932 0.315932
0.328554 0.328554 0.328554
0.346078 0.346078 0.346078
0.359681 0.359681 0.359681
0.374878 0.374878 0.374878
0.390808 0.390808 0.390808
0.408334 0.408334 0.408334
0.425858 0.425858 0.425858
0.443505 0.443505 0.443505
0.464828 0.464828 0.464828
0.486275 0.486275 0.486275
0.505392 0.505392 0.505392
0.529167 0.529167 0.529167
0.552206 0.552206 0.552206
0.572059 0.572059 0.572059
0.593505 0.593505 0.593505
0.614951 0.614951 0.614951
0.636397 0.636397 0.636397
0.653922 0.653922 0.653922
0.673039 0.673039 0.673039
0.692893 0.692893 0.692893
0.710417 0.710417 0.710417
0.727941 0.727941 0.727941
0.745466 0.745466 0.745466
0.762990 0.762990 0.762990
0.776594 0.776594 0.776594
0.793137 0.793137 0.793137
0.807721 0.807721 0.807721
0.821323 0.821323 0.821323
0.834926 0.834926 0.834926
0.843872 0.843872 0.843872
0.856557 0.856557 0.856557
0.865319 0.865319 0.865319
0.875673 0.875673 0.875673
0.887255 0.887255 0.887255
0.900858 0.900858 0.900858
0.914461 0.914461 0.914461
0.928738 0.928738 0.928738
0.945343 0.945343 0.945343
0.954105 0.954105 0.954105
0.962868 0.962868 0.962868
0.971630 0.971630 0.971630
0.980392 0.980392 0.980392
0.112316 0.112316 0.112316
0.122671 0.122671 0.122671
0.125919 0.125919 0.125919
0.131924 0.131924 0.131924
0.139521 0.139521 0.139521
0.144363 0.144363 0.144363
0.153125 0.153125 0.153125
0.161887 0.161887 0.161887
0.170650 0.170650 0.170650
0.179412 0.179412 0.179412
0.188174 0.188174 0.188174
0.196691 0.196691 0.196691
0.210294 0.210294 0.210294
0.218382 0.218382 0.218382
0.227145 0.227145 0.227145
0.235907 0.235907 0.235907
0.244669 0.244669 0.244669
0.253432 0.253432 0.253432
0.266115 0.266115 0.266115
0.278799 0.278799 0.278799
0.291667 0.291667 0.291667
0.305269 0.305269 0.305269
0.320772 0.320772 0.320772
0.332476 0.332476 0.332476
0.348590 0.348590 0.348590
0.363603 0.363603 0.363603
0.377206 0.377206 0.377206
0.394730 0.394730 0.394730
0.412255 0.412255 0.412255
0.429780 0.429780 0.429780
0.447304 0.447304 0.447304
0.465870 0.465870 0.465870
0.488787 0.488787 0.488787
0.510601 0.510601 0.510601
0.529167 0.529167 0.529167
0.551410 0.551410 0.551410
0.573774 0.573774 0.573774
0.596140 0.596140 0.596140
0.614951 0.614951 0.614951
0.636397 0.636397 0.636397
0.656433 0.656433 0.656433
0.675367 0.675367 0.675367
0.692893 0.692893 0.692893
0.710417 0.710417 0.710417
0.727941 0.727941 0.727941
0.745466 0.745466 0.745466
0.762990 0.762990 0.762990
0.776594 0.776594 0.776594
0.793137 0.793137 0.793137
0.807721 0.807721 0.807721
0.821323 0.821323 0.821323
0.834926 0.834926 0.834926
0.843872 0.843872 0.843872
0.856557 0.856557 0.856557
0.865319 0.865319 0.865319
0.878002 0.878002 0.878002
0.887255 0.887255 0.887255
0.900858 0.900858 0.900858
0.914461 0.914461 0.914461
0.928738 0.928738 0.928738
0.945343 0.945343 0.945343
0.954105 0.954105 0.954105
0.962868 0.962868 0.962868
0.971630 0.971630 0.971630
0.980392 0.980392 0.980392
0.128432 0.128432 0.128432
0.133272 0.133272 0.133272
0.138602 0.138602 0.138602
0.143444 0.143444 0.143444
0.148039 0.148039 0.148039
0.153126 0.153126 0.153126
0.161888 0.161888 0.161888
0.170650 0.170650 0.170650
0.179412 0.179412 0.179412
0.188175 0.188175 0.188175
0.196937 0.196937 0.196937
0.205698 0.205698 0.205698
0.214460 0.214460 0.214460
0.223713 0.223713 0.223713
0.232476 0.232476 0.232476
0.240747 0.240747 0.240747
0.249509 0.249509 0.249509
0.258763 0.258763 0.258763
0.270956 0.270956 0.270956
0.283640 0.283640 0.283640
0.296323 0.296323 0.296323
0.309191 0.309191 0.309191
0.325613 0.325613 0.325613
0.336397 0.336397 0.336397
0.353432 0.353432 0.353432
0.367524 0.367524 0.367524
0.381127 0.381127 0.381127
0.398652 0.398652 0.398652
0.415686 0.415686 0.415686
0.433211 0.433211 0.433211
0.451225 0.451225 0.451225
0.472181 0.472181 0.472181
0.490197 0.490197 0.490197
0.510601 0.510601 0.510601
0.532965 0.532965 0.532965
0.554534 0.554534 0.554534
0.575980 0.575980 0.575980
0.596140 0.596140 0.596140
0.618505 0.618505 0.618505
0.636397 0.636397 0.636397
0.657843 0.657843 0.657843
0.675367 0.675367 0.675367
0.692893 0.692893 0.692893
0.710417 0.710417 0.710417
0.727941 0.727941 0.727941
0.745466 0.745466 0.745466
0.762990 0.762990 0.762990
0.776594 0.776594 0.776594
0.794118 0.794118 0.794118
0.807721 0.807721 0.807721
0.821323 0.821323 0.821323
0.834926 0.834926 0.834926
0.844608 0.844608 0.844608
0.856557 0.856557 0.856557
0.865319 0.865319 0.865319
0.878002 0.878002 0.878002
0.887255 0.887255 0.887255
0.900858 0.900858 0.900858
0.914461 0.914461 0.914461
0.932169 0.932169 0.932169
0.945343 0.945343 0.945343
0.954105 0.954105 0.954105
0.962868 0.962868 0.962868
0.971630 0.971630 0.971630
0.980392 0.980392 0.980392
0.138113 0.138113 0.138113
0.145527 0.145527 0.145527
0.149449 0.149449 0.149449
0.153370 0.153370 0.153370
0.157292 0.157292 0.157292
0.165135 0.165135 0.165135
0.170649 0.170649 0.170649
0.179412 0.179412 0.179412
0.184743 0.184743 0.184743
0.193015 0.193015 0.193015
0.201777 0.201777 0.201777
0.216299 0.216299 0.216299
0.223223 0.223223 0.223223
0.231986 0.231986 0.231986
0.239645 0.239645 0.239645
0.249081 0.249081 0.249081
0.254350 0.254350 0.254350
0.263114 0.263114 0.263114
0.275797 0.275797 0.275797
0.288052 0.288052 0.288052
0.297243 0.297243 0.297243
0.313541 0.313541 0.313541
0.326532 0.326532 0.326532
0.344240 0.344240 0.344240
0.357843 0.357843 0.357843
0.368505 0.368505 0.368505
0.385478 0.385478 0.385478
0.402573 0.402573 0.402573
0.420098 0.420098 0.420098
0.434130 0.434130 0.434130
0.455147 0.455147 0.455147
0.473713 0.473713 0.473713
0.490625 0.490625 0.490625
0.514522 0.514522 0.514522
0.536887 0.536887 0.536887
0.554963 0.554963 0.554963
0.577696 0.577696 0.577696
0.600062 0.600062 0.600062
0.618873 0.618873 0.618873
0.640319 0.640319 0.640319
0.657843 0.657843 0.657843
0.677757 0.677757 0.677757
0.696814 0.696814 0.696814
0.714339 0.714339 0.714339
0.731863 0.731863 0.731863
0.743750 0.743750 0.743750
0.762990 0.762990 0.762990
0.780882 0.780882 0.780882
0.794118 0.794118 0.794118
0.807721 0.807721 0.807721
0.822426 0.822426 0.822426
0.831617 0.831617 0.831617
0.844301 0.844301 0.844301
0.856557 0.856557 0.856557
0.867892 0.867892 0.867892
0.878002 0.878002 0.878002
0.890686 0.890686 0.890686
0.900858 0.900858 0.900858
0.912562 0.912562 0.912562
0.931985 0.931985 0.931985
0.945343 0.945343 0.945343
0.954105 0.954105 0.954105
0.962868 0.962868 0.962868
0.971630 0.971630 0.971630
0.980392 0.980392 0.980392
0.150368 0.150368 0.150368
0.155637 0.155637 0.155637
0.160049 0.160049 0.160049
0.162132 0.162132 0.162132
0.166054 0.166054 0.166054
0.173897 0.173897 0.173897
0.179412 0.179412 0.179412
0.188174 0.188174 0.188174
0.193014 0.193014 0.193014
0.201777 0.201777 0.201777
0.210539 0.210539 0.210539
0.219301 0.219301 0.219301
0.228064 0.228064 0.228064
0.236826 0.236826 0.236826
0.245588 0.245588 0.245588
0.254350 0.254350 0.254350
0.261765 0.261765 0.261765
0.270527 0.270527 0.270527
0.280637 0.280637 0.280637
0.293750 0.293750 0.293750
0.307353 0.307353 0.307353
0.320956 0.320956 0.320956
0.331985 0.331985 0.331985
0.348162 0.348162 0.348162
0.361765 0.361765 0.361765
0.373346 0.373346 0.373346
0.388970 0.388970 0.388970
0.406495 0.406495 0.406495
0.421446 0.421446 0.421446
0.438971 0.438971 0.438971
0.456495 0.456495 0.456495
0.476593 0.476593 0.476593
0.496079 0.496079 0.496079
0.515564 0.515564 0.515564
0.537010 0.537010 0.537010
0.559804 0.559804 0.559804
0.579902 0.579902 0.579902
0.601348 0.601348 0.601348
0.622426 0.622426 0.622426
0.640319 0.640319 0.640319
0.659191 0.659191 0.659191
0.679289 0.679289 0.679289
0.696814 0.696814 0.696814
0.714339 0.714339 0.714339
0.731863 0.731863 0.731863
0.749387 0.749387 0.749387
0.761275 0.761275 0.761275
0.780515 0.780515 0.780515
0.794118 0.794118 0.794118
0.809743 0.809743 0.809743
0.822426 0.822426 0.822426
0.835110 0.835110 0.835110
0.847794 0.847794 0.847794
0.856557 0.856557 0.856557
0.866666 0.866666 0.866666
0.878002 0.878002 0.878002
0.890686 0.890686 0.890686
0.900858 0.900858 0.900858
0.916054 0.916054 0.916054
0.931985 0.931985 0.931985
0.945343 0.945343 0.945343
0.954105 0.954105 0.954105
0.962868 0.962868 0.962868
0.971630 0.971630 0.971630
0.980392 0.980392 0.980392
0.163051 0.163051 0.163051
0.166973 0.166973 0.166973
0.168811 0.168811 0.168811
0.173652 0.173652 0.173652
0.178492 0.178492 0.178492
0.184926 0.184926 0.184926
0.188174 0.188174 0.188174
0.196936 0.196936 0.196936
0.201777 0.201777 0.201777
0.210539 0.210539 0.210539
0.219301 0.219301 0.219301
0.228064 0.228064 0.228064
0.236826 0.236826 0.236826
0.245588 0.245588 0.245588
0.252083 0.252083 0.252083
0.259191 0.259191 0.259191
0.267953 0.267953 0.267953
0.276715 0.276715 0.276715
0.284069 0.284069 0.284069
0.298162 0.298162 0.298162
0.311275 0.311275 0.311275
0.324877 0.324877 0.324877
0.336826 0.336826 0.336826
0.352819 0.352819 0.352819
0.365686 0.365686 0.365686
0.378186 0.378186 0.378186
0.392892 0.392892 0.392892
0.411397 0.411397 0.411397
0.426287 0.426287 0.426287
0.441544 0.441544 0.441544
0.461336 0.461336 0.461336
0.477635 0.477635 0.477635
0.498039 0.498039 0.498039
0.517831 0.517831 0.517831
0.539277 0.539277 0.539277
0.559253 0.559253 0.559253
0.581618 0.581618 0.581618
0.603983 0.603983 0.603983
0.622794 0.622794 0.622794
0.640870 0.640870 0.640870
0.661765 0.661765 0.661765
0.679289 0.679289 0.679289
0.696814 0.696814 0.696814
0.714339 0.714339 0.714339
0.731863 0.731863 0.731863
0.749387 0.749387 0.749387
0.766911 0.766911 0.766911
0.780515 0.780515 0.780515
0.794118 0.794118 0.794118
0.809743 0.809743 0.809743
0.822426 0.822426 0.822426
0.835110 0.835110 0.835110
0.847794 0.847794 0.847794
0.856557 0.856557 0.856557
0.869240 0.869240 0.869240
0.878002 0.878002 0.878002
0.890686 0.890686 0.890686
0.903370 0.903370 0.903370
0.916054 0.916054 0.916054
0.931985 0.931985 0.931985
0.945343 0.945343 0.945343
0.954105 0.954105 0.954105
0.962868 0.962868 0.962868
0.971630 0.971630 0.971630
0.980392 0.980392 0.980392
0.175736 0.175736 0.175736
0.176654 0.176654 0.176654
0.182843 0.182843 0.182843
0.186764 0.186764 0.186764
0.187500 0.187500 0.187500
0.192095 0.192095 0.192095
0.202451 0.202451 0.202451
0.205698 0.205698 0.205698
0.214460 0.214460 0.214460
0.219301 0.219301 0.219301
0.228064 0.228064 0.228064
0.236826 0.236826 0.236826
0.245588 0.245588 0.245588
0.254350 0.254350 0.254350
0.262010 0.262010 0.262010
0.267953 0.267953 0.267953
0.276715 0.276715 0.276715
0.285478 0.285478 0.285478
0.294240 0.294240 0.294240
0.304779 0.304779 0.304779
0.315196 0.315196 0.315196
0.328370 0.328370 0.328370
0.344975 0.344975 0.344975
0.357659 0.357659 0.357659
0.369608 0.369608 0.369608
0.383027 0.383027 0.383027
0.396813 0.396813 0.396813
0.416238 0.416238 0.416238
0.427941 0.427941 0.427941
0.445466 0.445466 0.445466
0.462990 0.462990 0.462990
0.483700 0.483700 0.483700
0.501961 0.501961 0.501961
0.522672 0.522672 0.522672
0.540931 0.540931 0.540931
0.565564 0.565564 0.565564
0.583823 0.583823 0.583823
0.603983 0.603983 0.603983
0.622794 0.622794 0.622794
0.644240 0.644240 0.644240
0.661765 0.661765 0.661765
0.682476 0.682476 0.682476
0.700000 0.700000 0.700000
0.714339 0.714339 0.714339
0.731863 0.731863 0.731863
0.749387 0.749387 0.749387
0.766911 0.766911 0.766911
0.780515 0.780515 0.780515
0.797058 0.797058 0.797058
0.809743 0.809743 0.809743
0.822426 0.822426 0.822426
0.835110 0.835110 0.835110
0.847794 0.847794 0.847794
0.859742 0.859742 0.859742
0.869240 0.869240 0.869240
0.878002 0.878002 0.878002
0.890686 0.890686 0.890686
0.903370 0.903370 0.903370
0.916054 0.916054 0.916054
0.931985 0.931985 0.931985
0.945343 0.945343 0.945343
0.954105 0.954105 0.954105
0.962868 0.962868 0.962868
0.971630 0.971630 0.971630
0.980392 0.980392 0.980392
0.188419 0.188419 0.188419
0.192341 0.192341 0.192341
0.194179 0.194179 0.194179
0.196262 0.196262 0.196262
0.200184 0.200184 0.200184
0.204780 0.204780 0.204780
0.209620 0.209620 0.209620
0.212133 0.212133 0.212133
0.223224 0.223224 0.223224
0.228248 0.228248 0.228248
0.235662 0.235662 0.235662
0.245772 0.245772 0.245772
0.254350 0.254350 0.254350
0.263113 0.263113 0.263113
0.267954 0.267954 0.267954
0.276716 0.276716 0.276716
0.285295 0.285295 0.285295
0.290320 0.290320 0.290320
0.299081 0.299081 0.299081
0.313358 0.313358 0.313358
0.320527 0.320527 0.320527
0.333211 0.333211 0.333211
0.350245 0.350245 0.350245
0.363848 0.363848 0.363848
0.377451 0.377451 0.377451
0.387868 0.387868 0.387868
0.404657 0.404657 0.404657
0.417156 0.417156 0.417156
0.435785 0.435785 0.435785
0.449571 0.449571 0.449571
0.466912 0.466912 0.466912
0.484620 0.484620 0.484620
0.505883 0.505883 0.505883
0.526287 0.526287 0.526287
0.544853 0.544853 0.544853
0.566299 0.566299 0.566299
0.584007 0.584007 0.584007
0.607905 0.607905 0.607905
0.626716 0.626716 0.626716
