Black-and-White/Kodak/Kodak BW 400 CN 65x.cube
TITLE "Kodak BW 400 CN"
LUT_3D_SIZE 5
DOMAIN_MIN 0.000000 0.000000 0.000000
DOMAIN_MAX 1.000000 1.000000 1.000000
0.000000 0.000000 0.000000
0.019608 0.019608 0.019608
0.074510 0.074510 0.074510
0.173530 0.173530 0.173530
0.329412 0.329412 0.329412
0.167647 0.167647 0.167647
0.187255 0.187255 0.187255
0.234314 0.234314 0.234314
0.310785 0.310785 0.310785
0.438236 0.438236 0.438236
0.360784 0.360784 0.360784
0.372549 0.372549 0.372549
0.405883 0.405883 0.405883
0.461765 0.461765 0.461765
0.566666 0.566666 0.566666
0.601961 0.601961 0.601961
0.609804 0.609804 0.609804
0.633334 0.633334 0.633334
0.672549 0.672549 0.672549
0.742156 0.742156 0.742156
0.858824 0.858824 0.858824
0.858824 0.858824 0.858824
0.866667 0.866667 0.866667
0.878431 0.878431 0.878431
0.909804 0.909804 0.909804
0.027451 0.027451 0.027451
0.077451 0.077451 0.077451
0.133333 0.133333 0.133333
0.228432 0.228432 0.228432
0.376471 0.376471 0.376471
0.206863 0.206863 0.206863
0.226470 0.226470 0.226470
0.269608 0.269608 0.269608
0.348039 0.348039 0.348039
0.465687 0.465687 0.465687
0.389216 0.389216 0.389216
0.400000 0.400000 0.400000
0.431373 0.431373 0.431373
0.486274 0.486274 0.486274
0.590196 0.590196 0.590196
0.621569 0.621569 0.621569
0.629412 0.629412 0.629412
0.652941 0.652941 0.652941
0.692157 0.692157 0.692157
0.753922 0.753922 0.753922
0.866667 0.866667 0.866667
0.866667 0.866667 0.866667
0.874510 0.874510 0.874510
0.886275 0.886275 0.886275
0.916666 0.916666 0.916666
0.090196 0.090196 0.090196
0.136274 0.136274 0.136274
0.192157 0.192157 0.192157
0.280392 0.280392 0.280392
0.423529 0.423529 0.423529
0.263726 0.263726 0.263726
0.283334 0.283334 0.283334
0.326471 0.326471 0.326471
0.400000 0.400000 0.400000
0.511765 0.511765 0.511765
0.439215 0.439215 0.439215
0.449020 0.449020 0.449020
0.478432 0.478432 0.478432
0.534314 0.534314 0.534314
0.635294 0.635294 0.635294
0.664706 0.664706 0.664706
0.672549 0.672549 0.672549
0.692157 0.692157 0.692157
0.723530 0.723530 0.723530
0.779412 0.779412 0.779412
0.882353 0.882353 0.882353
0.886275 0.886275 0.886275
0.890196 0.890196 0.890196
0.903922 0.903922 0.903922
0.931372 0.931372 0.931372
0.184314 0.184314 0.184314
0.228432 0.228432 0.228432
0.279411 0.279411 0.279411
0.361764 0.361764 0.361764
0.486275 0.486275 0.486275
0.350980 0.350980 0.350980
0.368627 0.368627 0.368627
0.407843 0.407843 0.407843
0.470588 0.470588 0.470588
0.579412 0.579412 0.579412
0.512745 0.512745 0.512745
0.521568 0.521568 0.521568
0.552941 0.552941 0.552941
0.606863 0.606863 0.606863
0.693137 0.693137 0.693137
0.719608 0.719608 0.719608
0.723530 0.723530 0.723530
0.739216 0.739216 0.739216
0.766667 0.766667 0.766667
0.812745 0.812745 0.812745
0.906862 0.906862 0.906862
0.909804 0.909804 0.909804
0.914706 0.914706 0.914706
0.926471 0.926471 0.926471
0.952941 0.952941 0.952941
0.313726 0.313726 0.313726
0.352941 0.352941 0.352941
0.398039 0.398039 0.398039
0.463726 0.463726 0.463726
0.580392 0.580392 0.580392
0.465687 0.465687 0.465687
0.481372 0.481372 0.481372
0.516667 0.516667 0.516667
0.576470 0.576470 0.576470
0.673530 0.673530 0.673530
0.625490 0.625490 0.625490
0.635294 0.635294 0.635294
0.662745 0.662745 0.662745
0.703922 0.703922 0.703922
0.764706 0.764706 0.764706
0.789215 0.789215 0.789215
0.793137 0.793137 0.793137
0.804902 0.804902 0.804902
0.824510 0.824510 0.824510
0.859804 0.859804 0.859804
0.949020 0.949020 0.949020
0.952941 0.952941 0.952941
0.956863 0.956863 0.956863
0.968627 0.968627 0.968627
1.000000 1.000000 1.000000
