Black-and-White/Kodak/Kodak HIE (HS Infra) 65x.cube
TITLE "Kodak HIE (HS Infra)"
LUT_3D_SIZE 5
DOMAIN_MIN 0.000000 0.000000 0.000000
DOMAIN_MAX 1.000000 1.000000 1.000000
0.000000 0.000000 0.000000
0.191176 0.191176 0.191176
0.482353 0.482353 0.482353
0.797058 0.797058 0.797058
0.980392 0.980392 0.980392
0.225490 0.225490 0.225490
0.307843 0.307843 0.307843
0.513726 0.513726 0.513726
0.798039 0.798039 0.798039
0.980392 0.980392 0.980392
0.492157 0.492157 0.492157
0.511764 0.511764 0.511764
0.603921 0.603921 0.603921
0.820588 0.820588 0.820588
0.984314 0.984314 0.984314
0.904902 0.904902 0.904902
0.948039 0.948039 0.948039
0.788235 0.788235 0.788235
0.852941 0.852941 0.852941
0.992157 0.992157 0.992157
0.811765 0.811765 0.811765
0.955882 0.955882 0.955882
1.000000 1.000000 1.000000
1.000000 1.000000 1.000000
0.992157 0.992157 0.992157
0.000000 0.000000 0.000000
0.209804 0.209804 0.209804
0.539215 0.539215 0.539215
0.821569 0.821569 0.821569
0.992157 0.992157 0.992157
0.187255 0.187255 0.187255
0.296078 0.296078 0.296078
0.550980 0.550980 0.550980
0.820588 0.820588 0.820588
0.988235 0.988235 0.988235
0.444118 0.444118 0.444118
0.475490 0.475490 0.475490
0.619607 0.619607 0.619607
0.837255 0.837255 0.837255
0.992157 0.992157 0.992157
0.905882 0.905882 0.905882
0.852941 0.852941 0.852941
0.755882 0.755882 0.755882
0.866667 0.866667 0.866667
0.999019 0.999019 0.999019
0.881373 0.881373 0.881373
1.000000 1.000000 1.000000
1.000000 1.000000 1.000000
1.000000 1.000000 1.000000
1.000000 1.000000 1.000000
0.000000 0.000000 0.000000
0.262745 0.262745 0.262745
0.598040 0.598040 0.598040
0.844118 0.844118 0.844118
1.000000 1.000000 1.000000
0.178431 0.178431 0.178431
0.322549 0.322549 0.322549
0.609804 0.609804 0.609804
0.845098 0.845098 0.845098
1.000000 1.000000 1.000000
0.394118 0.394118 0.394118
0.465686 0.465686 0.465686
0.668628 0.668628 0.668628
0.863726 0.863726 0.863726
1.000000 1.000000 1.000000
0.702941 0.702941 0.702941
0.695098 0.695098 0.695098
0.755882 0.755882 0.755882
0.892157 0.892157 0.892157
1.000000 1.000000 1.000000
1.000000 1.000000 1.000000
1.000000 1.000000 1.000000
1.000000 1.000000 1.000000
0.973530 0.973530 0.973530
1.000000 1.000000 1.000000
0.004902 0.004902 0.004902
0.407843 0.407843 0.407843
0.683333 0.683333 0.683333
0.880392 0.880392 0.880392
1.000000 1.000000 1.000000
0.295098 0.295098 0.295098
0.461765 0.461765 0.461765
0.702941 0.702941 0.702941
0.884314 0.884314 0.884314
1.000000 1.000000 1.000000
0.485294 0.485294 0.485294
0.570588 0.570588 0.570588
0.750000 0.750000 0.750000
0.903922 0.903922 0.903922
1.000000 1.000000 1.000000
0.645098 0.645098 0.645098
0.692157 0.692157 0.692157
0.806863 0.806863 0.806863
0.927451 0.927451 0.927451
1.000000 1.000000 1.000000
1.000000 1.000000 1.000000
1.000000 1.000000 1.000000
1.000000 1.000000 1.000000
0.949020 0.949020 0.949020
1.000000 1.000000 1.000000
0.305882 0.305882 0.305882
0.598039 0.598039 0.598039
0.778431 0.778431 0.778431
0.953922 0.953922 0.953922
1.000000 1.000000 1.000000
0.550980 0.550980 0.550980
0.656863 0.656863 0.656863
0.801961 0.801961 0.801961
0.965686 0.965686 0.965686
1.000000 1.000000 1.000000
0.690196 0.690196 0.690196
0.742157 0.742157 0.742157
0.843137 0.843137 0.843137
0.988235 0.988235 0.988235
1.000000 1.000000 1.000000
0.796078 0.796078 0.796078
0.820588 0.820588 0.820588
0.903922 0.903922 0.903922
1.000000 1.000000 1.000000
1.000000 1.000000 1.000000
0.870588 0.870588 0.870588
0.886275 0.886275 0.886275
0.929412 0.929412 0.929412
0.992157 0.992157 0.992157
1.000000 1.000000 1.000000
