Black-and-White/Kodak/Kodak T-Max 400 65x.cube
TITLE "Kodak T-Max 400"
LUT_3D_SIZE 65
DOMAIN_MIN 0.000000 0.000000 0.000000
DOMAIN_MAX 1.000000 1.000000 1.000000
0.000000 0.000000 0.000000
0.000000 0.000000 0.000000
0.000000 0.000000 0.000000
0.000000 0.000000 0.000000
0.000000 0.000000 0.000000
0.000000 0.000000 0.000000
0.000000 0.000000 0.000000
0.000000 0.000000 0.000000
0.000000 0.000000 0.000000
0.000000 0.000000 0.000000
0.000000 0.000000 0.000000
0.000000 0.000000 0.000000
0.000000 0.000000 0.000000
0.000000 0.000000 0.000000
0.000000 0.000000 0.000000
0.000000 0.000000 0.000000
0.000000 0.000000 0.000000
0.000000 0.000000 0.000000
0.000000 0.000000 0.000000
0.000000 0.000000 0.000000
0.000000 0.000000 0.000000
0.000000 0.000000 0.000000
0.000000 0.000000 0.000000
0.000000 0.000000 0.000000
0.000000 0.000000 0.000000
0.000000 0.000000 0.000000
0.000000 0.000000 0.000000
0.000000 0.000000 0.000000
0.000000 0.000000 0.000000
0.000000 0.000000 0.000000
0.000000 0.000000 0.000000
0.000000 0.000000 0.000000
0.000000 0.000000 0.000000
0.000000 0.000000 0.000000
0.000000 0.000000 0.000000
0.000000 0.000000 0.000000
0.000000 0.000000 0.000000
0.000000 0.000000 0.000000
0.000000 0.000000 0.000000
0.000000 0.000000 0.000000
0.000000 0.000000 0.000000
0.000000 0.000000 0.000000
0.000000 0.000000 0.000000
0.000000 0.000000 0.000000
0.000000 0.000000 0.000000
0.000000 0.000000 0.000000
0.000000 0.000000 0.000000
0.000000 0.000000 0.000000
0.000000 0.000000 0.000000
0.000000 0.000000 0.000000
0.000000 0.000000 0.000000
0.000000 0.000000 0.000000
0.000000 0.000000 0.000000
0.000000 0.000000 0.000000
0.000000 0.000000 0.000000
0.000000 0.000000 0.000000
0.000000 0.000000 0.000000
0.000000 0.000000 0.000000
0.000000 0.000000 0.000000
0.000000 0.000000 0.000000
0.000000 0.000000 0.000000
0.000000 0.000000 0.000000
0.000000 0.000000 0.000000
0.000000 0.000000 0.000000
0.000000 0.000000 0.000000
0.000000 0.000000 0.000000
0.000000 0.000000 0.000000
0.000000 0.000000 0.000000
0.002758 0.002758 0.002758
0.000919 0.000919 0.000919
0.000919 0.000919 0.000919
0.000919 0.000919 0.000919
0.000919 0.000919 0.000919
0.000919 0.000919 0.000919
0.000919 0.000919 0.000919
0.000919 0.000919 0.000919
0.000919 0.000919 0.000919
0.000919 0.000919 0.000919
0.000919 0.000919 0.000919
0.000919 0.000919 0.000919
0.000919 0.000919 0.000919
0.000919 0.000919 0.000919
0.000919 0.000919 0.000919
0.000919 0.000919 0.000919
0.000919 0.000919 0.000919
0.000919 0.000919 0.000919
0.000919 0.000919 0.000919
0.000919 0.000919 0.000919
0.000919 0.000919 0.000919
0.000919 0.000919 0.000919
0.000919 0.000919 0.000919
0.000919 0.000919 0.000919
0.000919 0.000919 0.000919
0.000919 0.000919 0.000919
0.000919 0.000919 0.000919
0.000919 0.000919 0.000919
0.000919 0.000919 0.000919
0.000919 0.000919 0.000919
0.000919 0.000919 0.000919
0.000919 0.000919 0.000919
0.000919 0.000919 0.000919
0.000919 0.000919 0.000919
0.000919 0.000919 0.000919
0.000919 0.000919 0.000919
0.000919 0.000919 0.000919
0.000919 0.000919 0.000919
0.000919 0.000919 0.000919
0.000919 0.000919 0.000919
0.000919 0.000919 0.000919
0.000919 0.000919 0.000919
0.000919 0.000919 0.000919
0.000919 0.000919 0.000919
0.000919 0.000919 0.000919
0.000919 0.000919 0.000919
0.000919 0.000919 0.000919
0.000919 0.000919 0.000919
0.000919 0.000919 0.000919
0.000919 0.000919 0.000919
0.000919 0.000919 0.000919
0.000919 0.000919 0.000919
0.000919 0.000919 0.000919
0.000919 0.000919 0.000919
-0.000490 -0.000490 -0.000490
0.000000 0.000000 0.000000
0.000000 0.000000 0.000000
0.000000 0.000000 0.000000
0.000000 0.000000 0.000000
0.000000 0.000000 0.000000
0.000000 0.000000 0.000000
0.000000 0.000000 0.000000
0.003922 0.003922 0.003922
0.003922 0.003922 0.003922
0.003922 0.003922 0.003922
0.003922 0.003922 0.003922
0.003922 0.003922 0.003922
0.003922 0.003922 0.003922
0.003922 0.003922 0.003922
0.003922 0.003922 0.003922
0.003922 0.003922 0.003922
0.003922 0.003922 0.003922
0.003922 0.003922 0.003922
0.003922 0.003922 0.003922
0.003922 0.003922 0.003922
0.003922 0.003922 0.003922
0.003922 0.003922 0.003922
0.003922 0.003922 0.003922
0.003922 0.003922 0.003922
0.003922 0.003922 0.003922
0.003922 0.003922 0.003922
0.003922 0.003922 0.003922
0.003922 0.003922 0.003922
0.003922 0.003922 0.003922
0.003922 0.003922 0.003922
0.003922 0.003922 0.003922
0.003922 0.003922 0.003922
0.003922 0.003922 0.003922
0.003922 0.003922 0.003922
0.003922 0.003922 0.003922
0.003922 0.003922 0.003922
0.003922 0.003922 0.003922
0.003922 0.003922 0.003922
0.003922 0.003922 0.003922
0.003922 0.003922 0.003922
0.003922 0.003922 0.003922
0.003922 0.003922 0.003922
0.003922 0.003922 0.003922
0.003922 0.003922 0.003922
0.003922 0.003922 0.003922
0.003922 0.003922 0.003922
0.003922 0.003922 0.003922
0.003922 0.003922 0.003922
0.003922 0.003922 0.003922
0.003922 0.003922 0.003922
0.003922 0.003922 0.003922
0.003922 0.003922 0.003922
0.003922 0.003922 0.003922
0.003922 0.003922 0.003922
0.003922 0.003922 0.003922
0.003922 0.003922 0.003922
0.003922 0.003922 0.003922
0.003922 0.003922 0.003922
0.003922 0.003922 0.003922
0.003922 0.003922 0.003922
0.003922 0.003922 0.003922
0.003922 0.003922 0.003922
0.003922 0.003922 0.003922
0.003922 0.003922 0.003922
0.003922 0.003922 0.003922
0.003922 0.003922 0.003922
0.003922 0.003922 0.003922
0.003922 0.003922 0.003922
0.003922 0.003922 0.003922
0.003922 0.003922 0.003922
0.003922 0.003922 0.003922
0.003922 0.003922 0.003922
0.007843 0.007843 0.007843
0.007843 0.007843 0.007843
0.007843 0.007843 0.007843
0.007843 0.007843 0.007843
0.007843 0.007843 0.007843
0.007843 0.007843 0.007843
0.007843 0.007843 0.007843
0.007843 0.007843 0.007843
0.007843 0.007843 0.007843
0.007843 0.007843 0.007843
0.007843 0.007843 0.007843
0.007843 0.007843 0.007843
0.007843 0.007843 0.007843
0.007843 0.007843 0.007843
0.007843 0.007843 0.007843
0.007843 0.007843 0.007843
0.007843 0.007843 0.007843
0.007843 0.007843 0.007843
0.007843 0.007843 0.007843
0.007843 0.007843 0.007843
0.007843 0.007843 0.007843
0.007843 0.007843 0.007843
0.007843 0.007843 0.007843
0.007843 0.007843 0.007843
0.007843 0.007843 0.007843
0.007843 0.007843 0.007843
0.007843 0.007843 0.007843
0.007843 0.007843 0.007843
0.007843 0.007843 0.007843
0.007843 0.007843 0.007843
0.007843 0.007843 0.007843
0.007843 0.007843 0.007843
0.007843 0.007843 0.007843
0.007843 0.007843 0.007843
0.007843 0.007843 0.007843
0.007843 0.007843 0.007843
0.007843 0.007843 0.007843
0.007843 0.007843 0.007843
0.007843 0.007843 0.007843
0.007843 0.007843 0.007843
0.007843 0.007843 0.007843
0.007843 0.007843 0.007843
0.007843 0.007843 0.007843
0.007843 0.007843 0.007843
0.007843 0.007843 0.007843
0.007843 0.007843 0.007843
0.007843 0.007843 0.007843
0.007843 0.007843 0.007843
0.007843 0.007843 0.007843
0.007843 0.007843 0.007843
0.007843 0.007843 0.007843
0.007843 0.007843 0.007843
0.007843 0.007843 0.007843
0.007843 0.007843 0.007843
0.007843 0.007843 0.007843
0.007843 0.007843 0.007843
0.007843 0.007843 0.007843
0.007843 0.007843 0.007843
0.007843 0.007843 0.007843
0.007843 0.007843 0.007843
0.006679 0.006679 0.006679
0.006679 0.006679 0.006679
0.006679 0.006679 0.006679
0.006679 0.006679 0.006679
0.006679 0.006679 0.006679
0.011520 0.011520 0.011520
0.011520 0.011520 0.011520
0.011520 0.011520 0.011520
0.011520 0.011520 0.011520
0.011520 0.011520 0.011520
0.011520 0.011520 0.011520
0.011520 0.011520 0.011520
0.011520 0.011520 0.011520
0.011520 0.011520 0.011520
0.011765 0.011765 0.011765
0.011765 0.011765 0.011765
0.011765 0.011765 0.011765
0.011765 0.011765 0.011765
0.011765 0.011765 0.011765
0.011765 0.011765 0.011765
0.011765 0.011765 0.011765
0.011765 0.011765 0.011765
0.011765 0.011765 0.011765
0.011765 0.011765 0.011765
0.011765 0.011765 0.011765
0.011765 0.011765 0.011765
0.011765 0.011765 0.011765
0.011765 0.011765 0.011765
0.011765 0.011765 0.011765
0.011765 0.011765 0.011765
0.011765 0.011765 0.011765
0.011765 0.011765 0.011765
0.011765 0.011765 0.011765
0.011765 0.011765 0.011765
0.011765 0.011765 0.011765
0.011765 0.011765 0.011765
0.011765 0.011765 0.011765
0.011765 0.011765 0.011765
0.011765 0.011765 0.011765
0.011765 0.011765 0.011765
0.011765 0.011765 0.011765
0.011765 0.011765 0.011765
0.011765 0.011765 0.011765
0.011765 0.011765 0.011765
0.011765 0.011765 0.011765
0.011765 0.011765 0.011765
0.011765 0.011765 0.011765
0.011765 0.011765 0.011765
0.011765 0.011765 0.011765
0.011765 0.011765 0.011765
0.011765 0.011765 0.011765
0.011765 0.011765 0.011765
0.011765 0.011765 0.011765
0.011765 0.011765 0.011765
0.011765 0.011765 0.011765
0.011765 0.011765 0.011765
0.011765 0.011765 0.011765
0.011765 0.011765 0.011765
0.011765 0.011765 0.011765
0.011765 0.011765 0.011765
0.011765 0.011765 0.011765
0.011520 0.011520 0.011520
0.011520 0.011520 0.011520
0.011520 0.011520 0.011520
0.011520 0.011520 0.011520
0.011520 0.011520 0.011520
0.011520 0.011520 0.011520
0.011520 0.011520 0.011520
0.011520 0.011520 0.011520
0.007843 0.007843 0.007843
0.016360 0.016360 0.016360
0.016360 0.016360 0.016360
0.016360 0.016360 0.016360
0.016360 0.016360 0.016360
0.016360 0.016360 0.016360
0.016360 0.016360 0.016360
0.016360 0.016360 0.016360
0.016360 0.016360 0.016360
0.016360 0.016360 0.016360
0.016360 0.016360 0.016360
0.016360 0.016360 0.016360
0.016360 0.016360 0.016360
0.016360 0.016360 0.016360
0.016360 0.016360 0.016360
0.016360 0.016360 0.016360
0.016360 0.016360 0.016360
0.016360 0.016360 0.016360
0.016360 0.016360 0.016360
0.016360 0.016360 0.016360
0.016360 0.016360 0.016360
0.016360 0.016360 0.016360
0.016360 0.016360 0.016360
0.016360 0.016360 0.016360
0.016360 0.016360 0.016360
0.016360 0.016360 0.016360
0.016360 0.016360 0.016360
0.016360 0.016360 0.016360
0.016360 0.016360 0.016360
0.016360 0.016360 0.016360
0.016360 0.016360 0.016360
0.016360 0.016360 0.016360
0.016360 0.016360 0.016360
0.016360 0.016360 0.016360
0.019608 0.019608 0.019608
0.019608 0.019608 0.019608
0.019608 0.019608 0.019608
0.019608 0.019608 0.019608
0.019608 0.019608 0.019608
0.019608 0.019608 0.019608
0.019731 0.019731 0.019731
0.016360 0.016360 0.016360
0.016360 0.016360 0.016360
0.016360 0.016360 0.016360
0.016360 0.016360 0.016360
0.016360 0.016360 0.016360
0.019608 0.019608 0.019608
0.016360 0.016360 0.016360
0.016360 0.016360 0.016360
0.016360 0.016360 0.016360
0.016360 0.016360 0.016360
0.016360 0.016360 0.016360
0.016360 0.016360 0.016360
0.016360 0.016360 0.016360
0.016360 0.016360 0.016360
0.016360 0.016360 0.016360
0.016360 0.016360 0.016360
0.016360 0.016360 0.016360
0.016360 0.016360 0.016360
0.016360 0.016360 0.016360
0.015686 0.015686 0.015686
0.015686 0.015686 0.015686
0.015686 0.015686 0.015686
0.015686 0.015686 0.015686
0.015686 0.015686 0.015686
0.012439 0.012439 0.012439
0.021201 0.021201 0.021201
0.021201 0.021201 0.021201
0.021201 0.021201 0.021201
0.021201 0.021201 0.021201
0.021201 0.021201 0.021201
0.021201 0.021201 0.021201
0.021201 0.021201 0.021201
0.021201 0.021201 0.021201
0.021201 0.021201 0.021201
0.020037 0.020037 0.020037
0.023529 0.023529 0.023529
0.023529 0.023529 0.023529
0.023529 0.023529 0.023529
0.023529 0.023529 0.023529
0.023529 0.023529 0.023529
0.023529 0.023529 0.023529
0.023529 0.023529 0.023529
0.023529 0.023529 0.023529
0.023529 0.023529 0.023529
0.023529 0.023529 0.023529
0.025122 0.025122 0.025122
0.025122 0.025122 0.025122
0.025122 0.025122 0.025122
0.025122 0.025122 0.025122
0.025122 0.025122 0.025122
0.025122 0.025122 0.025122
0.025122 0.025122 0.025122
0.025122 0.025122 0.025122
0.025122 0.025122 0.025122
0.025122 0.025122 0.025122
0.025122 0.025122 0.025122
0.025122 0.025122 0.025122
0.025122 0.025122 0.025122
0.025122 0.025122 0.025122
0.025122 0.025122 0.025122
0.025122 0.025122 0.025122
0.025122 0.025122 0.025122
0.025122 0.025122 0.025122
0.025122 0.025122 0.025122
0.025122 0.025122 0.025122
0.025122 0.025122 0.025122
0.025122 0.025122 0.025122
0.025122 0.025122 0.025122
0.025122 0.025122 0.025122
0.025122 0.025122 0.025122
0.025122 0.025122 0.025122
0.025122 0.025122 0.025122
0.025122 0.025122 0.025122
0.025122 0.025122 0.025122
0.025122 0.025122 0.025122
0.025122 0.025122 0.025122
0.023529 0.023529 0.023529
0.023529 0.023529 0.023529
0.023529 0.023529 0.023529
0.023529 0.023529 0.023529
0.023529 0.023529 0.023529
0.021201 0.021201 0.021201
0.021201 0.021201 0.021201
0.021201 0.021201 0.021201
0.021201 0.021201 0.021201
0.021201 0.021201 0.021201
0.021201 0.021201 0.021201
0.021201 0.021201 0.021201
0.018199 0.018199 0.018199
0.019608 0.019608 0.019608
0.029964 0.029964 0.029964
0.029964 0.029964 0.029964
0.029964 0.029964 0.029964
0.029964 0.029964 0.029964
0.029964 0.029964 0.029964
0.029964 0.029964 0.029964
0.029964 0.029964 0.029964
0.029964 0.029964 0.029964
0.029964 0.029964 0.029964
0.029964 0.029964 0.029964
0.029964 0.029964 0.029964
0.029964 0.029964 0.029964
0.029964 0.029964 0.029964
0.029964 0.029964 0.029964
0.029964 0.029964 0.029964
0.029964 0.029964 0.029964
0.029964 0.029964 0.029964
0.029964 0.029964 0.029964
0.029964 0.029964 0.029964
0.029964 0.029964 0.029964
0.029964 0.029964 0.029964
0.031373 0.031373 0.031373
0.033885 0.033885 0.033885
0.031373 0.031373 0.031373
0.031373 0.031373 0.031373
0.033885 0.033885 0.033885
0.033885 0.033885 0.033885
0.033885 0.033885 0.033885
0.033885 0.033885 0.033885
0.033885 0.033885 0.033885
0.033885 0.033885 0.033885
0.033885 0.033885 0.033885
0.033885 0.033885 0.033885
0.033885 0.033885 0.033885
0.033885 0.033885 0.033885
0.033885 0.033885 0.033885
0.033885 0.033885 0.033885
0.033885 0.033885 0.033885
0.033885 0.033885 0.033885
0.033885 0.033885 0.033885
0.033885 0.033885 0.033885
0.033885 0.033885 0.033885
0.033885 0.033885 0.033885
0.031373 0.031373 0.031373
0.033885 0.033885 0.033885
0.033885 0.033885 0.033885
0.033885 0.033885 0.033885
0.031373 0.031373 0.031373
0.032905 0.032905 0.032905
0.029964 0.029964 0.029964
0.029964 0.029964 0.029964
0.029964 0.029964 0.029964
0.029964 0.029964 0.029964
0.029964 0.029964 0.029964
0.029964 0.029964 0.029964
0.029964 0.029964 0.029964
0.029964 0.029964 0.029964
0.029964 0.029964 0.029964
0.029964 0.029964 0.029964
0.029964 0.029964 0.029964
0.027451 0.027451 0.027451
0.028799 0.028799 0.028799
0.026042 0.026042 0.026042
0.026042 0.026042 0.026042
0.026042 0.026042 0.026042
0.038726 0.038726 0.038726
0.038726 0.038726 0.038726
0.038726 0.038726 0.038726
0.038726 0.038726 0.038726
0.038726 0.038726 0.038726
0.038726 0.038726 0.038726
0.038726 0.038726 0.038726
0.038726 0.038726 0.038726
0.038726 0.038726 0.038726
0.038726 0.038726 0.038726
0.038726 0.038726 0.038726
0.038726 0.038726 0.038726
0.038726 0.038726 0.038726
0.038726 0.038726 0.038726
0.038726 0.038726 0.038726
0.038726 0.038726 0.038726
0.038726 0.038726 0.038726
0.038726 0.038726 0.038726
0.038726 0.038726 0.038726
0.042157 0.042157 0.042157
0.041421 0.041421 0.041421
0.042647 0.042647 0.042647
0.042647 0.042647 0.042647
0.042647 0.042647 0.042647
0.042647 0.042647 0.042647
0.042647 0.042647 0.042647
0.042647 0.042647 0.042647
0.042647 0.042647 0.042647
0.042647 0.042647 0.042647
0.042647 0.042647 0.042647
0.042647 0.042647 0.042647
0.042647 0.042647 0.042647
0.042647 0.042647 0.042647
0.042647 0.042647 0.042647
0.042647 0.042647 0.042647
0.042647 0.042647 0.042647
0.042647 0.042647 0.042647
0.042647 0.042647 0.042647
0.042647 0.042647 0.042647
0.042647 0.042647 0.042647
0.042647 0.042647 0.042647
0.042647 0.042647 0.042647
0.042647 0.042647 0.042647
0.042647 0.042647 0.042647
0.042647 0.042647 0.042647
0.042647 0.042647 0.042647
0.042647 0.042647 0.042647
0.042647 0.042647 0.042647
0.045098 0.045098 0.045098
0.038726 0.038726 0.038726
0.038726 0.038726 0.038726
0.038726 0.038726 0.038726
0.038726 0.038726 0.038726
0.038726 0.038726 0.038726
0.038726 0.038726 0.038726
0.038726 0.038726 0.038726
0.038726 0.038726 0.038726
0.038726 0.038726 0.038726
0.038726 0.038726 0.038726
0.038726 0.038726 0.038726
0.038480 0.038480 0.038480
0.034804 0.034804 0.034804
0.034804 0.034804 0.034804
0.034804 0.034804 0.034804
0.034804 0.034804 0.034804
0.047488 0.047488 0.047488
0.047488 0.047488 0.047488
0.047488 0.047488 0.047488
0.047488 0.047488 0.047488
0.047488 0.047488 0.047488
0.047488 0.047488 0.047488
0.047488 0.047488 0.047488
0.047488 0.047488 0.047488
0.047488 0.047488 0.047488
0.047488 0.047488 0.047488
0.047488 0.047488 0.047488
0.047488 0.047488 0.047488
0.050674 0.050674 0.050674
0.047917 0.047917 0.047917
0.051409 0.051409 0.051409
0.051409 0.051409 0.051409
0.051409 0.051409 0.051409
0.051409 0.051409 0.051409
0.051409 0.051409 0.051409
0.051409 0.051409 0.051409
0.051409 0.051409 0.051409
0.051409 0.051409 0.051409
0.051409 0.051409 0.051409
0.051409 0.051409 0.051409
0.051409 0.051409 0.051409
0.051409 0.051409 0.051409
0.051409 0.051409 0.051409
0.051409 0.051409 0.051409
0.051409 0.051409 0.051409
0.051409 0.051409 0.051409
0.051409 0.051409 0.051409
0.051409 0.051409 0.051409
0.051409 0.051409 0.051409
0.051409 0.051409 0.051409
0.051409 0.051409 0.051409
0.051409 0.051409 0.051409
0.051409 0.051409 0.051409
0.051409 0.051409 0.051409
0.051409 0.051409 0.051409
0.051409 0.051409 0.051409
0.051409 0.051409 0.051409
0.051409 0.051409 0.051409
0.051409 0.051409 0.051409
0.051409 0.051409 0.051409
0.051409 0.051409 0.051409
0.051409 0.051409 0.051409
0.051409 0.051409 0.051409
0.051409 0.051409 0.051409
0.051409 0.051409 0.051409
0.051409 0.051409 0.051409
0.051409 0.051409 0.051409
0.051409 0.051409 0.051409
0.047181 0.047181 0.047181
0.047488 0.047488 0.047488
0.047488 0.047488 0.047488
0.047488 0.047488 0.047488
0.047488 0.047488 0.047488
0.047488 0.047488 0.047488
0.047488 0.047488 0.047488
0.047488 0.047488 0.047488
0.047672 0.047672 0.047672
0.042831 0.042831 0.042831
0.043566 0.043566 0.043566
0.043566 0.043566 0.043566
0.043566 0.043566 0.043566
0.057598 0.057598 0.057598
0.057598 0.057598 0.057598
0.057598 0.057598 0.057598
0.060172 0.060172 0.060172
0.060172 0.060172 0.060172
0.060172 0.060172 0.060172
0.060172 0.060172 0.060172
0.060172 0.060172 0.060172
0.060172 0.060172 0.060172
0.060172 0.060172 0.060172
0.060172 0.060172 0.060172
0.060172 0.060172 0.060172
0.060172 0.060172 0.060172
0.060172 0.060172 0.060172
0.060172 0.060172 0.060172
0.060172 0.060172 0.060172
0.060172 0.060172 0.060172
0.060172 0.060172 0.060172
0.060172 0.060172 0.060172
0.060172 0.060172 0.060172
0.060172 0.060172 0.060172
0.060172 0.060172 0.060172
0.060172 0.060172 0.060172
0.060172 0.060172 0.060172
0.060172 0.060172 0.060172
0.060172 0.060172 0.060172
0.060172 0.060172 0.060172
0.060172 0.060172 0.060172
0.060172 0.060172 0.060172
0.060172 0.060172 0.060172
0.060172 0.060172 0.060172
0.060172 0.060172 0.060172
0.060172 0.060172 0.060172
0.060172 0.060172 0.060172
0.060172 0.060172 0.060172
0.060172 0.060172 0.060172
0.060172 0.060172 0.060172
0.060172 0.060172 0.060172
0.060172 0.060172 0.060172
0.060172 0.060172 0.060172
0.060172 0.060172 0.060172
0.060172 0.060172 0.060172
0.060172 0.060172 0.060172
0.060172 0.060172 0.060172
0.060172 0.060172 0.060172
0.060172 0.060172 0.060172
0.060172 0.060172 0.060172
0.060172 0.060172 0.060172
0.060172 0.060172 0.060172
0.060172 0.060172 0.060172
0.060172 0.060172 0.060172
0.060172 0.060172 0.060172
0.060172 0.060172 0.060172
0.060172 0.060172 0.060172
0.057598 0.057598 0.057598
0.057598 0.057598 0.057598
0.056250 0.056250 0.056250
0.056250 0.056250 0.056250
0.056250 0.056250 0.056250
0.056250 0.056250 0.056250
0.056250 0.056250 0.056250
0.056250 0.056250 0.056250
0.053676 0.053676 0.053676
0.052328 0.052328 0.052328
0.052328 0.052328 0.052328
0.068934 0.068934 0.068934
0.068934 0.068934 0.068934
0.068934 0.068934 0.068934
0.068934 0.068934 0.068934
0.068934 0.068934 0.068934
0.068934 0.068934 0.068934
0.068934 0.068934 0.068934
0.068934 0.068934 0.068934
0.068934 0.068934 0.068934
0.068934 0.068934 0.068934
0.068934 0.068934 0.068934
0.068934 0.068934 0.068934
0.071201 0.071201 0.071201
0.071201 0.071201 0.071201
0.071201 0.071201 0.071201
0.071201 0.071201 0.071201
0.071201 0.071201 0.071201
0.071201 0.071201 0.071201
0.071201 0.071201 0.071201
0.071201 0.071201 0.071201
0.071201 0.071201 0.071201
0.071201 0.071201 0.071201
0.072855 0.072855 0.072855
0.072855 0.072855 0.072855
0.072855 0.072855 0.072855
0.072855 0.072855 0.072855
0.072855 0.072855 0.072855
0.072855 0.072855 0.072855
0.072855 0.072855 0.072855
0.072855 0.072855 0.072855
0.072855 0.072855 0.072855
0.072855 0.072855 0.072855
0.072855 0.072855 0.072855
0.072855 0.072855 0.072855
0.072855 0.072855 0.072855
0.072855 0.072855 0.072855
0.072855 0.072855 0.072855
0.072855 0.072855 0.072855
0.072855 0.072855 0.072855
0.072855 0.072855 0.072855
0.072855 0.072855 0.072855
0.072855 0.072855 0.072855
0.072855 0.072855 0.072855
0.071201 0.071201 0.071201
0.071201 0.071201 0.071201
0.072855 0.072855 0.072855
0.072855 0.072855 0.072855
0.071201 0.071201 0.071201
0.071201 0.071201 0.071201
0.071201 0.071201 0.071201
0.071201 0.071201 0.071201
0.068934 0.068934 0.068934
0.068934 0.068934 0.068934
0.068934 0.068934 0.068934
0.068934 0.068934 0.068934
0.068934 0.068934 0.068934
0.068934 0.068934 0.068934
0.068934 0.068934 0.068934
0.068934 0.068934 0.068934
0.064032 0.064032 0.064032
0.065012 0.065012 0.065012
0.065012 0.065012 0.065012
0.065012 0.065012 0.065012
0.065012 0.065012 0.065012
0.063358 0.063358 0.063358
0.081618 0.081618 0.081618
0.081618 0.081618 0.081618
0.081618 0.081618 0.081618
0.081618 0.081618 0.081618
0.081618 0.081618 0.081618
0.081618 0.081618 0.081618
0.081618 0.081618 0.081618
0.081618 0.081618 0.081618
0.081618 0.081618 0.081618
0.081618 0.081618 0.081618
0.081618 0.081618 0.081618
0.081618 0.081618 0.081618
0.081618 0.081618 0.081618
0.081618 0.081618 0.081618
0.081618 0.081618 0.081618
0.081618 0.081618 0.081618
0.081618 0.081618 0.081618
0.081618 0.081618 0.081618
0.081618 0.081618 0.081618
0.084804 0.084804 0.084804
0.084804 0.084804 0.084804
0.084804 0.084804 0.084804
0.084804 0.084804 0.084804
0.084804 0.084804 0.084804
0.084804 0.084804 0.084804
0.084804 0.084804 0.084804
0.084804 0.084804 0.084804
0.084804 0.084804 0.084804
0.084804 0.084804 0.084804
0.084804 0.084804 0.084804
0.084804 0.084804 0.084804
0.084804 0.084804 0.084804
0.084804 0.084804 0.084804
0.084804 0.084804 0.084804
0.084804 0.084804 0.084804
0.084804 0.084804 0.084804
0.084804 0.084804 0.084804
0.084804 0.084804 0.084804
0.084804 0.084804 0.084804
0.084804 0.084804 0.084804
0.084804 0.084804 0.084804
0.084804 0.084804 0.084804
0.084804 0.084804 0.084804
0.084804 0.084804 0.084804
0.084804 0.084804 0.084804
0.084804 0.084804 0.084804
0.084804 0.084804 0.084804
0.081618 0.081618 0.081618
0.081618 0.081618 0.081618
0.081618 0.081618 0.081618
0.081618 0.081618 0.081618
0.081618 0.081618 0.081618
0.081618 0.081618 0.081618
0.081618 0.081618 0.081618
0.081618 0.081618 0.081618
0.081618 0.081618 0.081618
0.080882 0.080882 0.080882
0.080882 0.080882 0.080882
0.077696 0.077696 0.077696
0.077696 0.077696 0.077696
0.077696 0.077696 0.077696
0.077696 0.077696 0.077696
0.076960 0.076960 0.076960
0.076960 0.076960 0.076960
0.073775 0.073775 0.073775
0.094302 0.094302 0.094302
0.094302 0.094302 0.094302
0.094302 0.094302 0.094302
0.094302 0.094302 0.094302
0.094302 0.094302 0.094302
0.094302 0.094302 0.094302
0.094302 0.094302 0.094302
0.094302 0.094302 0.094302
0.094302 0.094302 0.094302
0.094302 0.094302 0.094302
0.094302 0.094302 0.094302
0.094302 0.094302 0.094302
0.094302 0.094302 0.094302
0.094302 0.094302 0.094302
0.094302 0.094302 0.094302
0.096324 0.096324 0.096324
0.094486 0.094486 0.094486
0.094486 0.094486 0.094486
0.094486 0.094486 0.094486
0.094486 0.094486 0.094486
0.094486 0.094486 0.094486
0.094486 0.094486 0.094486
0.094486 0.094486 0.094486
0.094486 0.094486 0.094486
0.094486 0.094486 0.094486
0.094486 0.094486 0.094486
0.094486 0.094486 0.094486
0.094486 0.094486 0.094486
0.094486 0.094486 0.094486
0.094486 0.094486 0.094486
0.094486 0.094486 0.094486
0.094486 0.094486 0.094486
0.094486 0.094486 0.094486
0.094486 0.094486 0.094486
0.094486 0.094486 0.094486
0.094486 0.094486 0.094486
0.094486 0.094486 0.094486
0.094486 0.094486 0.094486
0.098223 0.098223 0.098223
