Black-and-White/Kodak/Kodak TRI-X 400 1 - 65x.cube
TITLE "Kodak TRI-X 400 1 -"
LUT_3D_SIZE 9
DOMAIN_MIN 0.000000 0.000000 0.000000
DOMAIN_MAX 1.000000 1.000000 1.000000
0.000000 0.000000 0.000000
0.015196 0.015196 0.015196
0.042157 0.042157 0.042157
0.088726 0.088726 0.088726
0.158824 0.158824 0.158824
0.236765 0.236765 0.236765
0.314706 0.314706 0.314706
0.400490 0.400490 0.400490
0.509804 0.509804 0.509804
0.042647 0.042647 0.042647
0.070098 0.070098 0.070098
0.116176 0.116176 0.116176
0.154902 0.154902 0.154902
0.207844 0.207844 0.207844
0.279412 0.279412 0.279412
0.348530 0.348530 0.348530
0.424019 0.424019 0.424019
0.529412 0.529412 0.529412
0.142157 0.142157 0.142157
0.135294 0.135294 0.135294
0.201961 0.201961 0.201961
0.278921 0.278921 0.278921
0.326471 0.326471 0.326471
0.370588 0.370588 0.370588
0.418627 0.418627 0.418627
0.482352 0.482352 0.482352
0.584313 0.584313 0.584313
0.263726 0.263726 0.263726
0.259804 0.259804 0.259804
0.282844 0.282844 0.282844
0.357843 0.357843 0.357843
0.438235 0.438235 0.438235
0.476961 0.476961 0.476961
0.521078 0.521078 0.521078
0.581863 0.581863 0.581863
0.669118 0.669118 0.669118
0.386274 0.386274 0.386274
0.382353 0.382353 0.382353
0.365686 0.365686 0.365686
0.422059 0.422059 0.422059
0.492157 0.492157 0.492157
0.584313 0.584313 0.584313
0.624510 0.624510 0.624510
0.686765 0.686765 0.686765
0.758823 0.758823 0.758823
0.493137 0.493137 0.493137
0.497059 0.497059 0.497059
0.478431 0.478431 0.478431
0.494608 0.494608 0.494608
0.555882 0.555882 0.555882
0.630392 0.630392 0.630392
0.724020 0.724020 0.724020
0.774510 0.774510 0.774510
0.842157 0.842157 0.842157
0.628431 0.628431 0.628431
0.630392 0.630392 0.630392
0.615687 0.615687 0.615687
0.597549 0.597549 0.597549
0.650000 0.650000 0.650000
0.708823 0.708823 0.708823
0.768628 0.768628 0.768628
0.850000 0.850000 0.850000
0.907843 0.907843 0.907843
0.780882 0.780882 0.780882
0.781372 0.781372 0.781372
0.773529 0.773529 0.773529
0.761274 0.761274 0.761274
0.769607 0.769607 0.769607
0.820098 0.820098 0.820098
0.867157 0.867157 0.867157
0.910784 0.910784 0.910784
0.956863 0.956863 0.956863
0.929412 0.929412 0.929412
0.929412 0.929412 0.929412
0.926471 0.926471 0.926471
0.921569 0.921569 0.921569
0.913725 0.913725 0.913725
0.937255 0.937255 0.937255
0.960784 0.960784 0.960784
0.980392 0.980392 0.980392
0.992157 0.992157 0.992157
0.023529 0.023529 0.023529
0.050490 0.050490 0.050490
0.104411 0.104411 0.104411
0.124510 0.124510 0.124510
0.180393 0.180393 0.180393
0.252451 0.252451 0.252451
0.322549 0.322549 0.322549
0.400490 0.400490 0.400490
0.501961 0.501961 0.501961
0.077941 0.077941 0.077941
0.093138 0.093138 0.093138
0.124019 0.124019 0.124019
0.170098 0.170098 0.170098
0.226471 0.226471 0.226471
0.291177 0.291177 0.291177
0.352941 0.352941 0.352941
0.427941 0.427941 0.427941
0.525490 0.525490 0.525490
0.200491 0.200491 0.200491
0.182353 0.182353 0.182353
0.218137 0.218137 0.218137
0.283824 0.283824 0.283824
0.328921 0.328921 0.328921
0.370588 0.370588 0.370588
0.420098 0.420098 0.420098
0.488725 0.488725 0.488725
0.582843 0.582843 0.582843
0.300000 0.300000 0.300000
0.298530 0.298530 0.298530
0.295588 0.295588 0.295588
0.366666 0.366666 0.366666
0.439216 0.439216 0.439216
0.478431 0.478431 0.478431
0.522549 0.522549 0.522549
0.582353 0.582353 0.582353
0.667647 0.667647 0.667647
0.411765 0.411765 0.411765
0.407844 0.407844 0.407844
0.385784 0.385784 0.385784
0.430882 0.430882 0.430882
0.498039 0.498039 0.498039
0.580392 0.580392 0.580392
0.626470 0.626470 0.626470
0.685294 0.685294 0.685294
0.758823 0.758823 0.758823
0.514706 0.514706 0.514706
0.516667 0.516667 0.516667
0.500980 0.500980 0.500980
0.505882 0.505882 0.505882
0.564215 0.564215 0.564215
0.634314 0.634314 0.634314
0.724510 0.724510 0.724510
0.776471 0.776471 0.776471
0.842647 0.842647 0.842647
0.640686 0.640686 0.640686
0.646078 0.646078 0.646078
0.631863 0.631863 0.631863
0.610784 0.610784 0.610784
0.655392 0.655392 0.655392
0.711274 0.711274 0.711274
0.771568 0.771568 0.771568
0.852941 0.852941 0.852941
0.907843 0.907843 0.907843
0.789215 0.789215 0.789215
0.789215 0.789215 0.789215
0.781863 0.781863 0.781863
0.769607 0.769607 0.769607
0.775000 0.775000 0.775000
0.818627 0.818627 0.818627
0.868137 0.868137 0.868137
0.910784 0.910784 0.910784
0.953922 0.953922 0.953922
0.933333 0.933333 0.933333
0.933333 0.933333 0.933333
0.928922 0.928922 0.928922
0.923039 0.923039 0.923039
0.917647 0.917647 0.917647
0.937255 0.937255 0.937255
0.960294 0.960294 0.960294
0.977451 0.977451 0.977451
0.992157 0.992157 0.992157
0.077451 0.077451 0.077451
0.100981 0.100981 0.100981
0.158823 0.158823 0.158823
0.249019 0.249019 0.249019
0.286274 0.286274 0.286274
0.304902 0.304902 0.304902
0.335294 0.335294 0.335294
0.411275 0.411275 0.411275
0.500980 0.500980 0.500980
0.112745 0.112745 0.112745
0.144608 0.144608 0.144608
0.190686 0.190686 0.190686
0.268627 0.268627 0.268627
0.286765 0.286765 0.286765
0.307843 0.307843 0.307843
0.361765 0.361765 0.361765
0.434804 0.434804 0.434804
0.528922 0.528922 0.528922
0.220588 0.220588 0.220588
0.229412 0.229412 0.229412
0.248039 0.248039 0.248039
0.286765 0.286765 0.286765
0.330392 0.330392 0.330392
0.373039 0.373039 0.373039
0.426471 0.426471 0.426471
0.490196 0.490196 0.490196
0.580392 0.580392 0.580392
0.362745 0.362745 0.362745
0.366176 0.366176 0.366176
0.346569 0.346569 0.346569
0.387745 0.387745 0.387745
0.443628 0.443628 0.443628
0.479412 0.479412 0.479412
0.520588 0.520588 0.520588
0.581863 0.581863 0.581863
0.665196 0.665196 0.665196
0.465687 0.465687 0.465687
0.463236 0.463236 0.463236
0.442157 0.442157 0.442157
0.447549 0.447549 0.447549
0.510784 0.510784 0.510784
0.584313 0.584313 0.584313
0.631373 0.631373 0.631373
0.686765 0.686765 0.686765
0.752941 0.752941 0.752941
0.557353 0.557353 0.557353
0.559804 0.559804 0.559804
0.545588 0.545588 0.545588
0.522059 0.522059 0.522059
0.578432 0.578432 0.578432
0.642157 0.642157 0.642157
0.726471 0.726471 0.726471
0.778432 0.778432 0.778432
0.844608 0.844608 0.844608
0.673529 0.673529 0.673529
0.673529 0.673529 0.673529
0.663725 0.663725 0.663725
0.646078 0.646078 0.646078
0.662745 0.662745 0.662745
0.719118 0.719118 0.719118
0.776471 0.776471 0.776471
0.857843 0.857843 0.857843
0.907843 0.907843 0.907843
0.808823 0.808823 0.808823
0.808823 0.808823 0.808823
0.804412 0.804412 0.804412
0.790196 0.790196 0.790196
0.779902 0.779902 0.779902
0.825490 0.825490 0.825490
0.871568 0.871568 0.871568
0.911765 0.911765 0.911765
0.957353 0.957353 0.957353
0.937255 0.937255 0.937255
0.938235 0.938235 0.938235
0.934313 0.934313 0.934313
0.932843 0.932843 0.932843
0.925490 0.925490 0.925490
0.937255 0.937255 0.937255
0.960784 0.960784 0.960784
0.980882 0.980882 0.980882
0.995098 0.995098 0.995098
0.155392 0.155392 0.155392
0.181373 0.181373 0.181373
0.234314 0.234314 0.234314
0.291177 0.291177 0.291177
0.364706 0.364706 0.364706
0.445588 0.445588 0.445588
0.459804 0.459804 0.459804
0.487255 0.487255 0.487255
0.530392 0.530392 0.530392
0.200490 0.200490 0.200490
0.220588 0.220588 0.220588
0.261765 0.261765 0.261765
0.311765 0.311765 0.311765
0.388235 0.388235 0.388235
0.445588 0.445588 0.445588
0.460294 0.460294 0.460294
0.489216 0.489216 0.489216
0.534314 0.534314 0.534314
0.232353 0.232353 0.232353
0.257353 0.257353 0.257353
0.311275 0.311275 0.311275
0.359804 0.359804 0.359804
0.429902 0.429902 0.429902
0.445588 0.445588 0.445588
0.461275 0.461275 0.461275
0.490196 0.490196 0.490196
0.575490 0.575490 0.575490
0.371078 0.371078 0.371078
0.382843 0.382843 0.382843
0.397059 0.397059 0.397059
0.416667 0.416667 0.416667
0.441667 0.441667 0.441667
0.475490 0.475490 0.475490
0.520098 0.520098 0.520098
0.577941 0.577941 0.577941
0.659804 0.659804 0.659804
0.524510 0.524510 0.524510
0.528922 0.528922 0.528922
0.518138 0.518138 0.518138
0.495098 0.495098 0.495098
0.531863 0.531863 0.531863
0.589706 0.589706 0.589706
0.636275 0.636275 0.636275
0.684314 0.684314 0.684314
0.750980 0.750980 0.750980
0.617157 0.617157 0.617157
0.623529 0.623529 0.623529
0.613235 0.613235 0.613235
0.592157 0.592157 0.592157
0.598039 0.598039 0.598039
0.656373 0.656373 0.656373
0.730392 0.730392 0.730392
0.780882 0.780882 0.780882
0.848529 0.848529 0.848529
0.720098 0.720098 0.720098
0.720588 0.720588 0.720588
0.712255 0.712255 0.712255
0.697059 0.697059 0.697059
0.676961 0.676961 0.676961
0.729411 0.729411 0.729411
0.786765 0.786765 0.786765
0.859804 0.859804 0.859804
0.911765 0.911765 0.911765
0.836274 0.836274 0.836274
0.838726 0.838726 0.838726
0.832353 0.832353 0.832353
0.822059 0.822059 0.822059
0.804902 0.804902 0.804902
0.829412 0.829412 0.829412
0.875000 0.875000 0.875000
0.918137 0.918137 0.918137
0.962745 0.962745 0.962745
0.949020 0.949020 0.949020
0.949510 0.949510 0.949510
0.948530 0.948530 0.948530
0.945098 0.945098 0.945098
0.937255 0.937255 0.937255
0.937255 0.937255 0.937255
0.960784 0.960784 0.960784
0.980392 0.980392 0.980392
0.992157 0.992157 0.992157
0.256863 0.256863 0.256863
0.274509 0.274509 0.274509
0.312746 0.312746 0.312746
0.369118 0.369118 0.369118
0.419608 0.419608 0.419608
0.473529 0.473529 0.473529
0.588235 0.588235 0.588235
0.631373 0.631373 0.631373
0.674509 0.674509 0.674509
0.288235 0.288235 0.288235
0.303431 0.303431 0.303431
0.338725 0.338725 0.338725
0.389706 0.389706 0.389706
0.435295 0.435295 0.435295
0.489216 0.489216 0.489216
0.601961 0.601961 0.601961
0.631373 0.631373 0.631373
0.678432 0.678432 0.678432
0.333333 0.333333 0.333333
0.355882 0.355882 0.355882
0.383333 0.383333 0.383333
0.423039 0.423039 0.423039
0.465686 0.465686 0.465686
0.522059 0.522059 0.522059
0.608824 0.608824 0.608824
0.630882 0.630882 0.630882
0.673530 0.673530 0.673530
0.381373 0.381373 0.381373
0.396569 0.396569 0.396569
0.409314 0.409314 0.409314
0.467647 0.467647 0.467647
0.508333 0.508333 0.508333
0.574020 0.574020 0.574020
0.601471 0.601471 0.601471
0.619607 0.619607 0.619607
0.658824 0.658824 0.658824
0.515686 0.515686 0.515686
0.523039 0.523039 0.523039
0.531373 0.531373 0.531373
0.545098 0.545098 0.545098
0.560785 0.560785 0.560785
0.590196 0.590196 0.590196
0.624510 0.624510 0.624510
0.671079 0.671079 0.671079
0.733333 0.733333 0.733333
0.672059 0.672059 0.672059
0.679902 0.679902 0.679902
0.674019 0.674019 0.674019
0.666176 0.666176 0.666176
0.642157 0.642157 0.642157
0.675980 0.675980 0.675980
0.735784 0.735784 0.735784
0.781863 0.781863 0.781863
0.838725 0.838725 0.838725
0.768628 0.768628 0.768628
0.772549 0.772549 0.772549
0.769608 0.769608 0.769608
0.756863 0.756863 0.756863
0.736274 0.736274 0.736274
0.742157 0.742157 0.742157
0.800000 0.800000 0.800000
0.865196 0.865196 0.865196
0.914706 0.914706 0.914706
0.873039 0.873039 0.873039
0.875490 0.875490 0.875490
0.869118 0.869118 0.869118
0.861275 0.861275 0.861275
0.848039 0.848039 0.848039
0.836274 0.836274 0.836274
0.880882 0.880882 0.880882
0.924020 0.924020 0.924020
0.968627 0.968627 0.968627
0.962745 0.962745 0.962745
0.964706 0.964706 0.964706
0.960784 0.960784 0.960784
0.958824 0.958824 0.958824
0.952941 0.952941 0.952941
0.945098 0.945098 0.945098
0.961765 0.961765 0.961765
0.984314 0.984314 0.984314
0.992157 0.992157 0.992157
0.358333 0.358333 0.358333
0.371568 0.371568 0.371568
0.399019 0.399019 0.399019
0.447059 0.447059 0.447059
0.499510 0.499510 0.499510
0.542647 0.542647 0.542647
0.584804 0.584804 0.584804
0.702941 0.702941 0.702941
0.805392 0.805392 0.805392
0.381373 0.381373 0.381373
0.397059 0.397059 0.397059
0.423039 0.423039 0.423039
0.462255 0.462255 0.462255
0.511275 0.511275 0.511275
0.554412 0.554412 0.554412
0.600490 0.600490 0.600490
0.712745 0.712745 0.712745
0.806863 0.806863 0.806863
0.425980 0.425980 0.425980
0.435785 0.435785 0.435785
0.457844 0.457844 0.457844
0.492157 0.492157 0.492157
0.536764 0.536764 0.536764
0.578432 0.578432 0.578432
0.627451 0.627451 0.627451
0.734804 0.734804 0.734804
0.803922 0.803922 0.803922
0.436765 0.436765 0.436765
0.461275 0.461275 0.461275
0.498529 0.498529 0.498529
0.530882 0.530882 0.530882
0.573529 0.573529 0.573529
0.615686 0.615686 0.615686
0.666176 0.666176 0.666176
0.761765 0.761765 0.761765
0.800000 0.800000 0.800000
0.529412 0.529412 0.529412
0.535294 0.535294 0.535294
0.545098 0.545098 0.545098
0.555392 0.555392 0.555392
0.613235 0.613235 0.613235
0.655882 0.655882 0.655882
0.714706 0.714706 0.714706
0.749510 0.749510 0.749510
0.777451 0.777451 0.777451
0.653922 0.653922 0.653922
0.661765 0.661765 0.661765
0.667157 0.667157 0.667157
0.675980 0.675980 0.675980
0.685294 0.685294 0.685294
0.700980 0.700980 0.700980
0.730882 0.730882 0.730882
0.766176 0.766176 0.766176
0.821078 0.821078 0.821078
0.816177 0.816177 0.816177
0.819117 0.819117 0.819117
0.818627 0.818627 0.818627
0.812255 0.812255 0.812255
0.803431 0.803431 0.803431
0.783333 0.783333 0.783333
0.816177 0.816177 0.816177
0.869118 0.869118 0.869118
0.918137 0.918137 0.918137
0.903922 0.903922 0.903922
0.906372 0.906372 0.906372
0.905392 0.905392 0.905392
0.902451 0.902451 0.902451
0.895588 0.895588 0.895588
0.878921 0.878921 0.878921
0.891176 0.891176 0.891176
0.930392 0.930392 0.930392
0.970098 0.970098 0.970098
0.980392 0.980392 0.980392
0.976471 0.976471 0.976471
0.977941 0.977941 0.977941
0.974020 0.974020 0.974020
0.972549 0.972549 0.972549
0.964706 0.964706 0.964706
0.964706 0.964706 0.964706
0.984314 0.984314 0.984314
0.996078 0.996078 0.996078
0.480392 0.480392 0.480392
0.487255 0.487255 0.487255
0.510785 0.510785 0.510785
0.544608 0.544608 0.544608
0.594118 0.594118 0.594118
0.646078 0.646078 0.646078
0.680392 0.680392 0.680392
0.706863 0.706863 0.706863
0.828432 0.828432 0.828432
0.492157 0.492157 0.492157
0.506372 0.506372 0.506372
0.523530 0.523530 0.523530
0.558823 0.558823 0.558823
0.604412 0.604412 0.604412
0.659314 0.659314 0.659314
0.689706 0.689706 0.689706
0.711275 0.711275 0.711275
0.835294 0.835294 0.835294
0.525490 0.525490 0.525490
0.533823 0.533823 0.533823
0.552941 0.552941 0.552941
0.584314 0.584314 0.584314
0.627451 0.627451 0.627451
0.674999 0.674999 0.674999
0.708824 0.708824 0.708824
0.735294 0.735294 0.735294
0.848039 0.848039 0.848039
0.553921 0.553921 0.553921
0.574510 0.574510 0.574510
0.591176 0.591176 0.591176
0.616176 0.616176 0.616176
0.654412 0.654412 0.654412
0.700490 0.700490 0.700490
0.728921 0.728921 0.728921
0.763725 0.763725 0.763725
0.868137 0.868137 0.868137
0.550000 0.550000 0.550000
0.567157 0.567157 0.567157
0.597059 0.597059 0.597059
0.645098 0.645098 0.645098
0.685294 0.685294 0.685294
0.724510 0.724510 0.724510
0.756863 0.756863 0.756863
0.803432 0.803432 0.803432
0.893137 0.893137 0.893137
0.673529 0.673529 0.673529
0.681372 0.681372 0.681372
0.688236 0.688236 0.688236
0.693137 0.693137 0.693137
0.700490 0.700490 0.700490
0.757843 0.757843 0.757843
0.797058 0.797058 0.797058
0.849020 0.849020 0.849020
0.889706 0.889706 0.889706
0.789216 0.789216 0.789216
0.798039 0.798039 0.798039
0.799019 0.799019 0.799019
0.802941 0.802941 0.802941
0.811764 0.811764 0.811764
0.825000 0.825000 0.825000
0.841177 0.841177 0.841177
0.865686 0.865686 0.865686
0.903922 0.903922 0.903922
0.933823 0.933823 0.933823
0.934804 0.934804 0.934804
0.935784 0.935784 0.935784
0.935294 0.935294 0.935294
0.933823 0.933823 0.933823
0.926961 0.926961 0.926961
0.914706 0.914706 0.914706
0.941176 0.941176 0.941176
0.972549 0.972549 0.972549
0.988235 0.988235 0.988235
0.988235 0.988235 0.988235
0.986275 0.986275 0.986275
0.988235 0.988235 0.988235
0.985294 0.985294 0.985294
0.985294 0.985294 0.985294
0.980392 0.980392 0.980392
0.984804 0.984804 0.984804
1.000000 1.000000 1.000000
0.631863 0.631863 0.631863
0.636274 0.636274 0.636274
0.654412 0.654412 0.654412
0.679412 0.679412 0.679412
0.714706 0.714706 0.714706
0.755392 0.755392 0.755392
0.797549 0.797549 0.797549
0.824510 0.824510 0.824510
0.848039 0.848039 0.848039
0.636274 0.636274 0.636274
0.648039 0.648039 0.648039
0.662745 0.662745 0.662745
0.687745 0.687745 0.687745
0.723529 0.723529 0.723529
0.756863 0.756863 0.756863
0.804902 0.804902 0.804902
0.825000 0.825000 0.825000
0.851470 0.851470 0.851470
0.659314 0.659314 0.659314
0.666667 0.666667 0.666667
0.682353 0.682353 0.682353
0.705392 0.705392 0.705392
0.737255 0.737255 0.737255
0.775000 0.775000 0.775000
0.812745 0.812745 0.812745
0.836765 0.836765 0.836765
0.857843 0.857843 0.857843
0.679902 0.679902 0.679902
0.691176 0.691176 0.691176
0.704902 0.704902 0.704902
0.728431 0.728431 0.728431
0.755882 0.755882 0.755882
0.791176 0.791176 0.791176
0.826961 0.826961 0.826961
0.851961 0.851961 0.851961
0.871078 0.871078 0.871078
0.685294 0.685294 0.685294
0.697059 0.697059 0.697059
0.718627 0.718627 0.718627
0.748039 0.748039 0.748039
0.775000 0.775000 0.775000
0.806373 0.806373 0.806373
0.842157 0.842157 0.842157
0.867157 0.867157 0.867157
0.894118 0.894118 0.894118
0.708824 0.708824 0.708824
0.713726 0.713726 0.713726
0.711274 0.711274 0.711274
0.735294 0.735294 0.735294
0.785294 0.785294 0.785294
0.825490 0.825490 0.825490
0.861275 0.861275 0.861275
0.890686 0.890686 0.890686
0.926471 0.926471 0.926471
0.826960 0.826960 0.826960
0.827451 0.827451 0.827451
0.833334 0.833334 0.833334
0.832353 0.832353 0.832353
0.836764 0.836764 0.836764
0.838235 0.838235 0.838235
0.888236 0.888236 0.888236
0.919608 0.919608 0.919608
0.957843 0.957843 0.957843
0.921569 0.921569 0.921569
0.921079 0.921079 0.921079
0.922059 0.922059 0.922059
0.924020 0.924020 0.924020
0.928431 0.928431 0.928431
0.935294 0.935294 0.935294
0.942647 0.942647 0.942647
0.953431 0.953431 0.953431
0.969117 0.969117 0.969117
0.995588 0.995588 0.995588
0.995098 0.995098 0.995098
0.993627 0.993627 0.993627
0.996078 0.996078 0.996078
0.996078 0.996078 0.996078
0.995098 0.995098 0.995098
0.996078 0.996078 0.996078
0.988725 0.988725 0.988725
1.000000 1.000000 1.000000
0.811765 0.811765 0.811765
0.815686 0.815686 0.815686
0.824510 0.824510 0.824510
0.841667 0.841667 0.841667
0.862745 0.862745 0.862745
0.887745 0.887745 0.887745
0.910784 0.910784 0.910784
0.937255 0.937255 0.937255
0.949020 0.949020 0.949020
0.811765 0.811765 0.811765
0.820098 0.820098 0.820098
0.826961 0.826961 0.826961
0.845588 0.845588 0.845588
0.863235 0.863235 0.863235
0.887745 0.887745 0.887745
0.910784 0.910784 0.910784
0.933823 0.933823 0.933823
0.952451 0.952451 0.952451
0.825490 0.825490 0.825490
0.831373 0.831373 0.831373
0.838235 0.838235 0.838235
0.853921 0.853921 0.853921
0.873530 0.873530 0.873530
0.894118 0.894118 0.894118
0.917647 0.917647 0.917647
0.941176 0.941176 0.941176
0.951961 0.951961 0.951961
0.831373 0.831373 0.831373
0.838236 0.838236 0.838236
0.847059 0.847059 0.847059
0.862745 0.862745 0.862745
0.880392 0.880392 0.880392
0.900981 0.900981 0.900981
0.922549 0.922549 0.922549
0.947549 0.947549 0.947549
0.960784 0.960784 0.960784
0.841176 0.841176 0.841176
0.849020 0.849020 0.849020
0.855882 0.855882 0.855882
0.870588 0.870588 0.870588
0.888235 0.888235 0.888235
0.911764 0.911764 0.911764
0.930392 0.930392 0.930392
0.954902 0.954902 0.954902
0.966666 0.966666 0.966666
0.815686 0.815686 0.815686
0.829412 0.829412 0.829412
0.843137 0.843137 0.843137
0.864216 0.864216 0.864216
0.894608 0.894608 0.894608
0.917647 0.917647 0.917647
0.941176 0.941176 0.941176
0.962255 0.962255 0.962255
0.976471 0.976471 0.976471
0.884314 0.884314 0.884314
0.884314 0.884314 0.884314
0.886274 0.886274 0.886274
0.880392 0.880392 0.880392
0.879412 0.879412 0.879412
0.921569 0.921569 0.921569
0.950981 0.950981 0.950981
0.976961 0.976961 0.976961
0.984314 0.984314 0.984314
0.964706 0.964706 0.964706
0.961274 0.961274 0.961274
0.964706 0.964706 0.964706
0.964706 0.964706 0.964706
0.961764 0.961764 0.961764
0.965196 0.965196 0.965196
0.961274 0.961274 0.961274
0.984314 0.984314 0.984314
0.996078 0.996078 0.996078
0.992157 0.992157 0.992157
0.992157 0.992157 0.992157
0.996078 0.996078 0.996078
0.993627 0.993627 0.993627
0.996078 0.996078 0.996078
0.996078 0.996078 0.996078
0.996078 0.996078 0.996078
1.000000 1.000000 1.000000
1.000000 1.000000 1.000000
