Black-and-White/Kodak/Kodak T-Max 100 65x.cube
TITLE "Kodak T-Max 100"
LUT_3D_SIZE 65
DOMAIN_MIN 0.000000 0.000000 0.000000
DOMAIN_MAX 1.000000 1.000000 1.000000
0.000000 0.000000 0.000000
0.000000 0.000000 0.000000
0.000000 0.000000 0.000000
0.000000 0.000000 0.000000
0.000000 0.000000 0.000000
0.000000 0.000000 0.000000
0.000000 0.000000 0.000000
0.000000 0.000000 0.000000
0.000000 0.000000 0.000000
0.000000 0.000000 0.000000
0.000000 0.000000 0.000000
0.003922 0.003922 0.003922
0.003922 0.003922 0.003922
0.003922 0.003922 0.003922
0.003922 0.003922 0.003922
0.003922 0.003922 0.003922
0.003922 0.003922 0.003922
0.003922 0.003922 0.003922
0.007843 0.007843 0.007843
0.007843 0.007843 0.007843
0.007843 0.007843 0.007843
0.011765 0.011765 0.011765
0.011765 0.011765 0.011765
0.011765 0.011765 0.011765
0.015686 0.015686 0.015686
0.015686 0.015686 0.015686
0.016054 0.016054 0.016054
0.019608 0.019608 0.019608
0.021814 0.021814 0.021814
0.023529 0.023529 0.023529
0.027451 0.027451 0.027451
0.028493 0.028493 0.028493
0.033334 0.033334 0.033334
0.038174 0.038174 0.038174
0.039216 0.039216 0.039216
0.043934 0.043934 0.043934
0.048774 0.048774 0.048774
0.053615 0.053615 0.053615
0.058456 0.058456 0.058456
0.063297 0.063297 0.063297
0.068137 0.068137 0.068137
0.072978 0.072978 0.072978
0.078431 0.078431 0.078431
0.082659 0.082659 0.082659
0.091422 0.091422 0.091422
0.096262 0.096262 0.096262
0.101961 0.101961 0.101961
0.109865 0.109865 0.109865
0.114706 0.114706 0.114706
0.123468 0.123468 0.123468
0.129412 0.129412 0.129412
0.137071 0.137071 0.137071
0.145098 0.145098 0.145098
0.150674 0.150674 0.150674
0.159436 0.159436 0.159436
0.168198 0.168198 0.168198
0.176961 0.176961 0.176961
0.181801 0.181801 0.181801
0.190564 0.190564 0.190564
0.203248 0.203248 0.203248
0.212010 0.212010 0.212010
0.220772 0.220772 0.220772
0.231618 0.231618 0.231618
0.242218 0.242218 0.242218
0.254902 0.254902 0.254902
0.000919 0.000919 0.000919
0.003922 0.003922 0.003922
0.004841 0.004841 0.004841
0.004841 0.004841 0.004841
0.004841 0.004841 0.004841
0.007843 0.007843 0.007843
0.009436 0.009436 0.009436
0.008762 0.008762 0.008762
0.008762 0.008762 0.008762
0.008272 0.008272 0.008272
0.012684 0.012684 0.012684
0.012684 0.012684 0.012684
0.012684 0.012684 0.012684
0.016605 0.016605 0.016605
0.016605 0.016605 0.016605
0.016605 0.016605 0.016605
0.017524 0.017524 0.017524
0.020527 0.020527 0.020527
0.021446 0.021446 0.021446
0.024448 0.024448 0.024448
0.024448 0.024448 0.024448
0.025367 0.025367 0.025367
0.029289 0.029289 0.029289
0.032292 0.032292 0.032292
0.033211 0.033211 0.033211
0.039583 0.039583 0.039583
0.040135 0.040135 0.040135
0.041054 0.041054 0.041054
0.046262 0.046262 0.046262
0.044975 0.044975 0.044975
0.052818 0.052818 0.052818
0.053860 0.053860 0.053860
0.056740 0.056740 0.056740
0.060662 0.060662 0.060662
0.064583 0.064583 0.064583
0.069302 0.069302 0.069302
0.074142 0.074142 0.074142
0.078983 0.078983 0.078983
0.086826 0.086826 0.086826
0.088665 0.088665 0.088665
0.093505 0.093505 0.093505
0.101348 0.101348 0.101348
0.103799 0.103799 0.103799
0.111642 0.111642 0.111642
0.116789 0.116789 0.116789
0.124633 0.124633 0.124633
0.127328 0.127328 0.127328
0.134313 0.134313 0.134313
0.140074 0.140074 0.140074
0.146936 0.146936 0.146936
0.153676 0.153676 0.153676
0.161520 0.161520 0.161520
0.167280 0.167280 0.167280
0.175122 0.175122 0.175122
0.180882 0.180882 0.180882
0.189644 0.189644 0.189644
0.197487 0.197487 0.197487
0.206250 0.206250 0.206250
0.215013 0.215013 0.215013
0.223775 0.223775 0.223775
0.232537 0.232537 0.232537
0.242218 0.242218 0.242218
0.250981 0.250981 0.250981
0.265748 0.265748 0.265748
0.275429 0.275429 0.275429
0.005760 0.005760 0.005760
0.009681 0.009681 0.009681
0.009681 0.009681 0.009681
0.009681 0.009681 0.009681
0.011765 0.011765 0.011765
0.013603 0.013603 0.013603
0.013603 0.013603 0.013603
0.013603 0.013603 0.013603
0.019118 0.019118 0.019118
0.017524 0.017524 0.017524
0.017034 0.017034 0.017034
0.021875 0.021875 0.021875
0.021446 0.021446 0.021446
0.019792 0.019792 0.019792
0.025367 0.025367 0.025367
0.025367 0.025367 0.025367
0.028309 0.028309 0.028309
0.029289 0.029289 0.029289
0.030147 0.030147 0.030147
0.033211 0.033211 0.033211
0.035907 0.035907 0.035907
0.037132 0.037132 0.037132
0.041054 0.041054 0.041054
0.042586 0.042586 0.042586
0.044975 0.044975 0.044975
0.046813 0.046813 0.046813
0.049265 0.049265 0.049265
0.054657 0.054657 0.054657
0.056740 0.056740 0.056740
0.058578 0.058578 0.058578
0.064583 0.064583 0.064583
0.065625 0.065625 0.065625
0.070466 0.070466 0.070466
0.075306 0.075306 0.075306
0.080147 0.080147 0.080147
0.081066 0.081066 0.081066
0.088113 0.088113 0.088113
0.092034 0.092034 0.092034
0.099510 0.099510 0.099510
0.103799 0.103799 0.103799
0.107720 0.107720 0.107720
0.114032 0.114032 0.114032
0.118873 0.118873 0.118873
0.123714 0.123714 0.123714
0.128554 0.128554 0.128554
0.135171 0.135171 0.135171
0.142157 0.142157 0.142157
0.146997 0.146997 0.146997
0.151839 0.151839 0.151839
0.160601 0.160601 0.160601
0.165441 0.165441 0.165441
0.170465 0.170465 0.170465
0.179045 0.179045 0.179045
0.186152 0.186152 0.186152
0.192647 0.192647 0.192647
0.201409 0.201409 0.201409
0.209681 0.209681 0.209681
0.215013 0.215013 0.215013
0.223775 0.223775 0.223775
0.232537 0.232537 0.232537
0.241544 0.241544 0.241544
0.253983 0.253983 0.253983
0.262746 0.262746 0.262746
0.274510 0.274510 0.274510
0.284191 0.284191 0.284191
0.011765 0.011765 0.011765
0.014522 0.014522 0.014522
0.014522 0.014522 0.014522
0.015686 0.015686 0.015686
0.019363 0.019363 0.019363
0.018444 0.018444 0.018444
0.017279 0.017279 0.017279
0.022365 0.022365 0.022365
0.022365 0.022365 0.022365
0.023529 0.023529 0.023529
0.026287 0.026287 0.026287
0.026287 0.026287 0.026287
0.027451 0.027451 0.027451
0.030209 0.030209 0.030209
0.034130 0.034130 0.034130
0.034130 0.034130 0.034130
0.034130 0.034130 0.034130
0.038052 0.038052 0.038052
0.038909 0.038909 0.038909
0.041973 0.041973 0.041973
0.044669 0.044669 0.044669
0.045895 0.045895 0.045895
0.049816 0.049816 0.049816
0.051348 0.051348 0.051348
0.053738 0.053738 0.053738
0.057660 0.057660 0.057660
0.061581 0.061581 0.061581
0.062868 0.062868 0.062868
0.065503 0.065503 0.065503
0.069424 0.069424 0.069424
0.073346 0.073346 0.073346
0.077267 0.077267 0.077267
0.079228 0.079228 0.079228
0.084069 0.084069 0.084069
0.088909 0.088909 0.088909
0.092954 0.092954 0.092954
0.096875 0.096875 0.096875
0.100797 0.100797 0.100797
0.108272 0.108272 0.108272
0.112561 0.112561 0.112561
0.116483 0.116483 0.116483
0.122794 0.122794 0.122794
0.127635 0.127635 0.127635
0.132476 0.132476 0.132476
0.137316 0.137316 0.137316
0.143934 0.143934 0.143934
0.147856 0.147856 0.147856
0.153002 0.153002 0.153002
0.160601 0.160601 0.160601
0.167463 0.167463 0.167463
0.174204 0.174204 0.174204
0.179044 0.179044 0.179044
0.185049 0.185049 0.185049
0.192647 0.192647 0.192647
0.201409 0.201409 0.201409
0.206679 0.206679 0.206679
0.215013 0.215013 0.215013
0.223775 0.223775 0.223775
0.232537 0.232537 0.232537
0.241299 0.241299 0.241299
0.250062 0.250062 0.250062
0.257230 0.257230 0.257230
0.271508 0.271508 0.271508
0.280270 0.280270 0.280270
0.292954 0.292954 0.292954
0.019363 0.019363 0.019363
0.019363 0.019363 0.019363
0.019608 0.019608 0.019608
0.023284 0.023284 0.023284
0.023284 0.023284 0.023284
0.023529 0.023529 0.023529
0.027206 0.027206 0.027206
0.027206 0.027206 0.027206
0.027451 0.027451 0.027451
0.031128 0.031128 0.031128
0.028799 0.028799 0.028799
0.035049 0.035049 0.035049
0.035049 0.035049 0.035049
0.038971 0.038971 0.038971
0.036397 0.036397 0.036397
0.042892 0.042892 0.042892
0.042892 0.042892 0.042892
0.046998 0.046998 0.046998
0.043995 0.043995 0.043995
0.050735 0.050735 0.050735
0.053432 0.053432 0.053432
0.054657 0.054657 0.054657
0.058579 0.058579 0.058579
0.060110 0.060110 0.060110
0.062500 0.062500 0.062500
0.066422 0.066422 0.066422
0.070343 0.070343 0.070343
0.071630 0.071630 0.071630
0.074265 0.074265 0.074265
0.078186 0.078186 0.078186
0.082108 0.082108 0.082108
0.086030 0.086030 0.086030
0.089951 0.089951 0.089951
0.092831 0.092831 0.092831
0.097671 0.097671 0.097671
0.101716 0.101716 0.101716
0.105637 0.105637 0.105637
0.109559 0.109559 0.109559
0.117034 0.117034 0.117034
0.121324 0.121324 0.121324
0.125245 0.125245 0.125245
0.129167 0.129167 0.129167
0.136397 0.136397 0.136397
0.137561 0.137561 0.137561
0.146079 0.146079 0.146079
0.152696 0.152696 0.152696
0.156618 0.156618 0.156618
0.164461 0.164461 0.164461
0.169363 0.169363 0.169363
0.174204 0.174204 0.174204
0.179289 0.179289 0.179289
0.187806 0.187806 0.187806
0.192646 0.192646 0.192646
0.201409 0.201409 0.201409
0.207598 0.207598 0.207598
0.215012 0.215012 0.215012
0.223775 0.223775 0.223775
0.232536 0.232536 0.232536
0.237623 0.237623 0.237623
0.250061 0.250061 0.250061
0.258823 0.258823 0.258823
0.267585 0.267585 0.267585
0.274755 0.274755 0.274755
0.289032 0.289032 0.289032
0.298039 0.298039 0.298039
0.024203 0.024203 0.024203
0.028125 0.028125 0.028125
0.028125 0.028125 0.028125
0.028125 0.028125 0.028125
0.032047 0.032047 0.032047
0.032047 0.032047 0.032047
0.033640 0.033640 0.033640
0.035968 0.035968 0.035968
0.035968 0.035968 0.035968
0.039890 0.039890 0.039890
0.039890 0.039890 0.039890
0.043811 0.043811 0.043811
0.043811 0.043811 0.043811
0.047733 0.047733 0.047733
0.047733 0.047733 0.047733
0.051654 0.051654 0.051654
0.051654 0.051654 0.051654
0.055576 0.055576 0.055576
0.056434 0.056434 0.056434
0.059498 0.059498 0.059498
0.062194 0.062194 0.062194
0.063419 0.063419 0.063419
0.067341 0.067341 0.067341
0.068873 0.068873 0.068873
0.071262 0.071262 0.071262
0.075184 0.075184 0.075184
0.079105 0.079105 0.079105
0.080392 0.080392 0.080392
0.083027 0.083027 0.083027
0.086949 0.086949 0.086949
0.090870 0.090870 0.090870
0.094792 0.094792 0.094792
0.098713 0.098713 0.098713
0.101593 0.101593 0.101593
0.106434 0.106434 0.106434
0.110478 0.110478 0.110478
0.114399 0.114399 0.114399
0.118321 0.118321 0.118321
0.122243 0.122243 0.122243
0.130086 0.130086 0.130086
0.134007 0.134007 0.134007
0.137929 0.137929 0.137929
0.141850 0.141850 0.141850
0.149694 0.149694 0.149694
0.153615 0.153615 0.153615
0.159682 0.159682 0.159682
0.164521 0.164521 0.164521
0.169362 0.169362 0.169362
0.177145 0.177145 0.177145
0.182965 0.182965 0.182965
0.187807 0.187807 0.187807
0.192831 0.192831 0.192831
0.201409 0.201409 0.201409
0.209498 0.209498 0.209498
0.215013 0.215013 0.215013
0.223775 0.223775 0.223775
0.228615 0.228615 0.228615
0.237377 0.237377 0.237377
0.246139 0.246139 0.246139
0.254902 0.254902 0.254902
0.263664 0.263664 0.263664
0.272426 0.272426 0.272426
0.285110 0.285110 0.285110
0.293872 0.293872 0.293872
0.306556 0.306556 0.306556
0.032966 0.032966 0.032966
0.036887 0.036887 0.036887
0.036887 0.036887 0.036887
0.039644 0.039644 0.039644
0.040809 0.040809 0.040809
0.040809 0.040809 0.040809
0.042402 0.042402 0.042402
0.044730 0.044730 0.044730
0.044730 0.044730 0.044730
0.048652 0.048652 0.048652
0.048652 0.048652 0.048652
0.052573 0.052573 0.052573
0.052573 0.052573 0.052573
0.056495 0.056495 0.056495
0.057598 0.057598 0.057598
0.060417 0.060417 0.060417
0.060417 0.060417 0.060417
0.064338 0.064338 0.064338
0.065196 0.065196 0.065196
0.068260 0.068260 0.068260
0.070956 0.070956 0.070956
0.072181 0.072181 0.072181
0.076103 0.076103 0.076103
0.077635 0.077635 0.077635
0.080024 0.080024 0.080024
0.083946 0.083946 0.083946
0.087868 0.087868 0.087868
0.089155 0.089155 0.089155
0.093995 0.093995 0.093995
0.095711 0.095711 0.095711
0.099632 0.099632 0.099632
0.103554 0.103554 0.103554
0.107475 0.107475 0.107475
0.111397 0.111397 0.111397
0.115196 0.115196 0.115196
0.119240 0.119240 0.119240
0.123162 0.123162 0.123162
0.127083 0.127083 0.127083
0.131005 0.131005 0.131005
0.138848 0.138848 0.138848
0.142769 0.142769 0.142769
0.146691 0.146691 0.146691
0.150613 0.150613 0.150613
0.154840 0.154840 0.154840
0.162377 0.162377 0.162377
0.168444 0.168444 0.168444
0.173284 0.173284 0.173284
0.178126 0.178126 0.178126
0.182965 0.182965 0.182965
0.189828 0.189828 0.189828
0.196569 0.196569 0.196569
0.203738 0.203738 0.203738
0.209436 0.209436 0.209436
0.215012 0.215012 0.215012
0.223775 0.223775 0.223775
0.230944 0.230944 0.230944
0.237377 0.237377 0.237377
0.246139 0.246139 0.246139
0.254902 0.254902 0.254902
0.263665 0.263665 0.263665
0.272426 0.272426 0.272426
0.281189 0.281189 0.281189
0.289951 0.289951 0.289951
0.304044 0.304044 0.304044
0.311397 0.311397 0.311397
0.044240 0.044240 0.044240
0.045650 0.045650 0.045650
0.045650 0.045650 0.045650
0.048161 0.048161 0.048161
0.049571 0.049571 0.049571
0.049571 0.049571 0.049571
0.053493 0.053493 0.053493
0.053493 0.053493 0.053493
0.056924 0.056924 0.056924
0.057415 0.057415 0.057415
0.059926 0.059926 0.059926
0.061336 0.061336 0.061336
0.061336 0.061336 0.061336
0.065258 0.065258 0.065258
0.066360 0.066360 0.066360
0.069179 0.069179 0.069179
0.072120 0.072120 0.072120
0.073101 0.073101 0.073101
0.073958 0.073958 0.073958
0.077022 0.077022 0.077022
0.080944 0.080944 0.080944
0.080944 0.080944 0.080944
0.084866 0.084866 0.084866
0.088787 0.088787 0.088787
0.091299 0.091299 0.091299
0.092709 0.092709 0.092709
0.096630 0.096630 0.096630
0.100552 0.100552 0.100552
0.102757 0.102757 0.102757
0.104473 0.104473 0.104473
0.110906 0.110906 0.110906
0.112316 0.112316 0.112316
0.116238 0.116238 0.116238
0.120160 0.120160 0.120160
0.124081 0.124081 0.124081
0.128003 0.128003 0.128003
0.131924 0.131924 0.131924
0.135846 0.135846 0.135846
0.139767 0.139767 0.139767
0.144240 0.144240 0.144240
0.149081 0.149081 0.149081
0.155454 0.155454 0.155454
0.159375 0.159375 0.159375
0.163602 0.163602 0.163602
0.171140 0.171140 0.171140
0.175062 0.175062 0.175062
0.182047 0.182047 0.182047
0.184375 0.184375 0.184375
0.191727 0.191727 0.191727
0.196569 0.196569 0.196569
0.202513 0.202513 0.202513
0.210172 0.210172 0.210172
0.215013 0.215013 0.215013
0.223775 0.223775 0.223775
0.230025 0.230025 0.230025
0.237378 0.237378 0.237378
0.246139 0.246139 0.246139
0.252389 0.252389 0.252389
0.261152 0.261152 0.261152
0.268505 0.268505 0.268505
0.281189 0.281189 0.281189
0.289952 0.289952 0.289952
0.298714 0.298714 0.298714
0.307476 0.307476 0.307476
0.320160 0.320160 0.320160
0.054412 0.054412 0.054412
0.057844 0.057844 0.057844
0.056250 0.056250 0.056250
0.058334 0.058334 0.058334
0.058334 0.058334 0.058334
0.059007 0.059007 0.059007
0.062255 0.062255 0.062255
0.062255 0.062255 0.062255
0.066177 0.066177 0.066177
0.066177 0.066177 0.066177
0.067524 0.067524 0.067524
0.070098 0.070098 0.070098
0.073285 0.073285 0.073285
0.074020 0.074020 0.074020
0.077941 0.077941 0.077941
0.077941 0.077941 0.077941
0.080882 0.080882 0.080882
0.081863 0.081863 0.081863
0.085785 0.085785 0.085785
0.089216 0.089216 0.089216
0.089706 0.089706 0.089706
0.093321 0.093321 0.093321
0.097059 0.097059 0.097059
0.097549 0.097549 0.097549
0.100000 0.100000 0.100000
0.101471 0.101471 0.101471
0.105392 0.105392 0.105392
0.109314 0.109314 0.109314
0.111519 0.111519 0.111519
0.116667 0.116667 0.116667
0.117279 0.117279 0.117279
0.121079 0.121079 0.121079
0.125000 0.125000 0.125000
0.128922 0.128922 0.128922
0.132843 0.132843 0.132843
0.136765 0.136765 0.136765
0.140686 0.140686 0.140686
0.144608 0.144608 0.144608
0.148530 0.148530 0.148530
0.153003 0.153003 0.153003
0.157843 0.157843 0.157843
0.162684 0.162684 0.162684
0.168137 0.168137 0.168137
0.172365 0.172365 0.172365
0.177206 0.177206 0.177206
0.183824 0.183824 0.183824
0.187745 0.187745 0.187745
0.195588 0.195588 0.195588
0.197059 0.197059 0.197059
0.205331 0.205331 0.205331
0.211275 0.211275 0.211275
0.218934 0.218934 0.218934
0.223775 0.223775 0.223775
0.229106 0.229106 0.229106
0.237378 0.237378 0.237378
0.246140 0.246140 0.246140
0.254412 0.254412 0.254412
0.259742 0.259742 0.259742
0.268505 0.268505 0.268505
0.277267 0.277267 0.277267
0.286029 0.286029 0.286029
0.292524 0.292524 0.292524
0.307476 0.307476 0.307476
0.316238 0.316238 0.316238
0.325490 0.325490 0.325490
0.063603 0.063603 0.063603
0.067096 0.067096 0.067096
0.067096 0.067096 0.067096
0.067096 0.067096 0.067096
0.067525 0.067525 0.067525
0.071017 0.071017 0.071017
0.071017 0.071017 0.071017
0.071446 0.071446 0.071446
0.074939 0.074939 0.074939
0.075368 0.075368 0.075368
0.078860 0.078860 0.078860
0.078860 0.078860 0.078860
0.082047 0.082047 0.082047
0.082782 0.082782 0.082782
0.086704 0.086704 0.086704
0.086704 0.086704 0.086704
0.090625 0.090625 0.090625
0.090625 0.090625 0.090625
0.094547 0.094547 0.094547
0.096324 0.096324 0.096324
0.098468 0.098468 0.098468
0.102083 0.102083 0.102083
0.103003 0.103003 0.103003
0.106311 0.106311 0.106311
0.108762 0.108762 0.108762
0.110233 0.110233 0.110233
0.114154 0.114154 0.114154
0.118076 0.118076 0.118076
0.120282 0.120282 0.120282
0.121998 0.121998 0.121998
0.126041 0.126041 0.126041
0.129841 0.129841 0.129841
0.133762 0.133762 0.133762
0.136641 0.136641 0.136641
0.141483 0.141483 0.141483
0.145527 0.145527 0.145527
0.149449 0.149449 0.149449
0.153370 0.153370 0.153370
0.160416 0.160416 0.160416
0.161764 0.161764 0.161764
0.166606 0.166606 0.166606
0.171446 0.171446 0.171446
0.176286 0.176286 0.176286
0.180821 0.180821 0.180821
0.184743 0.184743 0.184743
0.190808 0.190808 0.190808
0.195650 0.195650 0.195650
0.200490 0.200490 0.200490
0.208823 0.208823 0.208823
0.212194 0.212194 0.212194
0.218933 0.218933 0.218933
0.227267 0.227267 0.227267
0.231802 0.231802 0.231802
0.237377 0.237377 0.237377
0.246139 0.246139 0.246139
0.254473 0.254473 0.254473
0.259743 0.259743 0.259743
0.268505 0.268505 0.268505
0.277268 0.277268 0.277268
0.285601 0.285601 0.285601
0.294792 0.294792 0.294792
0.303554 0.303554 0.303554
0.312316 0.312316 0.312316
0.321078 0.321078 0.321078
0.333762 0.333762 0.333762
0.075858 0.075858 0.075858
0.075858 0.075858 0.075858
0.077696 0.077696 0.077696
0.077206 0.077206 0.077206
0.079779 0.079779 0.079779
0.079779 0.079779 0.079779
0.081373 0.081373 0.081373
0.083701 0.083701 0.083701
0.083701 0.083701 0.083701
0.084130 0.084130 0.084130
0.087623 0.087623 0.087623
0.089890 0.089890 0.089890
0.091544 0.091544 0.091544
0.091728 0.091728 0.091728
0.095466 0.095466 0.095466
0.097488 0.097488 0.097488
0.099387 0.099387 0.099387
0.099387 0.099387 0.099387
0.103309 0.103309 0.103309
0.104657 0.104657 0.104657
0.107230 0.107230 0.107230
0.111152 0.111152 0.111152
0.111765 0.111765 0.111765
0.115073 0.115073 0.115073
0.117524 0.117524 0.117524
0.118995 0.118995 0.118995
0.122917 0.122917 0.122917
0.126838 0.126838 0.126838
0.129044 0.129044 0.129044
0.130760 0.130760 0.130760
0.134803 0.134803 0.134803
0.138603 0.138603 0.138603
0.142524 0.142524 0.142524
0.145404 0.145404 0.145404
0.150245 0.150245 0.150245
0.154289 0.154289 0.154289
0.158211 0.158211 0.158211
0.162132 0.162132 0.162132
0.165686 0.165686 0.165686
0.169975 0.169975 0.169975
0.173897 0.173897 0.173897
0.177819 0.177819 0.177819
0.185049 0.185049 0.185049
0.189583 0.189583 0.189583
0.193505 0.193505 0.193505
0.197426 0.197426 0.197426
0.204411 0.204411 0.204411
0.209252 0.209252 0.209252
0.214093 0.214093 0.214093
0.218933 0.218933 0.218933
0.227696 0.227696 0.227696
0.232536 0.232536 0.232536
0.240564 0.240564 0.240564
0.246139 0.246139 0.246139
0.253554 0.253554 0.253554
0.259742 0.259742 0.259742
0.267157 0.267157 0.267157
0.275919 0.275919 0.275919
0.282108 0.282108 0.282108
0.290871 0.290871 0.290871
0.299632 0.299632 0.299632
0.308211 0.308211 0.308211
0.319731 0.319731 0.319731
0.329840 0.329840 0.329840
0.341176 0.341176 0.341176
0.084620 0.084620 0.084620
0.085539 0.085539 0.085539
0.088542 0.088542 0.088542
0.088542 0.088542 0.088542
0.088542 0.088542 0.088542
0.089216 0.089216 0.089216
0.092463 0.092463 0.092463
0.092463 0.092463 0.092463
0.094730 0.094730 0.094730
0.096385 0.096385 0.096385
0.096385 0.096385 0.096385
0.098652 0.098652 0.098652
0.100306 0.100306 0.100306
0.104228 0.104228 0.104228
0.104228 0.104228 0.104228
0.106250 0.106250 0.106250
0.108149 0.108149 0.108149
0.110416 0.110416 0.110416
0.112071 0.112071 0.112071
0.115992 0.115992 0.115992
0.115992 0.115992 0.115992
0.119914 0.119914 0.119914
0.123836 0.123836 0.123836
0.123836 0.123836 0.123836
0.127757 0.127757 0.127757
0.131127 0.131127 0.131127
0.131679 0.131679 0.131679
0.135600 0.135600 0.135600
0.137806 0.137806 0.137806
0.142647 0.142647 0.142647
0.143566 0.143566 0.143566
0.147365 0.147365 0.147365
0.151287 0.151287 0.151287
0.154167 0.154167 0.154167
0.159007 0.159007 0.159007
0.163051 0.163051 0.163051
0.166973 0.166973 0.166973
0.171262 0.171262 0.171262
0.174449 0.174449 0.174449
0.178738 0.178738 0.178738
0.182659 0.182659 0.182659
0.186581 0.186581 0.186581
0.190502 0.190502 0.190502
0.194731 0.194731 0.194731
0.202267 0.202267 0.202267
0.206189 0.206189 0.206189
0.210110 0.210110 0.210110
0.217953 0.217953 0.217953
0.222856 0.222856 0.222856
0.227696 0.227696 0.227696
0.233640 0.233640 0.233640
0.241299 0.241299 0.241299
0.246139 0.246139 0.246139
0.252635 0.252635 0.252635
0.259743 0.259743 0.259743
0.268505 0.268505 0.268505
0.273345 0.273345 0.273345
0.282108 0.282108 0.282108
0.290871 0.290871 0.290871
0.299633 0.299633 0.299633
0.308395 0.308395 0.308395
0.317157 0.317157 0.317157
0.325919 0.325919 0.325919
0.339338 0.339338 0.339338
0.347365 0.347365 0.347365
0.097304 0.097304 0.097304
0.097304 0.097304 0.097304
0.097304 0.097304 0.097304
0.100490 0.100490 0.100490
0.100490 0.100490 0.100490
0.101226 0.101226 0.101226
0.101226 0.101226 0.101226
0.103737 0.103737 0.103737
0.105147 0.105147 0.105147
0.105147 0.105147 0.105147
0.106495 0.106495 0.106495
0.109069 0.109069 0.109069
0.112254 0.112254 0.112254
0.112990 0.112990 0.112990
0.116176 0.116176 0.116176
0.116912 0.116912 0.116912
0.116912 0.116912 0.116912
0.120834 0.120834 0.120834
0.121691 0.121691 0.121691
0.124755 0.124755 0.124755
0.127451 0.127451 0.127451
0.128677 0.128677 0.128677
0.132598 0.132598 0.132598
0.135784 0.135784 0.135784
0.136520 0.136520 0.136520
0.139889 0.139889 0.139889
0.140809 0.140809 0.140809
0.144363 0.144363 0.144363
0.148285 0.148285 0.148285
0.151409 0.151409 0.151409
0.152329 0.152329 0.152329
0.156128 0.156128 0.156128
0.160049 0.160049 0.160049
0.162929 0.162929 0.162929
0.167769 0.167769 0.167769
0.171814 0.171814 0.171814
0.175736 0.175736 0.175736
0.178370 0.178370 0.178370
0.183211 0.183211 0.183211
0.187500 0.187500 0.187500
0.191422 0.191422 0.191422
0.195343 0.195343 0.195343
0.199265 0.199265 0.199265
0.203492 0.203492 0.203492
0.208334 0.208334 0.208334
0.214951 0.214951 0.214951
0.218873 0.218873 0.218873
0.226716 0.226716 0.226716
0.228431 0.228431 0.228431
0.236459 0.236459 0.236459
0.242402 0.242402 0.242402
0.250061 0.250061 0.250061
0.254902 0.254902 0.254902
0.262010 0.262010 0.262010
0.268505 0.268505 0.268505
0.277267 0.277267 0.277267
0.282108 0.282108 0.282108
0.290871 0.290871 0.290871
0.299633 0.299633 0.299633
0.308395 0.308395 0.308395
0.317158 0.317158 0.317158
0.325920 0.325920 0.325920
0.334682 0.334682 0.334682
0.343444 0.343444 0.343444
0.356128 0.356128 0.356128
0.106066 0.106066 0.106066
0.106250 0.106250 0.106250
0.109988 0.109988 0.109988
0.109988 0.109988 0.109988
0.109988 0.109988 0.109988
0.110662 0.110662 0.110662
0.113909 0.113909 0.113909
0.113909 0.113909 0.113909
0.113909 0.113909 0.113909
0.114093 0.114093 0.114093
0.117831 0.117831 0.117831
0.117831 0.117831 0.117831
0.121753 0.121753 0.121753
0.121753 0.121753 0.121753
0.125674 0.125674 0.125674
0.125674 0.125674 0.125674
0.128615 0.128615 0.128615
0.129596 0.129596 0.129596
0.130454 0.130454 0.130454
0.133517 0.133517 0.133517
0.136213 0.136213 0.136213
0.137439 0.137439 0.137439
0.141360 0.141360 0.141360
0.142892 0.142892 0.142892
0.145282 0.145282 0.145282
0.148651 0.148651 0.148651
0.149204 0.149204 0.149204
0.153125 0.153125 0.153125
0.155330 0.155330 0.155330
0.157047 0.157047 0.157047
0.160968 0.160968 0.160968
0.164890 0.164890 0.164890
0.168811 0.168811 0.168811
0.171691 0.171691 0.171691
0.172733 0.172733 0.172733
0.177451 0.177451 0.177451
0.182291 0.182291 0.182291
0.187133 0.187133 0.187133
0.188419 0.188419 0.188419
