Black-and-White/Kodak/Kodak T-Max 100 65x.cube
TITLE "Kodak T-Max 100"
LUT_3D_SIZE 9
DOMAIN_MIN 0.000000 0.000000 0.000000
DOMAIN_MAX 1.000000 1.000000 1.000000
0.000000 0.000000 0.000000
0.000000 0.000000 0.000000
0.003922 0.003922 0.003922
0.015686 0.015686 0.015686
0.033334 0.033334 0.033334
0.068137 0.068137 0.068137
0.114706 0.114706 0.114706
0.176961 0.176961 0.176961
0.254902 0.254902 0.254902
0.054412 0.054412 0.054412
0.066177 0.066177 0.066177
0.080882 0.080882 0.080882
0.100000 0.100000 0.100000
0.125000 0.125000 0.125000
0.157843 0.157843 0.157843
0.197059 0.197059 0.197059
0.254412 0.254412 0.254412
0.325490 0.325490 0.325490
0.136274 0.136274 0.136274
0.144118 0.144118 0.144118
0.155883 0.155883 0.155883
0.171569 0.171569 0.171569
0.193137 0.193137 0.193137
0.224020 0.224020 0.224020
0.262746 0.262746 0.262746
0.313235 0.313235 0.313235
0.383333 0.383333 0.383333
0.225980 0.225980 0.225980
0.228432 0.228432 0.228432
0.237745 0.237745 0.237745
0.251961 0.251961 0.251961
0.273039 0.273039 0.273039
0.301960 0.301960 0.301960
0.336764 0.336764 0.336764
0.383333 0.383333 0.383333
0.449510 0.449510 0.449510
0.333334 0.333334 0.333334
0.337255 0.337255 0.337255
0.345098 0.345098 0.345098
0.356862 0.356862 0.356862
0.376471 0.376471 0.376471
0.403922 0.403922 0.403922
0.435295 0.435295 0.435295
0.478432 0.478432 0.478432
0.531373 0.531373 0.531373
0.461765 0.461765 0.461765
0.465686 0.465686 0.465686
0.475000 0.475000 0.475000
0.481372 0.481372 0.481372
0.497059 0.497059 0.497059
0.516667 0.516667 0.516667
0.544117 0.544117 0.544117
0.575490 0.575490 0.575490
0.614706 0.614706 0.614706
0.590196 0.590196 0.590196
0.590196 0.590196 0.590196
0.594118 0.594118 0.594118
0.601961 0.601961 0.601961
0.612745 0.612745 0.612745
0.625490 0.625490 0.625490
0.644118 0.644118 0.644118
0.667647 0.667647 0.667647
0.699019 0.699019 0.699019
0.710784 0.710784 0.710784
0.710784 0.710784 0.710784
0.714706 0.714706 0.714706
0.718627 0.718627 0.718627
0.726470 0.726470 0.726470
0.734313 0.734313 0.734313
0.750491 0.750491 0.750491
0.765686 0.765686 0.765686
0.796568 0.796568 0.796568
0.854902 0.854902 0.854902
0.854902 0.854902 0.854902
0.858824 0.858824 0.858824
0.858824 0.858824 0.858824
0.866667 0.866667 0.866667
0.870588 0.870588 0.870588
0.879412 0.879412 0.879412
0.890686 0.890686 0.890686
0.909804 0.909804 0.909804
0.003922 0.003922 0.003922
0.015196 0.015196 0.015196
0.026961 0.026961 0.026961
0.043137 0.043137 0.043137
0.068628 0.068628 0.068628
0.105392 0.105392 0.105392
0.152451 0.152451 0.152451
0.208333 0.208333 0.208333
0.286275 0.286275 0.286275
0.085295 0.085295 0.085295
0.097059 0.097059 0.097059
0.109314 0.109314 0.109314
0.128922 0.128922 0.128922
0.152451 0.152451 0.152451
0.185294 0.185294 0.185294
0.224019 0.224019 0.224019
0.278431 0.278431 0.278431
0.352451 0.352451 0.352451
0.159313 0.159313 0.159313
0.163725 0.163725 0.163725
0.175490 0.175490 0.175490
0.191176 0.191176 0.191176
0.212745 0.212745 0.212745
0.242157 0.242157 0.242157
0.281373 0.281373 0.281373
0.332353 0.332353 0.332353
0.399510 0.399510 0.399510
0.240196 0.240196 0.240196
0.244118 0.244118 0.244118
0.252941 0.252941 0.252941
0.267647 0.267647 0.267647
0.288235 0.288235 0.288235
0.316177 0.316177 0.316177
0.352451 0.352451 0.352451
0.399020 0.399020 0.399020
0.465196 0.465196 0.465196
0.346569 0.346569 0.346569
0.349020 0.349020 0.349020
0.356862 0.356862 0.356862
0.369118 0.369118 0.369118
0.388235 0.388235 0.388235
0.414706 0.414706 0.414706
0.446078 0.446078 0.446078
0.488235 0.488235 0.488235
0.542647 0.542647 0.542647
0.473529 0.473529 0.473529
0.476961 0.476961 0.476961
0.481372 0.481372 0.481372
0.493137 0.493137 0.493137
0.508333 0.508333 0.508333
0.526471 0.526471 0.526471
0.551471 0.551471 0.551471
0.581373 0.581373 0.581373
0.621078 0.621078 0.621078
0.597058 0.597058 0.597058
0.598039 0.598039 0.598039
0.601961 0.601961 0.601961
0.609804 0.609804 0.609804
0.618627 0.618627 0.618627
0.632353 0.632353 0.632353
0.649020 0.649020 0.649020
0.672059 0.672059 0.672059
0.706372 0.706372 0.706372
0.714706 0.714706 0.714706
0.717647 0.717647 0.717647
0.718627 0.718627 0.718627
0.722549 0.722549 0.722549
0.730392 0.730392 0.730392
0.741666 0.741666 0.741666
0.753921 0.753921 0.753921
0.772549 0.772549 0.772549
0.800000 0.800000 0.800000
0.858824 0.858824 0.858824
0.858824 0.858824 0.858824
0.862255 0.862255 0.862255
0.862745 0.862745 0.862745
0.868627 0.868627 0.868627
0.874510 0.874510 0.874510
0.882353 0.882353 0.882353
0.894118 0.894118 0.894118
0.913725 0.913725 0.913725
0.015686 0.015686 0.015686
0.034314 0.034314 0.034314
0.050000 0.050000 0.050000
0.069608 0.069608 0.069608
0.097059 0.097059 0.097059
0.132353 0.132353 0.132353
0.177451 0.177451 0.177451
0.231863 0.231863 0.231863
0.309804 0.309804 0.309804
0.112255 0.112255 0.112255
0.121079 0.121079 0.121079
0.135784 0.135784 0.135784
0.152451 0.152451 0.152451
0.175981 0.175981 0.175981
0.208824 0.208824 0.208824
0.247549 0.247549 0.247549
0.301471 0.301471 0.301471
0.372059 0.372059 0.372059
0.182353 0.182353 0.182353
0.187255 0.187255 0.187255
0.198039 0.198039 0.198039
0.213725 0.213725 0.213725
0.236275 0.236275 0.236275
0.265686 0.265686 0.265686
0.303921 0.303921 0.303921
0.352451 0.352451 0.352451
0.422549 0.422549 0.422549
0.263726 0.263726 0.263726
0.267647 0.267647 0.267647
0.275980 0.275980 0.275980
0.291177 0.291177 0.291177
0.311275 0.311275 0.311275
0.338725 0.338725 0.338725
0.374020 0.374020 0.374020
0.421078 0.421078 0.421078
0.484804 0.484804 0.484804
0.368627 0.368627 0.368627
0.372549 0.372549 0.372549
0.379412 0.379412 0.379412
0.392157 0.392157 0.392157
0.410784 0.410784 0.410784
0.435295 0.435295 0.435295
0.466667 0.466667 0.466667
0.507353 0.507353 0.507353
0.558823 0.558823 0.558823
0.493137 0.493137 0.493137
0.493137 0.493137 0.493137
0.500980 0.500980 0.500980
0.509804 0.509804 0.509804
0.524510 0.524510 0.524510
0.544117 0.544117 0.544117
0.565196 0.565196 0.565196
0.594118 0.594118 0.594118
0.634314 0.634314 0.634314
0.609804 0.609804 0.609804
0.609804 0.609804 0.609804
0.613726 0.613726 0.613726
0.621569 0.621569 0.621569
0.631373 0.631373 0.631373
0.644117 0.644117 0.644117
0.660785 0.660785 0.660785
0.683824 0.683824 0.683824
0.714706 0.714706 0.714706
0.726470 0.726470 0.726470
0.726470 0.726470 0.726470
0.729902 0.729902 0.729902
0.734313 0.734313 0.734313
0.740686 0.740686 0.740686
0.750000 0.750000 0.750000
0.762255 0.762255 0.762255
0.781372 0.781372 0.781372
0.808333 0.808333 0.808333
0.866667 0.866667 0.866667
0.866667 0.866667 0.866667
0.869608 0.869608 0.869608
0.870588 0.870588 0.870588
0.874510 0.874510 0.874510
0.882353 0.882353 0.882353
0.890196 0.890196 0.890196
0.901961 0.901961 0.901961
0.921569 0.921569 0.921569
0.039216 0.039216 0.039216
0.062255 0.062255 0.062255
0.078431 0.078431 0.078431
0.100490 0.100490 0.100490
0.127451 0.127451 0.127451
0.162255 0.162255 0.162255
0.204902 0.204902 0.204902
0.259314 0.259314 0.259314
0.337255 0.337255 0.337255
0.140686 0.140686 0.140686
0.150980 0.150980 0.150980
0.164216 0.164216 0.164216
0.182353 0.182353 0.182353
0.205392 0.205392 0.205392
0.236275 0.236275 0.236275
0.276470 0.276470 0.276470
0.328431 0.328431 0.328431
0.399510 0.399510 0.399510
0.209314 0.209314 0.209314
0.214706 0.214706 0.214706
0.226470 0.226470 0.226470
0.242157 0.242157 0.242157
0.264216 0.264216 0.264216
0.294608 0.294608 0.294608
0.333333 0.333333 0.333333
0.379902 0.379902 0.379902
0.449510 0.449510 0.449510
0.291177 0.291177 0.291177
0.295098 0.295098 0.295098
0.306863 0.306863 0.306863
0.318628 0.318628 0.318628
0.339706 0.339706 0.339706
0.368627 0.368627 0.368627
0.401961 0.401961 0.401961
0.448039 0.448039 0.448039
0.508333 0.508333 0.508333
0.396079 0.396079 0.396079
0.400000 0.400000 0.400000
0.407844 0.407844 0.407844
0.419608 0.419608 0.419608
0.439215 0.439215 0.439215
0.462746 0.462746 0.462746
0.493137 0.493137 0.493137
0.530392 0.530392 0.530392
0.578431 0.578431 0.578431
0.516667 0.516667 0.516667
0.519118 0.519118 0.519118
0.524510 0.524510 0.524510
0.533333 0.533333 0.533333
0.548039 0.548039 0.548039
0.563725 0.563725 0.563725
0.586765 0.586765 0.586765
0.613726 0.613726 0.613726
0.652451 0.652451 0.652451
0.628432 0.628432 0.628432
0.629412 0.629412 0.629412
0.633334 0.633334 0.633334
0.638725 0.638725 0.638725
0.649020 0.649020 0.649020
0.660785 0.660785 0.660785
0.676471 0.676471 0.676471
0.699510 0.699510 0.699510
0.730392 0.730392 0.730392
0.738235 0.738235 0.738235
0.741666 0.741666 0.741666
0.742156 0.742156 0.742156
0.748039 0.748039 0.748039
0.753921 0.753921 0.753921
0.763725 0.763725 0.763725
0.777451 0.777451 0.777451
0.793137 0.793137 0.793137
0.820098 0.820098 0.820098
0.878431 0.878431 0.878431
0.878431 0.878431 0.878431
0.878431 0.878431 0.878431
0.882353 0.882353 0.882353
0.886275 0.886275 0.886275
0.892647 0.892647 0.892647
0.900490 0.900490 0.900490
0.910294 0.910294 0.910294
0.929412 0.929412 0.929412
0.076470 0.076470 0.076470
0.098039 0.098039 0.098039
0.115686 0.115686 0.115686
0.135784 0.135784 0.135784
0.162745 0.162745 0.162745
0.195588 0.195588 0.195588
0.237255 0.237255 0.237255
0.294608 0.294608 0.294608
0.370588 0.370588 0.370588
0.175981 0.175981 0.175981
0.185784 0.185784 0.185784
0.199510 0.199510 0.199510
0.217157 0.217157 0.217157
0.240686 0.240686 0.240686
0.271569 0.271569 0.271569
0.311275 0.311275 0.311275
0.362255 0.362255 0.362255
0.432843 0.432843 0.432843
0.244118 0.244118 0.244118
0.250000 0.250000 0.250000
0.261765 0.261765 0.261765
0.279412 0.279412 0.279412
0.299020 0.299020 0.299020
0.330392 0.330392 0.330392
0.367647 0.367647 0.367647
0.415196 0.415196 0.415196
0.481372 0.481372 0.481372
0.329902 0.329902 0.329902
0.333824 0.333824 0.333824
0.342647 0.342647 0.342647
0.357353 0.357353 0.357353
0.376961 0.376961 0.376961
0.404412 0.404412 0.404412
0.438725 0.438725 0.438725
0.482843 0.482843 0.482843
0.537745 0.537745 0.537745
0.435295 0.435295 0.435295
0.437255 0.437255 0.437255
0.443137 0.443137 0.443137
0.456863 0.456863 0.456863
0.474510 0.474510 0.474510
0.498039 0.498039 0.498039
0.525490 0.525490 0.525490
0.559314 0.559314 0.559314
0.603921 0.603921 0.603921
0.548039 0.548039 0.548039
0.548529 0.548529 0.548529
0.552451 0.552451 0.552451
0.563725 0.563725 0.563725
0.575490 0.575490 0.575490
0.591176 0.591176 0.591176
0.610784 0.610784 0.610784
0.637255 0.637255 0.637255
0.672059 0.672059 0.672059
0.650000 0.650000 0.650000
0.651960 0.651960 0.651960
0.653922 0.653922 0.653922
0.660785 0.660785 0.660785
0.669608 0.669608 0.669608
0.681372 0.681372 0.681372
0.697059 0.697059 0.697059
0.718627 0.718627 0.718627
0.748039 0.748039 0.748039
0.757843 0.757843 0.757843
0.757843 0.757843 0.757843
0.761764 0.761764 0.761764
0.765686 0.765686 0.765686
0.771078 0.771078 0.771078
0.781372 0.781372 0.781372
0.793137 0.793137 0.793137
0.808823 0.808823 0.808823
0.835784 0.835784 0.835784
0.890196 0.890196 0.890196
0.890196 0.890196 0.890196
0.892157 0.892157 0.892157
0.894118 0.894118 0.894118
0.898039 0.898039 0.898039
0.905882 0.905882 0.905882
0.911764 0.911764 0.911764
0.921569 0.921569 0.921569
0.937255 0.937255 0.937255
0.123039 0.123039 0.123039
0.144608 0.144608 0.144608
0.162255 0.162255 0.162255
0.181863 0.181863 0.181863
0.205392 0.205392 0.205392
0.238235 0.238235 0.238235
0.280882 0.280882 0.280882
0.335294 0.335294 0.335294
0.409314 0.409314 0.409314
0.220588 0.220588 0.220588
0.230883 0.230883 0.230883
0.244118 0.244118 0.244118
0.263726 0.263726 0.263726
0.287255 0.287255 0.287255
0.316667 0.316667 0.316667
0.354902 0.354902 0.354902
0.404902 0.404902 0.404902
0.472059 0.472059 0.472059
0.290687 0.290687 0.290687
0.298530 0.298530 0.298530
0.310294 0.310294 0.310294
0.325981 0.325981 0.325981
0.346079 0.346079 0.346079
0.376961 0.376961 0.376961
0.412255 0.412255 0.412255
0.458334 0.458334 0.458334
0.519118 0.519118 0.519118
0.376471 0.376471 0.376471
0.380392 0.380392 0.380392
0.388235 0.388235 0.388235
0.402451 0.402451 0.402451
0.423529 0.423529 0.423529
0.449510 0.449510 0.449510
0.481863 0.481863 0.481863
0.520588 0.520588 0.520588
0.571078 0.571078 0.571078
0.477941 0.477941 0.477941
0.481863 0.481863 0.481863
0.487745 0.487745 0.487745
0.498039 0.498039 0.498039
0.515196 0.515196 0.515196
0.536764 0.536764 0.536764
0.560294 0.560294 0.560294
0.590686 0.590686 0.590686
0.630882 0.630882 0.630882
0.579412 0.579412 0.579412
0.581863 0.581863 0.581863
0.587255 0.587255 0.587255
0.595098 0.595098 0.595098
0.606863 0.606863 0.606863
0.618627 0.618627 0.618627
0.638235 0.638235 0.638235
0.661765 0.661765 0.661765
0.697059 0.697059 0.697059
0.676471 0.676471 0.676471
0.676471 0.676471 0.676471
0.680392 0.680392 0.680392
0.684804 0.684804 0.684804
0.695098 0.695098 0.695098
0.704412 0.704412 0.704412
0.720098 0.720098 0.720098
0.739706 0.739706 0.739706
0.769607 0.769607 0.769607
0.777451 0.777451 0.777451
0.778432 0.778432 0.778432
0.781372 0.781372 0.781372
0.785294 0.785294 0.785294
0.790686 0.790686 0.790686
0.800980 0.800980 0.800980
0.812255 0.812255 0.812255
0.827941 0.827941 0.827941
0.851470 0.851470 0.851470
0.905882 0.905882 0.905882
0.905882 0.905882 0.905882
0.905882 0.905882 0.905882
0.909804 0.909804 0.909804
0.913725 0.913725 0.913725
0.917647 0.917647 0.917647
0.925490 0.925490 0.925490
0.933823 0.933823 0.933823
0.949020 0.949020 0.949020
0.177451 0.177451 0.177451
0.200981 0.200981 0.200981
0.216666 0.216666 0.216666
0.236274 0.236274 0.236274
0.260784 0.260784 0.260784
0.292647 0.292647 0.292647
0.334313 0.334313 0.334313
0.388725 0.388725 0.388725
0.458824 0.458824 0.458824
0.275000 0.275000 0.275000
0.286765 0.286765 0.286765
0.298529 0.298529 0.298529
0.318137 0.318137 0.318137
0.341666 0.341666 0.341666
0.369608 0.369608 0.369608
0.408333 0.408333 0.408333
0.455392 0.455392 0.455392
0.517157 0.517157 0.517157
0.349020 0.349020 0.349020
0.352941 0.352941 0.352941
0.364706 0.364706 0.364706
0.380392 0.380392 0.380392
0.399019 0.399019 0.399019
0.428922 0.428922 0.428922
0.462745 0.462745 0.462745
0.505882 0.505882 0.505882
0.557843 0.557843 0.557843
0.430883 0.430883 0.430883
0.434804 0.434804 0.434804
0.442647 0.442647 0.442647
0.456863 0.456863 0.456863
0.475490 0.475490 0.475490
0.498040 0.498040 0.498040
0.528921 0.528921 0.528921
0.562255 0.562255 0.562255
0.606373 0.606373 0.606373
0.525490 0.525490 0.525490
0.528431 0.528431 0.528431
0.533334 0.533334 0.533334
0.544118 0.544118 0.544118
0.559804 0.559804 0.559804
0.576470 0.576470 0.576470
0.599019 0.599019 0.599019
0.625980 0.625980 0.625980
0.663725 0.663725 0.663725
0.617157 0.617157 0.617157
0.618137 0.618137 0.618137
0.622059 0.622059 0.622059
0.629902 0.629902 0.629902
0.640686 0.640686 0.640686
0.653431 0.653431 0.653431
0.669118 0.669118 0.669118
0.692647 0.692647 0.692647
0.724020 0.724020 0.724020
0.703922 0.703922 0.703922
0.707843 0.707843 0.707843
0.710784 0.710784 0.710784
0.715687 0.715687 0.715687
0.723530 0.723530 0.723530
0.734314 0.734314 0.734314
0.747059 0.747059 0.747059
0.766667 0.766667 0.766667
0.794118 0.794118 0.794118
0.801471 0.801471 0.801471
0.804412 0.804412 0.804412
0.805393 0.805393 0.805393
0.809314 0.809314 0.809314
0.816666 0.816666 0.816666
0.824509 0.824509 0.824509
0.832844 0.832844 0.832844
0.848530 0.848530 0.848530
0.871568 0.871568 0.871568
0.921569 0.921569 0.921569
0.921569 0.921569 0.921569
0.925490 0.925490 0.925490
0.925490 0.925490 0.925490
0.929412 0.929412 0.929412
0.933333 0.933333 0.933333
0.941176 0.941176 0.941176
0.949020 0.949020 0.949020
0.964706 0.964706 0.964706
0.243627 0.243627 0.243627
0.266667 0.266667 0.266667
0.281863 0.281863 0.281863
0.300980 0.300980 0.300980
0.325980 0.325980 0.325980
0.357353 0.357353 0.357353
0.396568 0.396568 0.396568
0.447549 0.447549 0.447549
0.510294 0.510294 0.510294
0.341176 0.341176 0.341176
0.352941 0.352941 0.352941
0.364706 0.364706 0.364706
0.382843 0.382843 0.382843
0.403922 0.403922 0.403922
0.432843 0.432843 0.432843
0.467647 0.467647 0.467647
0.510294 0.510294 0.510294
0.564216 0.564216 0.564216
0.411275 0.411275 0.411275
0.419118 0.419118 0.419118
0.430883 0.430883 0.430883
0.445098 0.445098 0.445098
0.466177 0.466177 0.466177
0.488236 0.488236 0.488236
0.521079 0.521079 0.521079
0.556373 0.556373 0.556373
0.602941 0.602941 0.602941
0.493137 0.493137 0.493137
0.497059 0.497059 0.497059
0.504902 0.504902 0.504902
0.516667 0.516667 0.516667
0.532353 0.532353 0.532353
0.552942 0.552942 0.552942
0.579412 0.579412 0.579412
0.606863 0.606863 0.606863
0.646078 0.646078 0.646078
0.578922 0.578922 0.578922
0.578922 0.578922 0.578922
0.584314 0.584314 0.584314
0.594608 0.594608 0.594608
0.606373 0.606373 0.606373
0.622059 0.622059 0.622059
0.641667 0.641667 0.641667
0.665196 0.665196 0.665196
0.700000 0.700000 0.700000
0.657843 0.657843 0.657843
0.660785 0.660785 0.660785
0.664706 0.664706 0.664706
0.669608 0.669608 0.669608
0.680392 0.680392 0.680392
0.692157 0.692157 0.692157
0.707843 0.707843 0.707843
0.729902 0.729902 0.729902
0.758824 0.758824 0.758824
0.742647 0.742647 0.742647
0.742647 0.742647 0.742647
0.746569 0.746569 0.746569
0.750491 0.750491 0.750491
0.758333 0.758333 0.758333
0.769607 0.769607 0.769607
0.781863 0.781863 0.781863
0.797549 0.797549 0.797549
0.824510 0.824510 0.824510
0.832353 0.832353 0.832353
0.832353 0.832353 0.832353
0.836274 0.836274 0.836274
0.840196 0.840196 0.840196
0.844117 0.844117 0.844117
0.851961 0.851961 0.851961
0.863235 0.863235 0.863235
0.875490 0.875490 0.875490
0.895098 0.895098 0.895098
0.941176 0.941176 0.941176
0.941666 0.941666 0.941666
0.944117 0.944117 0.944117
0.945098 0.945098 0.945098
0.949020 0.949020 0.949020
0.952941 0.952941 0.952941
0.957353 0.957353 0.957353
0.965196 0.965196 0.965196
0.980392 0.980392 0.980392
0.325490 0.325490 0.325490
0.345098 0.345098 0.345098
0.360784 0.360784 0.360784
0.378922 0.378922 0.378922
0.401961 0.401961 0.401961
0.432843 0.432843 0.432843
0.467647 0.467647 0.467647
0.513726 0.513726 0.513726
0.568627 0.568627 0.568627
0.423039 0.423039 0.423039
0.430883 0.430883 0.430883
0.442647 0.442647 0.442647
0.460784 0.460784 0.460784
0.481863 0.481863 0.481863
0.506863 0.506863 0.506863
0.536765 0.536765 0.536765
0.569117 0.569117 0.569117
0.615196 0.615196 0.615196
0.489216 0.489216 0.489216
0.497059 0.497059 0.497059
0.504902 0.504902 0.504902
0.520588 0.520588 0.520588
0.536274 0.536274 0.536274
0.559804 0.559804 0.559804
0.583333 0.583333 0.583333
0.614706 0.614706 0.614706
0.650980 0.650980 0.650980
0.563235 0.563235 0.563235
0.566666 0.566666 0.566666
0.571078 0.571078 0.571078
0.582843 0.582843 0.582843
0.594118 0.594118 0.594118
0.614216 0.614216 0.614216
0.633824 0.633824 0.633824
0.661275 0.661275 0.661275
0.694118 0.694118 0.694118
0.637255 0.637255 0.637255
0.637255 0.637255 0.637255
0.641177 0.641177 0.641177
0.649020 0.649020 0.649020
0.660784 0.660784 0.660784
0.676470 0.676470 0.676470
0.692157 0.692157 0.692157
0.715686 0.715686 0.715686
0.745098 0.745098 0.745098
0.711275 0.711275 0.711275
0.711275 0.711275 0.711275
0.715196 0.715196 0.715196
0.720588 0.720588 0.720588
0.730882 0.730882 0.730882
0.742647 0.742647 0.742647
0.755392 0.755392 0.755392
0.774510 0.774510 0.774510
0.801471 0.801471 0.801471
0.789215 0.789215 0.789215
0.789216 0.789216 0.789216
0.793137 0.793137 0.793137
0.797058 0.797058 0.797058
0.804902 0.804902 0.804902
0.812745 0.812745 0.812745
0.824510 0.824510 0.824510
0.840687 0.840687 0.840687
0.863726 0.863726 0.863726
0.871568 0.871568 0.871568
0.875000 0.875000 0.875000
0.875000 0.875000 0.875000
0.878921 0.878921 0.878921
0.883333 0.883333 0.883333
0.890686 0.890686 0.890686
0.899510 0.899510 0.899510
0.910294 0.910294 0.910294
0.929902 0.929902 0.929902
0.968627 0.968627 0.968627
0.968627 0.968627 0.968627
0.968627 0.968627 0.968627
0.972549 0.972549 0.972549
0.976471 0.976471 0.976471
0.980392 0.980392 0.980392
0.984314 0.984314 0.984314
0.992157 0.992157 0.992157
1.000000 1.000000 1.000000
