Black-and-White/Kodak/Kodak TRI-X 400 3 Alt 65x.cube
TITLE "Kodak TRI-X 400 3 Alt"
LUT_3D_SIZE 9
DOMAIN_MIN 0.000000 0.000000 0.000000
DOMAIN_MAX 1.000000 1.000000 1.000000
0.000000 0.000000 0.000000
0.000000 0.000000 0.000000
0.000000 0.000000 0.000000
0.007843 0.007843 0.007843
0.019608 0.019608 0.019608
0.056373 0.056373 0.056373
0.139216 0.139216 0.139216
0.247549 0.247549 0.247549
0.372549 0.372549 0.372549
0.011765 0.011765 0.011765
0.019118 0.019118 0.019118
0.030392 0.030392 0.030392
0.056863 0.056863 0.056863
0.100981 0.100981 0.100981
0.165196 0.165196 0.165196
0.240687 0.240687 0.240687
0.333823 0.333823 0.333823
0.430883 0.430883 0.430883
0.084314 0.084314 0.084314
0.096078 0.096078 0.096078
0.119608 0.119608 0.119608
0.150490 0.150490 0.150490
0.193137 0.193137 0.193137
0.254412 0.254412 0.254412
0.321568 0.321568 0.321568
0.395589 0.395589 0.395589
0.470588 0.470588 0.470588
0.204902 0.204902 0.204902
0.212745 0.212745 0.212745
0.232843 0.232843 0.232843
0.259804 0.259804 0.259804
0.299020 0.299020 0.299020
0.345098 0.345098 0.345098
0.395588 0.395588 0.395588
0.450000 0.450000 0.450000
0.516177 0.516177 0.516177
0.337255 0.337255 0.337255
0.343137 0.343137 0.343137
0.354902 0.354902 0.354902
0.372549 0.372549 0.372549
0.400000 0.400000 0.400000
0.430882 0.430882 0.430882
0.468628 0.468628 0.468628
0.510294 0.510294 0.510294
0.566666 0.566666 0.566666
0.450000 0.450000 0.450000
0.453922 0.453922 0.453922
0.460294 0.460294 0.460294
0.474509 0.474509 0.474509
0.491667 0.491667 0.491667
0.512745 0.512745 0.512745
0.542647 0.542647 0.542647
0.577941 0.577941 0.577941
0.625000 0.625000 0.625000
0.550000 0.550000 0.550000
0.550981 0.550981 0.550981
0.557843 0.557843 0.557843
0.565686 0.565686 0.565686
0.579412 0.579412 0.579412
0.597058 0.597058 0.597058
0.617647 0.617647 0.617647
0.648039 0.648039 0.648039
0.687255 0.687255 0.687255
0.651470 0.651470 0.651470
0.651961 0.651961 0.651961
0.655882 0.655882 0.655882
0.663235 0.663235 0.663235
0.671568 0.671568 0.671568
0.686765 0.686765 0.686765
0.703432 0.703432 0.703432
0.726470 0.726470 0.726470
0.761274 0.761274 0.761274
0.772549 0.772549 0.772549
0.772549 0.772549 0.772549
0.776471 0.776471 0.776471
0.780392 0.780392 0.780392
0.788235 0.788235 0.788235
0.796078 0.796078 0.796078
0.807843 0.807843 0.807843
0.827451 0.827451 0.827451
0.854902 0.854902 0.854902
0.003922 0.003922 0.003922
0.007843 0.007843 0.007843
0.019118 0.019118 0.019118
0.034804 0.034804 0.034804
0.070098 0.070098 0.070098
0.138235 0.138235 0.138235
0.216176 0.216176 0.216176
0.317647 0.317647 0.317647
0.419608 0.419608 0.419608
0.046079 0.046079 0.046079
0.061765 0.061765 0.061765
0.085295 0.085295 0.085295
0.120588 0.120588 0.120588
0.165686 0.165686 0.165686
0.227941 0.227941 0.227941
0.299510 0.299510 0.299510
0.379902 0.379902 0.379902
0.462255 0.462255 0.462255
0.135294 0.135294 0.135294
0.146569 0.146569 0.146569
0.167157 0.167157 0.167157
0.198039 0.198039 0.198039
0.239706 0.239706 0.239706
0.296569 0.296569 0.296569
0.356863 0.356863 0.356863
0.419608 0.419608 0.419608
0.493138 0.493138 0.493138
0.240196 0.240196 0.240196
0.248039 0.248039 0.248039
0.267157 0.267157 0.267157
0.292157 0.292157 0.292157
0.329412 0.329412 0.329412
0.370588 0.370588 0.370588
0.417647 0.417647 0.417647
0.469118 0.469118 0.469118
0.529412 0.529412 0.529412
0.360784 0.360784 0.360784
0.366176 0.366176 0.366176
0.376471 0.376471 0.376471
0.393627 0.393627 0.393627
0.419608 0.419608 0.419608
0.448529 0.448529 0.448529
0.481372 0.481372 0.481372
0.524020 0.524020 0.524020
0.578431 0.578431 0.578431
0.465686 0.465686 0.465686
0.467647 0.467647 0.467647
0.475000 0.475000 0.475000
0.487255 0.487255 0.487255
0.503431 0.503431 0.503431
0.524510 0.524510 0.524510
0.551961 0.551961 0.551961
0.586275 0.586275 0.586275
0.632843 0.632843 0.632843
0.558824 0.558824 0.558824
0.561764 0.561764 0.561764
0.566667 0.566667 0.566667
0.575981 0.575981 0.575981
0.588725 0.588725 0.588725
0.604902 0.604902 0.604902
0.627941 0.627941 0.627941
0.655882 0.655882 0.655882
0.695098 0.695098 0.695098
0.659314 0.659314 0.659314
0.659804 0.659804 0.659804
0.663725 0.663725 0.663725
0.670588 0.670588 0.670588
0.679412 0.679412 0.679412
0.692157 0.692157 0.692157
0.710294 0.710294 0.710294
0.733333 0.733333 0.733333
0.765196 0.765196 0.765196
0.779902 0.779902 0.779902
0.780392 0.780392 0.780392
0.780392 0.780392 0.780392
0.786765 0.786765 0.786765
0.792157 0.792157 0.792157
0.801471 0.801471 0.801471
0.812745 0.812745 0.812745
0.831373 0.831373 0.831373
0.858824 0.858824 0.858824
0.015686 0.015686 0.015686
0.030883 0.030883 0.030883
0.050000 0.050000 0.050000
0.081373 0.081373 0.081373
0.132353 0.132353 0.132353
0.193627 0.193627 0.193627
0.272549 0.272549 0.272549
0.360294 0.360294 0.360294
0.450000 0.450000 0.450000
0.097059 0.097059 0.097059
0.119608 0.119608 0.119608
0.143627 0.143627 0.143627
0.178431 0.178431 0.178431
0.221078 0.221078 0.221078
0.279412 0.279412 0.279412
0.345098 0.345098 0.345098
0.411765 0.411765 0.411765
0.485785 0.485785 0.485785
0.190196 0.190196 0.190196
0.201471 0.201471 0.201471
0.221568 0.221568 0.221568
0.252941 0.252941 0.252941
0.294118 0.294118 0.294118
0.341666 0.341666 0.341666
0.394117 0.394117 0.394117
0.450490 0.450490 0.450490
0.516667 0.516667 0.516667
0.294118 0.294118 0.294118
0.301961 0.301961 0.301961
0.317647 0.317647 0.317647
0.341176 0.341176 0.341176
0.370098 0.370098 0.370098
0.407843 0.407843 0.407843
0.447059 0.447059 0.447059
0.493628 0.493628 0.493628
0.551471 0.551471 0.551471
0.397059 0.397059 0.397059
0.403431 0.403431 0.403431
0.412745 0.412745 0.412745
0.427941 0.427941 0.427941
0.448039 0.448039 0.448039
0.475490 0.475490 0.475490
0.507843 0.507843 0.507843
0.547059 0.547059 0.547059
0.598039 0.598039 0.598039
0.490687 0.490687 0.490687
0.493137 0.493137 0.493137
0.499510 0.499510 0.499510
0.510294 0.510294 0.510294
0.526961 0.526961 0.526961
0.548039 0.548039 0.548039
0.573039 0.573039 0.573039
0.605883 0.605883 0.605883
0.650000 0.650000 0.650000
0.578432 0.578432 0.578432
0.581373 0.581373 0.581373
0.586275 0.586275 0.586275
0.594118 0.594118 0.594118
0.606863 0.606863 0.606863
0.623529 0.623529 0.623529
0.644118 0.644118 0.644118
0.671568 0.671568 0.671568
0.710784 0.710784 0.710784
0.675000 0.675000 0.675000
0.675490 0.675490 0.675490
0.678921 0.678921 0.678921
0.685785 0.685785 0.685785
0.694608 0.694608 0.694608
0.706863 0.706863 0.706863
0.723039 0.723039 0.723039
0.745588 0.745588 0.745588
0.776961 0.776961 0.776961
0.791176 0.791176 0.791176
0.792157 0.792157 0.792157
0.792157 0.792157 0.792157
0.796078 0.796078 0.796078
0.803922 0.803922 0.803922
0.811765 0.811765 0.811765
0.823529 0.823529 0.823529
0.839706 0.839706 0.839706
0.866667 0.866667 0.866667
0.047059 0.047059 0.047059
0.080882 0.080882 0.080882
0.112255 0.112255 0.112255
0.151471 0.151471 0.151471
0.196569 0.196569 0.196569
0.258824 0.258824 0.258824
0.328921 0.328921 0.328921
0.402941 0.402941 0.402941
0.480882 0.480882 0.480882
0.166666 0.166666 0.166666
0.186274 0.186274 0.186274
0.212255 0.212255 0.212255
0.245098 0.245098 0.245098
0.286274 0.286274 0.286274
0.338235 0.338235 0.338235
0.391666 0.391666 0.391666
0.450000 0.450000 0.450000
0.516177 0.516177 0.516177
0.259314 0.259314 0.259314
0.268137 0.268137 0.268137
0.290687 0.290687 0.290687
0.317647 0.317647 0.317647
0.350490 0.350490 0.350490
0.392157 0.392157 0.392157
0.435294 0.435294 0.435294
0.484804 0.484804 0.484804
0.543627 0.543627 0.543627
0.353922 0.353922 0.353922
0.357843 0.357843 0.357843
0.372549 0.372549 0.372549
0.389216 0.389216 0.389216
0.416667 0.416667 0.416667
0.447059 0.447059 0.447059
0.481863 0.481863 0.481863
0.524510 0.524510 0.524510
0.578922 0.578922 0.578922
0.439706 0.439706 0.439706
0.443628 0.443628 0.443628
0.451961 0.451961 0.451961
0.467157 0.467157 0.467157
0.486274 0.486274 0.486274
0.509804 0.509804 0.509804
0.539216 0.539216 0.539216
0.575000 0.575000 0.575000
0.622059 0.622059 0.622059
0.524510 0.524510 0.524510
0.526471 0.526471 0.526471
0.533333 0.533333 0.533333
0.542647 0.542647 0.542647
0.556863 0.556863 0.556863
0.576471 0.576471 0.576471
0.600000 0.600000 0.600000
0.631373 0.631373 0.631373
0.673039 0.673039 0.673039
0.607353 0.607353 0.607353
0.608824 0.608824 0.608824
0.613726 0.613726 0.613726
0.621569 0.621569 0.621569
0.633334 0.633334 0.633334
0.648039 0.648039 0.648039
0.667647 0.667647 0.667647
0.693627 0.693627 0.693627
0.730392 0.730392 0.730392
0.697059 0.697059 0.697059
0.698529 0.698529 0.698529
0.700980 0.700980 0.700980
0.706863 0.706863 0.706863
0.714706 0.714706 0.714706
0.726470 0.726470 0.726470
0.742647 0.742647 0.742647
0.763725 0.763725 0.763725
0.795098 0.795098 0.795098
0.807843 0.807843 0.807843
0.807843 0.807843 0.807843
0.810294 0.810294 0.810294
0.814216 0.814216 0.814216
0.819608 0.819608 0.819608
0.827451 0.827451 0.827451
0.839216 0.839216 0.839216
0.854902 0.854902 0.854902
0.880882 0.880882 0.880882
0.123529 0.123529 0.123529
0.162745 0.162745 0.162745
0.193137 0.193137 0.193137
0.227941 0.227941 0.227941
0.274509 0.274509 0.274509
0.328921 0.328921 0.328921
0.386274 0.386274 0.386274
0.447549 0.447549 0.447549
0.515686 0.515686 0.515686
0.248529 0.248529 0.248529
0.267647 0.267647 0.267647
0.291667 0.291667 0.291667
0.321569 0.321569 0.321569
0.356372 0.356372 0.356372
0.397059 0.397059 0.397059
0.440686 0.440686 0.440686
0.488726 0.488726 0.488726
0.548530 0.548530 0.548530
0.334314 0.334314 0.334314
0.344118 0.344118 0.344118
0.361765 0.361765 0.361765
0.380883 0.380883 0.380883
0.408824 0.408824 0.408824
0.442647 0.442647 0.442647
0.479412 0.479412 0.479412
0.522549 0.522549 0.522549
0.576471 0.576471 0.576471
0.412745 0.412745 0.412745
0.420098 0.420098 0.420098
0.428922 0.428922 0.428922
0.444118 0.444118 0.444118
0.467157 0.467157 0.467157
0.494118 0.494118 0.494118
0.524510 0.524510 0.524510
0.562745 0.562745 0.562745
0.610294 0.610294 0.610294
0.490197 0.490197 0.490197
0.494117 0.494117 0.494117
0.500000 0.500000 0.500000
0.511765 0.511765 0.511765
0.529411 0.529411 0.529411
0.549019 0.549019 0.549019
0.576470 0.576470 0.576470
0.609804 0.609804 0.609804
0.652941 0.652941 0.652941
0.564215 0.564215 0.564215
0.566176 0.566176 0.566176
0.572059 0.572059 0.572059
0.581863 0.581863 0.581863
0.595588 0.595588 0.595588
0.611274 0.611274 0.611274
0.634314 0.634314 0.634314
0.662255 0.662255 0.662255
0.700000 0.700000 0.700000
0.640196 0.640196 0.640196
0.642157 0.642157 0.642157
0.646078 0.646078 0.646078
0.653922 0.653922 0.653922
0.665686 0.665686 0.665686
0.677451 0.677451 0.677451
0.696079 0.696079 0.696079
0.720098 0.720098 0.720098
0.753922 0.753922 0.753922
0.722549 0.722549 0.722549
0.724020 0.724020 0.724020
0.727941 0.727941 0.727941
0.732353 0.732353 0.732353
0.739706 0.739706 0.739706
0.751471 0.751471 0.751471
0.765686 0.765686 0.765686
0.785294 0.785294 0.785294
0.814216 0.814216 0.814216
0.827451 0.827451 0.827451
0.827451 0.827451 0.827451
0.829412 0.829412 0.829412
0.833333 0.833333 0.833333
0.839216 0.839216 0.839216
0.847059 0.847059 0.847059
0.856863 0.856863 0.856863
0.871078 0.871078 0.871078
0.896079 0.896079 0.896079
0.222549 0.222549 0.222549
0.261765 0.261765 0.261765
0.293137 0.293137 0.293137
0.324510 0.324510 0.324510
0.359804 0.359804 0.359804
0.401471 0.401471 0.401471
0.445588 0.445588 0.445588
0.495588 0.495588 0.495588
0.554412 0.554412 0.554412
0.346079 0.346079 0.346079
0.359314 0.359314 0.359314
0.377451 0.377451 0.377451
0.400981 0.400981 0.400981
0.428432 0.428432 0.428432
0.457843 0.457843 0.457843
0.494608 0.494608 0.494608
0.535294 0.535294 0.535294
0.588235 0.588235 0.588235
0.412255 0.412255 0.412255
0.420098 0.420098 0.420098
0.431863 0.431863 0.431863
0.451470 0.451470 0.451470
0.470098 0.470098 0.470098
0.498530 0.498530 0.498530
0.529412 0.529412 0.529412
0.566667 0.566667 0.566667
0.614706 0.614706 0.614706
0.475980 0.475980 0.475980
0.481863 0.481863 0.481863
0.490196 0.490196 0.490196
0.501961 0.501961 0.501961
0.521569 0.521569 0.521569
0.542647 0.542647 0.542647
0.570098 0.570098 0.570098
0.602941 0.602941 0.602941
0.648529 0.648529 0.648529
0.540686 0.540686 0.540686
0.544608 0.544608 0.544608
0.550980 0.550980 0.550980
0.560294 0.560294 0.560294
0.575980 0.575980 0.575980
0.595588 0.595588 0.595588
0.618627 0.618627 0.618627
0.648529 0.648529 0.648529
0.687745 0.687745 0.687745
0.609314 0.609314 0.609314
0.610784 0.610784 0.610784
0.614706 0.614706 0.614706
0.623529 0.623529 0.623529
0.636765 0.636765 0.636765
0.650000 0.650000 0.650000
0.672059 0.672059 0.672059
0.696079 0.696079 0.696079
0.730882 0.730882 0.730882
0.676961 0.676961 0.676961
0.679411 0.679411 0.679411
0.683334 0.683334 0.683334
0.689706 0.689706 0.689706
0.699510 0.699510 0.699510
0.712255 0.712255 0.712255
0.727941 0.727941 0.727941
0.750000 0.750000 0.750000
0.781373 0.781373 0.781373
0.753431 0.753431 0.753431
0.754902 0.754902 0.754902
0.757353 0.757353 0.757353
0.762745 0.762745 0.762745
0.769607 0.769607 0.769607
0.778432 0.778432 0.778432
0.792647 0.792647 0.792647
0.809804 0.809804 0.809804
0.837255 0.837255 0.837255
0.850980 0.850980 0.850980
0.850980 0.850980 0.850980
0.852451 0.852451 0.852451
0.856373 0.856373 0.856373
0.860785 0.860785 0.860785
0.868137 0.868137 0.868137
0.878431 0.878431 0.878431
0.890686 0.890686 0.890686
0.913725 0.913725 0.913725
0.342156 0.342156 0.342156
0.370588 0.370588 0.370588
0.390196 0.390196 0.390196
0.412745 0.412745 0.412745
0.440196 0.440196 0.440196
0.469118 0.469118 0.469118
0.503922 0.503922 0.503922
0.546569 0.546569 0.546569
0.600000 0.600000 0.600000
0.431863 0.431863 0.431863
0.441177 0.441177 0.441177
0.455392 0.455392 0.455392
0.470098 0.470098 0.470098
0.494608 0.494608 0.494608
0.516177 0.516177 0.516177
0.549510 0.549510 0.549510
0.585294 0.585294 0.585294
0.630883 0.630883 0.630883
0.483333 0.483333 0.483333
0.490196 0.490196 0.490196
0.500981 0.500981 0.500981
0.513726 0.513726 0.513726
0.533333 0.533333 0.533333
0.555883 0.555883 0.555883
0.581373 0.581373 0.581373
0.613236 0.613236 0.613236
0.655883 0.655883 0.655883
0.538235 0.538235 0.538235
0.540686 0.540686 0.540686
0.548530 0.548530 0.548530
0.560294 0.560294 0.560294
0.575981 0.575981 0.575981
0.595588 0.595588 0.595588
0.619117 0.619117 0.619117
0.648039 0.648039 0.648039
0.687255 0.687255 0.687255
0.595098 0.595098 0.595098
0.599020 0.599020 0.599020
0.602941 0.602941 0.602941
0.614216 0.614216 0.614216
0.626470 0.626470 0.626470
0.641667 0.641667 0.641667
0.663725 0.663725 0.663725
0.688726 0.688726 0.688726
0.723529 0.723529 0.723529
0.656373 0.656373 0.656373
0.657353 0.657353 0.657353
0.661275 0.661275 0.661275
0.669118 0.669118 0.669118
0.680882 0.680882 0.680882
0.695588 0.695588 0.695588
0.712255 0.712255 0.712255
0.734314 0.734314 0.734314
0.765686 0.765686 0.765686
0.719608 0.719608 0.719608
0.719608 0.719608 0.719608
0.723530 0.723530 0.723530
0.730392 0.730392 0.730392
0.739216 0.739216 0.739216
0.750000 0.750000 0.750000
0.765686 0.765686 0.765686
0.782353 0.782353 0.782353
0.812745 0.812745 0.812745
0.788725 0.788725 0.788725
0.789706 0.789706 0.789706
0.792647 0.792647 0.792647
0.796568 0.796568 0.796568
0.802451 0.802451 0.802451
0.812255 0.812255 0.812255
0.824019 0.824019 0.824019
0.839706 0.839706 0.839706
0.863235 0.863235 0.863235
0.878431 0.878431 0.878431
0.878431 0.878431 0.878431
0.879412 0.879412 0.879412
0.882353 0.882353 0.882353
0.887255 0.887255 0.887255
0.894118 0.894118 0.894118
0.901961 0.901961 0.901961
0.913725 0.913725 0.913725
0.934313 0.934313 0.934313
0.439706 0.439706 0.439706
0.459314 0.459314 0.459314
0.475000 0.475000 0.475000
0.490686 0.490686 0.490686
0.512255 0.512255 0.512255
0.537745 0.537745 0.537745
0.565686 0.565686 0.565686
0.600980 0.600980 0.600980
0.647549 0.647549 0.647549
0.509804 0.509804 0.509804
0.517647 0.517647 0.517647
0.529412 0.529412 0.529412
0.540196 0.540196 0.540196
0.560784 0.560784 0.560784
0.578432 0.578432 0.578432
0.607843 0.607843 0.607843
0.636274 0.636274 0.636274
0.677941 0.677941 0.677941
0.553431 0.553431 0.553431
0.557353 0.557353 0.557353
0.568137 0.568137 0.568137
0.579902 0.579902 0.579902
0.595588 0.595588 0.595588
0.615196 0.615196 0.615196
0.638726 0.638726 0.638726
0.666177 0.666177 0.666177
0.702451 0.702451 0.702451
0.602941 0.602941 0.602941
0.607353 0.607353 0.607353
0.610784 0.610784 0.610784
0.622549 0.622549 0.622549
0.633824 0.633824 0.633824
0.653431 0.653431 0.653431
0.673529 0.673529 0.673529
0.697059 0.697059 0.697059
0.731863 0.731863 0.731863
0.655392 0.655392 0.655392
0.657353 0.657353 0.657353
0.661275 0.661275 0.661275
0.669118 0.669118 0.669118
0.680882 0.680882 0.680882
0.696569 0.696569 0.696569
0.711275 0.711275 0.711275
0.735784 0.735784 0.735784
0.766666 0.766666 0.766666
0.710294 0.710294 0.710294
0.711765 0.711765 0.711765
0.715687 0.715687 0.715687
0.724020 0.724020 0.724020
0.731373 0.731373 0.731373
0.743137 0.743137 0.743137
0.758824 0.758824 0.758824
0.778432 0.778432 0.778432
0.804412 0.804412 0.804412
0.766177 0.766177 0.766177
0.769117 0.769117 0.769117
0.770098 0.770098 0.770098
0.777451 0.777451 0.777451
0.784804 0.784804 0.784804
0.793627 0.793627 0.793627
0.805393 0.805393 0.805393
0.824019 0.824019 0.824019
0.847549 0.847549 0.847549
0.828431 0.828431 0.828431
0.828431 0.828431 0.828431
0.832353 0.832353 0.832353
0.836274 0.836274 0.836274
0.841667 0.841667 0.841667
0.849020 0.849020 0.849020
0.859804 0.859804 0.859804
0.875000 0.875000 0.875000
0.894608 0.894608 0.894608
0.909804 0.909804 0.909804
0.909804 0.909804 0.909804
0.910294 0.910294 0.910294
0.913725 0.913725 0.913725
0.918137 0.918137 0.918137
0.922059 0.922059 0.922059
0.929902 0.929902 0.929902
0.941176 0.941176 0.941176
0.960784 0.960784 0.960784
0.525490 0.525490 0.525490
0.541176 0.541176 0.541176
0.552941 0.552941 0.552941
0.568627 0.568627 0.568627
0.584314 0.584314 0.584314
0.605392 0.605392 0.605392
0.631373 0.631373 0.631373
0.659314 0.659314 0.659314
0.698039 0.698039 0.698039
0.584314 0.584314 0.584314
0.591667 0.591667 0.591667
0.603432 0.603432 0.603432
0.615196 0.615196 0.615196
0.627451 0.627451 0.627451
0.644608 0.644608 0.644608
0.670098 0.670098 0.670098
0.694118 0.694118 0.694118
0.728922 0.728922 0.728922
0.627451 0.627451 0.627451
0.630392 0.630392 0.630392
0.638235 0.638235 0.638235
0.650000 0.650000 0.650000
0.660784 0.660784 0.660784
0.678431 0.678431 0.678431
0.698039 0.698039 0.698039
0.721569 0.721569 0.721569
0.752941 0.752941 0.752941
0.673039 0.673039 0.673039
0.674510 0.674510 0.674510
0.680882 0.680882 0.680882
0.688726 0.688726 0.688726
0.700490 0.700490 0.700490
0.716177 0.716177 0.716177
0.730392 0.730392 0.730392
0.755392 0.755392 0.755392
0.780392 0.780392 0.780392
0.719608 0.719608 0.719608
0.721569 0.721569 0.721569
0.728431 0.728431 0.728431
0.733333 0.733333 0.733333
0.743137 0.743137 0.743137
0.754902 0.754902 0.754902
0.770588 0.770588 0.770588
0.790196 0.790196 0.790196
0.813725 0.813725 0.813725
0.770098 0.770098 0.770098
0.772549 0.772549 0.772549
0.774020 0.774020 0.774020
0.781863 0.781863 0.781863
0.789706 0.789706 0.789706
0.800000 0.800000 0.800000
0.813235 0.813235 0.813235
0.828922 0.828922 0.828922
0.850980 0.850980 0.850980
0.823529 0.823529 0.823529
0.824510 0.824510 0.824510
0.830393 0.830393 0.830393
0.832353 0.832353 0.832353
0.839216 0.839216 0.839216
0.848529 0.848529 0.848529
0.858824 0.858824 0.858824
0.871569 0.871569 0.871569
0.891177 0.891177 0.891177
0.878921 0.878921 0.878921
0.882353 0.882353 0.882353
0.882843 0.882843 0.882843
0.886765 0.886765 0.886765
0.890686 0.890686 0.890686
0.898529 0.898529 0.898529
0.906372 0.906372 0.906372
0.918137 0.918137 0.918137
0.937255 0.937255 0.937255
0.952941 0.952941 0.952941
0.952941 0.952941 0.952941
0.952941 0.952941 0.952941
0.956863 0.956863 0.956863
0.960784 0.960784 0.960784
0.964706 0.964706 0.964706
0.972549 0.972549 0.972549
0.984314 0.984314 0.984314
1.000000 1.000000 1.000000
