Black-and-White/Kodak/Kodak BW 400 CN 65x.cube
TITLE "Kodak BW 400 CN"
LUT_3D_SIZE 65
DOMAIN_MIN 0.000000 0.000000 0.000000
DOMAIN_MAX 1.000000 1.000000 1.000000
0.000000 0.000000 0.000000
0.000000 0.000000 0.000000
0.000000 0.000000 0.000000
0.000000 0.000000 0.000000
0.000000 0.000000 0.000000
0.000674 0.000674 0.000674
0.003922 0.003922 0.003922
0.003922 0.003922 0.003922
0.003922 0.003922 0.003922
0.007843 0.007843 0.007843
0.007843 0.007843 0.007843
0.007843 0.007843 0.007843
0.011765 0.011765 0.011765
0.011765 0.011765 0.011765
0.015686 0.015686 0.015686
0.015686 0.015686 0.015686
0.019608 0.019608 0.019608
0.019608 0.019608 0.019608
0.023529 0.023529 0.023529
0.025306 0.025306 0.025306
0.027451 0.027451 0.027451
0.031373 0.031373 0.031373
0.035294 0.035294 0.035294
0.039216 0.039216 0.039216
0.043137 0.043137 0.043137
0.046507 0.046507 0.046507
0.047427 0.047427 0.047427
0.052267 0.052267 0.052267
0.057108 0.057108 0.057108
0.061949 0.061949 0.061949
0.066667 0.066667 0.066667
0.070588 0.070588 0.070588
0.074510 0.074510 0.074510
0.081311 0.081311 0.081311
0.086152 0.086152 0.086152
0.090196 0.090196 0.090196
0.095833 0.095833 0.095833
0.100674 0.100674 0.100674
0.105882 0.105882 0.105882
0.113725 0.113725 0.113725
0.119118 0.119118 0.119118
0.123958 0.123958 0.123958
0.132720 0.132720 0.132720
0.137561 0.137561 0.137561
0.146324 0.146324 0.146324
0.151164 0.151164 0.151164
0.159926 0.159926 0.159926
0.164767 0.164767 0.164767
0.173530 0.173530 0.173530
0.182292 0.182292 0.182292
0.191054 0.191054 0.191054
0.199816 0.199816 0.199816
0.204657 0.204657 0.204657
0.217341 0.217341 0.217341
0.226103 0.226103 0.226103
0.234865 0.234865 0.234865
0.243627 0.243627 0.243627
0.252389 0.252389 0.252389
0.261152 0.261152 0.261152
0.273836 0.273836 0.273836
0.282598 0.282598 0.282598
0.295282 0.295282 0.295282
0.306128 0.306128 0.306128
0.316728 0.316728 0.316728
0.329412 0.329412 0.329412
0.005760 0.005760 0.005760
0.009681 0.009681 0.009681
0.012684 0.012684 0.012684
0.015442 0.015442 0.015442
0.016605 0.016605 0.016605
0.017524 0.017524 0.017524
0.020527 0.020527 0.020527
0.021446 0.021446 0.021446
0.024448 0.024448 0.024448
0.024877 0.024877 0.024877
0.029289 0.029289 0.029289
0.031557 0.031557 0.031557
0.033211 0.033211 0.033211
0.037132 0.037132 0.037132
0.041238 0.041238 0.041238
0.041054 0.041054 0.041054
0.044975 0.044975 0.044975
0.048836 0.048836 0.048836
0.049755 0.049755 0.049755
0.052818 0.052818 0.052818
0.056740 0.056740 0.056740
0.060356 0.060356 0.060356
0.064583 0.064583 0.064583
0.066115 0.066115 0.066115
0.068505 0.068505 0.068505
0.072426 0.072426 0.072426
0.076348 0.076348 0.076348
0.080269 0.080269 0.080269
0.084191 0.084191 0.084191
0.088113 0.088113 0.088113
0.091238 0.091238 0.091238
0.095956 0.095956 0.095956
0.101838 0.101838 0.101838
0.106679 0.106679 0.106679
0.111520 0.111520 0.111520
0.115441 0.115441 0.115441
0.121201 0.121201 0.121201
0.126042 0.126042 0.126042
0.131250 0.131250 0.131250
0.139093 0.139093 0.139093
0.144485 0.144485 0.144485
0.149326 0.149326 0.149326
0.154779 0.154779 0.154779
0.162929 0.162929 0.162929
0.170772 0.170772 0.170772
0.176532 0.176532 0.176532
0.182230 0.182230 0.182230
0.190134 0.190134 0.190134
0.197916 0.197916 0.197916
0.206741 0.206741 0.206741
0.212500 0.212500 0.212500
0.221262 0.221262 0.221262
0.229105 0.229105 0.229105
0.237867 0.237867 0.237867
0.246629 0.246629 0.246629
0.255392 0.255392 0.255392
0.264154 0.264154 0.264154
0.272916 0.272916 0.272916
0.281679 0.281679 0.281679
0.291360 0.291360 0.291360
0.303125 0.303125 0.303125
0.312807 0.312807 0.312807
0.326655 0.326655 0.326655
0.337254 0.337254 0.337254
0.349939 0.349939 0.349939
0.017524 0.017524 0.017524
0.021446 0.021446 0.021446
0.023284 0.023284 0.023284
0.025367 0.025367 0.025367
0.029044 0.029044 0.029044
0.029289 0.029289 0.029289
0.030882 0.030882 0.030882
0.035723 0.035723 0.035723
0.037132 0.037132 0.037132
0.041054 0.041054 0.041054
0.042892 0.042892 0.042892
0.044975 0.044975 0.044975
0.046813 0.046813 0.046813
0.049081 0.049081 0.049081
0.054657 0.054657 0.054657
0.056740 0.056740 0.056740
0.059681 0.059681 0.059681
0.060662 0.060662 0.060662
0.064583 0.064583 0.064583
0.066360 0.066360 0.066360
0.071201 0.071201 0.071201
0.072426 0.072426 0.072426
0.078186 0.078186 0.078186
0.080269 0.080269 0.080269
0.082108 0.082108 0.082108
0.087561 0.087561 0.087561
0.088481 0.088481 0.088481
0.093321 0.093321 0.093321
0.098162 0.098162 0.098162
0.099877 0.099877 0.099877
0.103922 0.103922 0.103922
0.108762 0.108762 0.108762
0.113603 0.113603 0.113603
0.117402 0.117402 0.117402
0.121323 0.121323 0.121323
0.128125 0.128125 0.128125
0.132966 0.132966 0.132966
0.137009 0.137009 0.137009
0.146569 0.146569 0.146569
0.152696 0.152696 0.152696
0.156250 0.156250 0.156250
0.160539 0.160539 0.160539
0.169853 0.169853 0.169853
0.174693 0.174693 0.174693
0.182230 0.182230 0.182230
0.188297 0.188297 0.188297
0.197059 0.197059 0.197059
0.201899 0.201899 0.201899
0.210661 0.210661 0.210661
0.217586 0.217586 0.217586
0.224265 0.224265 0.224265
0.233027 0.233027 0.233027
0.237867 0.237867 0.237867
0.246630 0.246630 0.246630
0.255392 0.255392 0.255392
0.264155 0.264155 0.264155
0.272916 0.272916 0.272916
0.281679 0.281679 0.281679
0.290442 0.290442 0.290442
0.304534 0.304534 0.304534
0.311887 0.311887 0.311887
0.324571 0.324571 0.324571
0.333334 0.333334 0.333334
0.346017 0.346017 0.346017
0.358701 0.358701 0.358701
0.026287 0.026287 0.026287
0.030209 0.030209 0.030209
0.032046 0.032046 0.032046
0.034130 0.034130 0.034130
0.036888 0.036888 0.036888
0.038725 0.038725 0.038725
0.041973 0.041973 0.041973
0.044486 0.044486 0.044486
0.049326 0.049326 0.049326
0.049816 0.049816 0.049816
0.053738 0.053738 0.053738
0.056495 0.056495 0.056495
0.057660 0.057660 0.057660
0.061581 0.061581 0.061581
0.062684 0.062684 0.062684
0.065503 0.065503 0.065503
0.069424 0.069424 0.069424
0.069424 0.069424 0.069424
0.073346 0.073346 0.073346
0.077267 0.077267 0.077267
0.079963 0.079963 0.079963
0.081189 0.081189 0.081189
0.085723 0.085723 0.085723
0.089032 0.089032 0.089032
0.092954 0.092954 0.092954
0.096323 0.096323 0.096323
0.100797 0.100797 0.100797
0.102083 0.102083 0.102083
0.106924 0.106924 0.106924
0.111764 0.111764 0.111764
0.112684 0.112684 0.112684
0.117524 0.117524 0.117524
0.122365 0.122365 0.122365
0.128248 0.128248 0.128248
0.132169 0.132169 0.132169
0.136887 0.136887 0.136887
0.141728 0.141728 0.141728
0.147856 0.147856 0.147856
0.155331 0.155331 0.155331
0.157414 0.157414 0.157414
0.165012 0.165012 0.165012
0.171385 0.171385 0.171385
0.178615 0.178615 0.178615
0.183455 0.183455 0.183455
0.190993 0.190993 0.190993
0.197059 0.197059 0.197059
0.202758 0.202758 0.202758
0.210661 0.210661 0.210661
0.218444 0.218444 0.218444
0.224265 0.224265 0.224265
0.233027 0.233027 0.233027
0.239032 0.239032 0.239032
0.246629 0.246629 0.246629
0.255392 0.255392 0.255392
0.264155 0.264155 0.264155
0.272917 0.272917 0.272917
0.281679 0.281679 0.281679
0.290442 0.290442 0.290442
0.299204 0.299204 0.299204
0.307966 0.307966 0.307966
0.320649 0.320649 0.320649
0.329411 0.329411 0.329411
0.342096 0.342096 0.342096
0.350858 0.350858 0.350858
0.363542 0.363542 0.363542
0.038726 0.038726 0.038726
0.039889 0.039889 0.039889
0.042892 0.042892 0.042892
0.045650 0.045650 0.045650
0.046814 0.046814 0.046814
0.050735 0.050735 0.050735
0.054412 0.054412 0.054412
0.054657 0.054657 0.054657
0.058089 0.058089 0.058089
0.059007 0.059007 0.059007
0.062500 0.062500 0.062500
0.064768 0.064768 0.064768
0.066422 0.066422 0.066422
0.070343 0.070343 0.070343
0.071447 0.071447 0.071447
0.074265 0.074265 0.074265
0.078186 0.078186 0.078186
0.078186 0.078186 0.078186
0.082108 0.082108 0.082108
0.086030 0.086030 0.086030
0.088725 0.088725 0.088725
0.093567 0.093567 0.093567
0.094485 0.094485 0.094485
0.097794 0.097794 0.097794
0.101716 0.101716 0.101716
0.105085 0.105085 0.105085
0.109559 0.109559 0.109559
0.110845 0.110845 0.110845
0.115686 0.115686 0.115686
0.117402 0.117402 0.117402
0.121445 0.121445 0.121445
0.126287 0.126287 0.126287
0.131127 0.131127 0.131127
0.135968 0.135968 0.135968
0.141053 0.141053 0.141053
0.145650 0.145650 0.145650
0.150490 0.150490 0.150490
0.156618 0.156618 0.156618
0.160539 0.160539 0.160539
0.168382 0.168382 0.168382
0.173775 0.173775 0.173775
0.178615 0.178615 0.178615
0.183701 0.183701 0.183701
0.192217 0.192217 0.192217
0.197059 0.197059 0.197059
0.205821 0.205821 0.205821
0.210662 0.210662 0.210662
0.219363 0.219363 0.219363
0.224265 0.224265 0.224265
0.233027 0.233027 0.233027
0.238971 0.238971 0.238971
0.246630 0.246630 0.246630
0.255392 0.255392 0.255392
0.260478 0.260478 0.260478
0.268995 0.268995 0.268995
0.277757 0.277757 0.277757
0.286519 0.286519 0.286519
0.295281 0.295281 0.295281
0.302696 0.302696 0.302696
0.316728 0.316728 0.316728
0.325491 0.325491 0.325491
0.338173 0.338173 0.338173
0.346936 0.346936 0.346936
0.359620 0.359620 0.359620
0.368627 0.368627 0.368627
0.048407 0.048407 0.048407
0.052573 0.052573 0.052573
0.055576 0.055576 0.055576
0.055576 0.055576 0.055576
0.056250 0.056250 0.056250
0.060172 0.060172 0.060172
0.063419 0.063419 0.063419
0.065931 0.065931 0.065931
0.067341 0.067341 0.067341
0.071262 0.071262 0.071262
0.071262 0.071262 0.071262
0.075184 0.075184 0.075184
0.075184 0.075184 0.075184
0.079105 0.079105 0.079105
0.083027 0.083027 0.083027
0.085049 0.085049 0.085049
0.086949 0.086949 0.086949
0.090810 0.090810 0.090810
0.091728 0.091728 0.091728
0.094792 0.094792 0.094792
0.098713 0.098713 0.098713
0.102328 0.102328 0.102328
0.103248 0.103248 0.103248
0.106556 0.106556 0.106556
0.110478 0.110478 0.110478
0.113848 0.113848 0.113848
0.118321 0.118321 0.118321
0.119608 0.119608 0.119608
0.124449 0.124449 0.124449
0.126164 0.126164 0.126164
0.130209 0.130209 0.130209
0.135049 0.135049 0.135049
0.139890 0.139890 0.139890
0.144730 0.144730 0.144730
0.149571 0.149571 0.149571
0.154412 0.154412 0.154412
0.159253 0.159253 0.159253
0.164093 0.164093 0.164093
0.169301 0.169301 0.169301
0.177145 0.177145 0.177145
0.181066 0.181066 0.181066
0.187378 0.187378 0.187378
0.195465 0.195465 0.195465
0.200674 0.200674 0.200674
0.205822 0.205822 0.205822
0.213909 0.213909 0.213909
0.219423 0.219423 0.219423
0.224264 0.224264 0.224264
0.232047 0.232047 0.232047
0.237867 0.237867 0.237867
0.246629 0.246629 0.246629
0.254718 0.254718 0.254718
0.260233 0.260233 0.260233
0.268996 0.268996 0.268996
0.275184 0.275184 0.275184
0.285846 0.285846 0.285846
0.294608 0.294608 0.294608
0.303370 0.303370 0.303370
0.314461 0.314461 0.314461
0.321568 0.321568 0.321568
0.329902 0.329902 0.329902
0.343505 0.343505 0.343505
0.351777 0.351777 0.351777
0.364460 0.364460 0.364460
0.376471 0.376471 0.376471
0.060417 0.060417 0.060417
0.064338 0.064338 0.064338
0.064338 0.064338 0.064338
0.065931 0.065931 0.065931
0.068260 0.068260 0.068260
0.072181 0.072181 0.072181
0.072181 0.072181 0.072181
0.073774 0.073774 0.073774
0.076103 0.076103 0.076103
0.080024 0.080024 0.080024
0.081618 0.081618 0.081618
0.083946 0.083946 0.083946
0.087132 0.087132 0.087132
0.089461 0.089461 0.089461
0.091789 0.091789 0.091789
0.093811 0.093811 0.093811
0.095711 0.095711 0.095711
0.099572 0.099572 0.099572
0.100490 0.100490 0.100490
0.103554 0.103554 0.103554
0.107475 0.107475 0.107475
0.111090 0.111090 0.111090
0.112010 0.112010 0.112010
0.115318 0.115318 0.115318
0.119240 0.119240 0.119240
0.122610 0.122610 0.122610
0.127083 0.127083 0.127083
0.128370 0.128370 0.128370
0.133211 0.133211 0.133211
0.134926 0.134926 0.134926
0.138971 0.138971 0.138971
0.143811 0.143811 0.143811
0.148652 0.148652 0.148652
0.153493 0.153493 0.153493
0.158333 0.158333 0.158333
0.163174 0.163174 0.163174
0.168015 0.168015 0.168015
0.172855 0.172855 0.172855
0.178064 0.178064 0.178064
0.182536 0.182536 0.182536
0.189828 0.189828 0.189828
0.196140 0.196140 0.196140
0.200980 0.200980 0.200980
0.205822 0.205822 0.205822
0.212990 0.212990 0.212990
0.219424 0.219424 0.219424
0.225122 0.225122 0.225122
0.233028 0.233028 0.233028
0.240809 0.240809 0.240809
0.246630 0.246630 0.246630
0.252573 0.252573 0.252573
0.260233 0.260233 0.260233
0.267402 0.267402 0.267402
0.276164 0.276164 0.276164
0.282598 0.282598 0.282598
0.291361 0.291361 0.291361
0.300122 0.300122 0.300122
0.308885 0.308885 0.308885
0.317648 0.317648 0.317648
0.326410 0.326410 0.326410
0.339093 0.339093 0.339093
0.347855 0.347855 0.347855
0.361030 0.361030 0.361030
0.369302 0.369302 0.369302
0.381985 0.381985 0.381985
0.073101 0.073101 0.073101
0.075612 0.075612 0.075612
0.074938 0.074938 0.074938
0.077022 0.077022 0.077022
0.080699 0.080699 0.080699
0.080944 0.080944 0.080944
0.083456 0.083456 0.083456
0.084866 0.084866 0.084866
0.088296 0.088296 0.088296
0.088787 0.088787 0.088787
0.090135 0.090135 0.090135
0.092709 0.092709 0.092709
0.095220 0.095220 0.095220
0.096814 0.096814 0.096814
0.100552 0.100552 0.100552
0.102573 0.102573 0.102573
0.104473 0.104473 0.104473
0.108395 0.108395 0.108395
0.109252 0.109252 0.109252
0.112316 0.112316 0.112316
0.116238 0.116238 0.116238
0.119853 0.119853 0.119853
0.120772 0.120772 0.120772
0.124081 0.124081 0.124081
0.128003 0.128003 0.128003
0.131372 0.131372 0.131372
0.135846 0.135846 0.135846
0.137132 0.137132 0.137132
0.141973 0.141973 0.141973
0.143689 0.143689 0.143689
0.147732 0.147732 0.147732
0.152574 0.152574 0.152574
0.157414 0.157414 0.157414
0.162255 0.162255 0.162255
0.167095 0.167095 0.167095
0.171936 0.171936 0.171936
0.176777 0.176777 0.176777
0.181618 0.181618 0.181618
0.186458 0.186458 0.186458
0.191298 0.191298 0.191298
0.198591 0.198591 0.198591
0.204902 0.204902 0.204902
0.209743 0.209743 0.209743
0.214584 0.214584 0.214584
0.222120 0.222120 0.222120
0.228186 0.228186 0.228186
0.234436 0.234436 0.234436
0.241728 0.241728 0.241728
0.246629 0.246629 0.246629
0.252880 0.252880 0.252880
0.260233 0.260233 0.260233
0.268995 0.268995 0.268995
0.273835 0.273835 0.273835
0.282598 0.282598 0.282598
0.291361 0.291361 0.291361
0.300123 0.300123 0.300123
0.306372 0.306372 0.306372
0.315135 0.315135 0.315135
0.326410 0.326410 0.326410
0.335172 0.335172 0.335172
0.341666 0.341666 0.341666
0.356617 0.356617 0.356617
0.365379 0.365379 0.365379
0.378554 0.378554 0.378554
0.386826 0.386826 0.386826
0.081863 0.081863 0.081863
0.085785 0.085785 0.085785
0.085785 0.085785 0.085785
0.088542 0.088542 0.088542
0.089706 0.089706 0.089706
0.093138 0.093138 0.093138
0.093628 0.093628 0.093628
0.093628 0.093628 0.093628
0.097549 0.097549 0.097549
0.097549 0.097549 0.097549
0.101471 0.101471 0.101471
0.101471 0.101471 0.101471
0.105392 0.105392 0.105392
0.105577 0.105577 0.105577
0.109314 0.109314 0.109314
0.113235 0.113235 0.113235
0.113235 0.113235 0.113235
0.117157 0.117157 0.117157
0.118015 0.118015 0.118015
0.121079 0.121079 0.121079
0.125000 0.125000 0.125000
0.128615 0.128615 0.128615
0.129534 0.129534 0.129534
0.132843 0.132843 0.132843
0.136765 0.136765 0.136765
0.140134 0.140134 0.140134
0.144608 0.144608 0.144608
0.145895 0.145895 0.145895
0.150735 0.150735 0.150735
0.155883 0.155883 0.155883
0.156494 0.156494 0.156494
0.161336 0.161336 0.161336
0.166176 0.166176 0.166176
0.171017 0.171017 0.171017
0.175858 0.175858 0.175858
0.180699 0.180699 0.180699
0.185539 0.185539 0.185539
0.190380 0.190380 0.190380
0.195220 0.195220 0.195220
0.200061 0.200061 0.200061
0.204902 0.204902 0.204902
0.211275 0.211275 0.211275
0.218505 0.218505 0.218505
0.223346 0.223346 0.223346
0.228186 0.228186 0.228186
0.233517 0.233517 0.233517
0.241789 0.241789 0.241789
0.246629 0.246629 0.246629
0.251961 0.251961 0.251961
0.260233 0.260233 0.260233
0.268995 0.268995 0.268995
0.274326 0.274326 0.274326
0.282598 0.282598 0.282598
0.287929 0.287929 0.287929
0.296201 0.296201 0.296201
0.304963 0.304963 0.304963
0.313725 0.313725 0.313725
0.322487 0.322487 0.322487
0.331250 0.331250 0.331250
0.339828 0.339828 0.339828
0.352697 0.352697 0.352697
0.361459 0.361459 0.361459
0.370711 0.370711 0.370711
0.382905 0.382905 0.382905
0.392157 0.392157 0.392157
0.094547 0.094547 0.094547
0.095466 0.095466 0.095466
0.094976 0.094976 0.094976
0.098468 0.098468 0.098468
0.098468 0.098468 0.098468
0.102390 0.102390 0.102390
0.102390 0.102390 0.102390
0.104902 0.104902 0.104902
0.106311 0.106311 0.106311
0.106740 0.106740 0.106740
0.110233 0.110233 0.110233
0.110233 0.110233 0.110233
0.114154 0.114154 0.114154
0.118076 0.118076 0.118076
0.118076 0.118076 0.118076
0.121998 0.121998 0.121998
0.121998 0.121998 0.121998
0.125919 0.125919 0.125919
0.129841 0.129841 0.129841
0.129841 0.129841 0.129841
0.133762 0.133762 0.133762
0.137377 0.137377 0.137377
0.138297 0.138297 0.138297
0.141605 0.141605 0.141605
0.145527 0.145527 0.145527
0.148897 0.148897 0.148897
0.153370 0.153370 0.153370
0.154657 0.154657 0.154657
0.159498 0.159498 0.159498
0.161213 0.161213 0.161213
0.165258 0.165258 0.165258
0.170098 0.170098 0.170098
0.172978 0.172978 0.172978
0.179780 0.179780 0.179780
0.184619 0.184619 0.184619
0.188664 0.188664 0.188664
0.192586 0.192586 0.192586
0.196507 0.196507 0.196507
0.203982 0.203982 0.203982
0.208272 0.208272 0.208272
0.213665 0.213665 0.213665
0.218504 0.218504 0.218504
0.223958 0.223958 0.223958
0.231802 0.231802 0.231802
0.235723 0.235723 0.235723
0.241790 0.241790 0.241790
0.247488 0.247488 0.247488
0.254963 0.254963 0.254963
0.260233 0.260233 0.260233
0.267096 0.267096 0.267096
0.273835 0.273835 0.273835
0.282598 0.282598 0.282598
0.287439 0.287439 0.287439
0.296201 0.296201 0.296201
0.302390 0.302390 0.302390
0.313297 0.313297 0.313297
0.318566 0.318566 0.318566
0.327328 0.327328 0.327328
0.339583 0.339583 0.339583
0.348346 0.348346 0.348346
0.357537 0.357537 0.357537
0.366299 0.366299 0.366299
0.378554 0.378554 0.378554
0.387746 0.387746 0.387746
0.400000 0.400000 0.400000
0.103309 0.103309 0.103309
0.107230 0.107230 0.107230
0.107230 0.107230 0.107230
0.107230 0.107230 0.107230
0.108578 0.108578 0.108578
0.111152 0.111152 0.111152
0.112745 0.112745 0.112745
0.115073 0.115073 0.115073
0.115073 0.115073 0.115073
0.115502 0.115502 0.115502
0.118995 0.118995 0.118995
0.121262 0.121262 0.121262
0.122917 0.122917 0.122917
0.126838 0.126838 0.126838
0.126838 0.126838 0.126838
0.130760 0.130760 0.130760
0.130760 0.130760 0.130760
0.134681 0.134681 0.134681
0.138603 0.138603 0.138603
0.138603 0.138603 0.138603
0.142524 0.142524 0.142524
0.146140 0.146140 0.146140
0.147059 0.147059 0.147059
0.150368 0.150368 0.150368
0.154289 0.154289 0.154289
0.157659 0.157659 0.157659
0.162132 0.162132 0.162132
0.163419 0.163419 0.163419
0.168260 0.168260 0.168260
0.169975 0.169975 0.169975
0.174019 0.174019 0.174019
0.178861 0.178861 0.178861
0.181740 0.181740 0.181740
0.185662 0.185662 0.185662
0.189583 0.189583 0.189583
0.197426 0.197426 0.197426
0.201348 0.201348 0.201348
0.205270 0.205270 0.205270
0.209191 0.209191 0.209191
0.217034 0.217034 0.217034
0.220956 0.220956 0.220956
0.227267 0.227267 0.227267
0.232108 0.232108 0.232108
0.236948 0.236948 0.236948
0.244485 0.244485 0.244485
0.250552 0.250552 0.250552
0.255392 0.255392 0.255392
0.264093 0.264093 0.264093
0.267647 0.267647 0.267647
0.273835 0.273835 0.273835
0.282598 0.282598 0.282598
0.290012 0.290012 0.290012
0.296201 0.296201 0.296201
0.303615 0.303615 0.303615
0.309804 0.309804 0.309804
0.318567 0.318567 0.318567
0.327328 0.327328 0.327328
0.336090 0.336090 0.336090
0.344853 0.344853 0.344853
0.353616 0.353616 0.353616
0.361274 0.361274 0.361274
0.375061 0.375061 0.375061
0.383823 0.383823 0.383823
0.392585 0.392585 0.392585
0.405270 0.405270 0.405270
0.115992 0.115992 0.115992
0.115992 0.115992 0.115992
0.115992 0.115992 0.115992
0.118260 0.118260 0.118260
0.119914 0.119914 0.119914
0.119914 0.119914 0.119914
0.121507 0.121507 0.121507
0.123836 0.123836 0.123836
0.123836 0.123836 0.123836
0.127757 0.127757 0.127757
0.127757 0.127757 0.127757
0.130024 0.130024 0.130024
0.131679 0.131679 0.131679
0.135600 0.135600 0.135600
0.137867 0.137867 0.137867
0.139522 0.139522 0.139522
0.142463 0.142463 0.142463
0.143443 0.143443 0.143443
0.147365 0.147365 0.147365
0.149142 0.149142 0.149142
0.151287 0.151287 0.151287
0.154902 0.154902 0.154902
0.155821 0.155821 0.155821
0.159130 0.159130 0.159130
0.163051 0.163051 0.163051
0.166421 0.166421 0.166421
0.170894 0.170894 0.170894
0.172181 0.172181 0.172181
0.177022 0.177022 0.177022
0.178738 0.178738 0.178738
0.182781 0.182781 0.182781
0.187623 0.187623 0.187623
0.190502 0.190502 0.190502
0.194424 0.194424 0.194424
0.198345 0.198345 0.198345
0.206189 0.206189 0.206189
0.210110 0.210110 0.210110
0.214032 0.214032 0.214032
0.217953 0.217953 0.217953
0.225796 0.225796 0.225796
0.229718 0.229718 0.229718
0.236030 0.236030 0.236030
0.240870 0.240870 0.240870
0.245710 0.245710 0.245710
0.250552 0.250552 0.250552
0.257169 0.257169 0.257169
0.264155 0.264155 0.264155
0.268996 0.268996 0.268996
0.276777 0.276777 0.276777
0.282598 0.282598 0.282598
0.289093 0.289093 0.289093
0.296201 0.296201 0.296201
0.304228 0.304228 0.304228
0.309804 0.309804 0.309804
0.318567 0.318567 0.318567
0.323836 0.323836 0.323836
0.333823 0.333823 0.333823
0.342585 0.342585 0.342585
0.351348 0.351348 0.351348
0.360110 0.360110 0.360110
0.371140 0.371140 0.371140
0.379902 0.379902 0.379902
0.388664 0.388664 0.388664
0.402084 0.402084 0.402084
0.410110 0.410110 0.410110
0.124755 0.124755 0.124755
0.127941 0.127941 0.127941
0.128677 0.128677 0.128677
0.128677 0.128677 0.128677
0.128677 0.128677 0.128677
0.129350 0.129350 0.129350
0.132598 0.132598 0.132598
0.132598 0.132598 0.132598
0.135784 0.135784 0.135784
0.136520 0.136520 0.136520
0.137867 0.137867 0.137867
0.140441 0.140441 0.140441
0.143627 0.143627 0.143627
0.144363 0.144363 0.144363
0.145466 0.145466 0.145466
0.148285 0.148285 0.148285
0.151225 0.151225 0.151225
0.152206 0.152206 0.152206
0.156128 0.156128 0.156128
0.157904 0.157904 0.157904
0.160049 0.160049 0.160049
0.163971 0.163971 0.163971
0.167892 0.167892 0.167892
0.169424 0.169424 0.169424
0.171814 0.171814 0.171814
0.175736 0.175736 0.175736
0.179657 0.179657 0.179657
0.180944 0.180944 0.180944
0.185784 0.185784 0.185784
0.187500 0.187500 0.187500
0.191543 0.191543 0.191543
0.196385 0.196385 0.196385
0.199265 0.199265 0.199265
0.203187 0.203187 0.203187
0.207108 0.207108 0.207108
0.214951 0.214951 0.214951
0.218873 0.218873 0.218873
0.222794 0.222794 0.222794
0.226716 0.226716 0.226716
0.231188 0.231188 0.231188
0.238481 0.238481 0.238481
0.242402 0.242402 0.242402
0.249632 0.249632 0.249632
0.254167 0.254167 0.254167
0.259313 0.259313 0.259313
0.264155 0.264155 0.264155
0.269730 0.269730 0.269730
0.274571 0.274571 0.274571
0.282598 0.282598 0.282598
0.289461 0.289461 0.289461
0.296201 0.296201 0.296201
0.301226 0.301226 0.301226
0.309804 0.309804 0.309804
0.318567 0.318567 0.318567
0.324142 0.324142 0.324142
0.332169 0.332169 0.332169
0.340932 0.340932 0.340932
0.349693 0.349693 0.349693
0.358455 0.358455 0.358455
0.367218 0.367218 0.367218
0.375980 0.375980 0.375980
0.385478 0.385478 0.385478
0.397427 0.397427 0.397427
0.406189 0.406189 0.406189
0.415686 0.415686 0.415686
0.137439 0.137439 0.137439
0.137439 0.137439 0.137439
0.137439 0.137439 0.137439
0.140196 0.140196 0.140196
0.141360 0.141360 0.141360
0.141360 0.141360 0.141360
0.141360 0.141360 0.141360
0.141544 0.141544 0.141544
0.145282 0.145282 0.145282
0.145711 0.145711 0.145711
0.149204 0.149204 0.149204
0.149204 0.149204 0.149204
0.149388 0.149388 0.149388
0.153125 0.153125 0.153125
0.157047 0.157047 0.157047
0.157047 0.157047 0.157047
0.160968 0.160968 0.160968
0.160968 0.160968 0.160968
0.164890 0.164890 0.164890
0.166667 0.166667 0.166667
0.168811 0.168811 0.168811
0.172733 0.172733 0.172733
0.176655 0.176655 0.176655
0.178187 0.178187 0.178187
0.180576 0.180576 0.180576
0.184498 0.184498 0.184498
0.188419 0.188419 0.188419
0.189705 0.189705 0.189705
0.194547 0.194547 0.194547
0.196262 0.196262 0.196262
0.200306 0.200306 0.200306
0.204106 0.204106 0.204106
0.208027 0.208027 0.208027
0.211949 0.211949 0.211949
0.215870 0.215870 0.215870
0.220588 0.220588 0.220588
0.225429 0.225429 0.225429
0.230269 0.230269 0.230269
0.238848 0.238848 0.238848
