Black-and-White/Kodak/Kodak HIE (HS Infra) 65x.cube
TITLE "Kodak HIE (HS Infra)"
LUT_3D_SIZE 9
DOMAIN_MIN 0.000000 0.000000 0.000000
DOMAIN_MAX 1.000000 1.000000 1.000000
0.000000 0.000000 0.000000
0.100981 0.100981 0.100981
0.191176 0.191176 0.191176
0.318628 0.318628 0.318628
0.482353 0.482353 0.482353
0.657843 0.657843 0.657843
0.797058 0.797058 0.797058
0.890686 0.890686 0.890686
0.980392 0.980392 0.980392
0.128432 0.128432 0.128432
0.179412 0.179412 0.179412
0.249509 0.249509 0.249509
0.353432 0.353432 0.353432
0.490197 0.490197 0.490197
0.657843 0.657843 0.657843
0.794118 0.794118 0.794118
0.887255 0.887255 0.887255
0.980392 0.980392 0.980392
0.225490 0.225490 0.225490
0.252941 0.252941 0.252941
0.307843 0.307843 0.307843
0.393627 0.393627 0.393627
0.513726 0.513726 0.513726
0.669608 0.669608 0.669608
0.798039 0.798039 0.798039
0.891176 0.891176 0.891176
0.980392 0.980392 0.980392
0.338235 0.338235 0.338235
0.361765 0.361765 0.361765
0.389706 0.389706 0.389706
0.454412 0.454412 0.454412
0.551471 0.551471 0.551471
0.689216 0.689216 0.689216
0.808823 0.808823 0.808823
0.898529 0.898529 0.898529
0.980392 0.980392 0.980392
0.492157 0.492157 0.492157
0.501961 0.501961 0.501961
0.511764 0.511764 0.511764
0.543628 0.543628 0.543628
0.603921 0.603921 0.603921
0.712745 0.712745 0.712745
0.820588 0.820588 0.820588
0.906372 0.906372 0.906372
0.984314 0.984314 0.984314
0.703922 0.703922 0.703922
0.694608 0.694608 0.694608
0.686765 0.686765 0.686765
0.669608 0.669608 0.669608
0.674019 0.674019 0.674019
0.748039 0.748039 0.748039
0.833334 0.833334 0.833334
0.914215 0.914215 0.914215
0.988235 0.988235 0.988235
0.904902 0.904902 0.904902
0.986274 0.986274 0.986274
0.948039 0.948039 0.948039
0.868137 0.868137 0.868137
0.788235 0.788235 0.788235
0.793627 0.793627 0.793627
0.852941 0.852941 0.852941
0.922059 0.922059 0.922059
0.992157 0.992157 0.992157
0.905882 0.905882 0.905882
0.944608 0.944608 0.944608
1.000000 1.000000 1.000000
1.000000 1.000000 1.000000
1.000000 1.000000 1.000000
0.886275 0.886275 0.886275
0.878921 0.878921 0.878921
0.929412 0.929412 0.929412
0.996078 0.996078 0.996078
0.811765 0.811765 0.811765
0.854412 0.854412 0.854412
0.955882 0.955882 0.955882
1.000000 1.000000 1.000000
1.000000 1.000000 1.000000
1.000000 1.000000 1.000000
1.000000 1.000000 1.000000
0.949020 0.949020 0.949020
0.992157 0.992157 0.992157
0.000000 0.000000 0.000000
0.073530 0.073530 0.073530
0.198039 0.198039 0.198039
0.340686 0.340686 0.340686
0.515686 0.515686 0.515686
0.681372 0.681372 0.681372
0.812745 0.812745 0.812745
0.905882 0.905882 0.905882
0.988235 0.988235 0.988235
0.093138 0.093138 0.093138
0.159804 0.159804 0.159804
0.241176 0.241176 0.241176
0.358823 0.358823 0.358823
0.513235 0.513235 0.513235
0.676961 0.676961 0.676961
0.805883 0.805883 0.805883
0.899019 0.899019 0.899019
0.984314 0.984314 0.984314
0.206373 0.206373 0.206373
0.238236 0.238236 0.238236
0.296078 0.296078 0.296078
0.396078 0.396078 0.396078
0.528921 0.528921 0.528921
0.684314 0.684314 0.684314
0.809804 0.809804 0.809804
0.899019 0.899019 0.899019
0.984314 0.984314 0.984314
0.327941 0.327941 0.327941
0.346078 0.346078 0.346078
0.377451 0.377451 0.377451
0.451961 0.451961 0.451961
0.560785 0.560785 0.560785
0.698039 0.698039 0.698039
0.816667 0.816667 0.816667
0.902941 0.902941 0.902941
0.984314 0.984314 0.984314
0.478432 0.478432 0.478432
0.486274 0.486274 0.486274
0.494117 0.494117 0.494117
0.537745 0.537745 0.537745
0.607843 0.607843 0.607843
0.721078 0.721078 0.721078
0.825490 0.825490 0.825490
0.910294 0.910294 0.910294
0.988235 0.988235 0.988235
0.673039 0.673039 0.673039
0.671079 0.671079 0.671079
0.664216 0.664216 0.664216
0.657843 0.657843 0.657843
0.670098 0.670098 0.670098
0.751961 0.751961 0.751961
0.840196 0.840196 0.840196
0.918137 0.918137 0.918137
0.989706 0.989706 0.989706
0.966176 0.966176 0.966176
0.962255 0.962255 0.962255
0.912255 0.912255 0.912255
0.837255 0.837255 0.837255
0.775000 0.775000 0.775000
0.793627 0.793627 0.793627
0.856863 0.856863 0.856863
0.925490 0.925490 0.925490
0.992157 0.992157 0.992157
0.928922 0.928922 0.928922
0.964706 0.964706 0.964706
1.000000 1.000000 1.000000
1.000000 1.000000 1.000000
1.000000 1.000000 1.000000
0.878431 0.878431 0.878431
0.882843 0.882843 0.882843
0.929412 0.929412 0.929412
0.996078 0.996078 0.996078
0.831373 0.831373 0.831373
0.874020 0.874020 0.874020
0.974510 0.974510 0.974510
1.000000 1.000000 1.000000
1.000000 1.000000 1.000000
1.000000 1.000000 1.000000
1.000000 1.000000 1.000000
0.948530 0.948530 0.948530
0.992157 0.992157 0.992157
0.000000 0.000000 0.000000
0.072549 0.072549 0.072549
0.209804 0.209804 0.209804
0.364706 0.364706 0.364706
0.539215 0.539215 0.539215
0.700980 0.700980 0.700980
0.821569 0.821569 0.821569
0.918627 0.918627 0.918627
0.992157 0.992157 0.992157
0.081863 0.081863 0.081863
0.140196 0.140196 0.140196
0.245098 0.245098 0.245098
0.373039 0.373039 0.373039
0.536274 0.536274 0.536274
0.693137 0.693137 0.693137
0.817647 0.817647 0.817647
0.910784 0.910784 0.910784
0.991667 0.991667 0.991667
0.187255 0.187255 0.187255
0.218137 0.218137 0.218137
0.296078 0.296078 0.296078
0.403921 0.403921 0.403921
0.550980 0.550980 0.550980
0.700000 0.700000 0.700000
0.820588 0.820588 0.820588
0.910784 0.910784 0.910784
0.988235 0.988235 0.988235
0.302941 0.302941 0.302941
0.319118 0.319118 0.319118
0.370098 0.370098 0.370098
0.454412 0.454412 0.454412
0.578922 0.578922 0.578922
0.713726 0.713726 0.713726
0.827451 0.827451 0.827451
0.913235 0.913235 0.913235
0.992157 0.992157 0.992157
0.444118 0.444118 0.444118
0.448039 0.448039 0.448039
0.475490 0.475490 0.475490
0.529902 0.529902 0.529902
0.619607 0.619607 0.619607
0.733823 0.733823 0.733823
0.837255 0.837255 0.837255
0.918627 0.918627 0.918627
0.992157 0.992157 0.992157
0.628921 0.628921 0.628921
0.628921 0.628921 0.628921
0.622549 0.622549 0.622549
0.635294 0.635294 0.635294
0.674019 0.674019 0.674019
0.759804 0.759804 0.759804
0.849510 0.849510 0.849510
0.925000 0.925000 0.925000
0.996078 0.996078 0.996078
0.905882 0.905882 0.905882
0.888236 0.888236 0.888236
0.852941 0.852941 0.852941
0.792647 0.792647 0.792647
0.755882 0.755882 0.755882
0.797549 0.797549 0.797549
0.866667 0.866667 0.866667
0.925980 0.925980 0.925980
0.999019 0.999019 0.999019
0.975490 0.975490 0.975490
1.000000 1.000000 1.000000
1.000000 1.000000 1.000000
1.000000 1.000000 1.000000
0.963235 0.963235 0.963235
0.864706 0.864706 0.864706
0.887255 0.887255 0.887255
0.929412 0.929412 0.929412
1.000000 1.000000 1.000000
0.881373 0.881373 0.881373
0.924019 0.924019 0.924019
1.000000 1.000000 1.000000
1.000000 1.000000 1.000000
1.000000 1.000000 1.000000
1.000000 1.000000 1.000000
1.000000 1.000000 1.000000
0.948530 0.948530 0.948530
1.000000 1.000000 1.000000
0.000000 0.000000 0.000000
0.088725 0.088725 0.088725
0.228922 0.228922 0.228922
0.395588 0.395588 0.395588
0.566666 0.566666 0.566666
0.720588 0.720588 0.720588
0.832353 0.832353 0.832353
0.930392 0.930392 0.930392
0.996078 0.996078 0.996078
0.054412 0.054412 0.054412
0.143627 0.143627 0.143627
0.252941 0.252941 0.252941
0.399510 0.399510 0.399510
0.563235 0.563235 0.563235
0.715196 0.715196 0.715196
0.829412 0.829412 0.829412
0.924510 0.924510 0.924510
0.996078 0.996078 0.996078
0.167647 0.167647 0.167647
0.214215 0.214215 0.214215
0.300000 0.300000 0.300000
0.423529 0.423529 0.423529
0.576470 0.576470 0.576470
0.720588 0.720588 0.720588
0.832353 0.832353 0.832353
0.925980 0.925980 0.925980
0.996078 0.996078 0.996078
0.280882 0.280882 0.280882
0.307843 0.307843 0.307843
0.370098 0.370098 0.370098
0.467647 0.467647 0.467647
0.602451 0.602451 0.602451
0.733333 0.733333 0.733333
0.840196 0.840196 0.840196
0.928431 0.928431 0.928431
0.996078 0.996078 0.996078
0.407844 0.407844 0.407844
0.423530 0.423530 0.423530
0.463726 0.463726 0.463726
0.529902 0.529902 0.529902
0.639215 0.639215 0.639215
0.751961 0.751961 0.751961
0.850000 0.850000 0.850000
0.932353 0.932353 0.932353
0.998529 0.998529 0.998529
0.566667 0.566667 0.566667
0.571569 0.571569 0.571569
0.588726 0.588726 0.588726
0.614706 0.614706 0.614706
0.685784 0.685784 0.685784
0.775490 0.775490 0.775490
0.863726 0.863726 0.863726
0.937745 0.937745 0.937745
1.000000 1.000000 1.000000
0.805392 0.805392 0.805392
0.795098 0.795098 0.795098
0.765196 0.765196 0.765196
0.739215 0.739215 0.739215
0.748039 0.748039 0.748039
0.805392 0.805392 0.805392
0.879412 0.879412 0.879412
0.937745 0.937745 0.937745
1.000000 1.000000 1.000000
1.000000 1.000000 1.000000
1.000000 1.000000 1.000000
1.000000 1.000000 1.000000
0.998039 0.998039 0.998039
0.889706 0.889706 0.889706
0.855392 0.855392 0.855392
0.896079 0.896079 0.896079
0.933333 0.933333 0.933333
1.000000 1.000000 1.000000
0.951471 0.951471 0.951471
0.986274 0.986274 0.986274
1.000000 1.000000 1.000000
1.000000 1.000000 1.000000
1.000000 1.000000 1.000000
1.000000 1.000000 1.000000
0.999019 0.999019 0.999019
0.945098 0.945098 0.945098
1.000000 1.000000 1.000000
0.000000 0.000000 0.000000
0.114706 0.114706 0.114706
0.262745 0.262745 0.262745
0.438235 0.438235 0.438235
0.598040 0.598040 0.598040
0.744117 0.744117 0.744117
0.844118 0.844118 0.844118
0.945588 0.945588 0.945588
1.000000 1.000000 1.000000
0.057844 0.057844 0.057844
0.159804 0.159804 0.159804
0.279902 0.279902 0.279902
0.438725 0.438725 0.438725
0.594117 0.594117 0.594117
0.740196 0.740196 0.740196
0.842157 0.842157 0.842157
0.941666 0.941666 0.941666
1.000000 1.000000 1.000000
0.178431 0.178431 0.178431
0.225980 0.225980 0.225980
0.322549 0.322549 0.322549
0.462745 0.462745 0.462745
0.609804 0.609804 0.609804
0.747059 0.747059 0.747059
0.845098 0.845098 0.845098
0.942156 0.942156 0.942156
1.000000 1.000000 1.000000
0.280882 0.280882 0.280882
0.311765 0.311765 0.311765
0.387745 0.387745 0.387745
0.503432 0.503432 0.503432
0.633824 0.633824 0.633824
0.759804 0.759804 0.759804
0.851961 0.851961 0.851961
0.945588 0.945588 0.945588
1.000000 1.000000 1.000000
0.394118 0.394118 0.394118
0.415686 0.415686 0.415686
0.465686 0.465686 0.465686
0.555392 0.555392 0.555392
0.668628 0.668628 0.668628
0.775980 0.775980 0.775980
0.863726 0.863726 0.863726
0.949510 0.949510 0.949510
1.000000 1.000000 1.000000
0.527941 0.527941 0.527941
0.537745 0.537745 0.537745
0.561274 0.561274 0.561274
0.619608 0.619608 0.619608
0.707353 0.707353 0.707353
0.795588 0.795588 0.795588
0.875490 0.875490 0.875490
0.949510 0.949510 0.949510
1.000000 1.000000 1.000000
0.702941 0.702941 0.702941
0.702941 0.702941 0.702941
0.695098 0.695098 0.695098
0.703922 0.703922 0.703922
0.755882 0.755882 0.755882
0.819117 0.819117 0.819117
0.892157 0.892157 0.892157
0.951471 0.951471 0.951471
1.000000 1.000000 1.000000
1.000000 1.000000 1.000000
1.000000 1.000000 1.000000
0.974020 0.974020 0.974020
0.894118 0.894118 0.894118
0.838726 0.838726 0.838726
0.852451 0.852451 0.852451
0.910784 0.910784 0.910784
0.945588 0.945588 0.945588
1.000000 1.000000 1.000000
1.000000 1.000000 1.000000
1.000000 1.000000 1.000000
1.000000 1.000000 1.000000
1.000000 1.000000 1.000000
1.000000 1.000000 1.000000
1.000000 1.000000 1.000000
0.973530 0.973530 0.973530
0.944608 0.944608 0.944608
1.000000 1.000000 1.000000
0.000000 0.000000 0.000000
0.161274 0.161274 0.161274
0.325000 0.325000 0.325000
0.488726 0.488726 0.488726
0.636765 0.636765 0.636765
0.771568 0.771568 0.771568
0.857353 0.857353 0.857353
0.961274 0.961274 0.961274
1.000000 1.000000 1.000000
0.094608 0.094608 0.094608
0.200000 0.200000 0.200000
0.340196 0.340196 0.340196
0.492647 0.492647 0.492647
0.636765 0.636765 0.636765
0.771078 0.771078 0.771078
0.855883 0.855883 0.855883
0.957353 0.957353 0.957353
1.000000 1.000000 1.000000
0.208334 0.208334 0.208334
0.266176 0.266176 0.266176
0.382843 0.382843 0.382843
0.516177 0.516177 0.516177
0.652451 0.652451 0.652451
0.775490 0.775490 0.775490
0.860785 0.860785 0.860785
0.961274 0.961274 0.961274
1.000000 1.000000 1.000000
0.309804 0.309804 0.309804
0.352451 0.352451 0.352451
0.441177 0.441177 0.441177
0.551471 0.551471 0.551471
0.675980 0.675980 0.675980
0.791176 0.791176 0.791176
0.867647 0.867647 0.867647
0.961274 0.961274 0.961274
1.000000 1.000000 1.000000
0.411764 0.411764 0.411764
0.442157 0.442157 0.442157
0.505882 0.505882 0.505882
0.598530 0.598530 0.598530
0.703431 0.703431 0.703431
0.805392 0.805392 0.805392
0.877451 0.877451 0.877451
0.965196 0.965196 0.965196
1.000000 1.000000 1.000000
0.516667 0.516667 0.516667
0.532353 0.532353 0.532353
0.578432 0.578432 0.578432
0.650980 0.650980 0.650980
0.736764 0.736764 0.736764
0.822549 0.822549 0.822549
0.891176 0.891176 0.891176
0.966176 0.966176 0.966176
1.000000 1.000000 1.000000
0.637255 0.637255 0.637255
0.643137 0.643137 0.643137
0.664706 0.664706 0.664706
0.713236 0.713236 0.713236
0.772059 0.772059 0.772059
0.841667 0.841667 0.841667
0.904412 0.904412 0.904412
0.969117 0.969117 0.969117
1.000000 1.000000 1.000000
0.876961 0.876961 0.876961
0.863235 0.863235 0.863235
0.834314 0.834314 0.834314
0.808823 0.808823 0.808823
0.824019 0.824019 0.824019
0.860785 0.860785 0.860785
0.921569 0.921569 0.921569
0.965196 0.965196 0.965196
1.000000 1.000000 1.000000
1.000000 1.000000 1.000000
1.000000 1.000000 1.000000
1.000000 1.000000 1.000000
1.000000 1.000000 1.000000
1.000000 1.000000 1.000000
1.000000 1.000000 1.000000
0.952941 0.952941 0.952941
0.941176 0.941176 0.941176
1.000000 1.000000 1.000000
0.004902 0.004902 0.004902
0.255882 0.255882 0.255882
0.407843 0.407843 0.407843
0.550980 0.550980 0.550980
0.683333 0.683333 0.683333
0.797549 0.797549 0.797549
0.880392 0.880392 0.880392
0.976961 0.976961 0.976961
1.000000 1.000000 1.000000
0.176471 0.176471 0.176471
0.291176 0.291176 0.291176
0.423529 0.423529 0.423529
0.554902 0.554902 0.554902
0.687255 0.687255 0.687255
0.798529 0.798529 0.798529
0.880392 0.880392 0.880392
0.973530 0.973530 0.973530
1.000000 1.000000 1.000000
0.295098 0.295098 0.295098
0.355392 0.355392 0.355392
0.461765 0.461765 0.461765
0.578431 0.578431 0.578431
0.702941 0.702941 0.702941
0.805392 0.805392 0.805392
0.884314 0.884314 0.884314
0.976961 0.976961 0.976961
1.000000 1.000000 1.000000
0.396569 0.396569 0.396569
0.435294 0.435294 0.435294
0.513235 0.513235 0.513235
0.613725 0.613725 0.613725
0.722549 0.722549 0.722549
0.817157 0.817157 0.817157
0.894608 0.894608 0.894608
0.977451 0.977451 0.977451
1.000000 1.000000 1.000000
0.485294 0.485294 0.485294
0.512255 0.512255 0.512255
0.570588 0.570588 0.570588
0.652941 0.652941 0.652941
0.750000 0.750000 0.750000
0.830882 0.830882 0.830882
0.903922 0.903922 0.903922
0.980882 0.980882 0.980882
1.000000 1.000000 1.000000
0.563235 0.563235 0.563235
0.582843 0.582843 0.582843
0.627941 0.627941 0.627941
0.695098 0.695098 0.695098
0.779412 0.779412 0.779412
0.848529 0.848529 0.848529
0.917156 0.917156 0.917156
0.984804 0.984804 0.984804
1.000000 1.000000 1.000000
0.645098 0.645098 0.645098
0.656863 0.656863 0.656863
0.692157 0.692157 0.692157
0.743137 0.743137 0.743137
0.806863 0.806863 0.806863
0.867647 0.867647 0.867647
0.927451 0.927451 0.927451
0.988725 0.988725 0.988725
1.000000 1.000000 1.000000
0.757353 0.757353 0.757353
0.761274 0.761274 0.761274
0.773529 0.773529 0.773529
0.796568 0.796568 0.796568
0.833334 0.833334 0.833334
0.887255 0.887255 0.887255
0.930392 0.930392 0.930392
0.985294 0.985294 0.985294
1.000000 1.000000 1.000000
1.000000 1.000000 1.000000
1.000000 1.000000 1.000000
1.000000 1.000000 1.000000
1.000000 1.000000 1.000000
1.000000 1.000000 1.000000
0.962255 0.962255 0.962255
0.949020 0.949020 0.949020
0.950491 0.950491 0.950491
1.000000 1.000000 1.000000
0.141666 0.141666 0.141666
0.372549 0.372549 0.372549
0.498039 0.498039 0.498039
0.618627 0.618627 0.618627
0.733333 0.733333 0.733333
0.821569 0.821569 0.821569
0.915196 0.915196 0.915196
0.988725 0.988725 0.988725
1.000000 1.000000 1.000000
0.309804 0.309804 0.309804
0.407843 0.407843 0.407843
0.516667 0.516667 0.516667
0.628922 0.628922 0.628922
0.739706 0.739706 0.739706
0.825000 0.825000 0.825000
0.915686 0.915686 0.915686
0.988725 0.988725 0.988725
1.000000 1.000000 1.000000
0.418137 0.418137 0.418137
0.466177 0.466177 0.466177
0.551961 0.551961 0.551961
0.652451 0.652451 0.652451
0.753432 0.753432 0.753432
0.832843 0.832843 0.832843
0.925491 0.925491 0.925491
0.992647 0.992647 0.992647
1.000000 1.000000 1.000000
0.501471 0.501471 0.501471
0.532843 0.532843 0.532843
0.598530 0.598530 0.598530
0.683824 0.683824 0.683824
0.775000 0.775000 0.775000
0.844608 0.844608 0.844608
0.934804 0.934804 0.934804
0.996078 0.996078 0.996078
1.000000 1.000000 1.000000
0.575490 0.575490 0.575490
0.599019 0.599019 0.599019
0.648529 0.648529 0.648529
0.721079 0.721079 0.721079
0.798039 0.798039 0.798039
0.858333 0.858333 0.858333
0.946569 0.946569 0.946569
0.996568 0.996568 0.996568
1.000000 1.000000 1.000000
0.641667 0.641667 0.641667
0.660294 0.660294 0.660294
0.701471 0.701471 0.701471
0.761275 0.761275 0.761275
0.821569 0.821569 0.821569
0.876471 0.876471 0.876471
0.958333 0.958333 0.958333
1.000000 1.000000 1.000000
1.000000 1.000000 1.000000
0.703431 0.703431 0.703431
0.715687 0.715687 0.715687
0.749509 0.749509 0.749509
0.799019 0.799019 0.799019
0.845588 0.845588 0.845588
0.895588 0.895588 0.895588
0.965686 0.965686 0.965686
1.000000 1.000000 1.000000
1.000000 1.000000 1.000000
0.761764 0.761764 0.761764
0.772549 0.772549 0.772549
0.792647 0.792647 0.792647
0.826470 0.826470 0.826470
0.869118 0.869118 0.869118
0.910294 0.910294 0.910294
0.965196 0.965196 0.965196
1.000000 1.000000 1.000000
1.000000 1.000000 1.000000
1.000000 1.000000 1.000000
1.000000 1.000000 1.000000
1.000000 1.000000 1.000000
0.980392 0.980392 0.980392
0.932843 0.932843 0.932843
0.930882 0.930882 0.930882
0.944118 0.944118 0.944118
0.984804 0.984804 0.984804
1.000000 1.000000 1.000000
0.305882 0.305882 0.305882
0.497059 0.497059 0.497059
0.598039 0.598039 0.598039
0.692647 0.692647 0.692647
0.778431 0.778431 0.778431
0.860294 0.860294 0.860294
0.953922 0.953922 0.953922
1.000000 1.000000 1.000000
1.000000 1.000000 1.000000
0.458334 0.458334 0.458334
0.532843 0.532843 0.532843
0.618627 0.618627 0.618627
0.708333 0.708333 0.708333
0.786274 0.786274 0.786274
0.868137 0.868137 0.868137
0.957843 0.957843 0.957843
1.000000 1.000000 1.000000
1.000000 1.000000 1.000000
0.550980 0.550980 0.550980
0.586764 0.586764 0.586764
0.656863 0.656863 0.656863
0.730882 0.730882 0.730882
0.801961 0.801961 0.801961
0.879902 0.879902 0.879902
0.965686 0.965686 0.965686
1.000000 1.000000 1.000000
1.000000 1.000000 1.000000
0.625980 0.625980 0.625980
0.649510 0.649510 0.649510
0.699510 0.699510 0.699510
0.759314 0.759314 0.759314
0.821568 0.821568 0.821568
0.899510 0.899510 0.899510
0.977451 0.977451 0.977451
1.000000 1.000000 1.000000
1.000000 1.000000 1.000000
0.690196 0.690196 0.690196
0.709314 0.709314 0.709314
0.742157 0.742157 0.742157
0.788726 0.788726 0.788726
0.843137 0.843137 0.843137
0.919118 0.919118 0.919118
0.988235 0.988235 0.988235
1.000000 1.000000 1.000000
1.000000 1.000000 1.000000
0.746569 0.746569 0.746569
0.758333 0.758333 0.758333
0.781863 0.781863 0.781863
0.822059 0.822059 0.822059
0.872549 0.872549 0.872549
0.942647 0.942647 0.942647
0.993137 0.993137 0.993137
1.000000 1.000000 1.000000
1.000000 1.000000 1.000000
0.796078 0.796078 0.796078
0.803922 0.803922 0.803922
0.820588 0.820588 0.820588
0.853431 0.853431 0.853431
0.903922 0.903922 0.903922
0.966176 0.966176 0.966176
1.000000 1.000000 1.000000
1.000000 1.000000 1.000000
1.000000 1.000000 1.000000
0.835784 0.835784 0.835784
0.843137 0.843137 0.843137
0.855392 0.855392 0.855392
0.878921 0.878921 0.878921
0.925980 0.925980 0.925980
0.976471 0.976471 0.976471
1.000000 1.000000 1.000000
1.000000 1.000000 1.000000
1.000000 1.000000 1.000000
0.870588 0.870588 0.870588
0.874510 0.874510 0.874510
0.886275 0.886275 0.886275
0.905882 0.905882 0.905882
0.929412 0.929412 0.929412
0.949020 0.949020 0.949020
0.992157 0.992157 0.992157
1.000000 1.000000 1.000000
1.000000 1.000000 1.000000
