Black-and-White/Kodak/Kodak BW 400 CN 65x.cube
TITLE "Kodak BW 400 CN"
LUT_3D_SIZE 9
DOMAIN_MIN 0.000000 0.000000 0.000000
DOMAIN_MAX 1.000000 1.000000 1.000000
0.000000 0.000000 0.000000
0.003922 0.003922 0.003922
0.019608 0.019608 0.019608
0.043137 0.043137 0.043137
0.074510 0.074510 0.074510
0.119118 0.119118 0.119118
0.173530 0.173530 0.173530
0.243627 0.243627 0.243627
0.329412 0.329412 0.329412
0.081863 0.081863 0.081863
0.097549 0.097549 0.097549
0.113235 0.113235 0.113235
0.136765 0.136765 0.136765
0.166176 0.166176 0.166176
0.204902 0.204902 0.204902
0.251961 0.251961 0.251961
0.313725 0.313725 0.313725
0.392157 0.392157 0.392157
0.167647 0.167647 0.167647
0.174510 0.174510 0.174510
0.187255 0.187255 0.187255
0.206863 0.206863 0.206863
0.234314 0.234314 0.234314
0.269608 0.269608 0.269608
0.310785 0.310785 0.310785
0.368138 0.368138 0.368138
0.438236 0.438236 0.438236
0.255883 0.255883 0.255883
0.261275 0.261275 0.261275
0.272059 0.272059 0.272059
0.287255 0.287255 0.287255
0.310294 0.310294 0.310294
0.341177 0.341177 0.341177
0.382843 0.382843 0.382843
0.430392 0.430392 0.430392
0.492647 0.492647 0.492647
0.360784 0.360784 0.360784
0.364706 0.364706 0.364706
0.372549 0.372549 0.372549
0.386274 0.386274 0.386274
0.405883 0.405883 0.405883
0.430882 0.430882 0.430882
0.461765 0.461765 0.461765
0.504412 0.504412 0.504412
0.566666 0.566666 0.566666
0.473529 0.473529 0.473529
0.475980 0.475980 0.475980
0.481372 0.481372 0.481372
0.494117 0.494117 0.494117
0.508824 0.508824 0.508824
0.532353 0.532353 0.532353
0.563725 0.563725 0.563725
0.602941 0.602941 0.602941
0.656373 0.656373 0.656373
0.601961 0.601961 0.601961
0.605883 0.605883 0.605883
0.609804 0.609804 0.609804
0.620098 0.620098 0.620098
0.633334 0.633334 0.633334
0.649020 0.649020 0.649020
0.672549 0.672549 0.672549
0.703922 0.703922 0.703922
0.742156 0.742156 0.742156
0.734313 0.734313 0.734313
0.741177 0.741177 0.741177
0.741666 0.741666 0.741666
0.746078 0.746078 0.746078
0.755392 0.755392 0.755392
0.761764 0.761764 0.761764
0.776961 0.776961 0.776961
0.793137 0.793137 0.793137
0.820098 0.820098 0.820098
0.858824 0.858824 0.858824
0.858824 0.858824 0.858824
0.858824 0.858824 0.858824
0.862745 0.862745 0.862745
0.866667 0.866667 0.866667
0.870588 0.870588 0.870588
0.878431 0.878431 0.878431
0.890196 0.890196 0.890196
0.909804 0.909804 0.909804
0.007843 0.007843 0.007843
0.030883 0.030883 0.030883
0.053921 0.053921 0.053921
0.077941 0.077941 0.077941
0.107843 0.107843 0.107843
0.150490 0.150490 0.150490
0.204902 0.204902 0.204902
0.271078 0.271078 0.271078
0.356863 0.356863 0.356863
0.109314 0.109314 0.109314
0.124510 0.124510 0.124510
0.140686 0.140686 0.140686
0.162745 0.162745 0.162745
0.191667 0.191667 0.191667
0.228431 0.228431 0.228431
0.275000 0.275000 0.275000
0.336765 0.336765 0.336765
0.411275 0.411275 0.411275
0.186764 0.186764 0.186764
0.191176 0.191176 0.191176
0.206373 0.206373 0.206373
0.225980 0.225980 0.225980
0.250000 0.250000 0.250000
0.285295 0.285295 0.285295
0.329412 0.329412 0.329412
0.383824 0.383824 0.383824
0.450490 0.450490 0.450490
0.269118 0.269118 0.269118
0.273039 0.273039 0.273039
0.283824 0.283824 0.283824
0.300000 0.300000 0.300000
0.323529 0.323529 0.323529
0.354902 0.354902 0.354902
0.394117 0.394117 0.394117
0.439216 0.439216 0.439216
0.501471 0.501471 0.501471
0.370588 0.370588 0.370588
0.374020 0.374020 0.374020
0.382353 0.382353 0.382353
0.396079 0.396079 0.396079
0.415686 0.415686 0.415686
0.439215 0.439215 0.439215
0.470588 0.470588 0.470588
0.512255 0.512255 0.512255
0.574510 0.574510 0.574510
0.481372 0.481372 0.481372
0.483333 0.483333 0.483333
0.489216 0.489216 0.489216
0.500980 0.500980 0.500980
0.516667 0.516667 0.516667
0.540196 0.540196 0.540196
0.570588 0.570588 0.570588
0.609804 0.609804 0.609804
0.661765 0.661765 0.661765
0.609804 0.609804 0.609804
0.613236 0.613236 0.613236
0.617647 0.617647 0.617647
0.625490 0.625490 0.625490
0.640686 0.640686 0.640686
0.656863 0.656863 0.656863
0.680392 0.680392 0.680392
0.707353 0.707353 0.707353
0.746079 0.746079 0.746079
0.741176 0.741176 0.741176
0.742156 0.742156 0.742156
0.745098 0.745098 0.745098
0.750000 0.750000 0.750000
0.757353 0.757353 0.757353
0.766667 0.766667 0.766667
0.780882 0.780882 0.780882
0.797058 0.797058 0.797058
0.824019 0.824019 0.824019
0.858824 0.858824 0.858824
0.858824 0.858824 0.858824
0.862745 0.862745 0.862745
0.865196 0.865196 0.865196
0.870098 0.870098 0.870098
0.874510 0.874510 0.874510
0.882353 0.882353 0.882353
0.894118 0.894118 0.894118
0.909804 0.909804 0.909804
0.027451 0.027451 0.027451
0.054902 0.054902 0.054902
0.077451 0.077451 0.077451
0.100981 0.100981 0.100981
0.133333 0.133333 0.133333
0.175490 0.175490 0.175490
0.228432 0.228432 0.228432
0.290686 0.290686 0.290686
0.376471 0.376471 0.376471
0.132843 0.132843 0.132843
0.147549 0.147549 0.147549
0.163235 0.163235 0.163235
0.183824 0.183824 0.183824
0.213235 0.213235 0.213235
0.250000 0.250000 0.250000
0.294608 0.294608 0.294608
0.352941 0.352941 0.352941
0.427451 0.427451 0.427451
0.206863 0.206863 0.206863
0.213725 0.213725 0.213725
0.226470 0.226470 0.226470
0.245098 0.245098 0.245098
0.269608 0.269608 0.269608
0.304902 0.304902 0.304902
0.348039 0.348039 0.348039
0.399510 0.399510 0.399510
0.465687 0.465687 0.465687
0.287745 0.287745 0.287745
0.292647 0.292647 0.292647
0.303431 0.303431 0.303431
0.319118 0.319118 0.319118
0.342647 0.342647 0.342647
0.374020 0.374020 0.374020
0.411274 0.411274 0.411274
0.454412 0.454412 0.454412
0.519118 0.519118 0.519118
0.389216 0.389216 0.389216
0.392157 0.392157 0.392157
0.400000 0.400000 0.400000
0.412255 0.412255 0.412255
0.431373 0.431373 0.431373
0.454902 0.454902 0.454902
0.486274 0.486274 0.486274
0.529412 0.529412 0.529412
0.590196 0.590196 0.590196
0.495588 0.495588 0.495588
0.497059 0.497059 0.497059
0.504902 0.504902 0.504902
0.515687 0.515687 0.515687
0.532353 0.532353 0.532353
0.555882 0.555882 0.555882
0.583333 0.583333 0.583333
0.622549 0.622549 0.622549
0.675000 0.675000 0.675000
0.621569 0.621569 0.621569
0.625490 0.625490 0.625490
0.629412 0.629412 0.629412
0.640196 0.640196 0.640196
0.652941 0.652941 0.652941
0.668628 0.668628 0.668628
0.692157 0.692157 0.692157
0.718627 0.718627 0.718627
0.753922 0.753922 0.753922
0.749510 0.749510 0.749510
0.750000 0.750000 0.750000
0.753431 0.753431 0.753431
0.757843 0.757843 0.757843
0.765196 0.765196 0.765196
0.773529 0.773529 0.773529
0.787745 0.787745 0.787745
0.804412 0.804412 0.804412
0.827941 0.827941 0.827941
0.866667 0.866667 0.866667
0.866667 0.866667 0.866667
0.866667 0.866667 0.866667
0.870588 0.870588 0.870588
0.874510 0.874510 0.874510
0.878431 0.878431 0.878431
0.886275 0.886275 0.886275
0.898039 0.898039 0.898039
0.916666 0.916666 0.916666
0.054902 0.054902 0.054902
0.082353 0.082353 0.082353
0.104412 0.104412 0.104412
0.127941 0.127941 0.127941
0.159314 0.159314 0.159314
0.201471 0.201471 0.201471
0.251960 0.251960 0.251960
0.314216 0.314216 0.314216
0.400000 0.400000 0.400000
0.160294 0.160294 0.160294
0.172059 0.172059 0.172059
0.190196 0.190196 0.190196
0.210294 0.210294 0.210294
0.237745 0.237745 0.237745
0.275490 0.275490 0.275490
0.318137 0.318137 0.318137
0.376471 0.376471 0.376471
0.447059 0.447059 0.447059
0.232843 0.232843 0.232843
0.238235 0.238235 0.238235
0.252451 0.252451 0.252451
0.269608 0.269608 0.269608
0.295098 0.295098 0.295098
0.329902 0.329902 0.329902
0.371078 0.371078 0.371078
0.422059 0.422059 0.422059
0.485295 0.485295 0.485295
0.312255 0.312255 0.312255
0.318628 0.318628 0.318628
0.326961 0.326961 0.326961
0.343627 0.343627 0.343627
0.365686 0.365686 0.365686
0.396078 0.396078 0.396078
0.430883 0.430883 0.430883
0.475490 0.475490 0.475490
0.539706 0.539706 0.539706
0.411764 0.411764 0.411764
0.415686 0.415686 0.415686
0.421569 0.421569 0.421569
0.435295 0.435295 0.435295
0.451471 0.451471 0.451471
0.475000 0.475000 0.475000
0.507353 0.507353 0.507353
0.550000 0.550000 0.550000
0.611765 0.611765 0.611765
0.516667 0.516667 0.516667
0.520098 0.520098 0.520098
0.524510 0.524510 0.524510
0.536274 0.536274 0.536274
0.552941 0.552941 0.552941
0.575490 0.575490 0.575490
0.604902 0.604902 0.604902
0.642157 0.642157 0.642157
0.691667 0.691667 0.691667
0.641177 0.641177 0.641177
0.645098 0.645098 0.645098
0.649020 0.649020 0.649020
0.656863 0.656863 0.656863
0.669608 0.669608 0.669608
0.685785 0.685785 0.685785
0.705392 0.705392 0.705392
0.731373 0.731373 0.731373
0.765686 0.765686 0.765686
0.761274 0.761274 0.761274
0.761764 0.761764 0.761764
0.765196 0.765196 0.765196
0.769117 0.769117 0.769117
0.775490 0.775490 0.775490
0.784804 0.784804 0.784804
0.797058 0.797058 0.797058
0.812745 0.812745 0.812745
0.836274 0.836274 0.836274
0.874510 0.874510 0.874510
0.874510 0.874510 0.874510
0.874510 0.874510 0.874510
0.878431 0.878431 0.878431
0.882353 0.882353 0.882353
0.886275 0.886275 0.886275
0.894118 0.894118 0.894118
0.905882 0.905882 0.905882
0.921569 0.921569 0.921569
0.090196 0.090196 0.090196
0.115686 0.115686 0.115686
0.136274 0.136274 0.136274
0.159314 0.159314 0.159314
0.192157 0.192157 0.192157
0.232843 0.232843 0.232843
0.280392 0.280392 0.280392
0.343627 0.343627 0.343627
0.423529 0.423529 0.423529
0.193627 0.193627 0.193627
0.205392 0.205392 0.205392
0.221078 0.221078 0.221078
0.241176 0.241176 0.241176
0.268137 0.268137 0.268137
0.303431 0.303431 0.303431
0.349510 0.349510 0.349510
0.403922 0.403922 0.403922
0.470098 0.470098 0.470098
0.263726 0.263726 0.263726
0.269608 0.269608 0.269608
0.283334 0.283334 0.283334
0.299510 0.299510 0.299510
0.326471 0.326471 0.326471
0.357843 0.357843 0.357843
0.400000 0.400000 0.400000
0.446569 0.446569 0.446569
0.511765 0.511765 0.511765
0.345588 0.345588 0.345588
0.349510 0.349510 0.349510
0.357843 0.357843 0.357843
0.373529 0.373529 0.373529
0.396569 0.396569 0.396569
0.424020 0.424020 0.424020
0.458333 0.458333 0.458333
0.500980 0.500980 0.500980
0.565196 0.565196 0.565196
0.439215 0.439215 0.439215
0.443137 0.443137 0.443137
0.449020 0.449020 0.449020
0.462746 0.462746 0.462746
0.478432 0.478432 0.478432
0.501961 0.501961 0.501961
0.534314 0.534314 0.534314
0.576961 0.576961 0.576961
0.635294 0.635294 0.635294
0.544118 0.544118 0.544118
0.548039 0.548039 0.548039
0.552451 0.552451 0.552451
0.564215 0.564215 0.564215
0.581373 0.581373 0.581373
0.602941 0.602941 0.602941
0.630392 0.630392 0.630392
0.664706 0.664706 0.664706
0.711275 0.711275 0.711275
0.664706 0.664706 0.664706
0.665686 0.665686 0.665686
0.672549 0.672549 0.672549
0.680392 0.680392 0.680392
0.692157 0.692157 0.692157
0.704902 0.704902 0.704902
0.723530 0.723530 0.723530
0.747059 0.747059 0.747059
0.779412 0.779412 0.779412
0.773529 0.773529 0.773529
0.775000 0.775000 0.775000
0.777451 0.777451 0.777451
0.781372 0.781372 0.781372
0.788725 0.788725 0.788725
0.797059 0.797059 0.797059
0.808823 0.808823 0.808823
0.824019 0.824019 0.824019
0.847549 0.847549 0.847549
0.882353 0.882353 0.882353
0.882353 0.882353 0.882353
0.886275 0.886275 0.886275
0.886275 0.886275 0.886275
0.890196 0.890196 0.890196
0.898039 0.898039 0.898039
0.903922 0.903922 0.903922
0.913725 0.913725 0.913725
0.931372 0.931372 0.931372
0.130882 0.130882 0.130882
0.156863 0.156863 0.156863
0.177941 0.177941 0.177941
0.201471 0.201471 0.201471
0.229412 0.229412 0.229412
0.268137 0.268137 0.268137
0.316177 0.316177 0.316177
0.376961 0.376961 0.376961
0.452451 0.452451 0.452451
0.232353 0.232353 0.232353
0.244118 0.244118 0.244118
0.259804 0.259804 0.259804
0.278431 0.278431 0.278431
0.306863 0.306863 0.306863
0.342157 0.342157 0.342157
0.384804 0.384804 0.384804
0.435294 0.435294 0.435294
0.501471 0.501471 0.501471
0.302451 0.302451 0.302451
0.310294 0.310294 0.310294
0.322059 0.322059 0.322059
0.340196 0.340196 0.340196
0.365196 0.365196 0.365196
0.396568 0.396568 0.396568
0.431863 0.431863 0.431863
0.477941 0.477941 0.477941
0.542647 0.542647 0.542647
0.384314 0.384314 0.384314
0.388235 0.388235 0.388235
0.397549 0.397549 0.397549
0.411765 0.411765 0.411765
0.431373 0.431373 0.431373
0.457353 0.457353 0.457353
0.489706 0.489706 0.489706
0.533333 0.533333 0.533333
0.596078 0.596078 0.596078
0.470589 0.470589 0.470589
0.474510 0.474510 0.474510
0.481863 0.481863 0.481863
0.493627 0.493627 0.493627
0.513235 0.513235 0.513235
0.536764 0.536764 0.536764
0.568137 0.568137 0.568137
0.608334 0.608334 0.608334
0.664706 0.664706 0.664706
0.576961 0.576961 0.576961
0.579412 0.579412 0.579412
0.587255 0.587255 0.587255
0.597549 0.597549 0.597549
0.612745 0.612745 0.612745
0.634314 0.634314 0.634314
0.657843 0.657843 0.657843
0.689216 0.689216 0.689216
0.730882 0.730882 0.730882
0.692157 0.692157 0.692157
0.692157 0.692157 0.692157
0.696569 0.696569 0.696569
0.703922 0.703922 0.703922
0.714706 0.714706 0.714706
0.727941 0.727941 0.727941
0.743627 0.743627 0.743627
0.765686 0.765686 0.765686
0.794608 0.794608 0.794608
0.790196 0.790196 0.790196
0.792647 0.792647 0.792647
0.793137 0.793137 0.793137
0.797059 0.797059 0.797059
0.804412 0.804412 0.804412
0.812255 0.812255 0.812255
0.821569 0.821569 0.821569
0.836274 0.836274 0.836274
0.859314 0.859314 0.859314
0.894118 0.894118 0.894118
0.894118 0.894118 0.894118
0.897059 0.897059 0.897059
0.898039 0.898039 0.898039
0.901961 0.901961 0.901961
0.907353 0.907353 0.907353
0.913725 0.913725 0.913725
0.925490 0.925490 0.925490
0.941176 0.941176 0.941176
0.184314 0.184314 0.184314
0.208823 0.208823 0.208823
0.228432 0.228432 0.228432
0.249510 0.249510 0.249510
0.279411 0.279411 0.279411
0.315196 0.315196 0.315196
0.361764 0.361764 0.361764
0.417157 0.417157 0.417157
0.486275 0.486275 0.486275
0.282843 0.282843 0.282843
0.293628 0.293628 0.293628
0.305882 0.305882 0.305882
0.325000 0.325000 0.325000
0.353431 0.353431 0.353431
0.385294 0.385294 0.385294
0.424019 0.424019 0.424019
0.470588 0.470588 0.470588
0.537745 0.537745 0.537745
0.350980 0.350980 0.350980
0.356863 0.356863 0.356863
0.368627 0.368627 0.368627
0.385784 0.385784 0.385784
0.407843 0.407843 0.407843
0.433824 0.433824 0.433824
0.470588 0.470588 0.470588
0.513726 0.513726 0.513726
0.579412 0.579412 0.579412
0.425980 0.425980 0.425980
0.429902 0.429902 0.429902
0.438725 0.438725 0.438725
0.450490 0.450490 0.450490
0.470098 0.470098 0.470098
0.494117 0.494117 0.494117
0.528921 0.528921 0.528921
0.572059 0.572059 0.572059
0.632353 0.632353 0.632353
0.512745 0.512745 0.512745
0.513726 0.513726 0.513726
0.521568 0.521568 0.521568
0.534314 0.534314 0.534314
0.552941 0.552941 0.552941
0.575980 0.575980 0.575980
0.606863 0.606863 0.606863
0.645588 0.645588 0.645588
0.693137 0.693137 0.693137
0.618137 0.618137 0.618137
0.618627 0.618627 0.618627
0.625980 0.625980 0.625980
0.634314 0.634314 0.634314
0.649510 0.649510 0.649510
0.666667 0.666667 0.666667
0.688726 0.688726 0.688726
0.719118 0.719118 0.719118
0.754412 0.754412 0.754412
0.719608 0.719608 0.719608
0.719608 0.719608 0.719608
0.723530 0.723530 0.723530
0.731373 0.731373 0.731373
0.739216 0.739216 0.739216
0.750981 0.750981 0.750981
0.766667 0.766667 0.766667
0.785784 0.785784 0.785784
0.812745 0.812745 0.812745
0.808823 0.808823 0.808823
0.809314 0.809314 0.809314
0.812255 0.812255 0.812255
0.816176 0.816176 0.816176
0.821078 0.821078 0.821078
0.828431 0.828431 0.828431
0.839706 0.839706 0.839706
0.851470 0.851470 0.851470
0.872059 0.872059 0.872059
0.906862 0.906862 0.906862
0.909804 0.909804 0.909804
0.909804 0.909804 0.909804
0.913725 0.913725 0.913725
0.914706 0.914706 0.914706
0.921569 0.921569 0.921569
0.926471 0.926471 0.926471
0.937255 0.937255 0.937255
0.952941 0.952941 0.952941
0.243627 0.243627 0.243627
0.267157 0.267157 0.267157
0.282843 0.282843 0.282843
0.306372 0.306372 0.306372
0.333823 0.333823 0.333823
0.369117 0.369117 0.369117
0.409314 0.409314 0.409314
0.459804 0.459804 0.459804
0.529412 0.529412 0.529412
0.337255 0.337255 0.337255
0.349020 0.349020 0.349020
0.364706 0.364706 0.364706
0.382353 0.382353 0.382353
0.407353 0.407353 0.407353
0.435294 0.435294 0.435294
0.470588 0.470588 0.470588
0.514706 0.514706 0.514706
0.580882 0.580882 0.580882
0.403432 0.403432 0.403432
0.410784 0.410784 0.410784
0.422549 0.422549 0.422549
0.434314 0.434314 0.434314
0.455882 0.455882 0.455882
0.480392 0.480392 0.480392
0.517157 0.517157 0.517157
0.560784 0.560784 0.560784
0.623039 0.623039 0.623039
0.473529 0.473529 0.473529
0.477451 0.477451 0.477451
0.485294 0.485294 0.485294
0.499510 0.499510 0.499510
0.518628 0.518628 0.518628
0.544117 0.544117 0.544117
0.576470 0.576470 0.576470
0.618627 0.618627 0.618627
0.673039 0.673039 0.673039
0.563235 0.563235 0.563235
0.565196 0.565196 0.565196
0.573039 0.573039 0.573039
0.584804 0.584804 0.584804
0.602451 0.602451 0.602451
0.625980 0.625980 0.625980
0.650490 0.650490 0.650490
0.684804 0.684804 0.684804
0.727451 0.727451 0.727451
0.660785 0.660785 0.660785
0.664706 0.664706 0.664706
0.668628 0.668628 0.668628
0.678432 0.678432 0.678432
0.689216 0.689216 0.689216
0.707353 0.707353 0.707353
0.724020 0.724020 0.724020
0.750490 0.750490 0.750490
0.781863 0.781863 0.781863
0.750491 0.750491 0.750491
0.753922 0.753922 0.753922
0.754902 0.754902 0.754902
0.761764 0.761764 0.761764
0.769607 0.769607 0.769607
0.778922 0.778922 0.778922
0.793137 0.793137 0.793137
0.809314 0.809314 0.809314
0.832844 0.832844 0.832844
0.831863 0.831863 0.831863
0.831863 0.831863 0.831863
0.832353 0.832353 0.832353
0.836274 0.836274 0.836274
0.843627 0.843627 0.843627
0.848039 0.848039 0.848039
0.859314 0.859314 0.859314
0.871078 0.871078 0.871078
0.890686 0.890686 0.890686
0.925490 0.925490 0.925490
0.925490 0.925490 0.925490
0.925490 0.925490 0.925490
0.929412 0.929412 0.929412
0.933333 0.933333 0.933333
0.937255 0.937255 0.937255
0.945098 0.945098 0.945098
0.952941 0.952941 0.952941
0.969117 0.969117 0.969117
0.313726 0.313726 0.313726
0.337255 0.337255 0.337255
0.352941 0.352941 0.352941
0.372549 0.372549 0.372549
0.398039 0.398039 0.398039
0.428922 0.428922 0.428922
0.463726 0.463726 0.463726
0.513726 0.513726 0.513726
0.580392 0.580392 0.580392
0.403432 0.403432 0.403432
0.415196 0.415196 0.415196
0.426961 0.426961 0.426961
0.442647 0.442647 0.442647
0.464216 0.464216 0.464216
0.491177 0.491177 0.491177
0.522549 0.522549 0.522549
0.569117 0.569117 0.569117
0.631373 0.631373 0.631373
0.465687 0.465687 0.465687
0.469608 0.469608 0.469608
0.481372 0.481372 0.481372
0.497059 0.497059 0.497059
0.516667 0.516667 0.516667
0.544118 0.544118 0.544118
0.576470 0.576470 0.576470
0.616176 0.616176 0.616176
0.673530 0.673530 0.673530
0.535784 0.535784 0.535784
0.539706 0.539706 0.539706
0.550000 0.550000 0.550000
0.563235 0.563235 0.563235
0.582843 0.582843 0.582843
0.606373 0.606373 0.606373
0.637745 0.637745 0.637745
0.673039 0.673039 0.673039
0.716177 0.716177 0.716177
0.625490 0.625490 0.625490
0.629412 0.629412 0.629412
0.635294 0.635294 0.635294
0.647549 0.647549 0.647549
0.662745 0.662745 0.662745
0.680392 0.680392 0.680392
0.703922 0.703922 0.703922
0.731372 0.731372 0.731372
0.764706 0.764706 0.764706
0.712745 0.712745 0.712745
0.715196 0.715196 0.715196
0.719118 0.719118 0.719118
0.726961 0.726961 0.726961
0.738725 0.738725 0.738725
0.750490 0.750490 0.750490
0.766176 0.766176 0.766176
0.785784 0.785784 0.785784
0.813235 0.813235 0.813235
0.789215 0.789215 0.789215
0.789216 0.789216 0.789216
0.793137 0.793137 0.793137
0.797058 0.797058 0.797058
0.804902 0.804902 0.804902
0.812745 0.812745 0.812745
0.824510 0.824510 0.824510
0.840196 0.840196 0.840196
0.859804 0.859804 0.859804
0.859314 0.859314 0.859314
0.859314 0.859314 0.859314
0.863235 0.863235 0.863235
0.867157 0.867157 0.867157
0.871078 0.871078 0.871078
0.879902 0.879902 0.879902
0.886765 0.886765 0.886765
0.898529 0.898529 0.898529
0.914215 0.914215 0.914215
0.949020 0.949020 0.949020
0.949020 0.949020 0.949020
0.952941 0.952941 0.952941
0.952941 0.952941 0.952941
0.956863 0.956863 0.956863
0.964706 0.964706 0.964706
0.968627 0.968627 0.968627
0.980392 0.980392 0.980392
1.000000 1.000000 1.000000
