Black-and-White/Kodak/Kodak T-Max 400 65x.cube
TITLE "Kodak T-Max 400"
LUT_3D_SIZE 9
DOMAIN_MIN 0.000000 0.000000 0.000000
DOMAIN_MAX 1.000000 1.000000 1.000000
0.000000 0.000000 0.000000
0.000000 0.000000 0.000000
0.000000 0.000000 0.000000
0.000000 0.000000 0.000000
0.000000 0.000000 0.000000
0.000000 0.000000 0.000000
0.000000 0.000000 0.000000
0.000000 0.000000 0.000000
0.000000 0.000000 0.000000
0.038726 0.038726 0.038726
0.038726 0.038726 0.038726
0.038726 0.038726 0.038726
0.042647 0.042647 0.042647
0.042647 0.042647 0.042647
0.042647 0.042647 0.042647
0.045098 0.045098 0.045098
0.038726 0.038726 0.038726
0.034804 0.034804 0.034804
0.132353 0.132353 0.132353
0.132353 0.132353 0.132353
0.135294 0.135294 0.135294
0.135294 0.135294 0.135294
0.136274 0.136274 0.136274
0.136274 0.136274 0.136274
0.135294 0.135294 0.135294
0.131372 0.131372 0.131372
0.127451 0.127451 0.127451
0.270098 0.270098 0.270098
0.271569 0.271569 0.271569
0.271569 0.271569 0.271569
0.271569 0.271569 0.271569
0.271569 0.271569 0.271569
0.271569 0.271569 0.271569
0.271569 0.271569 0.271569
0.270098 0.270098 0.270098
0.263726 0.263726 0.263726
0.419608 0.419608 0.419608
0.419608 0.419608 0.419608
0.419607 0.419607 0.419607
0.419608 0.419608 0.419608
0.423530 0.423530 0.423530
0.423530 0.423530 0.423530
0.423530 0.423530 0.423530
0.419608 0.419608 0.419608
0.417647 0.417647 0.417647
0.559804 0.559804 0.559804
0.559804 0.559804 0.559804
0.559804 0.559804 0.559804
0.559804 0.559804 0.559804
0.563725 0.563725 0.563725
0.563725 0.563725 0.563725
0.563725 0.563725 0.563725
0.563725 0.563725 0.563725
0.559804 0.559804 0.559804
0.688236 0.688236 0.688236
0.688236 0.688236 0.688236
0.688236 0.688236 0.688236
0.691176 0.691176 0.691176
0.693137 0.693137 0.693137
0.692157 0.692157 0.692157
0.692157 0.692157 0.692157
0.692157 0.692157 0.692157
0.692157 0.692157 0.692157
0.808823 0.808823 0.808823
0.808823 0.808823 0.808823
0.808823 0.808823 0.808823
0.808823 0.808823 0.808823
0.808823 0.808823 0.808823
0.812255 0.812255 0.812255
0.812255 0.812255 0.812255
0.812745 0.812745 0.812745
0.812255 0.812255 0.812255
0.925490 0.925490 0.925490
0.925490 0.925490 0.925490
0.925490 0.925490 0.925490
0.929412 0.929412 0.929412
0.929412 0.929412 0.929412
0.929412 0.929412 0.929412
0.929412 0.929412 0.929412
0.929412 0.929412 0.929412
0.933333 0.933333 0.933333
0.000000 0.000000 0.000000
0.000000 0.000000 0.000000
0.000000 0.000000 0.000000
0.000000 0.000000 0.000000
0.000000 0.000000 0.000000
0.000000 0.000000 0.000000
0.000000 0.000000 0.000000
0.000000 0.000000 0.000000
0.000000 0.000000 0.000000
0.065687 0.065687 0.065687
0.066177 0.066177 0.066177
0.066177 0.066177 0.066177
0.066177 0.066177 0.066177
0.066177 0.066177 0.066177
0.066177 0.066177 0.066177
0.066177 0.066177 0.066177
0.062255 0.062255 0.062255
0.058334 0.058334 0.058334
0.158823 0.158823 0.158823
0.159313 0.159313 0.159313
0.159313 0.159313 0.159313
0.162745 0.162745 0.162745
0.162745 0.162745 0.162745
0.162745 0.162745 0.162745
0.159313 0.159313 0.159313
0.158333 0.158333 0.158333
0.150980 0.150980 0.150980
0.290687 0.290687 0.290687
0.290687 0.290687 0.290687
0.291177 0.291177 0.291177
0.291177 0.291177 0.291177
0.294608 0.294608 0.294608
0.294608 0.294608 0.294608
0.291177 0.291177 0.291177
0.290687 0.290687 0.290687
0.283334 0.283334 0.283334
0.431373 0.431373 0.431373
0.431373 0.431373 0.431373
0.431373 0.431373 0.431373
0.433334 0.433334 0.433334
0.434804 0.434804 0.434804
0.435295 0.435295 0.435295
0.435295 0.435295 0.435295
0.434804 0.434804 0.434804
0.431373 0.431373 0.431373
0.567647 0.567647 0.567647
0.567647 0.567647 0.567647
0.569117 0.569117 0.569117
0.571569 0.571569 0.571569
0.571569 0.571569 0.571569
0.571569 0.571569 0.571569
0.571568 0.571568 0.571568
0.571569 0.571569 0.571569
0.569608 0.569608 0.569608
0.695098 0.695098 0.695098
0.696079 0.696079 0.696079
0.696079 0.696079 0.696079
0.696079 0.696079 0.696079
0.696079 0.696079 0.696079
0.696079 0.696079 0.696079
0.698529 0.698529 0.698529
0.698529 0.698529 0.698529
0.696079 0.696079 0.696079
0.812745 0.812745 0.812745
0.812745 0.812745 0.812745
0.812745 0.812745 0.812745
0.812745 0.812745 0.812745
0.812745 0.812745 0.812745
0.815686 0.815686 0.815686
0.816176 0.816176 0.816176
0.816176 0.816176 0.816176
0.816176 0.816176 0.816176
0.929412 0.929412 0.929412
0.929412 0.929412 0.929412
0.929412 0.929412 0.929412
0.929412 0.929412 0.929412
0.929412 0.929412 0.929412
0.929412 0.929412 0.929412
0.933333 0.933333 0.933333
0.933333 0.933333 0.933333
0.933333 0.933333 0.933333
0.007843 0.007843 0.007843
0.007843 0.007843 0.007843
0.007843 0.007843 0.007843
0.007843 0.007843 0.007843
0.007843 0.007843 0.007843
0.007843 0.007843 0.007843
0.007843 0.007843 0.007843
0.007843 0.007843 0.007843
0.003922 0.003922 0.003922
0.089706 0.089706 0.089706
0.092647 0.092647 0.092647
0.092647 0.092647 0.092647
0.093628 0.093628 0.093628
0.093628 0.093628 0.093628
0.093628 0.093628 0.093628
0.093138 0.093138 0.093138
0.089706 0.089706 0.089706
0.084804 0.084804 0.084804
0.190196 0.190196 0.190196
0.190196 0.190196 0.190196
0.190196 0.190196 0.190196
0.194117 0.194117 0.194117
0.194117 0.194117 0.194117
0.194117 0.194117 0.194117
0.193137 0.193137 0.193137
0.190196 0.190196 0.190196
0.182353 0.182353 0.182353
0.318628 0.318628 0.318628
0.318628 0.318628 0.318628
0.318628 0.318628 0.318628
0.321569 0.321569 0.321569
0.322549 0.322549 0.322549
0.322549 0.322549 0.322549
0.322549 0.322549 0.322549
0.319118 0.319118 0.319118
0.314706 0.314706 0.314706
0.450981 0.450981 0.450981
0.453922 0.453922 0.453922
0.453922 0.453922 0.453922
0.454902 0.454902 0.454902
0.454902 0.454902 0.454902
0.455883 0.455883 0.455883
0.457843 0.457843 0.457843
0.454902 0.454902 0.454902
0.453922 0.453922 0.453922
0.583333 0.583333 0.583333
0.583333 0.583333 0.583333
0.584804 0.584804 0.584804
0.586275 0.586275 0.586275
0.587255 0.587255 0.587255
0.587255 0.587255 0.587255
0.587255 0.587255 0.587255
0.587255 0.587255 0.587255
0.587255 0.587255 0.587255
0.705882 0.705882 0.705882
0.705882 0.705882 0.705882
0.706863 0.706863 0.706863
0.707843 0.707843 0.707843
0.707843 0.707843 0.707843
0.707843 0.707843 0.707843
0.707843 0.707843 0.707843
0.709804 0.709804 0.709804
0.707843 0.707843 0.707843
0.820588 0.820588 0.820588
0.820588 0.820588 0.820588
0.820588 0.820588 0.820588
0.820588 0.820588 0.820588
0.820588 0.820588 0.820588
0.823039 0.823039 0.823039
0.824019 0.824019 0.824019
0.824019 0.824019 0.824019
0.824019 0.824019 0.824019
0.933333 0.933333 0.933333
0.933333 0.933333 0.933333
0.933333 0.933333 0.933333
0.933333 0.933333 0.933333
0.933333 0.933333 0.933333
0.937255 0.937255 0.937255
0.937255 0.937255 0.937255
0.937255 0.937255 0.937255
0.937255 0.937255 0.937255
0.019608 0.019608 0.019608
0.019608 0.019608 0.019608
0.019608 0.019608 0.019608
0.022059 0.022059 0.022059
0.022059 0.022059 0.022059
0.022059 0.022059 0.022059
0.022059 0.022059 0.022059
0.019608 0.019608 0.019608
0.018137 0.018137 0.018137
0.124510 0.124510 0.124510
0.124510 0.124510 0.124510
0.127451 0.127451 0.127451
0.128432 0.128432 0.128432
0.128432 0.128432 0.128432
0.128432 0.128432 0.128432
0.128432 0.128432 0.128432
0.126961 0.126961 0.126961
0.119608 0.119608 0.119608
0.228922 0.228922 0.228922
0.229412 0.229412 0.229412
0.231863 0.231863 0.231863
0.232843 0.232843 0.232843
0.233333 0.233333 0.233333
0.233333 0.233333 0.233333
0.233333 0.233333 0.233333
0.231863 0.231863 0.231863
0.225490 0.225490 0.225490
0.350000 0.350000 0.350000
0.352451 0.352451 0.352451
0.353922 0.353922 0.353922
0.353922 0.353922 0.353922
0.356372 0.356372 0.356372
0.357843 0.357843 0.357843
0.357843 0.357843 0.357843
0.356372 0.356372 0.356372
0.352451 0.352451 0.352451
0.478432 0.478432 0.478432
0.478922 0.478922 0.478922
0.480883 0.480883 0.480883
0.482353 0.482353 0.482353
0.482353 0.482353 0.482353
0.484804 0.484804 0.484804
0.484804 0.484804 0.484804
0.484804 0.484804 0.484804
0.482353 0.482353 0.482353
0.603922 0.603922 0.603922
0.603922 0.603922 0.603922
0.606863 0.606863 0.606863
0.606863 0.606863 0.606863
0.606863 0.606863 0.606863
0.607843 0.607843 0.607843
0.610784 0.610784 0.610784
0.610784 0.610784 0.610784
0.607843 0.607843 0.607843
0.721078 0.721078 0.721078
0.721078 0.721078 0.721078
0.722549 0.722549 0.722549
0.723530 0.723530 0.723530
0.723530 0.723530 0.723530
0.723530 0.723530 0.723530
0.725000 0.725000 0.725000
0.725000 0.725000 0.725000
0.725000 0.725000 0.725000
0.831863 0.831863 0.831863
0.831863 0.831863 0.831863
0.831863 0.831863 0.831863
0.831863 0.831863 0.831863
0.832353 0.832353 0.832353
0.832353 0.832353 0.832353
0.834314 0.834314 0.834314
0.835784 0.835784 0.835784
0.834314 0.834314 0.834314
0.939706 0.939706 0.939706
0.939706 0.939706 0.939706
0.941176 0.941176 0.941176
0.941176 0.941176 0.941176
0.941176 0.941176 0.941176
0.941176 0.941176 0.941176
0.941176 0.941176 0.941176
0.945098 0.945098 0.945098
0.945098 0.945098 0.945098
0.043137 0.043137 0.043137
0.045098 0.045098 0.045098
0.047059 0.047059 0.047059
0.049019 0.049019 0.049019
0.050980 0.050980 0.050980
0.050980 0.050980 0.050980
0.050980 0.050980 0.050980
0.050980 0.050980 0.050980
0.043137 0.043137 0.043137
0.169608 0.169608 0.169608
0.170098 0.170098 0.170098
0.173530 0.173530 0.173530
0.174020 0.174020 0.174020
0.177451 0.177451 0.177451
0.177941 0.177941 0.177941
0.177941 0.177941 0.177941
0.175490 0.175490 0.175490
0.170098 0.170098 0.170098
0.276470 0.276470 0.276470
0.278431 0.278431 0.278431
0.280392 0.280392 0.280392
0.282353 0.282353 0.282353
0.283334 0.283334 0.283334
0.286274 0.286274 0.286274
0.286274 0.286274 0.286274
0.283333 0.283333 0.283333
0.279412 0.279412 0.279412
0.392647 0.392647 0.392647
0.392647 0.392647 0.392647
0.393137 0.393137 0.393137
0.396569 0.396569 0.396569
0.397059 0.397059 0.397059
0.399020 0.399020 0.399020
0.399020 0.399020 0.399020
0.399020 0.399020 0.399020
0.396569 0.396569 0.396569
0.513726 0.513726 0.513726
0.513726 0.513726 0.513726
0.513726 0.513726 0.513726
0.515686 0.515686 0.515686
0.517648 0.517648 0.517648
0.517648 0.517648 0.517648
0.519608 0.519608 0.519608
0.519608 0.519608 0.519608
0.517648 0.517648 0.517648
0.630392 0.630392 0.630392
0.630392 0.630392 0.630392
0.630882 0.630882 0.630882
0.634314 0.634314 0.634314
0.634314 0.634314 0.634314
0.634804 0.634804 0.634804
0.634804 0.634804 0.634804
0.634804 0.634804 0.634804
0.634804 0.634804 0.634804
0.739216 0.739216 0.739216
0.740196 0.740196 0.740196
0.740196 0.740196 0.740196
0.742156 0.742156 0.742156
0.743137 0.743137 0.743137
0.743137 0.743137 0.743137
0.744117 0.744117 0.744117
0.744117 0.744117 0.744117
0.744117 0.744117 0.744117
0.843627 0.843627 0.843627
0.843627 0.843627 0.843627
0.844117 0.844117 0.844117
0.844117 0.844117 0.844117
0.844117 0.844117 0.844117
0.845588 0.845588 0.845588
0.847549 0.847549 0.847549
0.848039 0.848039 0.848039
0.847549 0.847549 0.847549
0.945098 0.945098 0.945098
0.945098 0.945098 0.945098
0.945098 0.945098 0.945098
0.947059 0.947059 0.947059
0.949020 0.949020 0.949020
0.949020 0.949020 0.949020
0.949020 0.949020 0.949020
0.949020 0.949020 0.949020
0.950981 0.950981 0.950981
0.087745 0.087745 0.087745
0.091667 0.091667 0.091667
0.095588 0.095588 0.095588
0.099510 0.099510 0.099510
0.099510 0.099510 0.099510
0.099510 0.099510 0.099510
0.099510 0.099510 0.099510
0.099510 0.099510 0.099510
0.095588 0.095588 0.095588
0.231863 0.231863 0.231863
0.232353 0.232353 0.232353
0.235784 0.235784 0.235784
0.239706 0.239706 0.239706
0.240196 0.240196 0.240196
0.243627 0.243627 0.243627
0.244118 0.244118 0.244118
0.243627 0.243627 0.243627
0.239706 0.239706 0.239706
0.335294 0.335294 0.335294
0.336765 0.336765 0.336765
0.337745 0.337745 0.337745
0.341666 0.341666 0.341666
0.343137 0.343137 0.343137
0.345588 0.345588 0.345588
0.345588 0.345588 0.345588
0.345588 0.345588 0.345588
0.341666 0.341666 0.341666
0.439216 0.439216 0.439216
0.439216 0.439216 0.439216
0.441667 0.441667 0.441667
0.443137 0.443137 0.443137
0.445588 0.445588 0.445588
0.447059 0.447059 0.447059
0.447059 0.447059 0.447059
0.447059 0.447059 0.447059
0.447059 0.447059 0.447059
0.550490 0.550490 0.550490
0.552451 0.552451 0.552451
0.552451 0.552451 0.552451
0.552941 0.552941 0.552941
0.556372 0.556372 0.556372
0.556863 0.556863 0.556863
0.558333 0.558333 0.558333
0.558333 0.558333 0.558333
0.556863 0.556863 0.556863
0.657843 0.657843 0.657843
0.661765 0.661765 0.661765
0.661765 0.661765 0.661765
0.661765 0.661765 0.661765
0.661765 0.661765 0.661765
0.665686 0.665686 0.665686
0.665686 0.665686 0.665686
0.665686 0.665686 0.665686
0.665686 0.665686 0.665686
0.761764 0.761764 0.761764
0.761764 0.761764 0.761764
0.762745 0.762745 0.762745
0.762745 0.762745 0.762745
0.763235 0.763235 0.763235
0.765686 0.765686 0.765686
0.766667 0.766667 0.766667
0.766667 0.766667 0.766667
0.766667 0.766667 0.766667
0.859314 0.859314 0.859314
0.859314 0.859314 0.859314
0.859314 0.859314 0.859314
0.859314 0.859314 0.859314
0.859804 0.859804 0.859804
0.860785 0.860785 0.860785
0.863235 0.863235 0.863235
0.863235 0.863235 0.863235
0.863235 0.863235 0.863235
0.952941 0.952941 0.952941
0.952941 0.952941 0.952941
0.952941 0.952941 0.952941
0.954412 0.954412 0.954412
0.956863 0.956863 0.956863
0.956863 0.956863 0.956863
0.956863 0.956863 0.956863
0.956863 0.956863 0.956863
0.960784 0.960784 0.960784
0.154902 0.154902 0.154902
0.161765 0.161765 0.161765
0.165686 0.165686 0.165686
0.169608 0.169608 0.169608
0.173530 0.173530 0.173530
0.173530 0.173530 0.173530
0.174510 0.174510 0.174510
0.177941 0.177941 0.177941
0.170588 0.170588 0.170588
0.305882 0.305882 0.305882
0.306372 0.306372 0.306372
0.310294 0.310294 0.310294
0.314216 0.314216 0.314216
0.317647 0.317647 0.317647
0.318137 0.318137 0.318137
0.321569 0.321569 0.321569
0.321569 0.321569 0.321569
0.318137 0.318137 0.318137
0.396078 0.396078 0.396078
0.396078 0.396078 0.396078
0.400000 0.400000 0.400000
0.402941 0.402941 0.402941
0.403922 0.403922 0.403922
0.407843 0.407843 0.407843
0.407843 0.407843 0.407843
0.407843 0.407843 0.407843
0.407843 0.407843 0.407843
0.489706 0.489706 0.489706
0.491177 0.491177 0.491177
0.493627 0.493627 0.493627
0.495098 0.495098 0.495098
0.497549 0.497549 0.497549
0.500000 0.500000 0.500000
0.501471 0.501471 0.501471
0.501471 0.501471 0.501471
0.501471 0.501471 0.501471
0.592156 0.592156 0.592156
0.593137 0.593137 0.593137
0.595098 0.595098 0.595098
0.596078 0.596078 0.596078
0.599019 0.599019 0.599019
0.600000 0.600000 0.600000
0.602941 0.602941 0.602941
0.602941 0.602941 0.602941
0.602941 0.602941 0.602941
0.692647 0.692647 0.692647
0.692647 0.692647 0.692647
0.693137 0.693137 0.693137
0.695588 0.695588 0.695588
0.696569 0.696569 0.696569
0.697059 0.697059 0.697059
0.700490 0.700490 0.700490
0.700490 0.700490 0.700490
0.700490 0.700490 0.700490
0.786275 0.786275 0.786275
0.786275 0.786275 0.786275
0.786275 0.786275 0.786275
0.786275 0.786275 0.786275
0.789215 0.789215 0.789215
0.790196 0.790196 0.790196
0.790196 0.790196 0.790196
0.793137 0.793137 0.793137
0.790196 0.790196 0.790196
0.875490 0.875490 0.875490
0.875490 0.875490 0.875490
0.875490 0.875490 0.875490
0.875981 0.875981 0.875981
0.878921 0.878921 0.878921
0.878921 0.878921 0.878921
0.879412 0.879412 0.879412
0.879902 0.879902 0.879902
0.879902 0.879902 0.879902
0.961765 0.961765 0.961765
0.961765 0.961765 0.961765
0.964706 0.964706 0.964706
0.964706 0.964706 0.964706
0.964706 0.964706 0.964706
0.964706 0.964706 0.964706
0.965686 0.965686 0.965686
0.968627 0.968627 0.968627
0.968627 0.968627 0.968627
0.247549 0.247549 0.247549
0.251960 0.251960 0.251960
0.259314 0.259314 0.259314
0.263235 0.263235 0.263235
0.267157 0.267157 0.267157
0.271078 0.271078 0.271078
0.271568 0.271568 0.271568
0.275490 0.275490 0.275490
0.271568 0.271568 0.271568
0.380392 0.380392 0.380392
0.384314 0.384314 0.384314
0.388235 0.388235 0.388235
0.391667 0.391667 0.391667
0.395588 0.395588 0.395588
0.396078 0.396078 0.396078
0.400000 0.400000 0.400000
0.400000 0.400000 0.400000
0.399510 0.399510 0.399510
0.462255 0.462255 0.462255
0.462255 0.462255 0.462255
0.466177 0.466177 0.466177
0.470098 0.470098 0.470098
0.472059 0.472059 0.472059
0.474020 0.474020 0.474020
0.477941 0.477941 0.477941
0.477941 0.477941 0.477941
0.477941 0.477941 0.477941
0.548039 0.548039 0.548039
0.548039 0.548039 0.548039
0.551961 0.551961 0.551961
0.551961 0.551961 0.551961
0.555882 0.555882 0.555882
0.557353 0.557353 0.557353
0.559804 0.559804 0.559804
0.562255 0.562255 0.562255
0.562255 0.562255 0.562255
0.641667 0.641667 0.641667
0.641667 0.641667 0.641667
0.641667 0.641667 0.641667
0.645588 0.645588 0.645588
0.645588 0.645588 0.645588
0.649510 0.649510 0.649510
0.650980 0.650980 0.650980
0.653431 0.653431 0.653431
0.653431 0.653431 0.653431
0.731373 0.731373 0.731373
0.731373 0.731373 0.731373
0.731373 0.731373 0.731373
0.732353 0.732353 0.732353
0.735294 0.735294 0.735294
0.735294 0.735294 0.735294
0.739216 0.739216 0.739216
0.739216 0.739216 0.739216
0.739216 0.739216 0.739216
0.813726 0.813726 0.813726
0.813726 0.813726 0.813726
0.816667 0.816667 0.816667
0.817157 0.817157 0.817157
0.817157 0.817157 0.817157
0.820588 0.820588 0.820588
0.821078 0.821078 0.821078
0.821078 0.821078 0.821078
0.821569 0.821569 0.821569
0.895098 0.895098 0.895098
0.895098 0.895098 0.895098
0.895098 0.895098 0.895098
0.898529 0.898529 0.898529
0.898529 0.898529 0.898529
0.898529 0.898529 0.898529
0.899019 0.899019 0.899019
0.902451 0.902451 0.902451
0.902451 0.902451 0.902451
0.972549 0.972549 0.972549
0.972549 0.972549 0.972549
0.972549 0.972549 0.972549
0.973039 0.973039 0.973039
0.976471 0.976471 0.976471
0.976471 0.976471 0.976471
0.976471 0.976471 0.976471
0.980392 0.980392 0.980392
0.980392 0.980392 0.980392
0.352941 0.352941 0.352941
0.356863 0.356863 0.356863
0.360784 0.360784 0.360784
0.364706 0.364706 0.364706
0.368627 0.368627 0.368627
0.372549 0.372549 0.372549
0.376471 0.376471 0.376471
0.380392 0.380392 0.380392
0.380392 0.380392 0.380392
0.462255 0.462255 0.462255
0.466177 0.466177 0.466177
0.470098 0.470098 0.470098
0.474020 0.474020 0.474020
0.477941 0.477941 0.477941
0.481863 0.481863 0.481863
0.481863 0.481863 0.481863
0.485785 0.485785 0.485785
0.485785 0.485785 0.485785
0.536274 0.536274 0.536274
0.536274 0.536274 0.536274
0.540196 0.540196 0.540196
0.544118 0.544118 0.544118
0.548039 0.548039 0.548039
0.551961 0.551961 0.551961
0.551961 0.551961 0.551961
0.555883 0.555883 0.555883
0.555883 0.555883 0.555883
0.614216 0.614216 0.614216
0.614216 0.614216 0.614216
0.617157 0.617157 0.617157
0.618137 0.618137 0.618137
0.622059 0.622059 0.622059
0.625980 0.625980 0.625980
0.626961 0.626961 0.626961
0.629902 0.629902 0.629902
0.629902 0.629902 0.629902
0.696079 0.696079 0.696079
0.696079 0.696079 0.696079
0.699020 0.699020 0.699020
0.700000 0.700000 0.700000
0.703921 0.703921 0.703921
0.703921 0.703921 0.703921
0.707843 0.707843 0.707843
0.708333 0.708333 0.708333
0.711765 0.711765 0.711765
0.774020 0.774020 0.774020
0.774020 0.774020 0.774020
0.777941 0.777941 0.777941
0.777941 0.777941 0.777941
0.781863 0.781863 0.781863
0.781863 0.781863 0.781863
0.785784 0.785784 0.785784
0.785784 0.785784 0.785784
0.789706 0.789706 0.789706
0.851961 0.851961 0.851961
0.851961 0.851961 0.851961
0.851961 0.851961 0.851961
0.851961 0.851961 0.851961
0.855883 0.855883 0.855883
0.855882 0.855882 0.855882
0.859804 0.859804 0.859804
0.859804 0.859804 0.859804
0.859804 0.859804 0.859804
0.922059 0.922059 0.922059
0.922059 0.922059 0.922059
0.922059 0.922059 0.922059
0.922059 0.922059 0.922059
0.925490 0.925490 0.925490
0.925980 0.925980 0.925980
0.925980 0.925980 0.925980
0.929902 0.929902 0.929902
0.929902 0.929902 0.929902
0.988235 0.988235 0.988235
0.988235 0.988235 0.988235
0.988235 0.988235 0.988235
0.988235 0.988235 0.988235
0.992157 0.992157 0.992157
0.992157 0.992157 0.992157
0.996078 0.996078 0.996078
0.996078 0.996078 0.996078
1.000000 1.000000 1.000000
