Color/Fuji/Fuji Superia 200 65x.cube
TITLE "Fuji Superia 200"
LUT_3D_SIZE 9
DOMAIN_MIN 0.000000 0.000000 0.000000
DOMAIN_MAX 1.000000 1.000000 1.000000
0.000000 0.000000 0.000000
0.066177 0.000000 0.000000
0.163725 0.000000 0.000000
0.314706 0.000000 0.000000
0.458823 0.000000 0.000000
0.601471 0.000000 0.000000
0.699019 0.000000 0.000000
0.776961 0.000000 0.000000
0.835294 0.000000 0.000000
0.066177 0.124510 0.023039
0.113235 0.104902 0.007353
0.217157 0.070588 0.000000
0.361275 0.024019 0.000000
0.497549 0.000000 0.000000
0.622549 0.000000 0.000000
0.710294 0.000000 0.000000
0.765196 0.000000 0.000000
0.820098 0.000000 0.000000
0.096079 0.306863 0.100981
0.141176 0.291667 0.085295
0.275490 0.260784 0.039216
0.423529 0.210295 0.000000
0.555882 0.148039 0.000000
0.674999 0.066177 0.000000
0.749019 0.005883 0.000000
0.799020 0.000000 0.000000
0.826471 0.000000 0.000000
0.090687 0.491177 0.149020
0.185784 0.478431 0.137255
0.337745 0.455392 0.097549
0.485784 0.420588 0.047059
0.625981 0.374020 0.003922
0.745098 0.318138 0.000000
0.822059 0.253432 0.000000
0.871569 0.166177 0.000000
0.887255 0.025490 0.000000
0.213726 0.654902 0.156863
0.291177 0.647058 0.139215
0.411765 0.631373 0.114706
0.548039 0.603431 0.083824
0.688236 0.570588 0.043137
0.803431 0.533824 0.017647
0.881372 0.492157 0.011765
0.937745 0.440686 0.019608
0.978432 0.356863 0.039216
0.367647 0.766176 0.120098
0.414216 0.762255 0.104412
0.505392 0.750490 0.090196
0.621078 0.725980 0.073039
0.748529 0.703431 0.049510
0.850000 0.675980 0.035294
0.924020 0.650000 0.039216
0.984804 0.618627 0.059314
1.000000 0.575490 0.098039
0.507843 0.851961 0.038235
0.539216 0.848039 0.038236
0.612745 0.836274 0.034314
0.715686 0.820588 0.027451
0.814706 0.800981 0.019608
0.900490 0.781372 0.018627
0.970588 0.761764 0.023529
1.000000 0.738235 0.047059
1.000000 0.710784 0.094118
0.651961 0.925980 0.000000
0.678922 0.922059 0.000000
0.733333 0.914215 0.000000
0.810784 0.896569 0.000000
0.890687 0.886765 0.000000
0.962745 0.871078 0.000000
1.000000 0.855392 0.000000
1.000000 0.835784 0.003922
1.000000 0.816176 0.038726
0.764706 1.000000 0.000000
0.784314 1.000000 0.000000
0.827451 1.000000 0.000000
0.890196 1.000000 0.000000
0.966666 0.990196 0.000000
1.000000 0.976471 0.000000
1.000000 0.960784 0.000000
1.000000 0.945098 0.000000
1.000000 0.925490 0.000000
0.000000 0.000000 0.081863
0.050490 0.000000 0.038726
0.162745 0.000000 0.004412
0.306863 0.000000 0.000000
0.443628 0.000000 0.000000
0.574020 0.000000 0.000000
0.660294 0.000000 0.000000
0.730392 0.000000 0.000000
0.788235 0.000000 0.000000
0.053922 0.124510 0.124510
0.101471 0.100981 0.100981
0.213725 0.065687 0.050980
0.353432 0.020098 0.003432
0.481863 0.000000 0.000000
0.599020 0.000000 0.000000
0.675490 0.000000 0.000000
0.726471 0.000000 0.000000
0.784804 0.000000 0.000000
0.088236 0.303921 0.178922
0.132843 0.291177 0.163235
0.271569 0.256863 0.117157
0.413235 0.206373 0.054902
0.540686 0.147059 0.007353
0.651471 0.067647 0.000000
0.720589 0.002942 0.000000
0.767647 0.000000 0.000000
0.799510 0.000000 0.000000
0.076961 0.491177 0.219118
0.181863 0.479412 0.202451
0.333824 0.455392 0.163725
0.474019 0.420588 0.121079
0.610294 0.374020 0.074020
0.723530 0.319608 0.036765
0.796078 0.257353 0.021568
0.846078 0.170098 0.013725
0.867647 0.023039 0.006373
0.206373 0.654902 0.230883
0.281863 0.647058 0.215196
0.402941 0.631373 0.183824
0.536274 0.607353 0.141666
0.672549 0.572549 0.112745
0.780392 0.537254 0.095098
0.857843 0.496078 0.091667
0.916667 0.444608 0.097549
0.962745 0.360784 0.111274
0.359804 0.767647 0.206863
0.402451 0.762255 0.195588
0.490687 0.750490 0.168627
0.610294 0.729902 0.126961
0.731372 0.703431 0.103921
0.826961 0.679902 0.100981
0.900980 0.653922 0.108824
0.963235 0.622549 0.125490
1.000000 0.579412 0.159804
0.500000 0.851961 0.134314
0.530882 0.848039 0.118627
0.600980 0.836765 0.083824
0.700490 0.820588 0.061275
0.799019 0.800981 0.057353
0.877451 0.784804 0.062255
0.946078 0.765686 0.077941
1.000000 0.742647 0.104902
1.000000 0.711765 0.175490
0.644608 0.925980 0.000000
0.671078 0.922059 0.000000
0.725490 0.914215 0.000000
0.799510 0.902451 0.000000
0.876961 0.886765 0.000000
0.947549 0.871078 0.003432
1.000000 0.855392 0.010784
1.000000 0.839706 0.030392
1.000000 0.819608 0.106863
0.776471 1.000000 0.000000
0.795588 1.000000 0.000000
0.838235 1.000000 0.000000
0.896569 1.000000 0.000000
0.970588 0.990196 0.000000
1.000000 0.976471 0.000000
1.000000 0.963235 0.000000
1.000000 0.948530 0.000000
1.000000 0.928922 0.000000
0.000000 0.000000 0.201961
0.030883 0.000000 0.170588
0.150980 0.000000 0.124510
0.288235 0.000000 0.066177
0.419608 0.000000 0.018627
0.544117 0.000000 0.000000
0.632353 0.000000 0.000000
0.702451 0.000000 0.000000
0.761764 0.000000 0.002942
0.031373 0.124510 0.252451
0.081863 0.100981 0.232843
0.201471 0.062745 0.186764
0.331372 0.019118 0.128431
0.455392 0.000000 0.070098
0.569608 0.000000 0.020098
0.644118 0.000000 0.002942
0.698529 0.000000 0.000000
0.760784 0.000000 0.003922
0.069608 0.303921 0.314706
0.121079 0.287745 0.295588
0.255883 0.255883 0.255883
0.389706 0.206373 0.201471
0.514706 0.144118 0.144118
0.621078 0.067647 0.088725
0.687255 0.003922 0.054902
0.737745 0.000000 0.033333
0.772549 0.000000 0.025490
0.051471 0.491177 0.365686
0.143137 0.479412 0.350490
0.306372 0.455882 0.315686
0.447549 0.423039 0.272549
0.580883 0.377941 0.222058
0.691177 0.323529 0.180883
0.765196 0.259804 0.157353
0.815686 0.170098 0.137745
0.837745 0.023039 0.112745
0.153922 0.658824 0.392157
0.239216 0.650980 0.380392
0.365686 0.635294 0.354902
0.500980 0.611274 0.319608
0.638235 0.576470 0.276470
0.745588 0.541667 0.247059
0.823529 0.502941 0.231373
0.886765 0.448529 0.225490
0.934314 0.362745 0.227451
0.309804 0.770098 0.383824
0.357843 0.766176 0.374510
0.451470 0.754412 0.356373
0.571079 0.734804 0.327451
0.692647 0.709804 0.293137
0.788235 0.685294 0.275490
0.863726 0.660294 0.268627
0.929902 0.629902 0.274020
0.988235 0.583333 0.293628
0.453921 0.855883 0.341176
0.487255 0.851961 0.336765
0.558824 0.842157 0.321569
0.657843 0.825980 0.298039
0.751961 0.808823 0.278431
0.832843 0.789215 0.271569
0.903922 0.770588 0.275490
0.967157 0.749020 0.290687
1.000000 0.718628 0.323529
0.609804 0.929902 0.213235
0.633334 0.925980 0.208823
0.687255 0.918137 0.197059
0.756863 0.906372 0.184314
0.826961 0.894608 0.180392
0.893137 0.878921 0.189706
0.957353 0.863235 0.211765
1.000000 0.847549 0.250000
1.000000 0.824509 0.307353
0.785294 1.000000 0.000000
0.803922 1.000000 0.000000
0.839216 1.000000 0.000000
0.892647 1.000000 0.000000
0.954902 0.996078 0.000000
1.000000 0.984314 0.000000
1.000000 0.968627 0.000000
1.000000 0.956863 0.000000
1.000000 0.937255 0.000000
0.000000 0.000000 0.353922
0.015196 0.000000 0.315196
0.135294 0.000000 0.264706
0.271569 0.000000 0.210294
0.400000 0.000000 0.155882
0.519118 0.000000 0.110784
0.604902 0.000000 0.091177
0.675000 0.000000 0.083334
0.738725 0.000000 0.092647
0.011765 0.120588 0.404902
0.061765 0.097549 0.380883
0.186764 0.058824 0.330882
0.311765 0.016667 0.272549
0.432843 0.000000 0.214216
0.541176 0.000000 0.159804
0.612745 0.000000 0.125981
0.671078 0.000000 0.102941
0.733333 0.000000 0.110784
0.050980 0.300490 0.462745
0.109314 0.283824 0.443628
0.236275 0.249509 0.397549
0.369608 0.202451 0.346569
0.491177 0.140196 0.288235
0.592647 0.063725 0.232843
0.657843 0.002942 0.195098
0.706862 0.000000 0.164706
0.744117 0.000000 0.141176
0.036274 0.489706 0.513235
0.118137 0.478431 0.498039
0.282844 0.455392 0.466177
0.420588 0.420588 0.420588
0.555392 0.377941 0.370098
0.660294 0.323529 0.328921
0.732843 0.259804 0.297549
0.784804 0.169608 0.268137
0.810294 0.016667 0.226961
0.119608 0.658824 0.548529
0.197059 0.650980 0.538235
0.331372 0.635294 0.513726
0.471079 0.611765 0.478922
0.607353 0.580392 0.436275
0.710784 0.545588 0.403921
0.788725 0.506863 0.383333
0.853431 0.452451 0.367647
0.903922 0.364706 0.348039
0.257843 0.771568 0.560294
0.309804 0.767647 0.552941
0.408824 0.755882 0.533824
0.533333 0.737745 0.502941
0.652451 0.714706 0.471569
0.745588 0.691667 0.450490
0.823529 0.664706 0.436765
0.893628 0.633824 0.429902
0.955882 0.587255 0.425981
0.397058 0.859804 0.552451
0.432353 0.855883 0.546078
0.508333 0.846078 0.529902
0.607353 0.832353 0.506863
0.700980 0.814216 0.485784
0.781863 0.797058 0.471569
0.855883 0.777451 0.463726
0.924510 0.754412 0.462255
0.990686 0.723530 0.466177
0.539706 0.934313 0.497059
0.562745 0.933823 0.492647
0.616667 0.925980 0.481373
0.686765 0.914215 0.465686
0.760784 0.902451 0.454412
0.830883 0.887255 0.450000
0.900980 0.873039 0.448039
0.965196 0.855392 0.455882
1.000000 0.831863 0.475000
0.738725 1.000000 0.158333
0.754412 1.000000 0.154412
0.786275 1.000000 0.146569
0.835294 1.000000 0.141176
0.887255 1.000000 0.142647
0.945588 0.996078 0.160784
0.998529 0.984314 0.197549
1.000000 0.970588 0.250490
1.000000 0.949020 0.339216
0.000000 0.000000 0.490197
0.007843 0.000000 0.441176
0.131372 0.000000 0.389216
0.257353 0.000000 0.335294
0.382353 0.000000 0.284314
0.495588 0.000000 0.241177
0.577451 0.000000 0.215687
0.651470 0.000000 0.201961
0.717647 0.000000 0.194117
0.003922 0.116667 0.540686
0.055392 0.089706 0.505883
0.177941 0.050980 0.455392
0.300000 0.011275 0.400980
0.413235 0.000000 0.342647
0.514706 0.000000 0.292157
0.583824 0.000000 0.253431
0.643627 0.000000 0.223530
0.711765 0.000000 0.215687
0.059804 0.291177 0.593137
0.116177 0.273529 0.569608
0.229412 0.240196 0.528431
0.354412 0.193627 0.475980
0.471569 0.132353 0.416667
0.564706 0.058333 0.362255
0.628432 0.001961 0.319608
0.678921 0.000000 0.281863
0.717647 0.000000 0.244118
0.053431 0.481863 0.647058
0.116666 0.470589 0.631863
0.271079 0.450490 0.600490
0.404902 0.416667 0.559314
0.533824 0.372059 0.506373
0.632843 0.319608 0.463726
0.703431 0.254902 0.425000
0.755392 0.160294 0.382843
0.782843 0.008824 0.325981
0.105882 0.654902 0.694117
0.181373 0.647549 0.682353
0.313725 0.635294 0.657843
0.450000 0.611274 0.623039
0.580392 0.580392 0.580392
0.679902 0.545588 0.545098
0.757843 0.506863 0.514706
0.825490 0.450490 0.484314
0.880392 0.360784 0.449020
0.230392 0.771568 0.713726
0.284804 0.766176 0.705882
0.383824 0.755882 0.686275
0.506863 0.737745 0.654902
0.619117 0.715196 0.623039
0.711275 0.693137 0.596078
0.790686 0.668628 0.572059
0.863235 0.637745 0.549019
0.930882 0.588726 0.528921
0.362745 0.859804 0.717647
0.400490 0.855883 0.709804
0.476471 0.848039 0.694118
0.572059 0.834804 0.670589
0.661765 0.817647 0.646078
0.743627 0.800980 0.623530
0.820588 0.781373 0.603921
0.893628 0.758333 0.586765
0.964706 0.726471 0.571568
0.490686 0.938235 0.693627
0.514216 0.937745 0.688236
0.566176 0.929902 0.676961
0.634314 0.918627 0.661765
0.708333 0.906862 0.643138
0.782353 0.894608 0.627451
0.854902 0.878921 0.611765
0.925980 0.859804 0.600000
1.000000 0.835784 0.592156
0.647058 1.000000 0.552941
0.660784 1.000000 0.549019
0.695098 1.000000 0.545098
0.743137 1.000000 0.533333
0.800000 1.000000 0.525490
0.858334 1.000000 0.517647
0.924510 0.997059 0.517647
0.988725 0.984314 0.524020
1.000000 0.960784 0.541176
0.000000 0.000000 0.614706
0.011275 0.000000 0.554412
0.131372 0.000000 0.501961
0.251961 0.000000 0.451470
0.372549 0.000000 0.397549
0.475980 0.000000 0.354412
0.557843 0.000000 0.323530
0.630392 0.000000 0.300490
0.698039 0.000000 0.283824
0.003922 0.101471 0.653922
0.063235 0.073530 0.613235
0.181863 0.034804 0.566667
0.291177 0.005882 0.512255
0.400000 0.000000 0.453921
0.493628 0.000000 0.400980
0.560294 0.000000 0.356863
0.624019 0.000000 0.323039
0.694118 0.000000 0.303431
0.088235 0.270098 0.694608
0.128922 0.252451 0.671569
0.237255 0.220588 0.631863
0.351471 0.172549 0.578432
0.459804 0.112744 0.520098
0.544118 0.041177 0.465687
0.604902 0.000000 0.419118
0.655392 0.000000 0.373039
0.694118 0.000000 0.325981
0.099510 0.467647 0.745098
0.157843 0.459804 0.729902
0.285294 0.435785 0.700490
0.408824 0.404902 0.657843
0.525981 0.362255 0.607353
0.615686 0.310294 0.560784
0.681863 0.243137 0.517647
0.732353 0.144608 0.468627
0.759314 0.002451 0.403922
0.150490 0.647058 0.789706
0.214706 0.641667 0.779902
0.329412 0.627451 0.753431
0.453922 0.603431 0.718627
0.572549 0.576470 0.677941
0.662255 0.541667 0.642647
0.738725 0.502941 0.607353
0.804902 0.446569 0.572059
0.859314 0.350980 0.528921
0.261765 0.766176 0.810784
0.308333 0.762255 0.803431
0.395588 0.751961 0.784314
0.505882 0.734804 0.754412
0.607353 0.715196 0.722549
0.693137 0.693137 0.693137
0.771078 0.668628 0.665686
0.843627 0.637745 0.638235
0.911274 0.587255 0.610784
0.378432 0.856863 0.821078
0.410294 0.855392 0.813235
0.475980 0.846078 0.797549
0.560294 0.833334 0.774020
0.645098 0.819608 0.750490
0.723039 0.804412 0.726961
0.798039 0.785294 0.703431
0.871078 0.761765 0.680392
0.945098 0.727451 0.657353
0.480392 0.938235 0.814706
0.502451 0.937745 0.810294
0.548530 0.929902 0.799019
0.612255 0.922059 0.781863
0.683334 0.910294 0.763725
0.754902 0.898529 0.743137
0.828432 0.882843 0.723530
0.899019 0.863725 0.704902
0.980392 0.839706 0.684314
0.596078 1.000000 0.773039
0.609804 1.000000 0.769608
0.640686 1.000000 0.759804
0.688726 1.000000 0.748039
0.745588 1.000000 0.732353
0.809314 1.000000 0.716667
0.874020 1.000000 0.700980
0.945588 0.993137 0.685294
1.000000 0.968627 0.672059
0.000000 0.000000 0.706863
0.038236 0.000000 0.632843
0.150980 0.000000 0.584314
0.262255 0.000000 0.534313
0.372549 0.000000 0.485295
0.468137 0.000000 0.442647
0.546079 0.000000 0.408824
0.616176 0.000000 0.381863
0.682353 0.000000 0.361764
0.019118 0.074020 0.721569
0.101961 0.046569 0.682353
0.199020 0.016176 0.636765
0.299020 0.000000 0.586275
0.401471 0.000000 0.530883
0.479902 0.000000 0.478921
0.542157 0.000000 0.434804
0.611275 0.000000 0.403922
0.678431 0.000000 0.381373
0.122549 0.239216 0.753922
0.172059 0.223529 0.734314
0.264706 0.190196 0.695098
0.363235 0.143627 0.644608
0.455882 0.085294 0.590196
0.529901 0.020588 0.539706
0.588235 0.000000 0.493138
0.635784 0.000000 0.446569
0.677451 0.000000 0.396078
0.165686 0.446568 0.807353
0.222549 0.438725 0.792157
0.320098 0.418137 0.765686
0.426961 0.386765 0.724020
0.525981 0.345098 0.677941
0.605392 0.292157 0.633334
0.666176 0.224510 0.587745
0.712745 0.118627 0.534804
0.735784 0.000000 0.467647
0.231373 0.635294 0.852941
0.280883 0.628431 0.844118
0.370588 0.615687 0.819608
0.472059 0.596078 0.788725
0.572549 0.568628 0.751961
0.654412 0.534314 0.716667
0.726471 0.495098 0.681372
0.790196 0.434804 0.643628
0.841176 0.335294 0.595098
0.324020 0.758333 0.879412
0.358823 0.754412 0.871568
0.428922 0.744117 0.854902
0.517648 0.730882 0.828432
0.605882 0.710785 0.800981
0.685294 0.691667 0.771078
0.757843 0.665686 0.742647
0.827941 0.633824 0.714706
0.895588 0.583333 0.680882
0.417647 0.851961 0.895098
0.441177 0.848039 0.887255
0.494118 0.841177 0.873529
0.564215 0.832353 0.854412
0.638235 0.816667 0.832353
0.712255 0.801961 0.808823
0.785294 0.785294 0.785294
0.855392 0.761765 0.758333
0.929412 0.727451 0.730392
0.495098 0.937745 0.902941
0.513726 0.933823 0.899019
0.552451 0.929902 0.887255
0.606863 0.922059 0.872059
0.672549 0.910784 0.855883
0.739216 0.898529 0.835294
0.809314 0.883333 0.812745
0.879412 0.867157 0.790196
0.964216 0.840196 0.765686
0.584314 1.000000 0.900000
0.596078 1.000000 0.896079
0.626470 1.000000 0.888236
0.669118 1.000000 0.875490
0.723529 1.000000 0.859804
0.784804 1.000000 0.841177
0.848039 1.000000 0.821569
0.917157 1.000000 0.801471
1.000000 0.977451 0.773529
0.000000 0.000000 0.757353
0.082353 0.000000 0.683334
0.182353 0.000000 0.640686
0.281372 0.000000 0.596078
0.378922 0.000000 0.551471
0.464216 0.000000 0.512746
0.538235 0.000000 0.481863
0.604412 0.000000 0.451470
0.670588 0.000000 0.427941
0.070588 0.038726 0.757353
0.148530 0.018628 0.725490
0.229902 0.003432 0.683824
0.319608 0.000000 0.635784
0.401471 0.000000 0.589705
0.472059 0.000000 0.540686
0.534313 0.000000 0.498529
0.600490 0.000000 0.471078
0.666667 0.000000 0.447549
0.179902 0.196569 0.791176
0.222549 0.180883 0.772549
0.299020 0.149510 0.737255
0.381863 0.106863 0.691176
0.457843 0.050000 0.644607
0.522058 0.005393 0.598039
0.575490 0.000000 0.549510
0.618627 0.000000 0.504902
0.666667 0.000000 0.461765
0.255882 0.418627 0.849510
0.296568 0.407844 0.834804
0.366666 0.388726 0.810294
0.451961 0.359804 0.773039
0.533824 0.317157 0.732353
0.600000 0.262255 0.689216
0.654412 0.194117 0.645098
0.692647 0.079902 0.589216
0.716177 0.000000 0.522549
0.322059 0.615687 0.898529
0.354902 0.611765 0.890686
0.419118 0.599510 0.870098
0.498530 0.580392 0.843137
0.580392 0.552941 0.812255
0.652941 0.522059 0.778432
0.718627 0.479412 0.743627
0.778432 0.418628 0.703921
0.825490 0.311275 0.651471
0.394118 0.744117 0.929902
0.417647 0.742647 0.923039
0.471079 0.732353 0.910294
0.540196 0.720098 0.885785
0.613726 0.702941 0.863235
0.683824 0.683824 0.835784
0.751471 0.657843 0.808333
0.817157 0.625980 0.778432
0.883333 0.573039 0.743137
0.464216 0.844117 0.950491
0.483824 0.840196 0.946079
0.525000 0.836275 0.937745
0.579902 0.823039 0.918627
0.645098 0.811765 0.897549
0.711275 0.798039 0.878921
0.777451 0.781373 0.855392
0.843627 0.758333 0.828432
0.917647 0.723530 0.797549
0.525980 0.930392 0.969608
0.541176 0.929902 0.966176
0.572059 0.925980 0.957843
0.618627 0.918137 0.945588
0.673039 0.910294 0.929902
0.735294 0.898529 0.910294
0.800981 0.883333 0.890686
0.867157 0.867157 0.867157
0.949510 0.840196 0.836274
0.600000 1.000000 0.992647
0.608333 1.000000 0.992647
0.634314 1.000000 0.984804
0.670588 1.000000 0.973039
0.719608 1.000000 0.957353
0.774020 1.000000 0.941666
0.832353 1.000000 0.922059
0.898529 1.000000 0.898529
1.000000 0.984804 0.863235
0.003922 0.000000 0.788235
0.140196 0.000000 0.722059
0.222549 0.000000 0.683334
0.308333 0.000000 0.644608
0.390196 0.000000 0.607843
0.464216 0.000000 0.572549
0.534313 0.000000 0.544118
0.596568 0.000000 0.513726
0.662745 0.000000 0.490196
0.140196 0.007353 0.783824
0.199020 0.000000 0.752941
0.265197 0.000000 0.718137
0.339215 0.000000 0.674510
0.405882 0.000000 0.631373
0.470098 0.000000 0.594118
0.530392 0.000000 0.560784
0.592647 0.000000 0.533333
0.658824 0.000000 0.509314
0.246078 0.134314 0.810785
0.280883 0.122549 0.795098
0.339215 0.092157 0.763726
0.401471 0.053431 0.725980
0.459804 0.010784 0.687255
0.514215 0.000000 0.644607
0.563725 0.000000 0.600000
0.600490 0.000000 0.559314
0.658824 0.000000 0.521569
0.339706 0.372059 0.873039
0.367157 0.364215 0.861764
0.421078 0.344118 0.841667
0.479412 0.317157 0.810294
0.541667 0.274510 0.775000
0.596079 0.217647 0.736765
0.638725 0.139706 0.690196
0.669608 0.024020 0.635785
0.692647 0.000000 0.571078
0.409804 0.588236 0.931372
0.429412 0.582353 0.925490
0.472549 0.572549 0.908824
0.531863 0.554902 0.888235
0.596078 0.529411 0.860785
0.658333 0.496569 0.829412
0.715687 0.449019 0.797058
0.766666 0.383824 0.754902
0.805883 0.264706 0.698039
0.468137 0.726961 0.970098
0.483824 0.724510 0.966176
0.520589 0.716667 0.956863
0.571078 0.704902 0.936275
0.628922 0.689216 0.917647
0.691667 0.669608 0.894118
0.750000 0.646078 0.868137
0.809804 0.610784 0.840196
0.872059 0.553431 0.801471
0.522549 0.829412 1.000000
0.534313 0.828432 0.996078
0.567647 0.824510 0.989216
0.610294 0.816667 0.975001
0.660784 0.804902 0.960784
0.716177 0.790196 0.940686
0.774510 0.773529 0.921569
0.835784 0.750000 0.898529
0.905882 0.714706 0.866667
0.573039 0.922059 1.000000
0.587745 0.918627 1.000000
0.610785 0.918137 1.000000
0.645588 0.908333 1.000000
0.692157 0.902451 1.000000
0.742647 0.891176 0.984804
0.797059 0.879411 0.969117
0.859314 0.863235 0.949020
0.937745 0.835784 0.921569
0.639216 1.000000 1.000000
0.647059 1.000000 1.000000
0.665687 1.000000 1.000000
0.694118 1.000000 1.000000
0.731372 1.000000 1.000000
0.776471 1.000000 1.000000
0.824510 1.000000 1.000000
0.882843 1.000000 1.000000
1.000000 0.992157 0.992157
