Color/Fuji/Fuji Astia 100 Generic 65x.cube
TITLE "Fuji Astia 100 Generic"
LUT_3D_SIZE 65
DOMAIN_MIN 0.000000 0.000000 0.000000
DOMAIN_MAX 1.000000 1.000000 1.000000
0.000000 0.000000 0.000000
0.008762 0.000000 0.000000
0.021446 0.000000 0.000000
0.034130 0.000000 0.000000
0.046814 0.000000 0.000000
0.060172 0.000000 0.000000
0.073774 0.000000 0.000000
0.087377 0.000000 0.000000
0.100981 0.000000 0.000000
0.114583 0.000000 0.000000
0.128186 0.000000 0.000000
0.139522 0.000000 0.000000
0.152206 0.000000 0.000000
0.165074 0.000000 0.000000
0.178677 0.000000 0.000000
0.196201 0.000000 0.000000
0.209804 0.000000 0.000000
0.223468 0.000000 0.000000
0.240932 0.000000 0.000000
0.258456 0.000000 0.000000
0.278676 0.000000 0.000000
0.297426 0.000000 0.000000
0.318872 0.000000 0.000000
0.340319 0.000000 0.000000
0.360294 0.000000 0.000000
0.379289 0.000000 0.000000
0.396813 0.000000 0.000000
0.414338 0.000000 0.000000
0.431863 0.000000 0.000000
0.449387 0.000000 0.000000
0.466912 0.000000 0.000000
0.484436 0.000000 0.000000
0.501961 0.000000 0.000000
0.519486 0.000000 0.000000
0.537010 0.000000 0.000000
0.558456 0.000000 0.000000
0.574265 0.000000 0.000000
0.589584 0.000000 0.000000
0.607108 0.000000 0.000000
0.624632 0.000000 0.000000
0.642157 0.000000 0.000000
0.659681 0.000000 0.000000
0.673897 0.000000 0.000000
0.690809 0.000000 0.000000
0.708333 0.000000 0.000000
0.725858 0.000000 0.000000
0.740318 0.000000 0.000000
0.756986 0.000000 0.000000
0.774510 0.000000 0.000000
0.788113 0.000000 0.000000
0.805637 0.000000 0.000000
0.819424 0.000000 0.000000
0.836765 0.000000 0.000000
0.852635 0.000000 0.000000
0.867892 0.000000 0.000000
0.881495 0.000000 0.000000
0.898529 0.000000 0.000000
0.911213 0.000000 0.000000
0.926226 0.000000 0.000000
0.939828 0.000000 0.000000
0.953431 0.000000 0.000000
0.967034 0.000000 0.000000
0.980638 0.000000 0.000000
0.991238 0.000000 0.000000
1.000000 0.000000 0.000000
0.000000 0.009681 0.000000
0.009681 0.008762 0.000000
0.021446 0.008762 0.000000
0.032966 0.008762 0.000000
0.046569 0.008762 0.000000
0.060172 0.008762 0.000000
0.073774 0.008762 0.000000
0.087377 0.008762 0.000000
0.100981 0.008762 0.000000
0.114154 0.008762 0.000000
0.126838 0.008762 0.000000
0.139522 0.008762 0.000000
0.151470 0.008762 0.000000
0.165074 0.008762 0.000000
0.178677 0.008762 0.000000
0.196201 0.008762 0.000000
0.209804 0.008762 0.000000
0.227328 0.008762 0.000000
0.240932 0.008762 0.000000
0.258456 0.008762 0.000000
0.279902 0.008762 0.000000
0.297426 0.009681 0.000000
0.318872 0.009681 0.000000
0.340319 0.009681 0.000000
0.360294 0.008762 0.000000
0.379289 0.008762 0.000000
0.396813 0.008762 0.000000
0.414338 0.008762 0.000000
0.431863 0.008762 0.000000
0.449387 0.008762 0.000000
0.466912 0.008762 0.000000
0.484436 0.008762 0.000000
0.501961 0.008762 0.000000
0.519486 0.008762 0.000000
0.537010 0.008762 0.000000
0.558456 0.008762 0.000000
0.574265 0.008762 0.000000
0.589584 0.008762 0.000000
0.607108 0.008762 0.000000
0.624632 0.008762 0.000000
0.642157 0.008762 0.000000
0.659681 0.008762 0.000000
0.673897 0.008762 0.000000
0.690809 0.005760 0.000000
0.708333 0.005760 0.000000
0.725858 0.005760 0.000000
0.740318 0.007905 0.000000
0.756986 0.008762 0.000000
0.774510 0.008762 0.000000
0.788113 0.008762 0.000000
0.805637 0.008762 0.000000
0.819424 0.004841 0.000000
0.836765 0.004841 0.000000
0.852635 0.004841 0.000000
0.867892 0.004841 0.000000
0.881495 0.005760 0.000000
0.895098 0.009191 0.000000
0.911213 0.004841 0.000000
0.926226 0.004841 0.000000
0.939828 0.004841 0.000000
0.953431 0.004841 0.000000
0.967034 0.004841 0.000000
0.980638 0.004841 0.000000
0.991238 0.004841 0.000000
1.000000 0.004841 0.000000
0.001838 0.021446 0.000000
0.012684 0.021446 0.000000
0.021446 0.021446 0.000000
0.032046 0.021446 0.000000
0.046569 0.021446 0.000000
0.060172 0.021446 0.000000
0.073774 0.021446 0.000000
0.087377 0.021446 0.000000
0.100981 0.021446 0.000000
0.114154 0.021446 0.000000
0.126838 0.021446 0.000000
0.139522 0.021446 0.000000
0.151470 0.021446 0.000000
0.165074 0.021446 0.000000
0.178677 0.021446 0.000000
0.196201 0.021446 0.000000
0.209804 0.021446 0.000000
0.227328 0.021446 0.000000
0.240932 0.021446 0.000000
0.258456 0.021446 0.000000
0.279902 0.021446 0.000000
0.297426 0.021446 0.000000
0.318872 0.021446 0.000000
0.340319 0.021446 0.000000
0.360294 0.021446 0.000000
0.379289 0.021446 0.000000
0.396813 0.019362 0.000000
0.414338 0.019362 0.000000
0.431863 0.019362 0.000000
0.449387 0.019362 0.000000
0.466912 0.019362 0.000000
0.484436 0.017524 0.000000
0.501961 0.017524 0.000000
0.519486 0.017524 0.000000
0.540808 0.017524 0.000000
0.558456 0.017524 0.000000
0.576103 0.017524 0.000000
0.589584 0.017524 0.000000
0.607108 0.017524 0.000000
0.624632 0.017524 0.000000
0.642157 0.017524 0.000000
0.659681 0.017524 0.000000
0.677206 0.017524 0.000000
0.690809 0.017524 0.000000
0.708333 0.017524 0.000000
0.725858 0.017524 0.000000
0.740318 0.017524 0.000000
0.756986 0.017524 0.000000
0.774510 0.017524 0.000000
0.788113 0.017524 0.000000
0.805637 0.017524 0.000000
0.819424 0.017524 0.000000
0.836765 0.015441 0.000000
0.852635 0.015441 0.000000
0.867892 0.017524 0.000000
0.881495 0.017524 0.000000
0.895098 0.017524 0.000000
0.911213 0.017524 0.000000
0.926226 0.017524 0.000000
0.939828 0.015441 0.000000
0.953431 0.015441 0.000000
0.967034 0.015441 0.000000
0.980638 0.015441 0.000000
0.991238 0.015441 0.000000
1.000000 0.013603 0.000000
0.007843 0.034130 0.000000
0.016605 0.034130 0.000000
0.025367 0.034130 0.000000
0.034130 0.034130 0.000000
0.046569 0.034130 0.000000
0.060172 0.034130 0.000000
0.073774 0.034130 0.000000
0.087377 0.034130 0.000000
0.100981 0.034130 0.000000
0.114154 0.034130 0.000000
0.126838 0.034130 0.000000
0.139522 0.034130 0.000000
0.151470 0.034130 0.000000
0.165074 0.036704 0.000000
0.178677 0.032966 0.000000
0.194179 0.032966 0.000000
0.209804 0.032966 0.000000
0.227328 0.032966 0.000000
0.243689 0.032966 0.000000
0.261214 0.032966 0.000000
0.279902 0.032966 0.000000
0.297426 0.032966 0.000000
0.318872 0.034130 0.000000
0.340319 0.034130 0.000000
0.360294 0.032966 0.000000
0.379289 0.030209 0.000000
0.396813 0.030209 0.000000
0.414338 0.030209 0.000000
0.431863 0.030209 0.000000
0.449387 0.030209 0.000000
0.466912 0.030209 0.000000
0.484436 0.030209 0.000000
0.501961 0.030209 0.000000
0.519486 0.030209 0.000000
0.540931 0.030209 0.000000
0.558456 0.029044 0.000000
0.575980 0.029044 0.000000
0.589584 0.029044 0.000000
0.607108 0.029044 0.000000
0.624632 0.032415 0.000000
0.642157 0.029044 0.000000
0.659681 0.029044 0.000000
0.677206 0.025735 0.000000
0.690809 0.026287 0.000000
0.708333 0.026287 0.000000
0.725858 0.026287 0.000000
0.740318 0.026287 0.000000
0.756986 0.029044 0.000000
0.774510 0.029044 0.000000
0.788113 0.031067 0.000000
0.805637 0.026287 0.000000
0.819424 0.026287 0.000000
0.836765 0.026287 0.000000
0.852635 0.026287 0.000000
0.867892 0.026287 0.000000
0.881495 0.026287 0.000000
0.895098 0.026287 0.000000
0.911213 0.026287 0.000000
0.926226 0.026287 0.000000
0.939828 0.026287 0.000000
0.953431 0.026287 0.000000
0.967034 0.026287 0.000000
0.980638 0.026287 0.000000
0.991238 0.026287 0.000000
1.000000 0.026287 0.000000
0.011765 0.046814 0.000000
0.023284 0.046814 0.000000
0.029044 0.046814 0.000000
0.037807 0.046814 0.000000
0.046814 0.046814 0.000000
0.060172 0.046814 0.000000
0.073774 0.046814 0.000000
0.087377 0.046814 0.000000
0.100981 0.046569 0.000000
0.114154 0.046569 0.000000
0.126838 0.046569 0.000000
0.137867 0.046569 0.000000
0.151470 0.046569 0.000000
0.165074 0.046569 0.000000
0.178677 0.046569 0.000000
0.194179 0.046569 0.000000
0.209804 0.046569 0.000000
0.227328 0.046569 0.000000
0.244853 0.046569 0.000000
0.262378 0.046569 0.000000
0.279902 0.046569 0.000000
0.301042 0.046569 0.000000
0.319485 0.046569 0.000000
0.340319 0.046569 0.000000
0.361765 0.042892 0.000000
0.379289 0.042892 0.000000
0.400489 0.042892 0.000000
0.418014 0.042892 0.000000
0.431863 0.042892 0.000000
0.449387 0.042892 0.000000
0.466912 0.042892 0.000000
0.484436 0.045527 0.000000
0.501961 0.042647 0.000000
0.522365 0.042647 0.000000
0.540931 0.042647 0.000000
0.558456 0.042647 0.000000
0.575980 0.042647 0.000000
0.590870 0.042647 0.000000
0.607108 0.042647 0.000000
0.624632 0.042647 0.000000
0.642157 0.042647 0.000000
0.659681 0.042647 0.000000
0.677206 0.042647 0.000000
0.690809 0.038971 0.000000
0.708333 0.038971 0.000000
0.725858 0.038971 0.000000
0.740318 0.038971 0.000000
0.756986 0.042647 0.000000
0.774510 0.042647 0.000000
0.788113 0.042647 0.000000
0.805637 0.038971 0.000000
0.819424 0.038971 0.000000
0.836765 0.038971 0.000000
0.852635 0.038971 0.000000
0.867892 0.038971 0.000000
0.881495 0.038971 0.000000
0.895098 0.038971 0.000000
0.911213 0.038971 0.000000
0.926226 0.038971 0.000000
0.939828 0.038726 0.000000
0.953431 0.038726 0.000000
0.967034 0.038726 0.000000
0.980638 0.038726 0.000000
0.991238 0.038726 0.000000
1.000000 0.038726 0.000000
0.016360 0.060172 0.000000
0.025122 0.060172 0.000000
0.033885 0.060172 0.000000
0.041973 0.060172 0.000000
0.050735 0.060172 0.000000
0.060172 0.060172 0.000000
0.073774 0.060172 0.000000
0.087377 0.060172 0.000000
0.100981 0.060172 0.000000
0.114154 0.060172 0.000000
0.126838 0.060172 0.000000
0.137867 0.060172 0.000000
0.151470 0.060172 0.000000
0.165074 0.060172 0.000000
0.178248 0.059069 0.000000
0.194179 0.059498 0.000000
0.209804 0.059498 0.000000
0.227328 0.059498 0.000000
0.244853 0.059498 0.000000
0.262378 0.059498 0.000000
0.279902 0.059498 0.000000
0.298100 0.059498 0.000000
0.319485 0.060172 0.000000
0.341851 0.059498 0.000000
0.361765 0.059498 0.000000
0.379289 0.059498 0.000000
0.400735 0.056250 0.000000
0.418259 0.056250 0.000000
0.435785 0.056250 0.000000
0.446936 0.056250 0.000000
0.467586 0.056250 0.000000
0.485110 0.056250 0.000000
0.505883 0.056250 0.000000
0.523407 0.056250 0.000000
0.540931 0.056250 0.000000
0.558456 0.056250 0.000000
0.575980 0.054535 0.000000
0.593505 0.055576 0.000000
0.607108 0.055576 0.000000
0.624632 0.055576 0.000000
0.642157 0.055576 0.000000
0.659681 0.055576 0.000000
0.677206 0.055576 0.000000
0.690809 0.055576 0.000000
0.708333 0.055576 0.000000
0.725858 0.055576 0.000000
0.740318 0.055576 0.000000
0.756986 0.055576 0.000000
0.774510 0.055576 0.000000
0.788113 0.055576 0.000000
0.805637 0.055576 0.000000
0.823161 0.052328 0.000000
0.836765 0.052328 0.000000
0.852635 0.052328 0.000000
0.867892 0.052328 0.000000
0.881495 0.052328 0.000000
0.895098 0.052328 0.000000
0.911213 0.052328 0.000000
0.926226 0.052328 0.000000
0.939828 0.052328 0.000000
0.953431 0.051654 0.000000
0.967034 0.052818 0.000000
0.980638 0.052328 0.000000
0.991238 0.049325 0.000000
1.000000 0.051654 0.000000
0.023529 0.073774 0.000000
0.029963 0.073774 0.000000
0.038725 0.073774 0.000000
0.047487 0.073774 0.000000
0.052573 0.073774 0.000000
0.063419 0.073774 0.000000
0.073774 0.073774 0.000000
0.087377 0.073774 0.000000
0.100981 0.073774 0.000000
0.114154 0.073774 0.000000
0.124265 0.073774 0.000000
0.137867 0.073774 0.000000
0.151470 0.073774 0.000000
0.165074 0.073774 0.000000
0.181495 0.073774 0.000000
0.194179 0.071752 0.000000
0.209804 0.072181 0.000000
0.227328 0.072181 0.000000
0.244853 0.072181 0.000000
0.262378 0.072181 0.000000
0.279902 0.072181 0.000000
0.301348 0.072181 0.000000
0.322794 0.072181 0.000000
0.341851 0.072181 0.000000
0.361765 0.072181 0.000000
0.382660 0.072181 0.000000
0.400735 0.069853 0.000000
0.418259 0.069853 0.000000
0.435785 0.069853 0.000000
0.453309 0.069853 0.000000
0.470833 0.069853 0.000000
0.488358 0.069853 0.000000
0.505883 0.069853 0.000000
0.523407 0.069853 0.000000
0.540931 0.069853 0.000000
0.558456 0.069853 0.000000
0.575980 0.069853 0.000000
0.593505 0.069853 0.000000
0.607475 0.069853 0.000000
0.624632 0.068260 0.000000
0.642157 0.068260 0.000000
0.659681 0.068260 0.000000
0.677206 0.068260 0.000000
0.690809 0.068260 0.000000
0.708333 0.068260 0.000000
0.725858 0.068260 0.000000
0.743382 0.068260 0.000000
0.756986 0.068260 0.000000
0.774510 0.068260 0.000000
0.788113 0.068260 0.000000
0.805637 0.068260 0.000000
0.823161 0.065931 0.000000
0.836765 0.065931 0.000000
0.852635 0.065931 0.000000
0.867892 0.065931 0.000000
0.881495 0.065931 0.000000
0.898529 0.065931 0.000000
0.911213 0.065931 0.000000
0.926226 0.065931 0.000000
0.939828 0.065931 0.000000
0.953431 0.065931 0.000000
0.967034 0.065931 0.000000
0.980638 0.065931 0.000000
0.991238 0.062929 0.000000
1.000000 0.064338 0.000000
0.029964 0.087377 0.000000
0.036213 0.087377 0.000000
0.045650 0.087377 0.000000
0.052329 0.087377 0.000000
0.061090 0.087377 0.000000
0.067341 0.087377 0.000000
0.078615 0.087377 0.000000
0.087377 0.087377 0.000000
0.100981 0.087377 0.000000
0.114154 0.087377 0.000000
0.124265 0.087377 0.000000
0.137867 0.087377 0.000000
0.151470 0.087377 0.000000
0.165074 0.087377 0.000000
0.181495 0.087377 0.000000
0.194179 0.087377 0.000000
0.209804 0.087377 0.000000
0.227328 0.084866 0.000000
0.244853 0.084866 0.000000
0.262378 0.084866 0.000000
0.282598 0.084866 0.000000
0.301348 0.084866 0.000000
0.322794 0.084866 0.000000
0.341851 0.084866 0.000000
0.361765 0.084866 0.000000
0.381802 0.084866 0.000000
0.400735 0.087010 0.000000
0.418259 0.083456 0.000000
0.435785 0.083456 0.000000
0.453309 0.083456 0.000000
0.470833 0.083456 0.000000
0.488358 0.083456 0.000000
0.505883 0.083456 0.000000
0.523407 0.083456 0.000000
0.540931 0.083456 0.000000
0.558456 0.083456 0.000000
0.575980 0.083456 0.000000
0.593505 0.083456 0.000000
0.611030 0.083456 0.000000
0.624632 0.080944 0.000000
0.642157 0.080944 0.000000
0.659681 0.080944 0.000000
0.677206 0.080944 0.000000
0.690809 0.080944 0.000000
0.708333 0.080944 0.000000
0.725858 0.080944 0.000000
0.743382 0.080944 0.000000
0.756986 0.080944 0.000000
0.774510 0.080944 0.000000
0.790135 0.080944 0.000000
0.805637 0.080944 0.000000
0.823161 0.079534 0.000000
0.836765 0.079534 0.000000
0.852635 0.079534 0.000000
0.867892 0.079534 0.000000
0.881495 0.079534 0.000000
0.898529 0.079534 0.000000
0.913726 0.079534 0.000000
0.926226 0.079534 0.000000
0.939828 0.079534 0.000000
0.953431 0.079534 0.000000
0.967034 0.079534 0.000000
0.980638 0.079534 0.000000
0.991238 0.079534 0.000000
1.000000 0.077022 0.000000
0.038726 0.101471 0.003922
0.043567 0.100981 0.003922
0.052329 0.100981 0.003922
0.057660 0.100981 0.004596
0.065932 0.100981 0.003432
0.074693 0.100981 0.003432
0.083456 0.100981 0.003432
0.092219 0.100981 0.000000
0.100981 0.100981 0.000000
0.114154 0.100981 0.000000
0.124265 0.100981 0.000000
0.137867 0.100981 0.000000
0.151470 0.100981 0.000000
0.165074 0.100981 0.000000
0.181495 0.100981 0.000000
0.194179 0.100981 0.000000
0.209804 0.100981 0.000000
0.227328 0.100981 0.000000
0.244853 0.097549 0.000000
0.262378 0.097549 0.000000
0.283824 0.097549 0.000000
0.301348 0.097549 0.000000
0.322794 0.100981 0.000000
0.344240 0.097549 0.000000
0.365196 0.097549 0.000000
0.383211 0.097549 0.000000
0.400735 0.097549 0.000000
0.418259 0.097549 0.000000
0.435785 0.097549 0.000000
0.453309 0.097855 0.000000
0.470833 0.097059 0.000000
0.488358 0.097059 0.000000
0.505883 0.097059 0.000000
0.523407 0.097059 0.000000
0.540931 0.097059 0.000000
0.558456 0.097059 0.000000
0.575980 0.097059 0.000000
0.593505 0.097059 0.000000
0.611030 0.097059 0.000000
0.624632 0.097059 0.000000
0.642157 0.093628 0.000000
0.659681 0.093628 0.000000
0.677206 0.093628 0.000000
0.694424 0.093628 0.000000
0.708333 0.093628 0.000000
0.725858 0.093628 0.000000
0.743382 0.093628 0.000000
0.756986 0.093628 0.000000
0.774510 0.093628 0.000000
0.790135 0.093628 0.000000
0.805637 0.093628 0.000000
0.823161 0.093628 0.000000
0.836765 0.096323 0.000000
0.852635 0.093138 0.000000
0.867892 0.093138 0.000000
0.881495 0.093138 0.000000
0.898529 0.096568 0.000000
0.912623 0.093138 0.000000
0.926226 0.093138 0.000000
0.939828 0.093138 0.000000
0.953431 0.093138 0.000000
0.967034 0.093138 0.000000
0.980638 0.093138 0.000000
0.991238 0.093138 0.000000
1.000000 0.093138 0.000000
0.043566 0.114154 0.004351
0.052328 0.114154 0.004351
0.057169 0.114154 0.004351
0.063174 0.114154 0.001594
0.070773 0.114154 0.003922
0.079105 0.114154 0.003922
0.087868 0.114154 0.003922
0.096630 0.114154 0.003922
0.105392 0.114154 0.003922
0.114154 0.114154 0.003922
0.124265 0.114154 0.003922
0.137867 0.114154 0.003922
0.151470 0.114154 0.003922
0.165074 0.114154 0.003922
0.181495 0.110662 0.003922
0.196201 0.110662 0.003922
0.207292 0.110662 0.003922
0.227328 0.110662 0.003922
0.244853 0.110662 0.000429
0.262807 0.110662 0.000429
0.283824 0.110662 0.000429
0.301777 0.110662 0.000429
0.323223 0.110662 -0.000184
0.344240 0.110662 0.000000
0.365686 0.108211 0.000000
0.383211 0.110233 0.000000
0.400735 0.110233 0.000000
0.418259 0.110233 0.000000
0.435785 0.110233 0.000000
0.453309 0.110233 0.000000
0.470833 0.110233 0.000000
0.488358 0.110233 0.000000
0.505883 0.110233 0.000000
0.523407 0.110233 0.000000
0.540931 0.110233 0.000000
0.558456 0.110233 0.000000
0.575980 0.110233 0.000000
0.593505 0.110233 0.000000
0.611030 0.106740 0.000000
0.628554 0.106740 0.000000
0.642157 0.106740 0.000000
0.659681 0.106740 0.000000
0.677206 0.106740 0.000000
0.694853 0.106740 0.000000
0.708333 0.106740 0.000000
0.725858 0.106740 0.000000
0.743382 0.109374 0.000000
0.756986 0.106740 0.000000
0.774510 0.106311 0.000000
0.790135 0.106311 0.000000
0.805637 0.106311 0.000000
0.823161 0.106311 0.000000
0.836765 0.106311 0.000000
0.852635 0.106311 0.000000
0.867892 0.106311 0.000000
0.881924 0.106311 0.000000
0.898529 0.106311 0.000000
0.912623 0.106311 0.000000
0.926226 0.106311 0.000000
0.939828 0.106311 0.000000
0.953431 0.106311 0.000000
0.967034 0.106311 0.000000
0.980638 0.106311 0.000000
0.991238 0.106311 0.000000
1.000000 0.102819 0.000000
0.052328 0.126838 0.007843
0.060172 0.126838 0.007843
0.064093 0.126838 0.007843
0.070773 0.126838 0.007843
0.078186 0.126838 0.007843
0.083027 0.126838 0.007843
0.091789 0.126838 0.007843
0.100552 0.126838 0.007843
0.109314 0.124265 0.005270
0.115502 0.124265 0.005270
0.124265 0.124265 0.005270
0.137867 0.124265 0.003003
0.151470 0.124265 0.003922
0.168811 0.124265 0.003922
0.182843 0.124265 0.003922
0.196201 0.124265 0.003922
0.213725 0.124265 0.003922
0.231250 0.124265 0.003922
0.246201 0.124265 0.003922
0.266299 0.124265 0.003922
0.286519 0.124265 0.003922
0.305269 0.124265 0.003922
0.326715 0.124265 0.003922
0.345588 0.122917 0.003922
0.365686 0.122917 0.001348
0.383211 0.122917 0.001348
0.402083 0.122917 0.001348
0.418259 0.122917 0.001348
0.435785 0.122917 0.001348
0.453309 0.122917 0.001348
0.470833 0.124142 0.001348
0.488358 0.120343 0.000000
0.505883 0.120343 0.000000
0.523407 0.120343 0.000000
0.540931 0.120343 0.000000
0.558456 0.120343 0.000000
0.575980 0.120343 0.000000
0.593505 0.120343 0.000000
0.611030 0.120343 0.000000
0.628554 0.120343 0.000000
0.644608 0.118873 0.000000
0.659681 0.118995 0.000000
0.677206 0.122304 0.000000
0.694731 0.120343 0.000000
0.708333 0.118995 0.000000
0.725858 0.118995 0.000000
0.743382 0.118995 0.000000
0.756986 0.118995 0.000000
0.774510 0.118995 0.000000
0.792034 0.118995 0.000000
0.805637 0.118995 0.000000
0.823161 0.118995 0.000000
0.836765 0.118995 0.000000
0.854289 0.118995 0.000000
0.867892 0.118995 0.000000
0.881924 0.118995 0.000000
0.898529 0.119853 0.000000
0.912623 0.116421 0.000000
0.926226 0.118995 0.000000
0.939828 0.116421 0.000000
0.953431 0.116421 0.000000
0.967034 0.116421 0.000000
0.980638 0.116421 0.000000
0.991238 0.116421 0.000000
1.000000 0.116421 0.000000
0.061091 0.139522 0.011765
0.065931 0.139522 0.011765
0.072855 0.139522 0.011765
0.076777 0.139522 0.011765
0.080698 0.139522 0.011765
0.089216 0.139522 0.010110
0.095711 0.139522 0.010110
0.104473 0.139522 0.010110
0.111580 0.139522 0.010110
0.120343 0.139522 0.007843
0.129105 0.137867 0.007843
0.137867 0.137867 0.007843
0.150551 0.137867 0.007843
0.168811 0.137867 0.007843
0.182598 0.137867 0.007843
0.196201 0.137867 0.007843
0.213725 0.137867 0.007843
0.231250 0.137867 0.007843
0.248775 0.137867 0.006189
0.266299 0.137867 0.006189
0.286090 0.137867 0.006189
0.308885 0.137867 0.006189
0.328983 0.137867 0.003922
0.348162 0.137867 0.003922
0.365686 0.135417 0.003922
0.385478 0.135600 0.003922
0.404657 0.135600 0.003922
0.423162 0.135600 0.003922
0.438052 0.135600 0.003922
0.453309 0.135600 0.003922
0.470833 0.135600 0.003922
0.488358 0.133946 0.003922
0.505883 0.133946 0.002267
0.523407 0.133946 0.002267
0.540931 0.133946 0.002267
0.558456 0.133946 0.000000
0.575980 0.133946 0.000000
0.593505 0.133946 0.000000
0.611030 0.133946 0.000000
0.628554 0.133946 0.000000
0.646078 0.133946 0.000000
0.659681 0.133946 0.000000
0.677206 0.133946 0.000000
0.694731 0.133946 0.000000
0.711030 0.133946 0.000000
0.725858 0.133946 0.000000
0.743382 0.133946 0.000000
0.760845 0.131679 0.000000
0.774510 0.131679 0.000000
0.792034 0.131679 0.000000
0.805637 0.131679 0.000000
0.823161 0.131679 0.000000
0.836765 0.131679 0.000000
0.854289 0.131679 0.000000
0.867892 0.131679 0.000000
0.881924 0.131679 0.000000
0.898529 0.131679 0.000000
0.912623 0.130024 0.000000
0.926226 0.131679 0.000000
0.939828 0.130024 0.000000
0.953431 0.130024 0.000000
0.967034 0.130024 0.000000
0.980638 0.130024 0.000000
0.991238 0.130024 0.000000
1.000000 0.130024 0.000000
0.069853 0.155392 0.011765
0.071507 0.155392 0.011765
0.079535 0.155392 0.011765
0.084375 0.155392 0.011765
0.089951 0.155392 0.011765
0.097304 0.155392 0.011765
0.102818 0.155392 0.011765
0.108395 0.155392 0.011765
0.116422 0.155392 0.011765
0.125184 0.155392 0.011765
0.133946 0.155392 0.011765
0.142708 0.155392 0.011765
0.152206 0.155392 0.011030
0.168811 0.155392 0.011030
0.179412 0.152206 0.007843
0.196201 0.152206 0.007843
0.213725 0.152206 0.007843
0.231250 0.152206 0.007843
0.248775 0.154535 0.007843
0.268076 0.151470 0.007843
0.287745 0.151470 0.007843
0.308456 0.151470 0.007843
0.327328 0.151470 0.007843
0.348162 0.151470 0.007108
0.368137 0.151470 0.003922
0.387132 0.151470 0.003922
0.404657 0.151470 0.003922
0.422181 0.151470 0.003922
0.439706 0.151470 0.003922
0.457292 0.151470 0.003922
0.470833 0.151470 0.003922
0.491544 0.151470 0.003922
0.509804 0.148285 0.003922
0.527329 0.151470 0.003922
0.544853 0.151470 0.003922
0.561642 0.151470 0.003922
0.575980 0.151470 0.003922
0.593505 0.148285 0.004474
0.611030 0.148285 -0.000368
0.628554 0.148285 0.000000
0.646078 0.147549 0.000000
0.661213 0.147549 0.000000
0.677206 0.147549 0.000000
0.694731 0.147549 0.000000
0.714215 0.147549 0.000000
0.725858 0.147549 0.000000
0.743382 0.147549 0.000000
0.760845 0.147549 0.000000
0.774510 0.147549 0.000000
0.792034 0.147549 0.000000
0.805637 0.147549 0.000000
0.823161 0.147549 0.000000
0.836765 0.147549 0.000000
0.854289 0.147549 0.000000
0.867892 0.147549 0.000000
0.881924 0.147549 0.000000
0.898529 0.147549 0.000000
0.912623 0.147549 0.000000
0.926226 0.147549 0.000000
0.939828 0.147549 0.000000
0.953431 0.147549 0.000000
0.967034 0.147549 0.000000
0.980638 0.147549 0.000000
0.991238 0.147549 0.000000
1.000000 0.144363 0.000000
0.078431 0.168995 0.015686
0.083272 0.168995 0.015686
0.088113 0.168995 0.015686
0.092954 0.168995 0.015686
0.094302 0.168995 0.015686
0.102635 0.168995 0.015686
0.106066 0.168995 0.015686
0.112500 0.168995 0.015686
0.117831 0.168995 0.015686
0.129841 0.168995 0.011949
0.138603 0.168995 0.011949
0.147365 0.168995 0.011949
0.156311 0.165808 0.011765
0.168811 0.168811 0.011765
0.182598 0.168811 0.011765
0.194363 0.168811 0.011765
0.213725 0.168811 0.011765
0.231250 0.168811 0.011765
0.249633 0.168811 0.011765
0.270221 0.168811 0.011765
0.287929 0.168811 0.011765
0.309191 0.165074 0.008027
0.330637 0.165074 0.007414
0.348346 0.165074 0.007843
0.369608 0.165074 0.007843
0.387132 0.165074 0.007843
0.404657 0.165074 0.007843
0.422181 0.165074 0.007843
0.439706 0.165074 0.007843
0.457231 0.165074 0.007843
0.474755 0.165074 0.004106
0.492279 0.165074 0.004106
0.509804 0.165074 0.003922
0.527329 0.165074 0.003922
0.544853 0.165074 0.003922
0.562377 0.165074 0.003922
0.579902 0.165074 0.003922
0.591053 0.164890 0.003922
0.611030 0.164890 0.003922
