Color/Fuji/Fuji Superia Reala 100 65x.cube
TITLE "Fuji Superia Reala 100"
LUT_3D_SIZE 9
DOMAIN_MIN 0.000000 0.000000 0.000000
DOMAIN_MAX 1.000000 1.000000 1.000000
0.000000 0.000000 0.000000
0.148040 0.000000 0.000000
0.280392 0.000000 0.000000
0.420588 0.000000 0.000000
0.560785 0.000000 0.000000
0.697059 0.000000 0.000000
0.812745 0.000000 0.000981
0.914215 0.000000 0.035294
1.000000 0.000000 0.101961
0.073530 0.159804 0.030883
0.156373 0.148040 0.019118
0.288235 0.132353 0.012255
0.428432 0.108824 0.003922
0.568137 0.079412 0.003432
0.700980 0.036765 0.003432
0.812745 0.000000 0.011275
0.914215 0.000000 0.039215
1.000000 0.000000 0.109314
0.109804 0.288235 0.093137
0.163726 0.284314 0.089216
0.296078 0.272549 0.078431
0.436275 0.256863 0.069608
0.574510 0.231373 0.061765
0.708824 0.195588 0.065687
0.821569 0.141176 0.078432
0.918627 0.060295 0.097550
1.000000 0.000000 0.121569
0.116176 0.420588 0.124020
0.179902 0.416667 0.121569
0.307843 0.412745 0.117647
0.448039 0.400981 0.109804
0.590686 0.383333 0.109804
0.725491 0.357843 0.120098
0.838725 0.318628 0.139706
0.937745 0.261765 0.167157
1.000000 0.156373 0.194608
0.158824 0.549019 0.117647
0.221078 0.549019 0.115686
0.339215 0.545098 0.111765
0.473529 0.537254 0.109804
0.615687 0.527451 0.113725
0.744608 0.513726 0.129412
0.852941 0.490197 0.156863
0.953921 0.454902 0.200490
1.000000 0.394118 0.256863
0.252451 0.664216 0.070588
0.304412 0.664216 0.069118
0.400490 0.661765 0.067647
0.527941 0.657843 0.065196
0.658333 0.652451 0.073039
0.779412 0.642157 0.090196
0.884804 0.628922 0.125000
0.977451 0.610294 0.192647
1.000000 0.575490 0.282353
0.309804 0.766667 0.057844
0.357352 0.765686 0.051470
0.456863 0.765686 0.046078
0.582353 0.761764 0.028922
0.718628 0.757843 0.015686
0.839216 0.750981 0.018627
0.939216 0.743137 0.042157
1.000000 0.731373 0.100490
1.000000 0.711765 0.250000
0.361274 0.859804 0.023039
0.403921 0.859804 0.022549
0.489707 0.859314 0.019118
0.608824 0.859314 0.011765
0.737254 0.855392 0.005882
0.865686 0.851470 0.003922
0.993137 0.847549 0.000000
1.000000 0.839706 0.000000
1.000000 0.827941 0.061274
0.270588 0.964706 0.000000
0.325000 0.964706 0.000000
0.437255 0.964706 0.000000
0.569608 0.964706 0.000000
0.709804 0.960784 0.000000
0.850000 0.960784 0.000000
0.989216 0.956863 0.000000
1.000000 0.952941 0.000000
1.000000 0.945098 0.000000
0.000000 0.000000 0.116667
0.136765 0.000000 0.101471
0.265686 0.000000 0.093628
0.400981 0.000000 0.089216
0.533334 0.000000 0.089216
0.666176 0.000000 0.097059
0.782843 0.000000 0.117157
0.890686 0.000000 0.148530
0.988235 0.000000 0.191667
0.066177 0.159804 0.155883
0.148040 0.148040 0.148040
0.276470 0.132353 0.136275
0.412745 0.109804 0.122059
0.545098 0.079412 0.112745
0.677451 0.036765 0.108824
0.789216 0.002451 0.112745
0.891176 0.000000 0.133333
0.988235 0.000000 0.179902
0.102941 0.288235 0.183334
0.148530 0.284314 0.179412
0.284314 0.272549 0.171078
0.420588 0.256863 0.160294
0.560294 0.231373 0.155392
0.693137 0.194117 0.153922
0.805883 0.141176 0.159313
0.905882 0.060294 0.167157
0.995588 0.000000 0.175981
0.106863 0.420588 0.195588
0.168137 0.418137 0.191667
0.296078 0.412745 0.187745
0.436275 0.400981 0.179902
0.576470 0.385294 0.179902
0.708824 0.358823 0.187745
0.821569 0.321569 0.201961
0.925000 0.261765 0.221568
1.000000 0.154902 0.237255
0.145098 0.550980 0.175981
0.205392 0.549019 0.173530
0.325981 0.545098 0.170098
0.459804 0.541176 0.169608
0.600000 0.529411 0.175490
0.728431 0.513725 0.191667
0.838725 0.493137 0.220098
0.942156 0.458823 0.258824
1.000000 0.394118 0.299510
0.234804 0.665686 0.115686
0.287255 0.665686 0.115686
0.386275 0.664216 0.115686
0.512255 0.659314 0.115686
0.641177 0.652451 0.123530
0.759804 0.644608 0.146569
0.865686 0.630392 0.194607
0.963235 0.610784 0.256863
1.000000 0.575490 0.325000
0.338235 0.766667 0.054902
0.383334 0.766667 0.050980
0.474020 0.765686 0.042157
0.595588 0.761764 0.030392
0.711275 0.757843 0.037745
0.819117 0.753922 0.057353
0.917156 0.746079 0.088726
1.000000 0.734314 0.185294
1.000000 0.711765 0.308333
0.387745 0.863235 0.023039
0.426961 0.862745 0.019118
0.509314 0.859804 0.015196
0.622059 0.859314 0.011765
0.746569 0.855392 0.007353
0.873529 0.851961 0.003922
0.997058 0.847549 0.000000
1.000000 0.839706 0.011275
1.000000 0.828431 0.165196
0.301471 0.968137 0.000000
0.352451 0.964706 0.000000
0.453431 0.964706 0.000000
0.581373 0.964706 0.000000
0.717647 0.964706 0.000000
0.857843 0.960784 0.000000
0.993137 0.960784 0.000000
1.000000 0.952941 0.000000
1.000000 0.945098 0.000000
0.000000 0.000000 0.222549
0.132353 0.000000 0.206863
0.260784 0.000000 0.195098
0.390686 0.000000 0.186274
0.521568 0.000000 0.179412
0.653922 0.000000 0.180883
0.769607 0.000000 0.191176
0.876471 0.000000 0.210785
0.976471 0.000000 0.242157
0.061765 0.159804 0.260784
0.140686 0.148039 0.249509
0.268627 0.132353 0.237255
0.400981 0.109804 0.222058
0.533334 0.079412 0.206863
0.661765 0.034314 0.194607
0.773529 0.000000 0.187255
0.878921 0.000000 0.199510
0.980392 0.000000 0.234314
0.099020 0.288235 0.288235
0.140686 0.284314 0.284314
0.272549 0.272549 0.272549
0.408824 0.256863 0.260784
0.545098 0.231373 0.252941
0.675980 0.192647 0.242157
0.789215 0.138235 0.237255
0.890686 0.056373 0.233333
0.981372 0.000000 0.230392
0.091177 0.424510 0.311275
0.149020 0.420588 0.307843
0.280392 0.412745 0.300000
0.416667 0.404902 0.293137
0.556863 0.385294 0.288235
0.687745 0.360294 0.287745
0.801961 0.321569 0.290196
0.906862 0.261765 0.295588
1.000000 0.150980 0.295588
0.110784 0.552941 0.305882
0.173039 0.552941 0.304902
0.300000 0.549019 0.300980
0.435294 0.541176 0.300000
0.575490 0.533334 0.300000
0.700980 0.517648 0.307843
0.815686 0.494117 0.321569
0.922059 0.460294 0.340686
1.000000 0.394118 0.361765
0.188235 0.669608 0.259314
0.248529 0.668137 0.258333
0.350981 0.665686 0.258333
0.477941 0.661765 0.259314
0.607843 0.656373 0.270098
0.726961 0.646078 0.288235
0.836275 0.634314 0.319118
0.938235 0.614216 0.353922
1.000000 0.575490 0.399020
0.333333 0.769607 0.117647
0.371078 0.769607 0.118627
0.451961 0.766667 0.122549
0.559804 0.765686 0.134314
0.671569 0.761764 0.160784
0.776471 0.756373 0.201961
0.876471 0.750000 0.255883
0.969607 0.735294 0.323039
1.000000 0.714706 0.399019
0.438236 0.863235 0.019118
0.473039 0.863235 0.019118
0.547059 0.863235 0.015196
0.649019 0.859314 0.011275
0.768628 0.855882 0.007353
0.874020 0.855392 0.007353
0.963725 0.851470 0.025980
1.000000 0.843627 0.141667
1.000000 0.831863 0.325981
0.363725 0.968627 0.000000
0.406373 0.968627 0.000000
0.492157 0.968627 0.000000
0.609314 0.968627 0.000000
0.740196 0.964706 0.000000
0.872549 0.964706 0.000000
1.000000 0.960784 0.000000
1.000000 0.956863 0.000000
1.000000 0.949020 0.000000
0.000000 0.000000 0.318628
0.136275 0.000000 0.296569
0.257844 0.000000 0.284314
0.385294 0.000000 0.269118
0.513726 0.000000 0.261275
0.642157 0.000000 0.257353
0.757843 0.000000 0.258333
0.867157 0.000000 0.269118
0.968627 0.000000 0.290196
0.060784 0.155883 0.362745
0.140196 0.148040 0.350000
0.264706 0.128432 0.334314
0.393137 0.108824 0.315686
0.521568 0.077451 0.296078
0.648529 0.031863 0.278921
0.758824 0.000000 0.263726
0.865196 0.000000 0.265686
0.968627 0.000000 0.288726
0.098039 0.288235 0.397059
0.137255 0.284314 0.389706
0.268627 0.272549 0.377941
0.400981 0.256863 0.362255
0.533334 0.229412 0.346569
0.661765 0.190686 0.330882
0.773529 0.134314 0.317647
0.875490 0.052451 0.302941
0.969117 0.000000 0.288726
0.083334 0.424510 0.428431
0.140686 0.420588 0.424510
0.268627 0.416667 0.416667
0.404902 0.404902 0.404902
0.541176 0.385784 0.393137
0.669608 0.360294 0.383823
0.785294 0.320098 0.377451
0.891176 0.257843 0.369608
0.988235 0.144608 0.353922
0.084314 0.556863 0.440196
0.149510 0.554902 0.440196
0.272549 0.552941 0.433333
0.412255 0.545098 0.428431
0.549019 0.533334 0.420588
0.677451 0.517648 0.420098
0.793137 0.495098 0.420588
0.902451 0.460294 0.426470
1.000000 0.394118 0.431863
0.123039 0.672059 0.428431
0.188235 0.672059 0.428431
0.306372 0.669608 0.425490
0.439216 0.665686 0.424510
0.570098 0.657843 0.424510
0.690686 0.650000 0.432353
0.804902 0.636765 0.440196
0.912255 0.614706 0.457843
1.000000 0.576961 0.478431
0.250490 0.773529 0.367157
0.297059 0.773529 0.368627
0.384804 0.770588 0.371079
0.497549 0.769607 0.375000
0.610784 0.765686 0.386765
0.722059 0.758824 0.402451
0.829412 0.750981 0.427451
0.931863 0.739216 0.457353
1.000000 0.715687 0.499020
0.436275 0.867157 0.134804
0.465196 0.865686 0.138725
0.525000 0.863725 0.148039
0.609314 0.863235 0.168137
0.702451 0.861765 0.203431
0.797059 0.859314 0.250490
0.889706 0.855392 0.310294
0.978922 0.847549 0.380883
1.000000 0.835784 0.467157
0.437745 0.972549 0.000000
0.472549 0.972549 0.000000
0.546569 0.972549 0.000000
0.648039 0.968627 0.000000
0.768628 0.968627 0.000000
0.893137 0.968627 0.000000
1.000000 0.964706 0.000000
1.000000 0.960784 0.000000
1.000000 0.952941 0.000000
0.000000 0.000000 0.405883
0.146569 0.000000 0.382353
0.264706 0.000000 0.366667
0.386765 0.000000 0.350981
0.509804 0.000000 0.339216
0.634314 0.000000 0.327941
0.749020 0.000000 0.327451
0.855392 0.000000 0.331373
0.958824 0.000000 0.343137
0.072059 0.155883 0.456373
0.151961 0.142157 0.440686
0.272549 0.124510 0.422059
0.393137 0.105882 0.401471
0.517648 0.071569 0.379902
0.638235 0.028431 0.356863
0.747059 0.000000 0.334804
0.853921 0.000000 0.334804
0.956863 0.000000 0.347059
0.105882 0.288235 0.495098
0.150490 0.280392 0.487255
0.276470 0.269608 0.472549
0.400981 0.252941 0.455883
0.525490 0.225490 0.436275
0.650000 0.186274 0.416667
0.761764 0.130392 0.393137
0.863235 0.044608 0.369608
0.956863 0.000000 0.350981
0.095098 0.424510 0.533824
0.150490 0.420588 0.529902
0.272549 0.413725 0.521568
0.400981 0.404902 0.506373
0.533334 0.385294 0.490687
0.657843 0.357843 0.475000
0.770588 0.317647 0.461765
0.877451 0.253432 0.443628
0.976471 0.135294 0.416177
0.088235 0.556863 0.564705
0.148530 0.556863 0.564705
0.268627 0.552941 0.556863
0.400981 0.545098 0.545098
0.535294 0.533334 0.535294
0.660294 0.518138 0.525490
0.774510 0.495098 0.517648
0.883333 0.458823 0.509804
0.990196 0.390196 0.501961
0.098039 0.673529 0.578431
0.153922 0.673529 0.576470
0.280392 0.672059 0.572549
0.412745 0.667647 0.564705
0.545098 0.660294 0.556863
0.665686 0.650000 0.552941
0.778432 0.637255 0.552451
0.890196 0.614706 0.552451
0.996078 0.575490 0.558823
0.169608 0.777451 0.560785
0.226961 0.777451 0.560785
0.329412 0.774510 0.556863
0.448039 0.773529 0.555882
0.567647 0.769607 0.552941
0.683334 0.762745 0.555882
0.793137 0.753922 0.560785
0.901471 0.742157 0.570588
1.000000 0.718628 0.588236
0.320588 0.871078 0.465196
0.355392 0.871078 0.465196
0.425490 0.871078 0.467157
0.519118 0.867647 0.471569
0.620588 0.867157 0.480882
0.725490 0.863235 0.495098
0.827941 0.859314 0.514706
0.930392 0.851470 0.544608
1.000000 0.836274 0.583823
0.515686 0.976471 0.000000
0.542647 0.976471 0.000000
0.604902 0.974510 0.000000
0.695098 0.972549 0.000000
0.803921 0.972549 0.000000
0.915196 0.972549 0.000000
0.999019 0.968627 0.000000
1.000000 0.968627 0.131372
1.000000 0.960784 0.388235
0.003922 0.000000 0.487745
0.169117 0.000000 0.460294
0.280392 0.000000 0.444608
0.394608 0.000000 0.428922
0.511765 0.000000 0.413235
0.630392 0.000000 0.401471
0.742156 0.000000 0.393627
0.847549 0.000000 0.393627
0.949020 0.000000 0.397549
0.097549 0.148039 0.538725
0.183334 0.136275 0.523039
0.290687 0.119608 0.506863
0.403922 0.096569 0.483333
0.517648 0.061765 0.459804
0.634314 0.019118 0.432353
0.738235 0.000000 0.405392
0.843627 0.000000 0.401471
0.945098 0.000000 0.407843
0.132353 0.280392 0.583333
0.189216 0.276470 0.575000
0.296078 0.264706 0.561274
0.411765 0.245098 0.541667
0.529411 0.217647 0.520098
0.646078 0.176961 0.494608
0.750981 0.118628 0.467157
0.851470 0.032843 0.436765
0.945098 0.000000 0.417157
0.137255 0.420588 0.627451
0.192647 0.418137 0.623529
0.296078 0.412745 0.611765
0.411765 0.400980 0.597549
0.533334 0.381373 0.577941
0.652451 0.353922 0.559314
0.761764 0.311765 0.537255
0.864706 0.243137 0.513726
0.963235 0.122059 0.478431
0.128922 0.556863 0.666176
0.181373 0.556863 0.662255
0.286765 0.552941 0.654412
0.406373 0.545098 0.642647
0.533334 0.533334 0.628922
0.650000 0.517648 0.615196
0.762745 0.494117 0.599510
0.871078 0.456372 0.587255
0.976471 0.382843 0.568137
0.120098 0.675980 0.689216
0.181373 0.673529 0.687745
0.288235 0.672059 0.681372
0.412745 0.668137 0.672059
0.535294 0.661765 0.661765
0.652451 0.652451 0.652451
0.762745 0.638235 0.642157
0.871568 0.614706 0.636765
0.982843 0.575490 0.630392
0.162745 0.778432 0.697059
0.216667 0.778432 0.695588
0.315686 0.777451 0.690196
0.430883 0.774510 0.683824
0.547059 0.770588 0.677451
0.660294 0.765686 0.672059
0.769607 0.757843 0.668137
0.878921 0.743137 0.665196
0.991667 0.718628 0.669118
0.250490 0.875000 0.665196
0.289216 0.875000 0.665196
0.365686 0.875000 0.661275
0.465686 0.871568 0.657843
0.571568 0.871078 0.657353
0.680392 0.867157 0.657353
0.788725 0.863235 0.657843
0.895098 0.855392 0.665686
1.000000 0.839706 0.683824
0.446569 0.980392 0.331863
0.469608 0.980392 0.333334
0.520098 0.980392 0.342647
0.596569 0.980392 0.355392
0.685294 0.980392 0.378921
0.778922 0.980392 0.412745
0.872549 0.980392 0.454412
0.967647 0.976471 0.508333
1.000000 0.968627 0.592647
0.032353 0.000000 0.560784
0.206863 0.000000 0.534313
0.307843 0.000000 0.518628
0.411274 0.000000 0.502941
0.519608 0.000000 0.487255
0.630392 0.000000 0.471569
0.738235 0.000000 0.462745
0.839706 0.000000 0.455882
0.941176 0.000000 0.455882
0.141666 0.136275 0.608823
0.227451 0.124510 0.593137
0.319608 0.105882 0.575981
0.420588 0.081373 0.554902
0.525490 0.048039 0.526471
0.636275 0.011275 0.500980
0.734314 0.000000 0.475490
0.835784 0.000000 0.467647
0.937255 0.000000 0.466177
0.188235 0.272549 0.654902
0.242647 0.265196 0.647059
0.331372 0.252941 0.631373
0.432353 0.233333 0.611765
0.537254 0.205882 0.590196
0.646078 0.162745 0.563235
0.747059 0.102941 0.532353
0.843627 0.018137 0.497549
0.937255 0.000000 0.475490
0.204902 0.416667 0.701470
0.251470 0.412745 0.697549
0.333333 0.404902 0.685785
0.434804 0.393137 0.671569
0.545098 0.373529 0.652451
0.653922 0.346078 0.629902
0.757843 0.300490 0.606373
0.857843 0.230392 0.575490
0.952941 0.102941 0.530392
0.200981 0.556863 0.746079
0.243627 0.552941 0.742156
0.325490 0.549019 0.734314
0.428432 0.542647 0.722549
0.541176 0.532353 0.706863
0.652451 0.513726 0.689216
0.757843 0.490197 0.673529
0.863235 0.450981 0.653431
0.968627 0.374509 0.626470
0.200981 0.675980 0.778432
0.243627 0.673529 0.775000
0.325490 0.672059 0.769607
0.430883 0.668137 0.759314
0.541176 0.661765 0.747549
0.650000 0.650000 0.734314
0.757843 0.637255 0.722549
0.863235 0.614216 0.708333
0.971569 0.571568 0.695098
0.217647 0.781373 0.800981
0.259314 0.778922 0.798039
0.339215 0.778432 0.793137
0.438725 0.774510 0.785294
0.545098 0.770588 0.776471
0.652451 0.765686 0.766667
0.757843 0.757843 0.757843
0.863235 0.743137 0.750000
0.976471 0.715687 0.742156
0.255883 0.878921 0.800981
0.290686 0.875490 0.798039
0.360294 0.875490 0.795098
0.453431 0.875000 0.789706
0.554902 0.871568 0.785294
0.657843 0.870098 0.777451
0.765686 0.863725 0.773529
0.871078 0.855882 0.769607
0.988235 0.840196 0.770098
0.272549 0.989216 0.693137
0.307353 0.989215 0.693137
0.378432 0.989216 0.690196
0.470588 0.988235 0.689216
0.575490 0.988235 0.689216
0.683824 0.988235 0.692157
0.792157 0.988235 0.697059
0.901961 0.984314 0.708823
1.000000 0.976471 0.739216
0.106372 0.000000 0.620098
0.254902 0.000000 0.593137
0.343137 0.000000 0.580882
0.434314 0.000000 0.565196
0.533334 0.000000 0.549510
0.637255 0.000000 0.536274
0.738235 0.000000 0.522059
0.835784 0.000000 0.514216
0.933333 0.000000 0.506372
0.211765 0.116667 0.666177
0.281863 0.104902 0.650980
0.360294 0.089216 0.634804
0.449019 0.063235 0.613236
0.541177 0.032353 0.587745
0.638235 0.002942 0.559314
0.735294 0.000000 0.539706
0.831863 0.000000 0.525980
0.929412 0.000000 0.521079
0.263235 0.256863 0.710294
0.304411 0.252451 0.704902
0.375981 0.237255 0.689706
0.461765 0.217647 0.671568
0.556863 0.190687 0.648530
0.653922 0.143137 0.619118
0.747059 0.082353 0.587255
0.838726 0.006373 0.548039
0.933333 0.000000 0.529902
0.285294 0.404902 0.763235
0.317647 0.404412 0.759314
0.383824 0.397059 0.748039
0.469118 0.381373 0.733823
0.564705 0.361765 0.712745
0.664706 0.330392 0.689216
0.761764 0.284804 0.664706
0.855392 0.210784 0.629902
0.945098 0.075981 0.579412
0.290686 0.550980 0.810294
0.318627 0.549019 0.808333
0.379902 0.545098 0.800490
0.465686 0.537254 0.788235
0.563235 0.525490 0.773039
0.664216 0.510294 0.755392
0.761765 0.482353 0.735784
0.859314 0.440686 0.712255
0.960784 0.358823 0.678431
0.294608 0.673529 0.851470
0.321569 0.672059 0.849020
0.379902 0.669608 0.843627
0.465686 0.665686 0.833334
0.562745 0.657843 0.819608
0.660294 0.648529 0.805883
0.757843 0.632843 0.793137
0.859314 0.610294 0.774510
0.964706 0.563725 0.754902
0.306372 0.781373 0.882843
0.333333 0.778432 0.879902
0.391667 0.775490 0.875000
0.470099 0.774510 0.865687
0.563235 0.770588 0.859314
0.657843 0.765686 0.847549
0.754902 0.754902 0.835784
0.855882 0.742647 0.824019
0.964706 0.715687 0.808333
0.322059 0.878921 0.902941
0.345588 0.878921 0.902451
0.399510 0.878921 0.898529
0.476961 0.875490 0.891176
0.564705 0.875000 0.883333
0.657843 0.871078 0.875490
0.757843 0.866667 0.867157
0.859314 0.859314 0.859314
0.976471 0.840196 0.848039
0.255392 0.996078 0.883333
0.286275 0.996078 0.879902
0.352451 0.996078 0.879412
0.441667 0.996078 0.875490
0.541177 0.996078 0.867647
0.644608 0.996078 0.863725
0.750491 0.996078 0.858824
0.859314 0.992157 0.855882
1.000000 0.984314 0.855882
0.184314 0.000000 0.670588
0.313236 0.000000 0.647059
0.387255 0.000000 0.635294
0.469118 0.000000 0.623529
0.556863 0.000000 0.607843
0.650000 0.000000 0.592157
0.742156 0.000000 0.580392
0.835784 0.000000 0.568627
0.929412 0.000000 0.556863
0.289706 0.093138 0.709314
0.344118 0.081373 0.697549
0.410295 0.061765 0.681863
0.484314 0.038236 0.658824
0.564705 0.011275 0.636764
0.652451 0.000000 0.607843
0.742156 0.000000 0.592157
0.832353 0.000000 0.580392
0.929412 0.000000 0.572549
0.344117 0.233333 0.755882
0.371568 0.229412 0.751961
0.430393 0.213725 0.737255
0.504412 0.194607 0.720589
0.584313 0.163726 0.697059
0.672059 0.114215 0.668138
0.756862 0.050980 0.634314
0.836274 0.000000 0.598529
0.929412 0.000000 0.584314
0.372549 0.389216 0.811765
0.394608 0.387745 0.807843
0.446078 0.376961 0.798529
0.516177 0.365686 0.784314
0.598039 0.342157 0.765196
0.683824 0.309314 0.742156
0.772059 0.258333 0.712255
0.857843 0.181372 0.676471
0.941176 0.037255 0.620588
0.384314 0.541176 0.864706
0.403922 0.541176 0.862745
0.450000 0.537254 0.856863
0.516177 0.529411 0.845098
0.600000 0.513726 0.829412
0.687745 0.496078 0.813725
0.773529 0.466667 0.793138
0.863725 0.421569 0.768137
0.958824 0.333333 0.727451
0.396078 0.668137 0.911274
0.415196 0.665686 0.909804
0.457844 0.664216 0.903431
0.524020 0.657843 0.893138
0.601961 0.652451 0.881863
0.685294 0.640686 0.868137
0.773529 0.625490 0.852451
0.863235 0.599020 0.836274
0.960784 0.549510 0.809314
0.411765 0.777451 0.950000
0.430883 0.777451 0.949020
0.469608 0.774510 0.945098
0.531863 0.773529 0.937255
0.605883 0.766667 0.929412
0.683824 0.761764 0.917647
0.769607 0.750981 0.905882
0.858824 0.735294 0.891177
0.961765 0.707843 0.871568
0.431373 0.878921 0.984804
0.447059 0.878921 0.984804
0.485295 0.875490 0.980882
0.539706 0.875000 0.976471
0.609804 0.871568 0.969117
0.683824 0.871078 0.961274
0.769607 0.863725 0.952941
0.859314 0.855882 0.941666
0.968627 0.836274 0.929902
0.388235 1.000000 1.000000
0.407353 1.000000 1.000000
0.446079 1.000000 1.000000
0.504412 1.000000 1.000000
0.578431 1.000000 1.000000
0.660294 1.000000 1.000000
0.747059 1.000000 1.000000
0.843627 1.000000 0.996078
1.000000 0.996078 0.996078
