Color/Fuji/Fuji Superia Reala 100 65x.cube
TITLE "Fuji Superia Reala 100"
LUT_3D_SIZE 65
DOMAIN_MIN 0.000000 0.000000 0.000000
DOMAIN_MAX 1.000000 1.000000 1.000000
0.000000 0.000000 0.000000
0.017524 0.000000 0.000000
0.038970 0.000000 0.000000
0.059252 0.000000 0.000000
0.077941 0.000000 0.000000
0.095466 0.000000 0.000000
0.112990 0.000000 0.000000
0.130514 0.000000 0.000000
0.148040 0.000000 0.000000
0.165564 0.000000 0.000000
0.183088 0.000000 0.000000
0.196691 0.000000 0.000000
0.214215 0.000000 0.000000
0.227819 0.000000 0.000000
0.246446 0.000000 0.000000
0.262868 0.000000 0.000000
0.280392 0.000000 0.000000
0.297916 0.000000 0.000000
0.315442 0.000000 0.000000
0.331189 0.000000 0.000000
0.346569 0.000000 0.000000
0.364093 0.000000 0.000000
0.381617 0.000000 0.000000
0.403064 0.000000 0.000000
0.420588 0.000000 0.000000
0.438113 0.000000 0.000000
0.451715 0.000000 0.000000
0.469240 0.000000 0.000000
0.486765 0.000000 0.000000
0.504289 0.000000 0.000000
0.525735 0.000000 0.000000
0.543260 0.000000 0.000000
0.560785 0.000000 0.000000
0.578309 0.000000 0.000000
0.595833 0.000000 0.000000
0.613358 0.000000 0.000000
0.630882 0.000000 0.000000
0.648407 0.000000 0.000000
0.662010 0.000000 0.000000
0.679534 0.000000 0.000000
0.697059 0.000000 0.000000
0.710662 0.000000 0.000000
0.728187 0.000000 0.000000
0.741789 0.000000 0.000000
0.755392 0.000000 0.000000
0.770772 0.000000 0.000000
0.783456 0.000000 0.000000
0.800061 0.000000 0.000000
0.812745 0.000000 0.000981
0.825429 0.000000 0.003922
0.838113 0.000000 0.003922
0.850796 0.000000 0.007843
0.864216 0.000000 0.011765
0.876164 0.000000 0.015686
0.888848 0.000000 0.019608
0.901532 0.000000 0.023529
0.914215 0.000000 0.035294
0.926899 0.000000 0.040625
0.937990 0.000000 0.049387
0.948346 0.000000 0.058150
0.961029 0.000000 0.066912
0.973713 0.000000 0.075674
0.984559 0.000000 0.084437
0.995159 0.000000 0.093199
1.000000 0.000000 0.101961
0.000919 0.022365 0.000000
0.022365 0.018443 0.000000
0.044730 0.017524 0.000000
0.064339 0.014522 0.000000
0.081863 0.010846 0.000000
0.099387 0.013603 0.000000
0.116912 0.013603 0.000000
0.134436 0.009681 0.000000
0.151961 0.009681 0.000000
0.169485 0.009681 0.000000
0.182659 0.008333 0.000000
0.200613 0.008762 0.000000
0.211948 0.005760 0.000000
0.231741 0.004841 0.000000
0.249265 0.004841 0.000000
0.266789 0.004841 0.000000
0.281373 0.004841 0.000000
0.297916 0.004841 0.000000
0.315442 0.004841 0.000000
0.332966 0.003922 0.000000
0.350490 0.000919 0.000000
0.368014 0.000919 0.000000
0.385539 0.000919 0.000000
0.403064 0.000000 0.000000
0.420588 0.000000 0.000000
0.435110 0.000000 0.000000
0.451715 0.000000 0.000000
0.469240 0.000000 0.000000
0.486765 0.000000 0.000000
0.504289 0.000000 0.000000
0.521814 0.000000 0.000000
0.539338 0.000000 0.000000
0.556862 0.000000 0.000000
0.574387 0.000000 0.000000
0.591912 0.000000 0.000000
0.613358 0.000000 0.000000
0.630882 0.000000 0.000000
0.647488 0.000000 0.000000
0.662010 0.000000 0.000000
0.679534 0.000000 0.000000
0.697059 0.000000 0.000000
0.710662 0.000000 0.000000
0.728187 0.000000 0.000000
0.741789 0.000000 0.000000
0.755392 0.000000 0.000000
0.770772 0.000000 0.000000
0.783456 0.000000 0.000000
0.800061 0.000000 0.000000
0.812745 0.000000 0.000000
0.825429 0.000000 0.001900
0.838113 0.000000 0.003922
0.850796 0.000000 0.003922
0.864216 0.000000 0.008578
0.877819 0.000000 0.011765
0.888848 0.000000 0.015686
0.901532 0.000000 0.023100
0.914215 0.000000 0.027941
0.926899 0.000000 0.036703
0.939583 0.000000 0.045466
0.948346 0.000000 0.054228
0.961274 0.000000 0.062990
0.973713 0.000000 0.071752
0.984559 0.000000 0.080515
0.995159 0.000000 0.089277
1.000000 0.000000 0.098039
0.009681 0.046813 0.000000
0.027205 0.043812 0.000000
0.046813 0.038970 0.000000
0.064339 0.038970 0.000000
0.081863 0.036887 0.000000
0.099387 0.036214 0.000000
0.116912 0.031127 0.000000
0.134436 0.031127 0.000000
0.151961 0.025613 0.000000
0.169485 0.027206 0.000000
0.187010 0.025858 0.000000
0.200613 0.023284 0.000000
0.218137 0.023284 0.000000
0.231741 0.019362 0.000000
0.251103 0.019362 0.000000
0.266789 0.019362 0.000000
0.284314 0.017524 0.000000
0.301838 0.015441 0.000000
0.315442 0.013603 0.000000
0.332966 0.013603 0.000000
0.350490 0.011519 0.000000
0.368014 0.009681 0.000000
0.385539 0.010907 0.000000
0.403064 0.005760 0.000000
0.420588 0.005760 0.000000
0.438113 0.005760 0.000000
0.455637 0.003922 0.000000
0.473161 0.001838 0.000000
0.490687 0.001838 0.000000
0.508211 0.000000 0.000000
0.525735 0.000000 0.000000
0.543260 0.000000 0.000000
0.560785 0.000000 0.000000
0.578309 0.000000 0.000000
0.593750 0.000000 0.000000
0.613358 0.000000 0.000000
0.631005 0.000000 0.000000
0.643689 0.000000 0.000000
0.662010 0.000000 0.000000
0.679534 0.000000 0.000000
0.697059 0.000000 0.000000
0.710662 0.000000 0.000000
0.728187 0.000000 0.000000
0.741789 0.000000 0.000000
0.755392 0.000000 0.000000
0.770772 0.000000 0.000000
0.783456 0.000000 0.000000
0.800061 0.000000 0.000000
0.812745 0.000000 0.000000
0.825429 0.000000 0.001900
0.838113 0.000000 0.003922
0.850796 0.000000 0.003922
0.864216 0.000000 0.008578
0.877819 0.000000 0.011765
0.888848 0.000000 0.015686
0.901532 0.000000 0.023100
0.914215 0.000000 0.027941
0.926899 0.000000 0.036703
0.937990 0.000000 0.045466
0.948346 0.000000 0.054228
0.959436 0.000000 0.062990
0.973713 0.000000 0.071752
0.984559 0.000000 0.080515
0.995159 0.000000 0.089277
1.000000 0.000000 0.098039
0.018444 0.067096 0.002758
0.035968 0.063174 0.002758
0.050735 0.060417 0.000000
0.064339 0.060417 0.000000
0.085540 0.056495 0.000000
0.102145 0.055331 0.000000
0.119669 0.052574 0.000000
0.137193 0.052819 0.000000
0.154718 0.048652 0.000000
0.169485 0.044731 0.000000
0.187010 0.044731 0.000000
0.202267 0.045221 0.000000
0.218137 0.040809 0.000000
0.235662 0.040625 0.000000
0.253186 0.036888 0.000000
0.271446 0.036888 0.000000
0.284314 0.032966 0.000000
0.301838 0.032966 0.000000
0.319363 0.029044 0.000000
0.332966 0.026287 0.000000
0.353248 0.025123 0.000000
0.370772 0.021507 0.000000
0.385539 0.018444 0.000000
0.405821 0.019669 0.000000
0.420588 0.014522 0.000000
0.438113 0.014522 0.000000
0.455637 0.010601 0.000000
0.473161 0.010601 0.000000
0.490687 0.008394 0.000000
0.508211 0.006679 0.000000
0.525735 0.003922 0.000000
0.543260 0.002758 0.000000
0.560785 0.002758 0.000000
0.578309 0.000000 0.000000
0.595833 0.000000 0.000000
0.613358 0.000000 0.000000
0.630882 0.000000 0.000000
0.648407 0.000000 0.000000
0.662010 0.000000 0.000000
0.679534 0.000000 0.000000
0.697059 0.000000 0.000000
0.710662 0.000000 0.000000
0.728187 0.000000 0.000000
0.741789 0.000000 0.000000
0.755392 0.000000 0.000000
0.770772 0.000000 0.000000
0.783456 0.000000 0.000000
0.800061 0.000000 0.000000
0.812745 0.000000 0.000000
0.825429 0.000000 0.001900
0.838113 0.000000 0.003922
0.850796 0.000000 0.003922
0.864216 0.000000 0.008578
0.876164 0.000000 0.011765
0.888848 0.000000 0.015686
0.901532 0.000000 0.023100
0.914215 0.000000 0.027941
0.926899 0.000000 0.036703
0.937990 0.000000 0.045466
0.948346 0.000000 0.054228
0.961029 0.000000 0.062990
0.973713 0.000000 0.071752
0.984559 0.000000 0.080515
0.995159 0.000000 0.089277
1.000000 0.000000 0.098039
0.027206 0.085785 0.003922
0.044730 0.081863 0.003922
0.058333 0.083701 0.003922
0.068260 0.077941 0.003922
0.085785 0.077941 0.003922
0.103309 0.074020 0.003677
0.120833 0.076103 0.003677
0.138357 0.070098 0.000000
0.155883 0.070098 0.000000
0.172978 0.066177 0.000000
0.187010 0.068505 0.000000
0.202267 0.062255 0.000000
0.218137 0.062255 0.000000
0.235662 0.058334 0.000000
0.253186 0.060907 0.000000
0.270711 0.054412 0.000000
0.284314 0.055147 0.000000
0.301838 0.050490 0.000000
0.319363 0.046569 0.000000
0.336887 0.048469 0.000000
0.354412 0.042647 0.000000
0.371936 0.039032 0.000000
0.389460 0.038113 0.000000
0.406986 0.034804 0.000000
0.424510 0.030883 0.000000
0.442034 0.027206 0.000000
0.459314 0.023284 0.000000
0.476838 0.025674 0.000000
0.490687 0.019363 0.000000
0.508211 0.015441 0.000000
0.525735 0.015319 0.000000
0.543260 0.011520 0.000000
0.560785 0.007843 0.000000
0.578309 0.007598 0.000000
0.595833 0.003799 0.000000
0.613358 0.003677 0.000000
0.630882 0.003677 0.000000
0.648407 0.000000 0.000000
0.666054 0.000000 0.000000
0.679534 0.000000 0.000000
0.697059 0.000000 0.000000
0.710662 0.000000 0.000000
0.728187 0.000000 0.000000
0.741789 0.000000 0.000000
0.755392 0.000000 0.000000
0.768995 0.000000 0.000000
0.783456 0.000000 0.000000
0.800061 0.000000 0.000000
0.812745 0.000000 0.000000
0.825429 0.000000 0.001900
0.838113 0.000000 0.003922
0.850796 0.000000 0.007659
0.864216 0.000000 0.008578
0.876164 0.000000 0.013419
0.888848 0.000000 0.019363
0.901532 0.000000 0.023100
0.914215 0.000000 0.027941
0.926899 0.000000 0.036703
0.937990 0.000000 0.045466
0.948346 0.000000 0.054228
0.961029 0.000000 0.062990
0.973713 0.000000 0.071752
0.984559 0.000000 0.080515
0.995159 0.000000 0.089277
1.000000 0.000000 0.098039
0.039890 0.103309 0.008517
0.053492 0.103309 0.007598
0.065257 0.099387 0.007843
0.080025 0.099387 0.007843
0.086703 0.099387 0.007843
0.103309 0.095466 0.004596
0.120833 0.095466 0.003003
0.138357 0.091544 0.003922
0.155883 0.091544 0.003922
0.173407 0.087623 0.003922
0.187010 0.087623 0.003922
0.204534 0.083701 0.003922
0.215626 0.083701 0.003922
0.235662 0.079779 0.000674
0.253186 0.075429 0.000674
0.270711 0.075858 0.000000
0.288235 0.069669 0.000000
0.301838 0.071936 0.000000
0.319363 0.068015 0.000000
0.336887 0.066238 0.000000
0.354412 0.064093 0.000000
0.371936 0.060172 0.000000
0.389460 0.056250 0.000000
0.406986 0.054718 0.000000
0.424510 0.052328 0.000000
0.442034 0.048407 0.000000
0.459559 0.044485 0.000000
0.477083 0.040564 0.000000
0.494608 0.035110 0.000000
0.512133 0.033517 0.000000
0.529657 0.028799 0.000000
0.547181 0.024877 0.000000
0.564705 0.022916 0.000000
0.582231 0.018076 0.000000
0.599755 0.013236 0.000000
0.617279 0.012316 0.000000
0.631556 0.012439 0.000000
0.648407 0.008517 0.000000
0.665932 0.004963 0.000000
0.683578 0.003922 0.000000
0.697059 0.000674 0.000000
0.714583 -0.001716 0.000000
0.728187 0.000000 0.000000
0.741789 0.000000 0.000000
0.755392 0.000000 0.000000
0.768995 0.000000 0.000000
0.783456 0.000000 0.000000
0.796201 0.000000 0.000000
0.813052 0.000000 0.000000
0.825429 0.000000 0.003922
0.838113 0.000000 0.003922
0.850796 0.000000 0.004596
0.863480 0.000000 0.008517
0.876164 0.000000 0.012439
0.888848 0.000000 0.016360
0.901532 0.000000 0.023529
0.914215 0.000000 0.031863
0.926899 0.000000 0.040625
0.937990 0.000000 0.045466
0.948346 0.000000 0.054228
0.961029 0.000000 0.062990
0.973713 0.000000 0.071752
0.984559 0.000000 0.081189
0.995159 0.000000 0.089952
1.000000 0.000000 0.101961
0.050245 0.122427 0.013358
0.062255 0.120833 0.013358
0.074019 0.120833 0.011520
0.082782 0.116912 0.011765
0.095465 0.116912 0.011765
0.107230 0.112990 0.009436
0.120833 0.112990 0.007843
0.138357 0.112990 0.007843
0.155883 0.109068 0.007843
0.173407 0.106740 0.007843
0.187010 0.105147 0.005515
0.204534 0.105147 0.005515
0.222058 0.101225 0.005515
0.237255 0.097304 0.003922
0.254779 0.097304 0.003922
0.270711 0.092953 0.003922
0.288235 0.093382 0.003922
0.305759 0.087194 0.001593
0.319363 0.090197 0.001593
0.336887 0.085539 -0.000184
0.354412 0.080515 0.000000
0.371936 0.081618 0.000000
0.389460 0.078677 0.000000
0.406986 0.073774 0.000000
0.424510 0.068996 0.000000
0.442034 0.069853 0.000000
0.459559 0.062010 0.000000
0.477083 0.062317 0.000000
0.494608 0.058088 0.000000
0.512133 0.054167 0.000000
0.529657 0.050123 0.000000
0.547181 0.045282 0.000000
0.564705 0.040441 0.000000
0.582231 0.035601 0.000000
0.599755 0.030760 0.000000
0.617279 0.026716 0.000000
0.634804 0.022794 0.000000
0.652329 0.021201 0.000000
0.663971 0.017279 0.000000
0.683456 0.012807 0.000000
0.697059 0.009436 0.000000
0.714583 0.005515 0.000000
0.726471 0.003922 0.000000
0.741789 0.001593 0.000000
0.758088 0.001593 0.000000
0.770772 0.000000 0.000000
0.783456 0.000000 0.000000
0.796201 0.000000 0.000000
0.809804 0.000000 0.000981
0.825429 0.000000 0.003922
0.839338 0.000000 0.006740
0.852941 0.000000 0.007843
0.863480 0.000000 0.011765
0.876164 0.000000 0.015686
0.888848 0.000000 0.022181
0.901103 0.000000 0.027022
0.914215 0.000000 0.031863
0.924388 0.000000 0.040625
0.935662 0.000000 0.049387
0.948346 0.000000 0.058150
0.961029 0.000000 0.066912
0.973713 0.000000 0.075674
0.982476 0.000000 0.084437
0.995159 0.000000 0.093199
1.000000 0.000000 0.101961
0.061336 0.142279 0.022120
0.071017 0.138357 0.021201
0.082782 0.138357 0.018199
0.091545 0.135600 0.018199
0.105392 0.134436 0.018199
0.111152 0.136275 0.017524
0.124755 0.130514 0.014277
0.138357 0.130514 0.014277
0.155883 0.130514 0.011765
0.173407 0.126593 0.011765
0.187010 0.127758 0.010356
0.204534 0.122671 0.010356
0.222058 0.122671 0.010356
0.239584 0.118750 0.007843
0.257108 0.114828 0.007843
0.270711 0.114828 0.007843
0.288235 0.110477 0.006434
0.305759 0.110906 0.006434
0.324939 0.106985 0.003922
0.336887 0.105208 0.003922
0.357108 0.103063 0.003922
0.374449 0.099142 0.003922
0.391973 0.095220 0.002513
0.408517 0.096201 0.002513
0.428493 0.091299 0.002513
0.444547 0.087377 0.002513
0.459559 0.083456 0.002513
0.477083 0.079534 0.000000
0.494608 0.075612 0.000000
0.512133 0.072488 0.000000
0.529657 0.067769 0.000000
0.547181 0.063848 0.000000
0.564705 0.059926 0.000000
0.582231 0.056005 0.000000
0.599755 0.052083 0.000000
0.617279 0.044240 0.000000
0.634804 0.040318 0.000000
0.652329 0.036397 0.000000
0.669853 0.028922 0.000000
0.683456 0.022120 0.000000
0.702022 0.018199 0.000000
0.714583 0.014277 0.000000
0.732108 0.010969 0.000000
0.745404 0.007843 0.000000
0.758088 0.006434 0.002513
0.773284 0.003922 0.002513
0.786519 0.003922 0.003922
0.800061 0.000000 0.003922
0.812745 0.000000 0.003922
0.825429 0.000000 0.003922
0.837010 0.000000 0.006434
0.850612 0.000000 0.011581
0.863480 0.000000 0.012500
0.876164 0.000000 0.017341
0.888848 0.000000 0.022181
0.901103 0.000000 0.026042
0.914215 0.000000 0.035784
0.924388 0.000000 0.045650
0.935662 0.000000 0.051900
0.948346 0.000000 0.058150
0.961029 0.000000 0.066912
0.970956 0.000000 0.075674
0.982476 0.000000 0.084437
0.995159 0.000000 0.096201
1.000000 0.000000 0.105882
0.073530 0.159804 0.030883
0.082782 0.155883 0.026961
0.091545 0.155883 0.026961
0.100307 0.155883 0.026961
0.109069 0.151715 0.023284
0.121752 0.151961 0.023039
0.128676 0.150368 0.023039
0.142279 0.148040 0.020527
0.156373 0.148040 0.019118
0.173407 0.144118 0.019118
0.187010 0.144118 0.019118
0.204534 0.141850 0.015686
0.222058 0.140196 0.015196
0.239584 0.136275 0.015196
0.257108 0.136275 0.011765
0.270711 0.132353 0.011765
0.288235 0.132353 0.012255
0.305759 0.128003 0.011275
0.323285 0.131005 0.011275
0.340809 0.124510 0.007843
0.358333 0.120588 0.007843
0.375858 0.120588 0.007843
0.393382 0.119486 0.007353
0.410907 0.112745 0.003922
0.428432 0.108824 0.003922
0.445956 0.108885 0.003922
0.466544 0.104534 0.003922
0.480515 0.103125 0.003922
0.498039 0.097059 0.003922
0.512133 0.093138 0.003922
0.529657 0.092525 0.003922
0.547181 0.087684 0.003432
0.568137 0.079412 0.003432
0.582231 0.074571 0.003432
0.599755 0.069730 0.003432
0.617279 0.068322 0.003432
0.634804 0.060050 0.003432
0.652329 0.055208 0.003432
0.669853 0.049877 0.003432
0.683456 0.042157 0.003432
0.700980 0.036765 0.003432
0.714583 0.031925 0.002390
0.732108 0.026471 0.003922
0.745711 0.019118 0.003922
0.759314 0.015196 0.003922
0.772917 0.013052 0.007353
0.786519 0.007843 0.007353
0.800061 0.003922 0.007843
0.812745 0.000000 0.011275
0.825429 0.000000 0.011275
0.838113 0.000000 0.010662
0.850612 0.000000 0.011765
0.863480 0.000000 0.015686
0.876164 0.000000 0.023039
0.887500 0.000000 0.026961
0.901103 0.000000 0.030883
0.914215 0.000000 0.039215
0.924388 0.000000 0.047977
0.935662 0.000000 0.053309
0.948346 0.000000 0.062071
0.961029 0.000000 0.070833
0.970956 0.000000 0.079595
0.982476 0.000000 0.088358
0.995159 0.000000 0.097120
1.000000 0.000000 0.109314
0.082782 0.173407 0.039645
0.091544 0.173407 0.039645
0.100306 0.172978 0.036152
0.109068 0.169485 0.035723
0.117831 0.169485 0.035723
0.126593 0.168811 0.031557
0.138848 0.165564 0.031802
0.148039 0.165564 0.031802
0.163726 0.162132 0.027880
0.173407 0.161642 0.027880
0.189583 0.160294 0.023958
0.204534 0.157721 0.023958
0.222058 0.157721 0.023958
0.239584 0.153799 0.023774
0.257108 0.152696 0.020037
0.272610 0.149878 0.020037
0.288235 0.149878 0.020037
0.305759 0.145956 0.020037
0.323285 0.145098 0.016115
0.340809 0.142034 0.016115
0.358333 0.138113 0.016115
0.375858 0.134497 0.016115
0.393382 0.133578 0.012194
0.410907 0.130270 0.012194
0.428431 0.127819 0.011765
0.445956 0.126348 0.008272
0.463480 0.122059 0.008272
0.481005 0.118505 0.008272
0.498530 0.114583 0.008272
0.516054 0.110662 0.008272
0.533578 0.106740 0.008272
0.551103 0.102819 0.007230
0.568628 0.098897 0.007843
0.586152 0.094976 0.007843
0.603677 0.087255 0.007843
0.621201 0.083211 0.007843
0.634804 0.077573 0.007843
0.652329 0.072733 0.007843
0.669853 0.067892 0.004351
0.686826 0.063051 0.007843
0.700980 0.054289 0.009314
0.716115 0.045956 0.008272
0.732108 0.040686 0.008272
0.745711 0.035845 0.008272
0.759314 0.031005 0.008272
0.772917 0.022242 0.013909
0.783884 0.017402 0.012194
0.800490 0.012194 0.012255
0.813726 0.008272 0.016115
0.827328 0.004351 0.016115
0.838113 0.003922 0.020037
0.850796 -0.003309 0.020037
0.863480 0.000000 0.023958
0.876164 0.000000 0.023958
0.887500 0.000000 0.027880
0.897610 0.000000 0.038787
0.910784 0.000000 0.043627
0.922978 0.000000 0.052389
0.935662 0.000000 0.061152
0.951165 0.000000 0.065993
0.961029 0.000000 0.074755
0.969791 0.000000 0.083517
0.982476 0.000000 0.092280
0.994240 0.000000 0.101042
1.000000 0.000000 0.110233
0.095466 0.190931 0.052328
0.103309 0.187010 0.048407
0.109068 0.187010 0.048407
0.117831 0.187010 0.048407
0.122917 0.183333 0.042157
0.135355 0.183088 0.044485
0.144118 0.183088 0.041912
0.152880 0.180576 0.040564
0.167647 0.179167 0.040564
0.176900 0.179167 0.036642
0.190931 0.177819 0.036642
0.204534 0.175245 0.034069
0.222058 0.175245 0.032721
0.239584 0.171323 0.032721
0.257108 0.170220 0.030147
0.274632 0.167402 0.028799
0.288235 0.167402 0.028799
0.305759 0.163480 0.028799
0.323285 0.159559 0.024877
0.340809 0.159559 0.024877
0.358333 0.155637 0.024877
0.375858 0.152022 0.024877
0.393382 0.151103 0.020956
0.410907 0.147794 0.020956
0.428431 0.143872 0.017034
0.445956 0.143872 0.017034
0.463480 0.139583 0.017034
0.481005 0.136029 0.017034
0.498530 0.132108 0.017034
0.516054 0.128186 0.017034
0.533578 0.124265 0.015686
0.551103 0.120343 0.013113
0.568628 0.116421 0.013113
0.586152 0.112500 0.013113
0.603677 0.108578 0.013113
0.621201 0.100735 0.013113
0.638725 0.096814 0.013113
0.652329 0.090258 0.013113
0.669853 0.085417 0.013113
0.687378 0.080576 0.013113
0.700980 0.071814 0.013113
0.718505 0.066973 0.013113
0.732108 0.061520 0.017034
0.745711 0.053370 0.017034
0.759314 0.048529 0.017034
0.774694 0.039767 0.017034
0.787377 0.036642 0.020956
0.800123 0.026164 0.021017
0.813726 0.019976 0.024877
0.827328 0.012561 0.024877
0.838113 0.009191 0.028799
0.850796 0.005270 0.032536
0.863480 0.001348 0.032721
0.876164 0.000000 0.034069
0.887500 0.000000 0.039215
0.897610 0.000000 0.044057
0.910784 0.000000 0.044117
0.922978 0.000000 0.056311
0.935662 0.000000 0.065074
0.947672 0.000000 0.069914
0.957353 0.000000 0.078676
0.969791 0.000000 0.087439
0.982476 0.000000 0.096201
0.991238 0.000000 0.104963
1.000000 0.000000 0.113725
0.098039 0.204534 0.058824
0.108149 0.204534 0.057169
0.111642 0.204534 0.057169
0.120405 0.204534 0.057169
0.129167 0.200858 0.057169
0.137929 0.200613 0.053247
0.148958 0.200613 0.053247
0.159375 0.198100 0.053247
0.168137 0.196691 0.049326
0.177329 0.196691 0.049326
0.190931 0.195343 0.045404
0.208456 0.192769 0.045404
0.225980 0.192769 0.045404
0.243321 0.188848 0.041483
0.257108 0.190013 0.041483
0.274632 0.184926 0.041483
0.290503 0.184926 0.036887
0.305759 0.181005 0.037561
0.323285 0.180147 0.038971
0.340809 0.177083 0.033640
0.358333 0.173162 0.033640
0.375858 0.173162 0.033640
0.393382 0.169240 0.029718
0.410907 0.165318 0.029718
0.428431 0.162868 0.025613
0.445956 0.161397 0.025796
0.463480 0.157475 0.025796
0.481005 0.153554 0.025796
0.498530 0.149632 0.023529
0.516054 0.146508 0.021875
0.533578 0.141789 0.021875
0.551103 0.137867 0.021875
0.568628 0.133946 0.021875
0.586152 0.129411 0.021875
0.603677 0.124572 0.021875
0.621201 0.121385 0.021875
0.638725 0.116544 0.021875
0.656250 0.110049 0.021875
0.668566 0.106495 0.021875
0.687378 0.100368 0.021875
0.700980 0.093260 0.021875
0.718505 0.086887 0.021875
0.731066 0.079657 0.023529
0.745711 0.071201 0.022182
0.762010 0.066054 0.025796
0.774694 0.059436 0.025796
0.790441 0.052451 0.029718
0.800123 0.043689 0.029779
0.813726 0.034927 0.033640
0.827328 0.025796 0.033640
0.840931 0.021875 0.037561
0.854534 0.014215 0.039828
0.864216 0.009375 0.042219
0.876164 0.003922 0.045404
0.888848 0.003922 0.049326
0.901103 0.000000 0.051593
0.910784 0.000000 0.053738
0.922978 0.000000 0.061091
0.935723 0.000000 0.065012
0.947672 0.000000 0.073836
0.957353 0.000000 0.082598
0.969791 0.000000 0.091360
0.982476 0.000000 0.098468
0.991238 0.000000 0.107231
1.000000 0.000000 0.117647
0.094118 0.225245 0.065932
0.102880 0.222058 0.065932
0.111642 0.222058 0.065932
0.117218 0.222058 0.062745
0.125980 0.222058 0.062010
0.137929 0.218137 0.062010
0.146691 0.218137 0.058824
0.156189 0.218137 0.059498
0.168382 0.218137 0.058089
0.177329 0.214215 0.054902
0.190931 0.214215 0.054167
0.208456 0.210294 0.054167
0.225980 0.210294 0.050980
0.243321 0.206372 0.050245
0.257108 0.206372 0.050245
0.274632 0.207537 0.047059
0.292157 0.202451 0.046324
0.305821 0.202451 0.046324
0.323285 0.198529 0.045465
0.340809 0.194607 0.042402
0.358333 0.195098 0.042402
0.375858 0.190686 0.042402
0.393995 0.186764 0.038481
0.414093 0.188419 0.038481
0.430882 0.182843 0.036029
0.449877 0.178738 0.034559
0.466667 0.175000 0.034559
0.481005 0.176899 0.034559
0.498530 0.171078 0.030638
0.516054 0.167156 0.030638
0.533578 0.163235 0.030638
0.551103 0.159313 0.030638
0.568628 0.155392 0.027451
0.586152 0.151777 0.026716
0.603677 0.147549 0.026716
0.621201 0.139705 0.027451
0.638725 0.135784 0.030638
0.656250 0.132414 0.030638
0.673775 0.127941 0.027451
0.687378 0.122733 0.030638
0.704902 0.112254 0.030638
0.718505 0.109130 0.030638
0.736030 0.100368 0.030638
0.752513 0.092647 0.034559
0.763235 0.090686 0.034559
0.776838 0.081924 0.034559
0.790441 0.073897 0.038481
0.803983 0.065135 0.038541
0.816667 0.056372 0.042402
0.829351 0.047610 0.042402
0.842034 0.038848 0.046324
0.853983 0.030086 0.050245
0.867402 0.025245 0.050981
0.877819 0.014951 0.054167
0.888848 0.011030 0.058089
0.901532 0.007108 0.062010
0.914215 0.000000 0.062501
0.926165 0.000000 0.064154
0.935662 0.000000 0.068995
0.947672 0.000000 0.073775
0.957353 0.000000 0.082598
0.969791 0.000000 0.091360
0.982476 0.000000 0.100123
0.991238 0.000000 0.108885
1.000000 0.000000 0.117647
0.094118 0.239584 0.074510
0.102880 0.239584 0.070772
0.107720 0.237745 0.070772
0.116483 0.239400 0.070772
0.125245 0.235662 0.070772
0.134007 0.235662 0.070588
0.142769 0.235662 0.066851
0.155269 0.233150 0.066851
0.164216 0.231741 0.066851
0.176900 0.231741 0.062929
0.190931 0.230392 0.062929
0.208456 0.227819 0.062745
0.225980 0.227819 0.059008
0.243505 0.223897 0.058824
0.257108 0.223897 0.055086
0.274632 0.221874 0.055086
0.292157 0.219976 0.055086
0.309681 0.216115 0.051225
0.327206 0.216054 0.051164
0.344730 0.214277 0.051164
0.362255 0.212133 0.048467
0.379779 0.208211 0.047243
0.397304 0.207598 0.047243
0.414829 0.204290 0.047059
0.432353 0.200368 0.043321
0.449877 0.196998 0.043321
0.467402 0.196446 0.039400
0.484926 0.192525 0.039400
0.502451 0.186580 0.039400
0.519976 0.185478 0.039400
0.533762 0.184559 0.039400
0.551287 0.179718 0.039400
0.572549 0.174878 0.037439
0.590074 0.170037 0.035478
0.607598 0.165195 0.035478
0.625122 0.161152 0.035478
0.642647 0.155515 0.035478
0.653799 0.150674 0.039400
0.673775 0.145833 0.032108
