Color/Fuji/Fuji FP-100c 4 Alt 65x.cube
TITLE "Fuji FP-100c 4 Alt"
LUT_3D_SIZE 5
DOMAIN_MIN 0.000000 0.000000 0.000000
DOMAIN_MAX 1.000000 1.000000 1.000000
0.000000 0.000000 0.000000
0.089216 0.000000 0.000000
0.268628 0.000000 0.000000
0.582353 0.000000 0.000000
0.831373 0.000000 0.000000
0.108823 0.171568 0.053921
0.178431 0.155883 0.035294
0.367647 0.121569 0.003922
0.651961 0.045097 0.000000
0.857843 0.000000 0.000000
0.178431 0.488235 0.129412
0.283333 0.478431 0.117647
0.511764 0.447059 0.078431
0.760784 0.393137 0.024509
0.935294 0.301961 0.001961
0.493137 0.750000 0.085295
0.557843 0.746079 0.078431
0.708824 0.730392 0.064706
0.864706 0.710784 0.054902
1.000000 0.680392 0.054902
0.858824 0.878431 0.000000
0.874510 0.874510 0.000000
0.923530 0.870588 0.000000
0.996078 0.862745 0.000000
1.000000 0.850980 0.000000
0.000000 0.000000 0.132353
0.093137 0.000000 0.108823
0.278431 0.000000 0.069608
0.590196 0.000000 0.005883
0.827451 0.000000 0.000000
0.112745 0.190196 0.190196
0.175490 0.174510 0.174510
0.375490 0.137255 0.133333
0.655882 0.063726 0.055883
0.850980 0.000000 0.010784
0.162745 0.507844 0.259804
0.279412 0.496078 0.248039
0.511764 0.466666 0.205882
0.756863 0.413726 0.156863
0.925490 0.322549 0.129412
0.489216 0.765686 0.242157
0.553921 0.760784 0.232353
0.700000 0.746079 0.209804
0.852941 0.727451 0.194117
0.988235 0.700000 0.201961
0.858824 0.886275 0.000000
0.874510 0.886275 0.000000
0.919608 0.882353 0.000000
0.988235 0.878431 0.003922
1.000000 0.869608 0.007843
0.000000 0.009804 0.333334
0.093137 0.003922 0.317647
0.286274 0.000000 0.286274
0.590196 0.000000 0.222549
0.815686 0.000000 0.192157
0.094118 0.217647 0.429412
0.171569 0.204902 0.418627
0.376471 0.166666 0.383333
0.650000 0.096078 0.320588
0.835294 0.006863 0.280392
0.123530 0.543138 0.547059
0.255883 0.535294 0.535294
0.503922 0.503922 0.503922
0.740196 0.452941 0.461765
0.903922 0.360784 0.431372
0.459804 0.802941 0.594117
0.525490 0.799019 0.588236
0.669608 0.786275 0.573529
0.816667 0.769607 0.561765
0.952941 0.739216 0.557843
0.815686 0.931372 0.419608
0.831373 0.931372 0.423530
0.874510 0.929412 0.431372
0.940196 0.925490 0.443137
1.000000 0.917647 0.476471
0.000000 0.035294 0.613726
0.093137 0.019608 0.594118
0.298039 0.007843 0.556863
0.594118 0.000000 0.491177
0.803922 0.000000 0.451960
0.085294 0.249019 0.703922
0.166666 0.233333 0.690196
0.391176 0.191176 0.645098
0.649020 0.122549 0.576471
0.822549 0.018627 0.519608
0.125490 0.574510 0.802941
0.268627 0.564705 0.789215
0.514706 0.533334 0.750000
0.732353 0.480393 0.700980
0.890196 0.384314 0.650000
0.465686 0.832353 0.848039
0.526470 0.828432 0.840196
0.657843 0.816667 0.820588
0.798039 0.798039 0.798039
0.933333 0.766667 0.774510
0.772549 0.980392 0.821569
0.787255 0.980392 0.820588
0.827451 0.977451 0.817647
0.894118 0.972549 0.812745
0.999019 0.961765 0.804902
0.000000 0.054902 0.792157
0.127451 0.036275 0.761764
0.341176 0.015686 0.715687
0.612745 0.000000 0.650000
0.800000 0.000000 0.603922
0.117647 0.252941 0.850000
0.221568 0.234314 0.830392
0.438235 0.191176 0.781372
0.666666 0.126471 0.712746
0.819608 0.022549 0.653922
0.262745 0.578431 0.927451
0.364706 0.570588 0.913725
0.564705 0.539215 0.874510
0.748039 0.489216 0.828432
0.888235 0.386274 0.774510
0.535294 0.844118 0.976471
0.581372 0.840196 0.968627
0.685294 0.828431 0.952941
0.804902 0.812745 0.930392
0.929412 0.778432 0.902941
0.784314 1.000000 1.000000
0.796078 1.000000 1.000000
0.831373 1.000000 1.000000
0.887255 1.000000 1.000000
1.000000 0.996078 0.996078
