Color/Fuji/Fuji Provia 400F 65x.cube
TITLE "Fuji Provia 400F"
LUT_3D_SIZE 5
DOMAIN_MIN 0.000000 0.000000 0.000000
DOMAIN_MAX 1.000000 1.000000 1.000000
0.000000 0.000000 0.000000
0.139215 0.000000 0.000000
0.435295 0.025490 0.000000
0.699019 0.066667 0.000000
0.909804 0.098039 0.000000
0.101961 0.205882 0.108823
0.225490 0.194117 0.069608
0.479412 0.151961 0.000000
0.696079 0.091177 0.000000
0.882353 0.070588 0.000000
0.207844 0.521568 0.298040
0.350000 0.523529 0.276470
0.568628 0.513726 0.225490
0.775490 0.459804 0.160784
0.903922 0.196078 0.037255
0.416666 0.769607 0.487255
0.490197 0.773529 0.479411
0.653922 0.777451 0.451960
0.829412 0.766667 0.417647
1.000000 0.703922 0.370588
0.611765 0.996078 0.670588
0.650980 0.996078 0.666667
0.750981 1.000000 0.654902
0.891177 1.000000 0.639216
1.000000 1.000000 0.615686
0.000000 0.000000 0.069608
0.123529 0.000000 0.027451
0.408824 0.006863 0.000000
0.660785 0.031373 0.000000
0.859804 0.054902 0.000000
0.074510 0.216667 0.241176
0.205882 0.205882 0.205882
0.454902 0.159804 0.126471
0.663725 0.072549 0.036275
0.840196 0.036275 0.010784
0.169608 0.513726 0.416667
0.322549 0.517648 0.397059
0.544118 0.509804 0.352941
0.748039 0.455882 0.288235
0.884314 0.205882 0.150000
0.397058 0.759804 0.568627
0.470588 0.762745 0.560784
0.634314 0.767647 0.532353
0.809804 0.759804 0.498039
0.988235 0.700000 0.447059
0.600000 0.988235 0.729412
0.635294 0.992157 0.724510
0.735294 0.996078 0.712746
0.875490 1.000000 0.694118
1.000000 1.000000 0.666667
0.000000 0.000000 0.256863
0.086275 0.000000 0.213726
0.362745 0.000000 0.150981
0.611765 0.003922 0.111765
0.815686 0.017647 0.088235
0.046078 0.233333 0.430392
0.175490 0.225490 0.393137
0.427451 0.185294 0.318628
0.624510 0.067647 0.213726
0.798039 0.007843 0.147059
0.121568 0.513726 0.574510
0.288235 0.517648 0.555882
0.511764 0.509804 0.511764
0.715687 0.467647 0.448039
0.864706 0.247059 0.315686
0.365686 0.747059 0.700980
0.440196 0.750981 0.693137
0.602941 0.757843 0.665686
0.778432 0.750981 0.629412
0.960784 0.697059 0.571568
0.576471 0.976471 0.829412
0.615686 0.980392 0.823529
0.711765 0.988235 0.809804
0.850980 0.996078 0.790196
1.000000 0.996078 0.756863
0.000000 0.000000 0.448039
0.072549 0.000000 0.394117
0.331372 0.000000 0.326470
0.565686 0.000000 0.270588
0.768627 0.000000 0.240196
0.050000 0.278431 0.611765
0.153922 0.276470 0.576471
0.411764 0.246079 0.505882
0.607843 0.121568 0.398039
0.756863 0.000000 0.286275
0.111765 0.529411 0.722549
0.266667 0.533334 0.704902
0.490197 0.529411 0.663725
0.691176 0.496078 0.602941
0.852941 0.323530 0.483333
0.350981 0.747059 0.824510
0.427451 0.750000 0.813726
0.583333 0.754902 0.789215
0.753922 0.753922 0.753922
0.937255 0.707843 0.692157
0.564706 0.968627 0.933333
0.600000 0.972549 0.927451
0.692157 0.980392 0.914706
0.828432 0.992157 0.895098
1.000000 0.992157 0.859804
0.000000 0.054902 0.643137
0.107843 0.031373 0.569608
0.337255 0.003922 0.492157
0.538235 0.000000 0.406863
0.733333 0.000000 0.364706
0.027451 0.348040 0.763726
0.157843 0.351961 0.733333
0.415686 0.340196 0.679411
0.616667 0.259805 0.593137
0.740196 0.002942 0.427451
0.143137 0.566666 0.856863
0.267647 0.568628 0.843137
0.482353 0.572549 0.805883
0.677451 0.552941 0.754902
0.849020 0.433334 0.658824
0.366667 0.758824 0.946079
0.429412 0.764705 0.938235
0.571568 0.769607 0.916667
0.731373 0.769607 0.886275
0.914706 0.735294 0.832353
0.568627 0.960784 1.000000
0.600000 0.960784 1.000000
0.684314 0.968627 1.000000
0.808823 0.980392 1.000000
1.000000 0.996078 0.996078
