Color/Fuji/Fuji Velvia 50 65x.cube
TITLE "Fuji Velvia 50"
LUT_3D_SIZE 65
DOMAIN_MIN 0.000000 0.000000 0.000000
DOMAIN_MAX 1.000000 1.000000 1.000000
0.000000 0.000000 0.000000
0.000919 0.000000 0.000000
0.003922 0.000000 0.000000
0.007843 0.000000 0.000000
0.011765 0.000000 0.000000
0.016360 0.000000 0.000000
0.025122 0.000000 0.000000
0.031373 0.000000 0.000000
0.042157 0.000000 0.000000
0.051409 0.000000 0.000000
0.061520 0.000000 0.000000
0.072855 0.000000 0.000000
0.085540 0.000000 0.000000
0.098407 0.000000 0.000000
0.115931 0.000000 0.000000
0.137377 0.000000 0.000000
0.157843 0.000000 0.000000
0.176348 0.000000 0.000000
0.201716 0.000000 0.000000
0.219240 0.000000 0.000000
0.240686 0.000000 0.000000
0.261826 0.000000 0.000000
0.279657 0.000000 0.000000
0.301103 0.000000 0.000000
0.318628 0.000000 0.000000
0.336152 0.000000 0.000000
0.353676 0.000000 0.000000
0.371201 0.000000 0.000000
0.388726 0.000000 0.000000
0.406250 0.000000 0.000000
0.419853 0.000000 0.000000
0.437377 0.000000 0.000000
0.454902 0.000000 0.000000
0.469546 0.000000 0.000000
0.486030 0.000000 0.000000
0.503554 0.000000 0.000000
0.521078 0.000000 0.000000
0.542525 0.000000 0.000000
0.560049 0.000000 0.000000
0.577574 0.000000 0.000000
0.595098 0.000000 0.000000
0.612622 0.000000 0.000000
0.630147 0.000000 0.000000
0.647672 0.000000 0.000000
0.665196 0.000000 0.000000
0.678799 0.000000 0.000000
0.696323 0.000000 0.000000
0.713787 0.000000 0.000000
0.727451 0.000000 0.000000
0.743076 0.000000 0.000000
0.758578 0.000000 0.000000
0.772365 0.000000 0.000000
0.789706 0.000000 0.000000
0.807231 0.000000 0.000000
0.820833 0.000000 0.000000
0.838358 0.000000 0.000000
0.855392 0.000000 0.000000
0.869486 0.000000 0.000000
0.887010 0.000000 0.000000
0.904534 0.000000 0.000000
0.921814 0.000000 0.000000
0.935661 0.000000 0.000000
0.953187 0.000000 0.000000
0.970711 0.000000 0.000000
0.988235 0.000000 0.000000
0.000000 0.000919 0.000000
0.000919 0.000919 0.000000
0.003922 0.000000 0.000000
0.007843 0.000000 0.000000
0.011765 0.000000 0.000000
0.016360 0.000000 0.000000
0.025122 0.000000 0.000000
0.032966 0.000000 0.000000
0.038726 0.000000 0.000000
0.051409 0.000000 0.000000
0.061520 0.000000 0.000000
0.072855 0.000000 0.000000
0.084804 0.000000 0.000000
0.098407 0.000000 0.000000
0.115931 0.000000 0.000000
0.135478 0.000000 0.000000
0.154902 0.000000 0.000000
0.176348 0.000000 0.000000
0.198652 0.000000 0.000000
0.219240 0.000000 0.000000
0.239461 0.000000 0.000000
0.258211 0.000000 0.000000
0.279657 0.000000 0.000000
0.297182 0.000000 0.000000
0.318628 0.000000 0.000000
0.336152 0.000000 0.000000
0.353676 0.000000 0.000000
0.371201 0.000000 0.000000
0.388726 0.000000 0.000000
0.403125 0.000000 0.000000
0.419853 0.000000 0.000000
0.437377 0.000000 0.000000
0.452941 0.000000 0.000000
0.468505 0.000000 0.000000
0.486030 0.000000 0.000000
0.503554 0.000000 0.000000
0.521078 0.000000 0.000000
0.538603 0.000000 0.000000
0.556128 0.000000 0.000000
0.577574 0.000000 0.000000
0.595098 0.000000 0.000000
0.612622 0.000000 0.000000
0.630147 0.000000 0.000000
0.646753 0.000000 0.000000
0.661275 0.000000 0.000000
0.678799 0.000000 0.000000
0.696323 0.000000 0.000000
0.709927 0.000000 0.000000
0.727451 0.000000 0.000000
0.741054 0.000000 0.000000
0.758578 0.000000 0.000000
0.772181 0.000000 0.000000
0.789706 0.000000 0.000000
0.803309 0.000000 0.000000
0.820833 0.000000 0.000000
0.838358 0.000000 0.000000
0.851961 0.000000 0.000000
0.869486 0.000000 0.000000
0.887010 0.000000 0.000000
0.903615 0.000000 0.000000
0.918137 0.000000 0.000000
0.935661 0.000000 0.000000
0.953187 0.000000 0.000000
0.970711 0.000000 0.000000
0.988235 0.000000 0.000000
0.000000 0.005760 0.000000
0.000919 0.003922 0.000000
0.003922 0.003922 0.000000
0.007843 0.003922 0.000000
0.011765 0.003922 0.000000
0.016360 0.003922 0.000000
0.025122 0.004167 0.000000
0.029964 0.001838 0.000000
0.038726 0.001838 0.000000
0.051409 0.001838 0.000000
0.061520 0.000000 0.000000
0.072855 0.000000 0.000000
0.084804 0.000000 0.000000
0.098407 0.000000 0.000000
0.115931 0.000000 0.000000
0.137377 0.000000 0.000000
0.154902 0.000000 0.000000
0.176348 0.000000 0.000000
0.198652 0.000000 0.000000
0.219240 0.000000 0.000000
0.240686 0.000000 0.000000
0.258211 0.000000 0.000000
0.279657 0.000000 0.000000
0.297182 0.000000 0.000000
0.318628 0.000000 0.000000
0.336152 0.000000 0.000000
0.353676 0.000000 0.000000
0.371201 0.000000 0.000000
0.388726 0.000000 0.000000
0.403125 0.000000 0.000000
0.419853 0.000000 0.000000
0.437377 0.000000 0.000000
0.452941 0.000000 0.000000
0.468505 0.000000 0.000000
0.486030 0.000000 0.000000
0.503554 0.000000 0.000000
0.521078 0.000000 0.000000
0.538603 0.000000 0.000000
0.556128 0.000000 0.000000
0.577574 0.000000 0.000000
0.595098 0.000000 0.000000
0.612622 0.000000 0.000000
0.630147 0.000000 0.000000
0.647365 0.000000 0.000000
0.661275 0.000000 0.000000
0.678799 0.000000 0.000000
0.696323 0.000000 0.000000
0.709927 0.000000 0.000000
0.727451 0.000000 0.000000
0.741054 0.000000 0.000000
0.758578 0.000000 0.000000
0.772181 0.000000 0.000000
0.789706 0.000000 0.000000
0.803309 0.000000 0.000000
0.820833 0.000000 0.000000
0.834865 0.000000 0.000000
0.851960 0.000000 0.000000
0.869486 0.000000 0.000000
0.887010 0.000000 0.000000
0.900613 0.000000 0.000000
0.918137 0.000000 0.000000
0.935661 0.000000 0.000000
0.953187 0.000000 0.000000
0.970711 0.000000 0.000000
0.988235 0.000000 0.000000
0.000000 0.010601 0.000000
0.003922 0.007843 0.000000
0.003922 0.007843 0.000000
0.007843 0.007843 0.000000
0.011765 0.007843 0.000000
0.016360 0.006679 0.000000
0.025122 0.006679 0.000000
0.029964 0.006679 0.000000
0.042157 0.003922 0.000000
0.051409 0.003922 0.000000
0.061520 0.003922 0.000000
0.072855 0.003922 0.000000
0.084804 0.003922 0.000000
0.098407 0.002758 0.000000
0.118688 0.000000 0.000000
0.137377 0.000000 0.000000
0.154902 0.000000 0.000000
0.176348 0.000000 0.000000
0.198652 0.000000 0.000000
0.219240 0.000000 0.000000
0.240686 0.000000 0.000000
0.258211 0.000000 0.000000
0.279657 0.000000 0.000000
0.299939 0.000000 0.000000
0.318628 0.000000 0.000000
0.336152 0.000000 0.000000
0.353676 0.000000 0.000000
0.371201 0.000000 0.000000
0.388726 0.000000 0.000000
0.403125 0.000000 0.000000
0.419853 0.000000 0.000000
0.437377 0.000000 0.000000
0.452941 0.000000 0.000000
0.468505 0.000000 0.000000
0.486030 0.000000 0.000000
0.503554 0.000000 0.000000
0.521078 0.000000 0.000000
0.538603 0.000000 0.000000
0.556128 0.000000 0.000000
0.577574 0.000000 0.000000
0.595098 0.000000 0.000000
0.612622 0.000000 0.000000
0.630147 0.000000 0.000000
0.647365 0.000000 0.000000
0.661275 0.000000 0.000000
0.678799 0.000000 0.000000
0.696323 0.000000 0.000000
0.709927 0.000000 0.000000
0.727451 0.000000 0.000000
0.741054 0.000000 0.000000
0.758578 0.000000 0.000000
0.772181 0.000000 0.000000
0.789706 0.000000 0.000000
0.803309 0.000000 0.000000
0.820833 0.000000 0.000000
0.834865 0.000000 0.000000
0.851961 0.000000 0.000000
0.869486 0.000000 0.000000
0.887010 0.000000 0.000000
0.900613 0.000000 0.000000
0.918137 0.000000 0.000000
0.935661 0.000000 0.000000
0.953187 0.000000 0.000000
0.970711 0.000000 0.000000
0.988235 0.000000 0.000000
0.000000 0.015441 0.000000
0.003922 0.011765 0.000000
0.005760 0.011765 0.000000
0.007843 0.011765 0.000000
0.011765 0.011765 0.000000
0.016360 0.011520 0.000000
0.023529 0.011520 0.000000
0.029964 0.007843 0.000000
0.042157 0.007843 0.000000
0.051409 0.007843 0.000000
0.061520 0.010171 0.000000
0.072855 0.007598 0.000000
0.084804 0.003922 0.000000
0.098407 0.003922 0.000000
0.117034 0.003922 0.000000
0.137377 0.005577 0.000000
0.158578 0.003677 0.000000
0.180208 0.000000 0.000000
0.198652 0.000000 0.000000
0.219240 0.000000 0.000000
0.240686 0.000000 0.000000
0.261826 0.000000 0.000000
0.279657 0.000000 0.000000
0.298713 0.000000 0.000000
0.318628 0.000000 0.000000
0.336152 0.000000 0.000000
0.353676 0.000000 0.000000
0.371201 0.000000 0.000000
0.388726 0.000000 0.000000
0.406250 0.000000 0.000000
0.419853 0.000000 0.000000
0.437377 0.000000 0.000000
0.452941 0.000000 0.000000
0.468505 0.000000 0.000000
0.486030 0.000000 0.000000
0.503554 0.000000 0.000000
0.521078 0.000000 0.000000
0.538603 0.000000 0.000000
0.556128 0.000000 0.000000
0.577574 0.000000 0.000000
0.595098 0.000000 0.000000
0.612622 0.000000 0.000000
0.630147 0.000000 0.000000
0.647365 0.000000 0.000000
0.661275 0.000000 0.000000
0.678799 0.000000 0.000000
0.696323 0.000000 0.000000
0.709927 0.000000 0.000000
0.727451 0.000000 0.000000
0.741054 0.000000 0.000000
0.758578 0.000000 0.000000
0.772181 0.000000 0.000000
0.789706 0.000000 0.000000
0.803309 0.000000 0.000000
0.820833 0.000000 0.000000
0.834865 0.000000 0.000000
0.851961 0.000000 0.000000
0.869486 0.000000 0.000000
0.887010 0.000000 0.000000
0.900613 0.000000 0.000000
0.918137 0.000000 0.000000
0.935661 0.000000 0.000000
0.953187 0.000000 0.000000
0.970711 0.000000 0.000000
0.988235 0.000000 0.000000
0.003922 0.020282 0.000000
0.004841 0.020282 0.000000
0.007843 0.018444 0.000000
0.010601 0.019608 0.000000
0.011765 0.016360 0.000000
0.016360 0.016360 0.000000
0.023529 0.016360 0.000000
0.029964 0.013848 0.000000
0.042157 0.015686 0.000000
0.051409 0.012439 0.000000
0.061520 0.012439 0.000000
0.072855 0.010172 0.000000
0.085540 0.011765 0.000000
0.102329 0.008517 0.000000
0.119853 0.007843 0.000000
0.137377 0.007843 0.000000
0.155576 0.004596 0.000000
0.180208 0.003922 0.000000
0.201716 0.003922 0.000000
0.221017 0.000674 0.000000
0.240686 -0.002022 0.000000
0.262132 0.000000 0.000000
0.279657 0.000000 0.000000
0.301103 0.000000 0.000000
0.318628 0.000000 0.000000
0.336152 0.000000 0.000000
0.353676 0.000000 0.000000
0.371201 0.000000 0.000000
0.388726 0.000000 0.000000
0.406250 0.000000 0.000000
0.419853 0.000000 0.000000
0.437377 0.000000 0.000000
0.454902 0.000000 0.000000
0.468505 0.000000 0.000000
0.486030 0.000000 0.000000
0.503554 0.000000 0.000000
0.521078 0.000000 0.000000
0.538603 0.000000 0.000000
0.556802 0.000000 0.000000
0.577574 0.000000 0.000000
0.595098 0.000000 0.000000
0.612622 0.000000 0.000000
0.630147 0.000000 0.000000
0.647672 0.000000 0.000000
0.661275 0.000000 0.000000
0.678799 0.000000 0.000000
0.696323 0.000000 0.000000
0.709927 0.000000 0.000000
0.727451 0.000000 0.000000
0.741054 0.000000 0.000000
0.758578 0.000000 0.000000
0.772181 0.000000 0.000000
0.789706 0.000000 0.000000
0.803309 0.000000 0.000000
0.820833 0.000000 0.000000
0.838358 0.000000 0.000000
0.851960 0.000000 0.000000
0.869486 0.000000 0.000000
0.887010 0.000000 0.000000
0.900613 0.000000 0.000000
0.918137 0.000000 0.000000
0.935661 0.000000 0.000000
0.953187 0.000000 0.000000
0.970711 0.000000 0.000000
0.988235 0.000000 0.000000
0.003922 0.029044 0.000000
0.007843 0.028125 0.000000
0.009681 0.025122 0.000000
0.011765 0.025122 0.000000
0.015441 0.025122 0.000000
0.016360 0.025122 0.000000
0.023529 0.023529 0.000000
0.029964 0.021201 0.000000
0.038726 0.021201 0.000000
0.051409 0.019608 0.000000
0.061520 0.019853 0.000000
0.072855 0.017279 0.000000
0.085540 0.017279 0.000000
0.102329 0.013358 0.000000
0.119853 0.011765 0.000000
0.137377 0.011765 0.000000
0.158823 0.009436 0.000000
0.177941 0.005576 0.000000
0.201716 0.005515 0.000000
0.223162 0.003922 0.000000
0.243382 0.003922 0.000000
0.262132 0.003922 0.000000
0.280269 0.001593 0.000000
0.301103 0.001593 0.000000
0.318628 -0.000858 0.000000
0.336152 0.000000 0.000000
0.353676 0.000000 0.000000
0.371201 0.000000 0.000000
0.388726 0.000000 0.000000
0.406250 0.000000 0.000000
0.419853 0.000000 0.000000
0.437377 0.000000 0.000000
0.454902 0.000000 0.000000
0.467218 0.000000 0.000000
0.486030 0.000000 0.000000
0.503554 0.000000 0.000000
0.521078 0.000000 0.000000
0.541238 0.000000 0.000000
0.560049 0.000000 0.000000
0.577574 0.000000 0.000000
0.595098 0.000000 0.000000
0.612622 0.000000 0.000000
0.630147 0.000000 0.000000
0.647672 0.000000 0.000000
0.661275 0.000000 0.000000
0.678799 0.000000 0.000000
0.696323 0.000000 0.000000
0.709927 0.000000 0.000000
0.727451 0.000000 0.000000
0.741054 0.000000 0.000000
0.758578 0.000000 0.000000
0.770037 0.000000 0.000000
0.789706 0.000000 0.000000
0.803247 0.000000 0.000000
0.820833 0.000000 0.000000
0.838358 0.000000 0.000000
0.851960 0.000000 0.000000
0.869486 0.000000 0.000000
0.887010 0.000000 0.000000
0.901287 0.000000 0.000000
0.918137 0.000000 0.000000
0.935661 0.000000 0.000000
0.953187 0.000000 0.000000
0.970711 0.000000 0.000000
0.988235 0.000000 0.000000
0.006434 0.037807 0.000000
0.007843 0.037807 0.000000
0.009681 0.036397 0.000000
0.011765 0.033885 0.000000
0.015686 0.033885 0.000000
0.022120 0.033885 0.000000
0.026042 0.034804 0.000000
0.029964 0.029964 0.000000
0.038726 0.029964 0.000000
0.051409 0.029535 0.000000
0.061520 0.026042 0.000000
0.072855 0.026042 0.000000
0.088725 0.022855 0.000000
0.102329 0.022120 0.000000
0.120956 0.021017 0.000000
0.141299 0.018199 0.000000
0.161765 0.015686 0.000000
0.184130 0.014277 0.000000
0.202574 0.010356 0.000000
0.223162 0.007843 0.000000
0.244608 0.007843 0.000000
0.262132 0.006434 0.000000
0.283578 0.003922 0.000000
0.301103 0.003922 0.000000
0.318628 0.003922 0.000000
0.339522 0.003922 0.000000
0.356189 0.000000 0.000000
0.371201 0.000000 0.000000
0.388726 0.000000 0.000000
0.406250 0.000000 0.000000
0.426164 0.000000 0.000000
0.437377 0.000000 0.000000
0.454902 0.000000 0.000000
0.472427 0.000000 0.000000
0.488541 0.000000 0.000000
0.503554 0.000000 0.000000
0.523591 0.000000 0.000000
0.542525 0.000000 0.000000
0.560049 0.000000 0.000000
0.577574 0.000000 0.000000
0.595098 0.000000 0.000000
0.612622 0.000000 0.000000
0.630147 0.000000 0.000000
0.647672 0.000000 0.000000
0.663971 0.000000 0.000000
0.678799 0.000000 0.000000
0.696323 0.000000 0.000000
0.709927 0.000000 0.000000
0.727451 0.000000 0.000000
0.743076 0.000000 0.000000
0.758578 0.000000 0.000000
0.772365 0.000000 0.000000
0.789706 0.000000 0.000000
0.805576 0.000000 0.000000
0.820833 0.000000 0.000000
0.838358 0.000000 0.000000
0.851961 0.000000 0.000000
0.869486 0.000000 0.000000
0.887010 0.000000 0.000000
0.904534 0.000000 0.000000
0.918137 0.000000 0.000000
0.935661 0.000000 0.000000
0.953187 0.000000 0.000000
0.970711 0.000000 0.000000
0.988235 0.000000 0.000000
0.007843 0.050000 0.003432
0.008762 0.046569 0.003432
0.011765 0.046569 0.003432
0.014522 0.046569 0.003432
0.019363 0.046079 0.003432
0.020282 0.042647 0.003432
0.025122 0.042647 0.000000
0.034804 0.043566 0.000000
0.038726 0.038726 0.000000
0.051409 0.038726 0.000000
0.060172 0.040809 0.000000
0.072855 0.034804 0.003432
0.088725 0.034804 0.003432
0.102512 0.030883 0.003432
0.123775 0.029780 0.003432
0.141299 0.026961 0.003432
0.161765 0.023039 0.003432
0.184130 0.019179 0.003432
0.205638 0.019118 0.003432
0.224939 0.015196 0.003432
0.244608 0.011765 0.003432
0.265564 0.011765 0.003432
0.283578 0.011275 0.003432
0.304534 0.007843 0.000000
0.321079 0.007843 0.003432
0.340073 0.007904 0.003432
0.357598 0.003922 0.003432
0.377267 0.003922 0.003432
0.388726 0.003432 0.000000
0.406250 0.000000 0.003432
0.423774 0.000000 0.003432
0.437377 0.000000 0.003432
0.454902 0.000000 0.003432
0.472427 0.000000 0.004474
0.489951 0.000000 0.003432
0.507475 0.000000 0.003432
0.525000 0.000000 0.003432
0.542525 0.000000 0.000000
0.560049 0.000000 0.000000
0.577574 0.000000 0.000000
0.595098 0.000000 0.000000
0.612622 0.000000 0.000000
0.630147 0.000000 0.000000
0.647672 0.000000 0.000000
0.665196 0.000000 0.000000
0.678799 0.000000 0.000000
0.696323 0.000000 0.000000
0.709927 0.000000 0.000000
0.727451 0.000000 0.000000
0.743076 0.000000 0.000000
0.758578 0.000000 0.000000
0.772365 0.000000 0.000000
0.789706 0.000000 0.000000
0.805576 0.000000 0.000000
0.820833 0.000000 0.000000
0.838358 0.000000 0.000000
0.851961 0.000000 0.000000
0.869486 0.000000 0.000000
0.887010 0.000000 0.000000
0.904534 0.000000 0.000000
0.918137 0.000000 0.000000
0.935661 0.000000 0.000000
0.953187 0.000000 0.000000
0.970711 0.000000 0.000000
0.988235 0.000000 0.000000
0.011765 0.059253 0.003922
0.012684 0.059253 0.003922
0.015686 0.059253 0.003922
0.018444 0.059253 0.003922
0.023284 0.055760 0.003922
0.024203 0.055331 0.003922
0.027880 0.055331 0.003922
0.037807 0.055331 0.003922
0.042647 0.048406 0.003922
0.051409 0.051409 0.003922
0.060172 0.047917 0.003922
0.072855 0.047488 0.003922
0.088725 0.043995 0.003922
0.106250 0.043811 0.003922
0.123775 0.039645 0.003922
0.141728 0.034130 0.003922
0.165686 0.035723 0.003922
0.188051 0.031802 0.003922
0.206495 0.027880 0.003922
0.227083 0.023958 0.003922
0.245037 0.017769 0.003922
0.266054 0.020037 0.003922
0.284007 0.016115 0.003922
0.305025 0.016115 0.003922
0.322549 0.015686 0.003922
0.340073 0.012194 0.003922
0.357598 0.011826 0.003922
0.375122 0.008272 0.003922
0.392647 0.007843 0.003922
0.407047 0.004351 0.003922
0.423774 0.003922 0.003922
0.441299 0.003922 0.003922
0.453370 0.003922 0.003922
0.472427 0.003922 0.003922
0.489951 -0.003370 0.003922
0.507475 0.000000 0.003922
0.525000 0.000000 0.003922
0.542525 0.000000 0.003922
0.560049 0.000000 0.003922
0.577574 0.000000 0.003922
0.595527 0.000000 0.003922
0.613051 0.000000 0.003922
0.627267 0.000000 0.000429
0.647672 0.000000 0.000000
0.665196 0.000000 0.000000
0.680576 0.000000 0.000000
0.696323 0.000000 0.000000
0.714216 0.000000 0.000000
0.727451 0.000000 0.000000
0.744975 0.000000 0.000000
0.758578 0.000000 0.000000
0.776103 0.000000 0.000000
0.789706 0.000000 0.000000
0.807231 0.000000 0.000000
0.820833 0.000000 0.000000
0.838358 0.000000 0.000000
0.855882 0.000000 0.000000
0.869486 0.000000 0.000000
0.887010 0.000000 0.000000
0.904534 0.000000 0.000000
0.922243 0.000000 0.000000
0.935661 0.000000 0.000000
0.953187 0.000000 0.000000
0.970711 0.000000 0.000000
0.988235 0.000000 0.000000
0.011765 0.071936 0.003922
0.015686 0.071936 0.003922
0.017034 0.069363 0.003922
0.019608 0.069363 0.003922
0.020956 0.069363 0.003922
0.028799 0.068015 0.003922
0.032966 0.068015 0.003922
0.036642 0.065441 0.003922
0.046569 0.062010 0.003922
0.051409 0.065012 0.003922
0.060172 0.061520 0.003922
0.075122 0.060172 0.003922
0.088725 0.057598 0.003922
0.106433 0.053676 0.003922
0.127696 0.052328 0.003922
0.145221 0.047733 0.003922
0.164093 0.042892 0.003922
0.185539 0.044485 0.003922
0.209559 0.037990 0.003922
0.228860 0.036642 0.003922
0.248529 0.032721 0.003922
0.267402 0.026532 0.003922
0.287500 0.024877 0.003922
0.305025 0.024877 0.003922
0.322549 0.019853 0.003922
0.341421 0.020956 0.003922
0.357598 0.017034 0.003922
0.375122 0.015747 0.003922
0.392647 0.013113 0.003922
0.410172 0.011765 0.003922
0.423774 0.009191 0.003922
0.441299 0.007843 0.003922
0.458824 0.007843 0.003922
0.472427 0.005270 0.003922
0.489951 0.003922 0.003922
0.507475 0.004474 0.003922
0.525000 0.001348 0.003922
0.542525 -0.001287 0.003922
0.563603 0.000000 0.003922
0.581495 0.000000 0.003922
0.599020 0.000000 0.003922
0.616544 0.000000 0.003922
0.634069 0.000000 0.003922
0.647672 0.000000 0.003922
0.665196 0.000000 0.003922
0.682721 0.000000 0.003922
0.696323 0.000000 0.003922
0.713849 0.000000 0.003922
0.727451 0.000000 0.004290
0.744975 0.000000 0.001348
0.758578 0.000000 0.001348
0.776103 0.000000 0.000000
0.789706 0.000000 0.000000
0.807231 0.000000 0.000000
0.822181 0.000000 0.000000
0.838358 0.000000 0.000000
0.855882 0.000000 0.000000
0.869424 0.000000 0.000000
0.887010 0.000000 0.000000
0.904534 0.000000 0.000000
0.922059 0.000000 0.000000
0.939767 0.000000 0.000000
0.953187 0.000000 0.000000
0.970711 0.000000 0.000000
0.988235 0.000000 0.000000
0.015686 0.086887 0.006189
0.016605 0.086887 0.006189
0.021875 0.086887 0.006189
0.021875 0.084620 0.006189
0.027206 0.082966 0.006189
0.028125 0.082966 0.006189
0.037561 0.082966 0.006189
0.041728 0.080698 0.006189
0.045404 0.079044 0.006189
0.055331 0.079044 0.006189
0.064093 0.077696 0.006189
0.072855 0.075122 0.006189
0.088725 0.071936 0.006189
0.110172 0.068934 0.006189
0.127696 0.067279 0.006189
0.147487 0.065257 0.006189
0.169608 0.060417 0.006189
0.191973 0.055577 0.006189
0.209559 0.054657 0.006189
0.231005 0.049326 0.006189
0.251225 0.047671 0.006189
0.269975 0.043750 0.007843
0.289767 0.039828 0.009497
0.307292 0.037561 0.006189
0.326471 0.035907 0.006189
0.343995 0.033640 0.006189
0.361519 0.031618 0.006189
0.377390 0.025796 0.006189
0.392647 0.021875 0.006189
0.410172 0.021875 0.006189
0.423774 0.017953 0.006189
0.441299 0.019179 0.006189
0.458823 0.014032 0.006189
0.476348 0.011152 0.006189
0.492218 0.010110 0.006189
0.507475 0.007843 0.006189
0.527267 0.006189 0.003922
0.544792 0.006189 0.003922
0.563971 0.003922 0.003922
0.581495 0.002267 0.003922
0.599020 0.002267 0.003922
0.616544 0.000000 0.003922
0.634069 0.000000 0.003922
0.651286 0.000000 0.003922
0.665196 0.000000 0.003922
0.682721 0.000000 0.003922
0.697181 0.000000 0.003922
0.713849 0.000000 0.003922
0.730392 0.000000 0.003922
0.744975 0.000000 0.003922
0.759681 0.000000 0.003922
0.776103 0.000000 0.003922
0.789706 0.000000 0.002267
0.807231 0.000000 0.000000
0.824755 0.000000 0.000000
0.838358 0.000000 0.000000
0.855882 0.000000 0.000000
0.874264 0.000000 0.000000
0.887010 0.000000 0.000000
0.904534 0.000000 0.000000
0.922059 0.000000 0.000000
0.939583 0.000000 0.000000
0.957291 0.000000 0.000000
0.970711 0.000000 0.000000
0.988235 0.000000 0.000000
0.018873 0.104411 0.007843
0.022794 0.104411 0.007843
0.023529 0.104411 0.007843
0.026716 0.104411 0.007843
0.031128 0.104411 0.007843
0.032047 0.100490 0.007843
0.042402 0.100490 0.007843
0.046324 0.100490 0.007843
0.050490 0.099755 0.007843
0.062010 0.096568 0.007843
0.067279 0.098406 0.007843
0.076777 0.092647 0.007843
0.089461 0.092647 0.007843
0.110172 0.088725 0.007843
0.127696 0.084804 0.007843
0.147242 0.085968 0.007843
0.169608 0.081128 0.007843
0.191973 0.076960 0.007843
0.210417 0.075368 0.007843
0.231005 0.069117 0.007843
0.252451 0.065196 0.007843
0.269975 0.061581 0.007843
0.291421 0.057353 0.007843
0.308946 0.057353 0.007843
0.326471 0.053431 0.007843
0.343995 0.050061 0.007843
0.361519 0.045588 0.007843
0.379044 0.044302 0.007843
0.392647 0.042647 0.007843
0.410172 0.037745 0.007843
0.430759 0.033823 0.007843
0.441299 0.032782 0.007843
0.458823 0.029902 0.007843
0.476348 0.025980 0.007843
0.493873 0.022794 0.007843
0.511397 0.018873 0.007843
0.528921 0.020343 0.007843
0.546446 0.014951 0.007843
0.563971 0.014951 0.007843
0.581495 0.011030 0.007108
0.599020 0.009558 0.003922
0.616544 0.007108 0.003922
0.634069 0.007108 0.003922
0.651593 0.003922 0.003922
0.665196 0.003187 0.003922
0.682721 0.003187 0.003922
0.700245 0.000000 0.003922
0.713849 0.000000 0.003922
0.731373 0.000000 0.003922
0.744975 0.000000 0.003922
0.762868 0.000000 0.003922
0.776103 0.000000 0.003922
0.792892 0.000000 0.003922
0.807231 0.000000 0.003922
0.824755 0.000000 0.004535
0.838052 0.000000 0.003187
0.855882 0.000000 0.000000
0.873407 0.000000 0.000000
0.887010 0.000000 0.000000
0.904534 0.000000 0.000000
0.922059 0.000000 0.000000
0.939583 0.000000 0.000000
0.957108 0.000000 0.000000
0.974816 0.000000 0.000000
0.988235 0.000000 0.000000
0.023529 0.125858 0.008027
0.023713 0.125858 0.008027
0.029289 0.125858 0.008027
0.027635 0.122120 0.008027
0.031557 0.122120 0.008027
0.039890 0.121937 0.008027
0.044730 0.121937 0.008027
0.049571 0.121937 0.008027
0.054596 0.118198 0.008027
0.063174 0.118015 0.008027
0.071936 0.114276 0.008027
0.080882 0.114093 0.008027
0.093566 0.114093 0.008027
0.110172 0.110172 0.008027
0.127696 0.105330 0.008027
0.149142 0.102512 0.008027
0.170588 0.102329 0.008027
0.192034 0.098407 0.008027
0.213481 0.094486 0.008027
0.232782 0.090564 0.008027
0.252451 0.084131 0.008027
0.273591 0.086643 0.008027
0.291421 0.078982 0.008027
0.308946 0.078799 0.008027
0.326471 0.072610 0.008027
0.343995 0.071139 0.004656
0.361519 0.066851 0.007843
0.379044 0.067035 0.007843
0.396569 0.063113 0.007843
0.407231 0.059192 0.007843
0.427696 0.055270 0.008027
0.445220 0.050490 0.008027
0.458824 0.047610 0.008027
0.476348 0.047427 0.007843
0.493873 0.043505 0.007843
0.511397 0.039584 0.007843
0.528921 0.035662 0.007843
0.546446 0.031741 0.007843
0.563971 0.024448 0.007843
