Color/Fuji/Fuji Superia 200 XPRO 65x.cube
TITLE "Fuji Superia 200 XPRO"
LUT_3D_SIZE 65
DOMAIN_MIN 0.000000 0.000000 0.000000
DOMAIN_MAX 1.000000 1.000000 1.000000
0.000000 0.000000 0.000000
0.000000 0.000000 0.000000
0.000000 0.000000 0.000000
0.000000 0.000000 0.000000
0.000000 0.000000 0.000000
0.000000 0.000000 0.000000
0.000000 0.000000 0.003922
0.000000 0.000000 0.003922
0.000000 0.000000 0.003922
0.000000 0.000000 0.007843
0.000000 0.000000 0.009191
0.000000 0.000000 0.011765
0.003922 0.000000 0.011765
0.003922 0.000000 0.015686
0.003922 0.000000 0.019608
0.003922 0.000000 0.021630
0.003922 0.000000 0.023529
0.003922 0.000000 0.027451
0.003922 0.000000 0.032231
0.003922 0.000000 0.040993
0.003922 0.000000 0.049755
0.003922 0.000000 0.058518
0.000000 0.000000 0.067280
0.000000 0.000000 0.079963
0.000000 0.000000 0.088726
0.000000 0.000000 0.093566
0.000000 0.000000 0.098407
0.000000 0.000000 0.103248
0.003922 0.002206 0.108088
0.003922 0.003922 0.113725
0.004045 0.003922 0.117770
0.007843 0.003922 0.125490
0.011765 0.003922 0.131373
0.015686 0.003922 0.137255
0.023406 0.007843 0.141053
0.028248 0.007843 0.141973
0.037010 0.007843 0.146814
0.045772 0.007843 0.151654
0.050980 0.007843 0.156495
0.059375 0.007843 0.160784
0.069608 0.007843 0.160784
0.080821 0.003922 0.160784
0.089583 0.003922 0.160784
0.098345 0.003922 0.164706
0.107108 0.003922 0.164706
0.115870 0.003922 0.168627
0.124632 0.003922 0.168627
0.133394 0.000000 0.168627
0.142157 0.000000 0.169608
0.150919 0.002022 0.176471
0.159681 0.000000 0.176471
0.168443 0.000000 0.180208
0.177206 0.003922 0.185049
0.187623 0.003922 0.189890
0.201226 0.003922 0.194730
0.215257 0.007843 0.200000
0.231863 0.007843 0.203922
0.245956 0.011765 0.203922
0.267402 0.015686 0.206250
0.284927 0.022855 0.211091
0.302451 0.027451 0.212010
0.319975 0.032537 0.215686
0.337500 0.039216 0.219608
0.355025 0.046140 0.223529
0.372549 0.054902 0.227451
0.000919 0.013603 0.009681
0.003922 0.017524 0.014522
0.003922 0.017524 0.017524
0.003922 0.020282 0.018443
0.003922 0.018443 0.025123
0.004841 0.021446 0.026286
0.004841 0.021446 0.030883
0.004841 0.021446 0.032720
0.004841 0.021446 0.037562
0.007843 0.022365 0.042892
0.007843 0.022365 0.046814
0.007843 0.022365 0.053003
0.007843 0.025367 0.060845
0.003922 0.025367 0.067341
0.003922 0.025367 0.072365
0.003922 0.025367 0.080209
0.003922 0.025367 0.085968
0.003922 0.025367 0.093811
0.003922 0.026286 0.098652
0.003922 0.026286 0.107415
0.003922 0.026286 0.113174
0.003922 0.030208 0.121016
0.003922 0.030821 0.125858
0.004841 0.034130 0.133701
0.004841 0.036581 0.139460
0.004841 0.035049 0.147304
0.008762 0.038419 0.148223
0.013052 0.043260 0.152696
0.014890 0.042892 0.157904
0.016605 0.046814 0.162746
0.020650 0.050735 0.167463
0.025490 0.050735 0.171384
0.030331 0.053737 0.177267
0.033211 0.054657 0.182108
0.040932 0.054657 0.183149
0.045772 0.053737 0.187071
0.053615 0.053737 0.190073
0.062378 0.053737 0.190992
0.074694 0.050735 0.190992
0.083824 0.049816 0.193995
0.092586 0.045894 0.193995
0.101348 0.043504 0.193995
0.110110 0.041973 0.193995
0.118872 0.038051 0.194914
0.126409 0.037132 0.197916
0.132476 0.033211 0.197916
0.141238 0.027144 0.197916
0.150000 0.025367 0.198835
0.158762 0.025367 0.201838
0.167525 0.025367 0.205760
0.176286 0.025367 0.205760
0.185968 0.025367 0.206679
0.197733 0.025367 0.214338
0.208150 0.026286 0.217524
0.225675 0.032782 0.220527
0.240196 0.040625 0.221446
0.253799 0.041544 0.225367
0.271324 0.047304 0.225367
0.287929 0.055147 0.230698
0.305453 0.057659 0.229289
0.319975 0.065502 0.232537
0.336581 0.069424 0.237377
0.354106 0.073345 0.242219
0.371631 0.080269 0.244056
0.385233 0.088113 0.247978
0.003922 0.035049 0.027206
0.005760 0.036887 0.032047
0.005760 0.038970 0.036887
0.007843 0.038970 0.038970
0.007843 0.038970 0.042892
0.007843 0.038970 0.048652
0.007843 0.038970 0.052574
0.007843 0.041483 0.056495
0.007843 0.042892 0.063848
0.007843 0.042892 0.068688
0.007843 0.042892 0.077451
0.007843 0.042892 0.081863
0.006005 0.042892 0.091054
0.003922 0.042892 0.099817
0.003922 0.042892 0.108579
0.003922 0.042892 0.113235
0.003922 0.044730 0.122181
0.003922 0.046813 0.127022
0.003922 0.048652 0.131862
0.003922 0.048591 0.136704
0.006618 0.052574 0.143628
0.005760 0.054657 0.146691
0.007843 0.055269 0.154534
0.009681 0.060417 0.158149
0.009681 0.060417 0.162377
0.011765 0.064338 0.171753
0.013971 0.068260 0.172671
0.016973 0.072181 0.177512
0.021446 0.072181 0.182353
0.025367 0.077390 0.187194
0.029412 0.074387 0.188113
0.034253 0.080025 0.192953
0.041177 0.080025 0.197672
0.044975 0.080025 0.203676
0.052696 0.080025 0.203676
0.057537 0.080025 0.207598
0.066299 0.078186 0.207598
0.071140 0.078186 0.207598
0.079902 0.072549 0.207598
0.087378 0.073713 0.209681
0.099510 0.070711 0.209681
0.108272 0.066421 0.209681
0.117034 0.062500 0.209681
0.127328 0.058578 0.211519
0.132476 0.054657 0.210907
0.139399 0.052818 0.213603
0.150000 0.047671 0.213603
0.158763 0.046752 0.215441
0.165686 0.042892 0.217524
0.174449 0.042892 0.219362
0.185049 0.040073 0.221446
0.193811 0.044792 0.223284
0.206496 0.041790 0.229289
0.219179 0.046630 0.231127
0.234436 0.053309 0.233211
0.251961 0.058149 0.233211
0.265564 0.061153 0.237132
0.281250 0.065992 0.237132
0.296691 0.072671 0.239461
0.314215 0.077512 0.241054
0.331496 0.080515 0.244975
0.345343 0.085355 0.248897
0.361030 0.089951 0.250981
0.376470 0.095956 0.255821
0.392157 0.099877 0.256740
0.007843 0.052574 0.048652
0.007843 0.050736 0.055331
0.007843 0.056495 0.056495
0.007843 0.056495 0.059252
0.007843 0.056495 0.063174
0.007843 0.056495 0.071017
0.007843 0.056495 0.073775
0.007843 0.056495 0.081373
0.007843 0.056495 0.086703
0.007843 0.057660 0.094976
0.005086 0.057660 0.103738
0.003922 0.057660 0.112500
0.003922 0.060845 0.121262
0.003922 0.060417 0.129841
0.003922 0.060417 0.134865
0.003922 0.060417 0.141605
0.003922 0.064339 0.145711
0.003922 0.064339 0.150551
0.006679 0.068260 0.151471
0.005699 0.071017 0.156311
0.007843 0.072182 0.165135
0.011459 0.074939 0.169914
0.011765 0.076715 0.170834
0.014522 0.080025 0.178064
0.014216 0.082476 0.181986
0.019056 0.087316 0.189277
0.022365 0.090625 0.193750
0.026287 0.091790 0.195037
0.030209 0.094547 0.199878
0.034498 0.095711 0.201593
0.035417 0.095711 0.205637
0.040258 0.099633 0.210478
0.045098 0.099633 0.215319
0.052696 0.099633 0.218444
0.057660 0.099633 0.221201
0.066299 0.099633 0.221201
0.073346 0.095711 0.221201
0.079902 0.095711 0.221201
0.085907 0.091790 0.221201
0.091299 0.087868 0.222365
0.103431 0.086398 0.222365
0.112193 0.081556 0.222365
0.120956 0.076715 0.222365
0.128553 0.075796 0.222365
0.134559 0.069424 0.223591
0.143321 0.065503 0.226287
0.152083 0.061275 0.226287
0.160845 0.057660 0.226287
0.169608 0.059437 0.227267
0.178370 0.056495 0.232966
0.189951 0.056495 0.232966
0.198652 0.056495 0.237868
0.212071 0.060417 0.238052
0.225674 0.064339 0.241973
0.243199 0.068260 0.241973
0.257966 0.072917 0.241973
0.271568 0.073835 0.245895
0.287929 0.078677 0.245895
0.302696 0.083517 0.248223
0.319057 0.089032 0.249816
0.333823 0.093198 0.253738
0.350184 0.098040 0.254902
0.364951 0.102880 0.256986
0.382476 0.107721 0.261581
0.396078 0.112561 0.265503
0.007843 0.070098 0.070098
0.007843 0.070098 0.077696
0.007843 0.070098 0.081618
0.007843 0.070098 0.085540
0.007843 0.070343 0.089216
0.007843 0.070343 0.094056
0.007843 0.070343 0.101226
0.007843 0.070343 0.107660
0.004167 0.070343 0.116422
0.003922 0.070343 0.125184
0.003922 0.074020 0.130024
0.003922 0.074020 0.138786
0.003922 0.074020 0.147549
0.003922 0.074204 0.152390
0.003922 0.077941 0.160049
0.003922 0.077941 0.163971
0.003922 0.081863 0.164216
0.007782 0.081863 0.167892
0.007843 0.085785 0.175736
0.007843 0.087561 0.177757
0.011520 0.093383 0.182598
0.011765 0.093628 0.187438
0.012378 0.097549 0.191667
0.019363 0.099081 0.195588
0.018137 0.101471 0.199510
0.023284 0.104840 0.206801
0.027206 0.105760 0.211275
0.031128 0.109314 0.212561
0.035049 0.111519 0.217402
0.038971 0.113235 0.219118
0.039339 0.113235 0.223161
0.047855 0.117157 0.224326
0.054657 0.117157 0.230883
0.061458 0.117157 0.231128
0.066299 0.117157 0.231128
0.071385 0.113235 0.231128
0.079902 0.113235 0.231128
0.086030 0.110600 0.231128
0.093505 0.105637 0.234804
0.094669 0.104840 0.234804
0.103431 0.100000 0.234804
0.112193 0.093873 0.234804
0.120956 0.089951 0.234804
0.129718 0.086030 0.235049
0.138480 0.082108 0.238726
0.146998 0.078186 0.238726
0.155147 0.074265 0.238726
0.164767 0.070343 0.235111
0.173530 0.073039 0.242647
0.180270 0.070098 0.242892
0.191054 0.070098 0.246569
0.203493 0.070098 0.246569
0.220097 0.074020 0.246814
0.234437 0.077941 0.246814
0.249387 0.081863 0.249387
0.261887 0.085785 0.250735
0.279167 0.086519 0.254657
0.295281 0.091361 0.254657
0.310295 0.096201 0.253309
0.324571 0.101042 0.258579
0.337745 0.105637 0.262500
0.355024 0.109559 0.259988
0.368873 0.111642 0.266422
0.386152 0.116483 0.270343
0.400000 0.121324 0.274265
0.007169 0.083027 0.100735
0.007169 0.083027 0.108578
0.007169 0.083027 0.112500
0.003922 0.083701 0.116421
0.003922 0.083701 0.120343
0.003922 0.083701 0.124939
0.003922 0.083701 0.132108
0.003922 0.083701 0.141789
0.003922 0.083701 0.146630
0.003922 0.087623 0.154963
0.003922 0.087623 0.158885
0.003922 0.089890 0.162806
0.003922 0.091544 0.166728
0.003922 0.091728 0.174081
0.003922 0.095466 0.178493
0.004596 0.096140 0.182414
0.007843 0.099387 0.188603
0.007843 0.100061 0.189583
0.008517 0.104167 0.194363
0.011765 0.107230 0.199203
0.014461 0.107904 0.204044
0.015686 0.114768 0.208885
0.019608 0.115747 0.209804
0.020282 0.118995 0.214645
0.025980 0.121446 0.219485
0.027451 0.122917 0.224326
0.032047 0.126838 0.228799
0.036581 0.126838 0.232721
0.041422 0.126838 0.234927
0.043015 0.130760 0.236642
0.047856 0.130760 0.240564
0.055576 0.130760 0.240564
0.061459 0.130760 0.243811
0.069546 0.130760 0.246691
0.071262 0.130760 0.244485
0.079105 0.130086 0.244485
0.084743 0.125123 0.244485
0.092831 0.122917 0.244485
0.094792 0.122243 0.244485
0.102635 0.114399 0.244485
0.107353 0.109681 0.244485
0.116115 0.110478 0.244485
0.124877 0.106556 0.247733
0.133639 0.098713 0.247733
0.137929 0.097487 0.248959
0.147243 0.094792 0.248407
0.156005 0.090870 0.251654
0.164767 0.083701 0.251654
0.174203 0.083027 0.252328
0.182965 0.083027 0.255576
0.195650 0.083027 0.255576
0.212071 0.083701 0.255576
0.224938 0.087684 0.255576
0.239277 0.092524 0.255576
0.256128 0.091544 0.258149
0.266911 0.095466 0.259498
0.283333 0.102635 0.259988
0.297611 0.103309 0.263419
0.314461 0.107230 0.263419
0.325491 0.113726 0.267341
0.342340 0.114644 0.267586
0.359191 0.119485 0.271262
0.371385 0.122243 0.275184
0.390319 0.126164 0.278187
0.403922 0.130086 0.283027
0.002329 0.095711 0.139706
0.002329 0.095711 0.144547
0.002329 0.097549 0.149387
0.002329 0.097304 0.151470
0.002329 0.097304 0.155392
0.003922 0.097304 0.158394
0.003922 0.099632 0.163235
0.003922 0.101225 0.168076
0.003922 0.101225 0.175245
0.003922 0.105147 0.176164
0.003922 0.105147 0.181005
0.003922 0.106740 0.185172
0.003922 0.109068 0.189093
0.005515 0.112990 0.195527
0.005025 0.114584 0.200367
0.007843 0.116912 0.205209
0.007843 0.119852 0.210049
0.009436 0.120833 0.208701
0.011765 0.124755 0.214951
0.013358 0.126532 0.220649
0.018382 0.128676 0.222794
0.017279 0.132292 0.226716
0.020221 0.133211 0.230637
0.025061 0.136519 0.234559
0.029902 0.138970 0.236152
0.031373 0.140441 0.240074
0.036887 0.140809 0.246691
0.040809 0.144363 0.250245
0.044730 0.144363 0.250245
0.051777 0.149816 0.255699
0.056617 0.148284 0.254167
0.061459 0.148284 0.254167
0.068260 0.148284 0.256495
0.072181 0.148284 0.259375
0.079902 0.146691 0.258088
0.083150 0.142769 0.258088
0.089584 0.138725 0.258088
0.096752 0.138848 0.258088
0.099632 0.134926 0.258088
0.107475 0.127083 0.258088
0.111274 0.123162 0.258088
0.115318 0.118444 0.258088
0.124877 0.113602 0.260417
0.133639 0.111397 0.256801
0.142769 0.107475 0.262010
0.147243 0.103002 0.262010
0.159068 0.098162 0.262010
0.168688 0.097304 0.264338
0.179045 0.095711 0.264338
0.192034 0.095711 0.264338
0.205637 0.098530 0.264338
0.219240 0.097304 0.264338
0.230515 0.101225 0.264338
0.246446 0.105208 0.265931
0.259068 0.105147 0.268260
0.275245 0.109068 0.268260
0.287255 0.115318 0.268750
0.304963 0.116728 0.272181
0.318383 0.121568 0.272181
0.330330 0.123162 0.276103
0.345588 0.127083 0.276348
0.363541 0.128247 0.280024
0.376716 0.133088 0.282108
0.388910 0.134926 0.286948
0.403922 0.138848 0.291789
0.000000 0.110906 0.174755
0.000000 0.110906 0.178676
0.000000 0.110906 0.182598
0.000000 0.110906 0.182598
0.000000 0.114828 0.187684
0.000674 0.114828 0.187929
0.003922 0.114828 0.191850
0.003922 0.118750 0.194363
0.003922 0.118750 0.199204
0.003922 0.122671 0.203615
0.003922 0.122671 0.207537
0.006434 0.126593 0.207292
0.006434 0.129779 0.214645
0.007843 0.130514 0.216973
0.007843 0.131617 0.221813
0.010356 0.134436 0.227145
0.011765 0.136948 0.228554
0.011765 0.138357 0.231066
0.015686 0.142279 0.236397
0.018199 0.144057 0.238174
0.019608 0.146201 0.242831
0.023223 0.148713 0.246752
0.024142 0.150735 0.252083
0.028983 0.154044 0.254596
0.033885 0.154044 0.256005
0.038664 0.157965 0.259926
0.039584 0.158333 0.263848
0.046936 0.161887 0.263848
0.053493 0.161887 0.265258
0.057415 0.161887 0.267769
0.065258 0.163297 0.269179
0.067709 0.163297 0.269179
0.075061 0.161887 0.269179
0.079902 0.161887 0.271691
0.086152 0.158088 0.271691
0.087071 0.155454 0.271691
0.096630 0.151532 0.273101
0.100674 0.151532 0.271691
0.104473 0.147611 0.271691
0.112316 0.139767 0.271691
0.116238 0.135846 0.271691
0.120160 0.131924 0.271569
0.124877 0.127206 0.273101
0.133639 0.124081 0.269486
0.142402 0.120160 0.275612
0.149387 0.116238 0.275612
0.159926 0.111764 0.277022
0.171201 0.110906 0.277022
0.183884 0.108395 0.273101
0.196569 0.110906 0.273101
0.209253 0.110906 0.273101
0.221936 0.110906 0.273101
0.238541 0.114828 0.273101
0.250368 0.116238 0.277022
0.263910 0.118750 0.277022
0.280086 0.122671 0.277022
0.291176 0.124572 0.277513
0.309804 0.128003 0.280944
0.322304 0.130331 0.280944
0.335172 0.135172 0.284866
0.349510 0.135846 0.285110
0.363112 0.139767 0.288787
0.381067 0.141851 0.290871
0.394240 0.143689 0.292709
0.407843 0.147611 0.300552
0.000000 0.128432 0.205882
0.000000 0.128432 0.209804
0.000000 0.128432 0.210294
0.000000 0.131862 0.210294
0.000000 0.132353 0.214216
0.003922 0.132353 0.214890
0.003922 0.133946 0.218137
0.003922 0.136275 0.220649
0.003922 0.139706 0.222058
0.003922 0.140196 0.222978
0.007353 0.141544 0.229902
0.007843 0.144118 0.233823
0.007843 0.147304 0.237745
0.011275 0.151470 0.238419
0.008946 0.151961 0.243260
0.011765 0.151961 0.249509
0.011765 0.155883 0.253431
0.015196 0.159742 0.253431
0.016544 0.159804 0.254780
0.019608 0.161581 0.259620
0.022304 0.163726 0.264461
0.027145 0.167830 0.269118
0.028064 0.168259 0.269608
0.036336 0.171569 0.267708
0.041176 0.171569 0.273530
0.046017 0.175490 0.273468
0.050490 0.175490 0.274387
0.055699 0.179412 0.277941
0.060539 0.179412 0.281373
0.065380 0.179412 0.281066
0.066790 0.179412 0.285295
0.071630 0.175981 0.281863
0.081863 0.175981 0.285295
0.085785 0.175490 0.285295
0.090073 0.172059 0.285785
0.090993 0.168137 0.285785
0.095833 0.164216 0.285785
0.104105 0.160294 0.286581
0.109436 0.156740 0.285295
0.110355 0.155331 0.282414
0.115196 0.150491 0.285785
0.121569 0.145649 0.285785
0.128922 0.140686 0.285785
0.133639 0.139889 0.282169
0.142402 0.135049 0.289216
0.151164 0.130208 0.289216
0.163358 0.125000 0.289216
0.172672 0.124510 0.285785
0.186275 0.124510 0.285785
0.199877 0.124510 0.285295
0.213480 0.124510 0.285295
0.226777 0.124510 0.285295
0.240687 0.128432 0.282598
0.254289 0.128922 0.285785
0.267892 0.131495 0.285785
0.285417 0.136336 0.289277
0.295098 0.136765 0.289706
0.312132 0.138173 0.289706
0.327329 0.144118 0.292035
0.339828 0.144608 0.293628
0.356617 0.144853 0.293872
0.367034 0.148530 0.297549
0.380638 0.150612 0.299633
0.394240 0.152451 0.304473
0.407843 0.156373 0.309314
0.000000 0.145956 0.232660
0.000000 0.145956 0.233579
0.000000 0.145956 0.236581
0.002758 0.148713 0.236581
0.000429 0.149878 0.240257
0.003922 0.149878 0.240503
0.003922 0.153799 0.242096
0.003922 0.153799 0.244424
0.007353 0.157231 0.244424
0.007843 0.157721 0.248346
0.007843 0.159069 0.253186
0.007843 0.161642 0.252267
0.008272 0.164828 0.256189
0.011765 0.165564 0.263603
0.012868 0.169485 0.267525
0.012194 0.169485 0.267954
0.015686 0.172426 0.274387
0.016115 0.173407 0.275368
0.020037 0.177329 0.279289
0.025306 0.177329 0.279289
0.027451 0.181250 0.283211
0.031373 0.181250 0.283211
0.035907 0.185172 0.287133
0.040748 0.185172 0.287133
0.049081 0.191115 0.287133
0.053921 0.189093 0.287133
0.054841 0.189032 0.291054
0.058824 0.192586 0.294547
0.062745 0.192586 0.294976
0.066667 0.192586 0.294976
0.070711 0.189093 0.298897
0.079044 0.188051 0.297855
0.082353 0.188664 0.298468
0.086275 0.188664 0.298897
0.093995 0.184743 0.298897
0.094547 0.180821 0.298897
0.099755 0.176900 0.302390
0.104595 0.172978 0.302390
0.109804 0.169056 0.298897
0.114277 0.164583 0.298897
0.119118 0.159742 0.298897
0.123958 0.154902 0.298897
0.128799 0.150061 0.302390
0.134068 0.145527 0.298897
0.143627 0.145527 0.297672
0.151594 0.141605 0.298468
0.164276 0.135049 0.298468
0.180882 0.138052 0.294976
0.194118 0.134191 0.294547
0.207721 0.134191 0.294547
0.221323 0.134191 0.294547
0.234926 0.137684 0.294547
0.248530 0.138113 0.294547
0.262133 0.141605 0.294547
0.275735 0.142034 0.294547
0.289338 0.145527 0.298468
0.302941 0.149449 0.298468
0.315135 0.149449 0.299877
0.330147 0.149878 0.302390
0.343750 0.153370 0.302390
0.357108 0.153615 0.306311
0.369791 0.157292 0.306311
0.384559 0.157292 0.308395
0.398162 0.161213 0.313235
0.411765 0.164706 0.314155
0.000000 0.163480 0.258946
0.000000 0.163480 0.258517
0.001348 0.163480 0.262868
0.003922 0.164828 0.262868
0.003922 0.167402 0.262868
0.003922 0.168750 0.266789
0.003922 0.171323 0.266789
0.006434 0.171323 0.271875
0.007843 0.172671 0.270711
0.007843 0.175245 0.273284
0.007843 0.176593 0.274632
0.009191 0.179167 0.279473
0.011765 0.182353 0.278554
0.011949 0.183088 0.285049
0.015686 0.184191 0.286397
0.017708 0.187010 0.288971
0.019608 0.189951 0.288971
0.020956 0.190931 0.292892
0.024387 0.194853 0.292402
0.027451 0.194853 0.296814
0.027451 0.200123 0.299510
0.031373 0.198774 0.300735
0.035294 0.198039 0.303309
0.037868 0.202696 0.303309
0.041789 0.202696 0.303309
0.045711 0.202696 0.304657
0.049632 0.205270 0.308578
0.053554 0.205270 0.308578
0.057476 0.205270 0.308578
0.061397 0.202696 0.314277
0.069240 0.201348 0.311274
0.074204 0.201348 0.312500
0.080392 0.201348 0.312500
0.087807 0.197426 0.312500
0.093995 0.193627 0.312500
0.098039 0.189583 0.315074
0.101961 0.187867 0.316422
0.105882 0.183027 0.313787
0.113357 0.178186 0.312500
0.117647 0.174694 0.312500
0.118995 0.169975 0.315074
0.125490 0.166054 0.315074
0.132720 0.162132 0.315074
0.138910 0.158211 0.311152
0.147671 0.154289 0.311152
0.156433 0.154289 0.311152
0.169118 0.148652 0.307230
0.185723 0.151655 0.307230
0.198407 0.147794 0.306250
0.211642 0.147794 0.303309
0.225245 0.147794 0.303309
0.238848 0.147794 0.303309
0.253064 0.150368 0.303309
0.266054 0.151716 0.303309
0.279657 0.154289 0.304657
0.293260 0.155637 0.307230
0.302941 0.158211 0.307230
0.316483 0.159620 0.308578
0.329166 0.162132 0.311152
0.344424 0.162132 0.311152
0.357353 0.166054 0.315074
0.370956 0.166054 0.316422
0.384559 0.166054 0.318995
0.396508 0.169975 0.318995
0.415686 0.169975 0.322917
0.003922 0.181005 0.282966
0.003922 0.183272 0.285233
0.003922 0.184926 0.285233
0.003922 0.184926 0.285233
0.003922 0.184926 0.290564
0.006189 0.188848 0.287561
0.005515 0.188848 0.290809
0.007843 0.191115 0.293076
0.007843 0.192769 0.293076
0.007843 0.195037 0.294730
0.007843 0.196691 0.296998
0.007843 0.198959 0.296998
0.012684 0.200613 0.298652
0.011765 0.202880 0.302573
0.013419 0.204534 0.302573
0.015686 0.204534 0.306495
0.017341 0.208456 0.306495
0.019608 0.208456 0.306495
0.023529 0.212377 0.310417
0.023039 0.212377 0.309927
0.027880 0.212377 0.314338
0.027451 0.216299 0.314338
0.031373 0.216299 0.318260
0.035294 0.216299 0.318260
0.036949 0.216299 0.318260
0.039216 0.217953 0.318260
0.041237 0.217953 0.322181
0.046079 0.217953 0.321201
0.048713 0.217953 0.326103
0.052635 0.217953 0.326103
0.056680 0.214032 0.327757
0.065442 0.214032 0.327757
0.072243 0.212377 0.327757
0.079044 0.210110 0.327757
0.087807 0.204657 0.327757
0.094914 0.202267 0.330024
0.099755 0.198345 0.330024
0.108517 0.194056 0.330024
0.112071 0.189216 0.326471
0.119914 0.186030 0.327757
0.123039 0.183456 0.327757
0.130147 0.178738 0.327757
0.138909 0.174816 0.322794
0.145404 0.170894 0.325797
0.154167 0.169240 0.319914
0.165196 0.167095 0.319914
0.173958 0.165318 0.316850
0.190563 0.165257 0.315993
0.203247 0.161397 0.315993
0.215564 0.161397 0.312071
0.228615 0.161397 0.312071
0.241299 0.161397 0.312071
0.257904 0.163051 0.312071
0.270589 0.165318 0.313725
0.283579 0.165318 0.315993
0.297181 0.166973 0.315993
0.306863 0.169240 0.315993
0.320466 0.170894 0.319914
0.334069 0.170894 0.319914
0.347672 0.170894 0.319914
0.361029 0.174816 0.323836
0.373713 0.174816 0.325000
0.388664 0.174816 0.327757
0.401348 0.178738 0.327757
0.419608 0.178738 0.327757
0.003922 0.202451 0.303676
0.003922 0.205637 0.304411
0.003922 0.204289 0.304411
0.003922 0.206372 0.304411
0.003922 0.206372 0.304411
0.007843 0.209559 0.308333
0.007843 0.210294 0.308333
0.007843 0.213480 0.308333
0.011275 0.213480 0.308333
0.011765 0.214215 0.312255
0.009191 0.217402 0.312255
0.011765 0.218137 0.312255
0.014951 0.221323 0.312991
0.015686 0.222058 0.316176
0.018873 0.222058 0.316912
0.017708 0.224081 0.320098
0.022794 0.225980 0.319853
0.022794 0.225980 0.324693
0.026716 0.229902 0.324019
0.025306 0.229902 0.324755
0.030638 0.229902 0.327941
0.034988 0.229902 0.328677
0.031986 0.233823 0.331862
0.038481 0.233823 0.331862
0.042402 0.233823 0.332598
0.046507 0.233823 0.332598
0.043505 0.233823 0.335784
0.050245 0.233823 0.336520
0.054167 0.230638 0.336520
0.054105 0.230638 0.339705
0.058824 0.229902 0.340441
0.062745 0.226716 0.340441
0.065442 0.225980 0.340441
0.070282 0.222794 0.340441
0.079044 0.218260 0.340441
0.087806 0.214951 0.343627
0.096568 0.211030 0.343627
0.104595 0.207108 0.343627
0.113357 0.202819 0.340441
0.124755 0.201899 0.340441
0.130147 0.197059 0.336520
0.138909 0.192218 0.336520
0.147672 0.190686 0.333210
0.159313 0.186764 0.332598
0.161275 0.185539 0.328677
0.172182 0.182843 0.328677
0.182721 0.179779 0.328677
0.192280 0.175736 0.324755
0.205883 0.175000 0.324755
0.222672 0.175000 0.320834
0.236275 0.175000 0.320834
0.246140 0.175000 0.324571
0.262746 0.175736 0.324755
0.275428 0.178921 0.322487
0.288113 0.178921 0.324755
0.301103 0.179657 0.324755
0.310784 0.179657 0.324755
0.326165 0.182843 0.328677
0.338847 0.182843 0.328677
0.351593 0.183579 0.328677
0.361274 0.183579 0.332598
0.374877 0.183579 0.332598
0.393504 0.185661 0.331495
0.409191 0.187500 0.333333
0.423529 0.191422 0.333333
0.007843 0.223897 0.318015
0.008762 0.224816 0.318015
0.008027 0.224080 0.318015
0.008027 0.227819 0.318015
0.008027 0.227819 0.318015
0.011765 0.227819 0.321753
0.013358 0.231741 0.321937
0.011949 0.231741 0.321937
0.011949 0.231741 0.321937
0.016115 0.232170 0.325674
0.015870 0.235662 0.327022
0.019608 0.235662 0.325858
0.019792 0.235662 0.325858
0.023529 0.239584 0.329596
0.023713 0.239584 0.329780
0.023713 0.239584 0.333517
0.030392 0.246262 0.336458
0.027635 0.243505 0.333701
0.031557 0.243505 0.337439
0.035294 0.243505 0.337623
0.035478 0.247243 0.341360
0.035478 0.247243 0.344975
0.039400 0.247243 0.341544
0.043321 0.247243 0.345282
0.049510 0.247243 0.345282
0.047243 0.247243 0.348651
0.051164 0.247243 0.345466
0.056189 0.247243 0.349204
0.055086 0.247243 0.351410
0.061949 0.243505 0.349388
0.062929 0.243321 0.353125
0.066667 0.238542 0.353125
0.066851 0.239400 0.353125
0.073468 0.232782 0.353125
0.074510 0.231678 0.353125
0.082353 0.227022 0.353125
0.091728 0.222181 0.353125
0.103125 0.217341 0.353125
0.109436 0.219792 0.349571
