Color/Fuji/Fuji Superia 200 XPRO 65x.cube
TITLE "Fuji Superia 200 XPRO"
LUT_3D_SIZE 9
DOMAIN_MIN 0.000000 0.000000 0.000000
DOMAIN_MAX 1.000000 1.000000 1.000000
0.000000 0.000000 0.000000
0.000000 0.000000 0.003922
0.003922 0.000000 0.023529
0.000000 0.000000 0.088726
0.011765 0.003922 0.131373
0.069608 0.007843 0.160784
0.142157 0.000000 0.169608
0.231863 0.007843 0.203922
0.372549 0.054902 0.227451
0.000000 0.128432 0.205882
0.003922 0.139706 0.222058
0.011765 0.155883 0.253431
0.041176 0.171569 0.273530
0.081863 0.175981 0.285295
0.115196 0.150491 0.285785
0.186275 0.124510 0.285785
0.295098 0.136765 0.289706
0.407843 0.156373 0.309314
0.016667 0.280392 0.359804
0.016666 0.284314 0.367156
0.025490 0.288235 0.374510
0.045098 0.288235 0.383333
0.080392 0.278431 0.390196
0.130882 0.252941 0.375491
0.229412 0.232353 0.359804
0.326470 0.222549 0.359804
0.443137 0.226470 0.356863
0.000000 0.420588 0.469118
0.000000 0.420588 0.471569
0.000000 0.423039 0.473039
0.000000 0.423039 0.473039
0.031863 0.416667 0.469118
0.166176 0.389216 0.454411
0.276471 0.350000 0.433824
0.379412 0.326471 0.421569
0.488726 0.310785 0.407843
0.000000 0.617647 0.566666
0.000000 0.617647 0.566666
0.000000 0.617647 0.566666
0.006373 0.613726 0.566667
0.058824 0.600000 0.560785
0.216667 0.557353 0.543137
0.345098 0.500980 0.510784
0.446078 0.454902 0.483824
0.554902 0.423530 0.464706
0.000000 0.847549 0.677451
0.000000 0.843627 0.677451
0.000000 0.837255 0.675980
0.000000 0.827941 0.671079
0.104902 0.804412 0.660294
0.286765 0.755882 0.632843
0.422059 0.681863 0.594118
0.528921 0.614216 0.558333
0.632843 0.559804 0.534804
0.100981 1.000000 0.770588
0.109804 1.000000 0.774510
0.160785 1.000000 0.782353
0.224020 1.000000 0.782353
0.279411 1.000000 0.769607
0.359804 0.990196 0.743137
0.500980 0.903922 0.695098
0.617647 0.806373 0.648529
0.727451 0.720588 0.609804
0.641667 1.000000 0.879412
0.645588 1.000000 0.883333
0.653431 1.000000 0.893627
0.669118 1.000000 0.902941
0.692647 1.000000 0.922549
0.712255 1.000000 0.902941
0.732353 1.000000 0.854902
0.751471 1.000000 0.769117
0.844117 0.923040 0.695098
1.000000 1.000000 1.000000
1.000000 1.000000 1.000000
1.000000 1.000000 1.000000
1.000000 1.000000 1.000000
1.000000 1.000000 1.000000
1.000000 1.000000 1.000000
1.000000 1.000000 1.000000
1.000000 1.000000 1.000000
1.000000 1.000000 0.847059
0.000000 0.000000 0.254412
0.000000 0.000000 0.273530
0.000000 0.000000 0.289216
0.000000 0.003922 0.303921
0.000000 0.007353 0.308824
0.005392 0.003922 0.297549
0.080392 0.000981 0.289706
0.197058 0.020098 0.305392
0.341176 0.066667 0.317157
0.000000 0.144118 0.371078
0.000000 0.159313 0.382843
0.000000 0.170588 0.391177
0.003432 0.175490 0.391667
0.023039 0.164216 0.385294
0.075980 0.140196 0.371569
0.157353 0.128432 0.360294
0.267157 0.144118 0.363726
0.392157 0.164216 0.360294
0.000000 0.284314 0.449510
0.003922 0.288235 0.449510
0.008333 0.288235 0.449510
0.020098 0.285295 0.449510
0.065687 0.273529 0.442157
0.111274 0.250000 0.426961
0.201470 0.229412 0.414706
0.313236 0.226470 0.402942
0.430393 0.230392 0.395588
0.000000 0.424510 0.515686
0.000000 0.424510 0.516177
0.000000 0.426961 0.518628
0.000000 0.424510 0.516177
0.001961 0.414706 0.511765
0.134804 0.383823 0.494608
0.263235 0.346569 0.467647
0.367647 0.326471 0.449510
0.476961 0.312255 0.438726
0.000000 0.621568 0.605392
0.000000 0.621568 0.605392
0.000000 0.617647 0.605392
0.000000 0.613726 0.605392
0.043137 0.594117 0.594118
0.203431 0.549510 0.566666
0.333823 0.494117 0.533823
0.434314 0.454412 0.507843
0.543137 0.421569 0.492157
0.000000 0.843627 0.706863
0.000000 0.839706 0.706863
0.000000 0.835784 0.702941
0.000000 0.824020 0.695588
0.071079 0.798529 0.682843
0.275000 0.744117 0.652451
0.410294 0.670588 0.613726
0.515687 0.610294 0.581863
0.621078 0.555882 0.557843
0.074019 1.000000 0.804412
0.086275 1.000000 0.805883
0.108333 1.000000 0.813726
0.164706 1.000000 0.804412
0.238726 1.000000 0.790196
0.338725 0.981863 0.761764
0.489216 0.892157 0.714706
0.605883 0.798529 0.668138
0.719608 0.717157 0.628431
0.622059 1.000000 0.909804
0.625980 1.000000 0.910784
0.634804 1.000000 0.918627
0.653431 1.000000 0.933333
0.673529 1.000000 0.945588
0.692647 1.000000 0.919118
0.711765 1.000000 0.867157
0.736274 1.000000 0.784314
0.836765 0.919118 0.706863
1.000000 1.000000 1.000000
1.000000 1.000000 1.000000
1.000000 1.000000 1.000000
1.000000 1.000000 1.000000
1.000000 1.000000 1.000000
1.000000 1.000000 1.000000
1.000000 1.000000 1.000000
1.000000 1.000000 1.000000
1.000000 1.000000 0.858334
0.000000 0.000000 0.367647
0.000000 0.000000 0.375491
0.000000 0.007843 0.382353
0.000000 0.011765 0.379412
0.000000 0.011765 0.375491
0.000000 0.003922 0.363725
0.060785 0.007843 0.356863
0.192647 0.035294 0.356863
0.329412 0.082353 0.364706
0.000000 0.171569 0.457353
0.000000 0.179412 0.457353
0.000000 0.183334 0.461275
0.000000 0.175981 0.457353
0.007843 0.157843 0.447549
0.059804 0.140196 0.430883
0.142647 0.140196 0.415196
0.255882 0.152451 0.410294
0.376961 0.168137 0.410294
0.000000 0.292157 0.515686
0.000000 0.293137 0.515686
0.000981 0.292157 0.515686
0.008823 0.285295 0.515686
0.050000 0.269608 0.500981
0.099510 0.250000 0.478921
0.190196 0.234314 0.460784
0.298529 0.230393 0.450000
0.411765 0.234314 0.445098
0.000000 0.432353 0.585784
0.000000 0.432353 0.585784
0.000000 0.432353 0.581863
0.000000 0.428431 0.575000
0.000000 0.410784 0.559314
0.123039 0.378431 0.535784
0.246568 0.345098 0.512255
0.348039 0.325981 0.496569
0.457353 0.312255 0.485295
0.000000 0.625490 0.662745
0.000000 0.625490 0.659804
0.000000 0.621568 0.658824
0.000000 0.611274 0.651961
0.039216 0.584313 0.633333
0.184314 0.535784 0.605882
0.312745 0.485294 0.576471
0.413235 0.447058 0.553922
0.523529 0.421569 0.538235
0.000000 0.839706 0.751961
0.000000 0.835784 0.749510
0.000000 0.827941 0.745588
0.000000 0.813726 0.738725
0.038235 0.781863 0.721569
0.251471 0.721569 0.690686
0.387745 0.654412 0.652941
0.492157 0.600980 0.624020
0.609314 0.555882 0.592647
0.014706 1.000000 0.860785
0.016667 1.000000 0.859804
0.031372 1.000000 0.855882
0.069118 1.000000 0.845098
0.112745 1.000000 0.828431
0.312255 0.955392 0.795588
0.465686 0.866667 0.749020
0.586765 0.786765 0.702941
0.710784 0.712745 0.655883
0.580392 1.000000 0.972059
0.584314 1.000000 0.975490
0.595588 1.000000 0.980392
0.613726 1.000000 0.993627
0.629902 1.000000 0.982843
0.653431 1.000000 0.950000
0.678431 1.000000 0.886275
0.713236 1.000000 0.804412
0.824509 0.904412 0.733823
0.988235 1.000000 1.000000
0.992157 1.000000 1.000000
0.996078 1.000000 1.000000
1.000000 1.000000 1.000000
1.000000 1.000000 1.000000
1.000000 1.000000 1.000000
1.000000 1.000000 1.000000
1.000000 1.000000 1.000000
1.000000 1.000000 0.877451
0.000000 0.003922 0.449510
0.000000 0.015686 0.457353
0.000000 0.019608 0.457353
0.000000 0.019608 0.447059
0.000000 0.011765 0.433824
0.000000 0.007843 0.418137
0.064706 0.024510 0.414216
0.185294 0.051470 0.414216
0.317647 0.094118 0.422059
0.000000 0.191177 0.531863
0.000000 0.191177 0.531372
0.000000 0.187255 0.525000
0.000000 0.175981 0.515686
0.007843 0.160294 0.500490
0.063726 0.150980 0.484314
0.137745 0.155883 0.473039
0.241177 0.160784 0.465196
0.360294 0.179902 0.465196
0.000000 0.303431 0.581863
0.000000 0.300980 0.578431
0.000000 0.300000 0.575000
0.008823 0.288235 0.566176
0.051961 0.273529 0.551471
0.097059 0.252941 0.531863
0.174510 0.242157 0.516667
0.278921 0.234314 0.504902
0.395098 0.242157 0.497059
0.000000 0.446569 0.644118
0.000000 0.446569 0.640686
0.000000 0.442647 0.637255
0.000000 0.428431 0.628432
0.000000 0.402941 0.610294
0.099510 0.369608 0.586765
0.221569 0.345098 0.568627
0.324510 0.324020 0.551471
0.445588 0.320098 0.535784
0.000000 0.627451 0.720098
0.000000 0.625490 0.718138
0.000000 0.617647 0.714216
0.000000 0.599510 0.702451
0.015686 0.562255 0.682843
0.153922 0.516177 0.655392
0.285294 0.474510 0.630883
0.395098 0.446568 0.603922
0.515686 0.427941 0.580883
0.000000 0.827941 0.809314
0.000000 0.824020 0.807843
0.000000 0.813235 0.803922
0.000000 0.790196 0.791176
0.033824 0.747549 0.768137
0.230392 0.693137 0.734804
0.368628 0.638725 0.698039
0.480882 0.595098 0.666177
0.600490 0.555882 0.635294
0.000000 1.000000 0.915686
0.000000 1.000000 0.914216
0.000981 1.000000 0.907353
0.008824 1.000000 0.892157
0.070098 0.981372 0.867647
0.316177 0.915196 0.827941
0.465686 0.839706 0.781373
0.578432 0.772549 0.740196
0.696079 0.707843 0.695098
0.549510 1.000000 1.000000
0.555392 1.000000 1.000000
0.565196 1.000000 1.000000
0.579412 1.000000 1.000000
0.598529 1.000000 1.000000
0.620098 1.000000 0.972549
0.645588 1.000000 0.902451
0.684804 1.000000 0.835784
0.808333 0.887745 0.769607
0.964706 1.000000 1.000000
0.966176 1.000000 1.000000
0.970098 1.000000 1.000000
0.980392 1.000000 1.000000
0.992157 1.000000 1.000000
1.000000 1.000000 1.000000
1.000000 1.000000 1.000000
1.000000 1.000000 1.000000
1.000000 1.000000 0.901961
0.000000 0.037255 0.523529
0.000000 0.039216 0.519608
0.000000 0.035294 0.511765
0.000000 0.023529 0.503922
0.000000 0.019608 0.492157
0.001471 0.025000 0.484314
0.063725 0.048039 0.480392
0.177451 0.075000 0.479902
0.309804 0.113725 0.474510
0.000000 0.203432 0.593627
0.000000 0.199510 0.589706
0.000000 0.191177 0.582843
0.000000 0.181863 0.574020
0.009804 0.171569 0.560294
0.063726 0.166176 0.547059
0.133823 0.168137 0.538725
0.231373 0.174020 0.525000
0.356863 0.195588 0.515686
0.000000 0.315686 0.644118
0.000000 0.311765 0.642157
0.000000 0.303921 0.636275
0.008823 0.292157 0.625980
0.051961 0.273529 0.610785
0.093137 0.257844 0.594118
0.162745 0.250000 0.578431
0.270588 0.246078 0.559804
0.395098 0.257844 0.547059
0.000000 0.451961 0.706373
0.000000 0.446078 0.704412
0.000000 0.434314 0.698530
0.000000 0.416667 0.684314
0.000000 0.391176 0.665196
0.088235 0.365686 0.642157
0.215196 0.347549 0.622059
0.324510 0.331863 0.601961
0.443137 0.335784 0.586275
0.000000 0.613726 0.778431
0.000000 0.607843 0.774510
0.000000 0.596078 0.765686
0.000000 0.572059 0.750490
0.003921 0.537254 0.727451
0.163726 0.500490 0.700000
0.286275 0.474510 0.677451
0.394608 0.450490 0.652941
0.511765 0.439215 0.631373
0.000000 0.802451 0.856373
0.000000 0.797059 0.852451
0.000000 0.782843 0.842647
0.000000 0.753432 0.825000
0.050490 0.712255 0.799019
0.255392 0.665686 0.770098
0.371078 0.629412 0.742647
0.476961 0.590686 0.711275
0.589706 0.560294 0.683824
0.000000 1.000000 0.951961
0.000000 1.000000 0.948039
0.000000 1.000000 0.939216
0.000981 0.980882 0.919608
0.169608 0.933333 0.891177
0.347059 0.872059 0.853431
0.465686 0.816666 0.818627
0.570588 0.757353 0.779412
0.683334 0.700000 0.740196
0.522549 1.000000 1.000000
0.526471 1.000000 1.000000
0.534314 1.000000 1.000000
0.546078 1.000000 1.000000
0.563235 1.000000 1.000000
0.582353 1.000000 0.984314
0.608823 1.000000 0.925490
0.672059 0.973529 0.869118
0.789215 0.872059 0.810294
0.937255 1.000000 1.000000
0.939215 1.000000 1.000000
0.945098 1.000000 1.000000
0.952941 1.000000 1.000000
0.966666 1.000000 1.000000
0.984314 1.000000 1.000000
0.990196 1.000000 1.000000
0.988235 1.000000 1.000000
1.000000 1.000000 0.929412
0.000000 0.058824 0.593627
0.000000 0.047059 0.582353
0.000000 0.044608 0.577941
0.000000 0.043137 0.570098
0.000000 0.045098 0.562255
0.005392 0.064216 0.554412
0.076471 0.079902 0.542647
0.188725 0.101961 0.534804
0.317647 0.142647 0.530882
0.000000 0.212745 0.659804
0.000000 0.208824 0.654412
0.000000 0.202941 0.644608
0.000000 0.195588 0.632843
0.025000 0.189216 0.622549
0.083334 0.189216 0.608824
0.149510 0.191667 0.593627
0.239216 0.195588 0.580882
0.362255 0.223039 0.573530
0.000000 0.320588 0.702451
0.000000 0.316667 0.697059
0.003922 0.308824 0.689216
0.015196 0.293137 0.675980
0.064706 0.281373 0.661765
0.108823 0.273529 0.648529
0.172549 0.265686 0.630883
0.277941 0.262255 0.615686
0.399020 0.282843 0.605392
0.000000 0.440196 0.750490
0.000000 0.432843 0.745588
0.000000 0.423039 0.738725
0.000000 0.406373 0.724020
0.000981 0.385294 0.707353
0.117647 0.369608 0.692647
0.225980 0.355392 0.673529
0.328922 0.346079 0.654902
0.445588 0.357843 0.643137
0.000000 0.584313 0.809804
0.000000 0.578922 0.805883
0.000000 0.563725 0.798039
0.000000 0.543627 0.782353
0.030882 0.517648 0.764215
0.189216 0.498039 0.747059
0.297059 0.474510 0.725000
0.398529 0.457843 0.703921
0.507843 0.454902 0.685784
0.000000 0.757353 0.881373
0.000000 0.751961 0.877451
0.000000 0.737255 0.868137
0.000000 0.711765 0.852451
0.155392 0.680882 0.832353
0.280392 0.650000 0.809314
0.380392 0.618627 0.786275
0.477941 0.587255 0.759314
0.585784 0.567647 0.734804
0.000000 0.977941 0.973530
0.000000 0.970098 0.967647
0.000000 0.951471 0.957843
0.093628 0.921569 0.939216
0.265196 0.879412 0.914215
0.376471 0.836765 0.887255
0.473529 0.792647 0.856373
0.570098 0.742647 0.821569
0.675490 0.700000 0.786765
0.491667 1.000000 1.000000
0.493137 1.000000 1.000000
0.499510 1.000000 1.000000
0.508823 1.000000 1.000000
0.524020 1.000000 1.000000
0.547549 1.000000 0.995098
0.579412 1.000000 0.950491
0.668137 0.940686 0.902451
0.780882 0.856373 0.849020
0.913725 1.000000 1.000000
0.916176 1.000000 1.000000
0.921569 1.000000 1.000000
0.929412 1.000000 1.000000
0.941176 1.000000 1.000000
0.947549 1.000000 1.000000
0.949020 1.000000 1.000000
0.952941 1.000000 1.000000
0.978922 1.000000 0.958333
0.000000 0.082353 0.651960
0.000000 0.079412 0.640196
0.000000 0.083333 0.636275
0.000000 0.087255 0.628432
0.000000 0.099020 0.624510
0.033824 0.106863 0.612745
0.106862 0.117647 0.604902
0.204902 0.138235 0.597058
0.330392 0.180392 0.593137
0.000000 0.234314 0.706372
0.000000 0.227941 0.699019
0.003432 0.223039 0.693628
0.015196 0.220098 0.685785
0.042647 0.219118 0.675490
0.099510 0.215196 0.663726
0.162745 0.215196 0.651961
0.252451 0.224019 0.640196
0.372549 0.255883 0.635784
0.007843 0.323529 0.742156
0.008823 0.319608 0.737745
0.014706 0.312746 0.732353
0.024019 0.304902 0.724510
0.068627 0.297059 0.715687
0.119118 0.289216 0.700981
0.193137 0.285295 0.687255
0.293628 0.289216 0.674510
0.406863 0.313726 0.665686
0.000000 0.423529 0.785294
0.000000 0.419608 0.782843
0.000000 0.412745 0.777451
0.000000 0.402451 0.769607
0.038235 0.390686 0.758333
0.155392 0.378922 0.742156
0.247549 0.369608 0.727941
0.344118 0.368137 0.712255
0.455882 0.385294 0.700490
0.000000 0.552941 0.840196
0.000000 0.549019 0.837255
0.000000 0.541176 0.832353
0.006372 0.529412 0.822549
0.114706 0.513726 0.809804
0.228921 0.498039 0.793137
0.321569 0.482353 0.774510
0.411274 0.473529 0.755882
0.519608 0.477451 0.740196
0.000000 0.709314 0.904412
0.000000 0.705392 0.900981
0.024020 0.697059 0.895588
0.125980 0.680392 0.883824
0.230392 0.661275 0.869118
0.321569 0.638235 0.851961
0.403922 0.614706 0.828922
0.492647 0.594118 0.805883
0.593627 0.581863 0.785294
0.074510 0.903922 0.981372
0.099019 0.897059 0.978432
0.172549 0.884314 0.969607
0.258823 0.864706 0.957843
0.338235 0.839216 0.941176
0.419118 0.805883 0.918627
0.497059 0.769607 0.891177
0.578922 0.731373 0.863725
0.676471 0.700000 0.833334
0.465686 1.000000 1.000000
0.469608 1.000000 1.000000
0.476961 1.000000 1.000000
0.487255 1.000000 1.000000
0.504412 1.000000 1.000000
0.531863 1.000000 1.000000
0.590686 0.968627 0.973039
0.675981 0.906862 0.934314
0.776961 0.843627 0.890686
0.898039 1.000000 1.000000
0.898039 1.000000 1.000000
0.900980 1.000000 1.000000
0.904902 1.000000 1.000000
0.905882 1.000000 1.000000
0.908824 1.000000 1.000000
0.912745 1.000000 1.000000
0.921569 1.000000 1.000000
0.955882 1.000000 0.988235
0.000000 0.125980 0.702451
0.000000 0.129902 0.698529
0.000000 0.133823 0.694608
0.003922 0.137745 0.690686
0.025980 0.141666 0.682843
0.079902 0.146569 0.675000
0.142156 0.157353 0.667157
0.232353 0.180882 0.659314
0.353431 0.227451 0.655392
0.007353 0.254412 0.753431
0.015196 0.250980 0.749510
0.026961 0.250490 0.745588
0.047059 0.247059 0.741176
0.073039 0.246569 0.732843
0.119608 0.243137 0.724020
0.189216 0.244608 0.710294
0.282843 0.263235 0.701961
0.396568 0.298039 0.694608
0.020098 0.332353 0.788725
0.024019 0.328922 0.787255
0.030392 0.328431 0.780882
0.042157 0.321079 0.775490
0.080392 0.316667 0.765196
0.146078 0.313236 0.753431
0.229902 0.316667 0.741666
0.322549 0.328431 0.732843
0.431863 0.353431 0.725000
0.000000 0.424510 0.827941
0.000000 0.422059 0.825980
0.006372 0.418137 0.822059
0.056372 0.412745 0.814216
0.134314 0.404902 0.804412
0.212255 0.398529 0.793628
0.290197 0.397059 0.782353
0.375981 0.402941 0.769117
0.478921 0.422059 0.757353
0.018627 0.545098 0.876471
0.029412 0.541177 0.873039
0.082353 0.537254 0.869118
0.138726 0.529412 0.861275
0.216667 0.517648 0.851470
0.290197 0.507843 0.837255
0.364215 0.500490 0.824019
0.442157 0.498040 0.809804
0.539215 0.504412 0.796568
0.146078 0.685294 0.930882
0.162745 0.681372 0.930882
0.202941 0.676961 0.925980
0.256862 0.665196 0.915196
0.317647 0.650000 0.903431
0.379902 0.634314 0.888236
0.446078 0.618627 0.872059
0.519608 0.606863 0.856373
0.609314 0.599019 0.836765
0.289216 0.849020 0.996078
0.300980 0.845588 0.993137
0.328431 0.836765 0.989215
0.369608 0.821569 0.977451
0.418627 0.801471 0.964216
0.474019 0.777941 0.946079
0.535784 0.750981 0.926471
0.601961 0.727451 0.906863
0.691176 0.703922 0.879412
0.469608 1.000000 1.000000
0.473039 1.000000 1.000000
0.480882 1.000000 1.000000
0.492647 1.000000 1.000000
0.520098 0.992647 1.000000
0.571568 0.960784 1.000000
0.632844 0.922059 0.992647
0.699510 0.879412 0.965196
0.785294 0.832353 0.929902
0.866667 1.000000 1.000000
0.866667 1.000000 1.000000
0.866667 1.000000 1.000000
0.870098 1.000000 1.000000
0.874020 1.000000 1.000000
0.878431 1.000000 1.000000
0.886765 1.000000 1.000000
0.902451 1.000000 1.000000
0.941176 1.000000 1.000000
0.000000 0.180392 0.760784
0.007843 0.184314 0.756863
0.023529 0.184314 0.752941
0.053431 0.186765 0.749020
0.090196 0.188235 0.741176
0.137255 0.196078 0.733333
0.189216 0.212745 0.729412
0.278921 0.239706 0.725490
0.392157 0.282353 0.721569
0.043137 0.285785 0.803432
0.058824 0.281863 0.800000
0.074510 0.281863 0.796078
0.096569 0.281863 0.791667
0.125000 0.280392 0.784314
0.169608 0.289706 0.776471
0.247548 0.301471 0.768627
0.333334 0.321079 0.764216
0.434804 0.352451 0.756863
0.036275 0.355882 0.831373
0.040196 0.355882 0.831373
0.051960 0.351961 0.827451
0.079902 0.351961 0.822549
0.153922 0.351961 0.815686
0.224020 0.355882 0.807843
0.294117 0.363725 0.800000
0.373039 0.379412 0.792157
0.470588 0.403922 0.787255
0.108333 0.441667 0.869118
0.120098 0.440196 0.866667
0.139706 0.437745 0.862745
0.173530 0.437745 0.858824
0.227941 0.433824 0.850980
0.290197 0.436275 0.843137
0.352452 0.438725 0.835294
0.426470 0.449510 0.829412
0.520098 0.469118 0.815686
0.200000 0.549019 0.909804
0.213235 0.547059 0.909804
0.235295 0.545098 0.905882
0.270589 0.541176 0.900000
0.317647 0.537254 0.894118
0.368137 0.533334 0.884314
0.426470 0.533334 0.874510
0.492647 0.535294 0.862745
0.578431 0.543137 0.850980
0.323039 0.669608 0.956863
0.328431 0.668137 0.954412
0.349510 0.664216 0.950490
0.375490 0.657843 0.944117
0.414706 0.650000 0.937255
0.457843 0.642157 0.926961
0.508333 0.637255 0.918137
0.566667 0.628922 0.903431
0.646078 0.628922 0.887745
0.441177 0.801961 1.000000
0.445098 0.798039 1.000000
0.460785 0.794118 1.000000
0.484314 0.786275 0.996078
0.516667 0.774510 0.988235
0.550981 0.762745 0.976471
0.598039 0.750000 0.961765
0.652451 0.734314 0.945098
0.727451 0.722549 0.925490
0.561764 0.958333 1.000000
0.572549 0.957843 1.000000
0.581372 0.950491 1.000000
0.600980 0.938726 1.000000
0.628431 0.923040 1.000000
0.663725 0.906862 1.000000
0.707353 0.883333 1.000000
0.757843 0.859804 0.988235
0.832353 0.832353 0.960784
0.862745 1.000000 1.000000
0.866667 1.000000 1.000000
0.870588 1.000000 1.000000
0.874510 1.000000 1.000000
0.886275 1.000000 1.000000
0.895588 1.000000 1.000000
0.910784 1.000000 1.000000
0.937255 1.000000 1.000000
0.996078 0.996078 1.000000
