Color/Fuji/Fuji 160C 1 - 65x.cube
TITLE "Fuji 160C 1 -"
LUT_3D_SIZE 9
DOMAIN_MIN 0.000000 0.000000 0.000000
DOMAIN_MAX 1.000000 1.000000 1.000000
0.000000 0.000000 0.000000
0.108824 0.007843 0.003432
0.288235 0.000000 0.004902
0.471569 0.000000 0.003922
0.631373 0.000000 0.000000
0.762255 0.000000 0.000000
0.860785 0.000000 0.008823
0.953431 0.134313 0.039216
1.000000 0.262745 0.094118
0.000000 0.108824 0.003922
0.089706 0.112745 0.000490
0.291667 0.100981 0.000000
0.470098 0.054412 0.000000
0.623530 0.000000 0.000000
0.755882 0.013725 0.000000
0.855882 0.113236 0.000000
0.942647 0.204412 0.027451
1.000000 0.301471 0.086275
0.000000 0.275490 0.000000
0.000000 0.274510 0.000000
0.237255 0.272549 0.000000
0.453922 0.271569 0.000000
0.615687 0.240196 0.000000
0.741667 0.244118 0.000000
0.843138 0.271569 0.000000
0.933823 0.316176 0.000000
1.000000 0.377451 0.060784
0.000000 0.420588 0.000000
0.000000 0.423039 0.000000
0.162255 0.421078 0.000000
0.389216 0.420588 0.000000
0.580392 0.428431 0.000000
0.708824 0.405882 0.000000
0.815196 0.404902 0.000000
0.912254 0.430392 0.000000
1.000000 0.473039 0.002941
0.000000 0.539215 0.000000
0.000000 0.537745 0.005882
0.083334 0.531373 0.025490
0.332843 0.531373 0.010294
0.507843 0.531373 0.000000
0.668137 0.545098 0.000000
0.783333 0.542157 0.000000
0.890686 0.541176 0.000000
0.998039 0.566666 0.000000
0.000000 0.632843 0.079902
0.000000 0.634314 0.093628
0.083823 0.628922 0.099510
0.306863 0.624019 0.100981
0.470098 0.625000 0.091177
0.614706 0.626470 0.077451
0.750981 0.649510 0.038235
0.863235 0.661765 0.000000
0.980392 0.673529 0.000000
0.000000 0.735294 0.150981
0.000000 0.735294 0.154902
0.157843 0.727451 0.158824
0.317157 0.722059 0.169608
0.465686 0.723530 0.164706
0.597549 0.727451 0.158824
0.711765 0.731373 0.150981
0.844117 0.759314 0.135784
0.961765 0.778432 0.124510
0.005883 0.847549 0.227941
0.129412 0.850981 0.228431
0.245588 0.844117 0.232353
0.361275 0.839706 0.243137
0.476471 0.836274 0.242157
0.597549 0.843627 0.243627
0.711275 0.848039 0.243627
0.820098 0.855882 0.240196
0.948530 0.878921 0.244117
0.223529 0.980392 0.360784
0.258334 0.980392 0.360784
0.321569 0.977451 0.368627
0.410294 0.976471 0.380392
0.500000 0.976471 0.396078
0.606863 0.977941 0.397549
0.714706 0.983334 0.403922
0.824510 0.984804 0.415686
0.937255 0.992157 0.431373
0.027451 0.011765 0.097059
0.124019 0.011765 0.100981
0.302451 0.000000 0.092647
0.476470 0.000000 0.105392
0.627451 0.000000 0.128432
0.754412 0.000000 0.136275
0.851961 0.089706 0.147549
0.942156 0.188235 0.160294
1.000000 0.278431 0.187255
0.000000 0.117157 0.108824
0.131862 0.124510 0.112255
0.306863 0.124019 0.112745
0.474019 0.112255 0.116667
0.625490 0.103921 0.122059
0.750490 0.127451 0.132353
0.848529 0.175490 0.140686
0.938725 0.239706 0.156863
1.000000 0.317157 0.183334
0.000000 0.293627 0.123039
0.076961 0.287255 0.112255
0.272059 0.283824 0.108333
0.467647 0.279902 0.097059
0.619117 0.263726 0.100981
0.736764 0.268627 0.112745
0.836765 0.293137 0.126471
0.929902 0.335294 0.143627
1.000000 0.389216 0.170588
0.000000 0.429412 0.109804
0.000000 0.432353 0.120588
0.217157 0.425000 0.124019
0.409804 0.425490 0.113725
0.585294 0.431863 0.094608
0.708824 0.408824 0.076961
0.815196 0.413725 0.087745
0.912255 0.441667 0.109804
1.000000 0.479412 0.144118
0.000000 0.547059 0.136274
0.000000 0.545588 0.140686
0.165196 0.535294 0.147549
0.357353 0.534314 0.143137
0.519608 0.535294 0.132353
0.668137 0.545098 0.110784
0.781373 0.541176 0.082843
0.889216 0.542157 0.041667
0.998039 0.570588 0.094608
0.000000 0.636765 0.163726
0.000000 0.638235 0.171569
0.159804 0.631373 0.175981
0.329902 0.627451 0.179412
0.482843 0.625490 0.172059
0.619117 0.630392 0.165686
0.753922 0.652941 0.149020
0.864706 0.662745 0.121079
0.982353 0.672059 0.094118
0.000000 0.735294 0.205392
0.000000 0.738235 0.208823
0.195588 0.731373 0.213236
0.331372 0.723530 0.219117
0.474019 0.725490 0.216666
0.600000 0.727451 0.212745
0.715687 0.731373 0.204412
0.842647 0.761764 0.197549
0.964706 0.781863 0.186765
0.048530 0.848039 0.262745
0.145098 0.848039 0.263725
0.253431 0.844608 0.269608
0.365686 0.840196 0.274510
0.478431 0.839216 0.278431
0.598039 0.840196 0.275490
0.710785 0.848039 0.277451
0.819608 0.855882 0.274510
0.948530 0.878921 0.278431
0.223529 0.980392 0.380392
0.258334 0.980392 0.380392
0.324020 0.979902 0.387745
0.407843 0.977451 0.396078
0.501961 0.976471 0.411765
0.605392 0.976961 0.415686
0.714216 0.982843 0.422059
0.821078 0.984804 0.428431
0.937255 0.988725 0.447059
0.012745 0.023529 0.256863
0.140196 0.015686 0.256863
0.314706 0.000000 0.267647
0.487745 0.000000 0.241176
0.639215 0.000000 0.244118
0.758333 0.055883 0.265686
0.848039 0.202941 0.304902
0.941666 0.258334 0.311765
1.000000 0.320588 0.322549
0.019608 0.120589 0.260784
0.168137 0.136765 0.265196
0.323039 0.140686 0.272549
0.490687 0.116667 0.253431
0.635785 0.147059 0.267647
0.750490 0.201961 0.288726
0.844608 0.250980 0.302451
0.937255 0.293138 0.306863
1.000000 0.351471 0.319608
0.000000 0.291177 0.276470
0.150490 0.295588 0.279412
0.322549 0.302941 0.283334
0.483333 0.306863 0.287255
0.624510 0.310785 0.290196
0.736274 0.317157 0.287255
0.833334 0.336274 0.289216
0.926470 0.367156 0.296078
1.000000 0.408824 0.309804
0.023529 0.448039 0.280392
0.187255 0.449510 0.292157
0.296569 0.440686 0.283334
0.446569 0.440196 0.282844
0.597059 0.436275 0.268627
0.712745 0.424510 0.260784
0.813725 0.436275 0.265686
0.910294 0.459804 0.273039
1.000000 0.492157 0.293137
0.071569 0.560784 0.291176
0.138725 0.560294 0.283824
0.265686 0.547059 0.284314
0.398039 0.542647 0.284314
0.539216 0.542157 0.280392
0.675000 0.549019 0.265196
0.784314 0.545098 0.248039
0.890686 0.550980 0.241176
0.996078 0.572549 0.258823
0.000000 0.647549 0.284314
0.126471 0.648529 0.289216
0.250490 0.642157 0.290687
0.367157 0.631863 0.292157
0.502451 0.631863 0.290686
0.627451 0.634314 0.286765
0.757353 0.654902 0.276470
0.866177 0.661765 0.256863
0.984314 0.672059 0.241176
0.018627 0.743137 0.300980
0.133823 0.742156 0.301961
0.251961 0.737255 0.303921
0.363235 0.731373 0.308824
0.483333 0.726471 0.306863
0.606863 0.728921 0.305882
0.719608 0.735294 0.301961
0.844608 0.762745 0.294608
0.967647 0.778432 0.285294
0.106372 0.851961 0.333823
0.175000 0.851470 0.336275
0.269608 0.849020 0.337745
0.374510 0.844117 0.340686
0.480882 0.838726 0.344608
0.598529 0.843627 0.344117
0.710785 0.848039 0.344608
0.818137 0.855882 0.342156
0.952941 0.882843 0.348530
0.219608 0.980392 0.419608
0.255392 0.980392 0.423529
0.320588 0.977451 0.427451
0.408824 0.978922 0.435294
0.500000 0.976471 0.450000
0.602941 0.976471 0.453921
0.710784 0.980392 0.458824
0.821079 0.984804 0.469608
0.940196 0.992157 0.485295
0.049510 0.037745 0.404902
0.170098 0.037745 0.408824
0.331372 0.043137 0.414216
0.495098 0.028431 0.424510
0.631373 0.000000 0.400981
0.761274 0.000000 0.390686
0.855883 0.148530 0.398529
0.945588 0.235784 0.414216
1.000000 0.312745 0.439216
0.129902 0.150490 0.407353
0.213235 0.158333 0.412745
0.347059 0.167156 0.418137
0.495098 0.171569 0.425980
0.634804 0.154412 0.410784
0.754412 0.171569 0.398529
0.850490 0.231863 0.408824
0.941666 0.290686 0.422549
1.000000 0.375000 0.458824
0.104902 0.269118 0.405392
0.202451 0.280392 0.412745
0.354902 0.307843 0.425490
0.501961 0.322549 0.439216
0.632843 0.308824 0.420588
0.744117 0.328922 0.422059
0.838725 0.355882 0.428922
0.925980 0.406863 0.453922
1.000000 0.438725 0.461765
0.071569 0.441667 0.425980
0.199020 0.449510 0.433824
0.345588 0.455882 0.439706
0.491177 0.459804 0.444118
0.609804 0.457353 0.437745
0.715196 0.458334 0.433333
0.816667 0.467647 0.432353
0.910294 0.481372 0.432353
1.000000 0.506863 0.440196
0.168627 0.576961 0.432353
0.248529 0.578431 0.436765
0.365686 0.572549 0.440196
0.456373 0.558823 0.428431
0.567157 0.553432 0.424510
0.687745 0.556863 0.412745
0.793137 0.552941 0.400000
0.894608 0.564215 0.403922
0.998529 0.582843 0.413235
0.269118 0.662745 0.441667
0.316177 0.664216 0.448529
0.338235 0.661275 0.425000
0.428431 0.648529 0.420588
0.527941 0.640686 0.416667
0.641667 0.642157 0.414216
0.763725 0.658824 0.404902
0.870098 0.661765 0.386765
0.989706 0.668137 0.373529
0.195588 0.755882 0.423039
0.221568 0.754902 0.417647
0.305392 0.749020 0.415196
0.402451 0.743137 0.416667
0.498039 0.731373 0.415196
0.614216 0.734804 0.413235
0.723530 0.739216 0.411274
0.848039 0.764216 0.405883
0.972549 0.778432 0.395098
0.137255 0.859804 0.426470
0.198039 0.859804 0.428922
0.285295 0.855882 0.428431
0.386274 0.849510 0.427941
0.486274 0.844117 0.430392
0.597549 0.844117 0.430392
0.710785 0.850980 0.429902
0.820588 0.859804 0.430392
0.962255 0.888235 0.437745
0.205392 0.984314 0.484804
0.248039 0.984314 0.486275
0.316667 0.983824 0.488726
0.406373 0.980392 0.496569
0.498039 0.978432 0.502451
0.599020 0.979412 0.512255
0.710784 0.983334 0.519118
0.824510 0.988235 0.527941
0.941176 0.990686 0.539706
0.164706 0.076470 0.533334
0.236275 0.084314 0.533824
0.362745 0.100000 0.542157
0.506863 0.127451 0.549019
0.643138 0.141176 0.560785
0.738235 0.125491 0.537254
0.853921 0.135294 0.525490
0.945588 0.218137 0.529412
1.000000 0.298039 0.543137
0.213235 0.175981 0.531373
0.269608 0.181373 0.535294
0.378921 0.193627 0.541176
0.514706 0.214706 0.550980
0.639706 0.225000 0.561275
0.736764 0.213235 0.541176
0.850980 0.217157 0.529411
0.941666 0.274510 0.533334
1.000000 0.338725 0.547059
0.222549 0.290196 0.533333
0.295588 0.309804 0.541176
0.392157 0.317647 0.545098
0.517647 0.333824 0.553432
0.634314 0.346079 0.561765
0.730392 0.335294 0.544608
0.842157 0.342157 0.538235
0.934313 0.375981 0.543627
1.000000 0.416667 0.555882
0.196078 0.408824 0.527451
0.260294 0.419118 0.537254
0.361765 0.425490 0.538235
0.502941 0.454412 0.552941
0.619608 0.469608 0.562745
0.725981 0.461275 0.550980
0.824510 0.469118 0.550980
0.918627 0.485785 0.554902
1.000000 0.518627 0.575000
0.207843 0.562745 0.550980
0.268137 0.566666 0.554412
0.368627 0.568628 0.555882
0.487255 0.572549 0.558823
0.603921 0.576470 0.562745
0.703431 0.575000 0.559314
0.800981 0.576470 0.555882
0.899019 0.582843 0.552941
1.000000 0.596078 0.556863
0.256373 0.681863 0.554902
0.306863 0.685785 0.560784
0.387255 0.679902 0.559314
0.489216 0.675490 0.558823
0.564705 0.658333 0.545098
0.664216 0.656373 0.539706
0.775000 0.662255 0.528431
0.882843 0.656863 0.509804
0.994117 0.670098 0.518138
0.309804 0.770588 0.559804
0.341666 0.770588 0.560785
0.401961 0.765686 0.559804
0.452451 0.759314 0.541176
0.529411 0.750000 0.529411
0.623039 0.740196 0.523039
0.735294 0.749020 0.525490
0.857843 0.766667 0.516667
0.980392 0.772549 0.504902
0.319118 0.869118 0.568628
0.326471 0.868137 0.563235
0.335784 0.867647 0.544118
0.398039 0.863235 0.528921
0.497549 0.855882 0.527451
0.594118 0.848039 0.524020
0.710785 0.852941 0.525490
0.826470 0.861765 0.529412
0.968627 0.890686 0.535294
0.200000 0.986274 0.564705
0.232843 0.988235 0.562745
0.304902 0.984314 0.562745
0.400490 0.986274 0.568628
0.496078 0.980392 0.570588
0.593627 0.980392 0.582353
0.707843 0.982353 0.587255
0.824510 0.988235 0.596568
0.945098 0.992157 0.605882
0.285294 0.129412 0.642157
0.328431 0.135294 0.642647
0.421569 0.150490 0.647059
0.539706 0.175000 0.654902
0.656863 0.213725 0.660294
0.754412 0.228922 0.668137
0.824019 0.225000 0.648039
0.934313 0.237255 0.646568
1.000000 0.278431 0.646078
0.310785 0.206863 0.640686
0.353431 0.214706 0.648039
0.434314 0.223039 0.650980
0.543627 0.242157 0.657353
0.653431 0.272059 0.662255
0.750490 0.283824 0.668137
0.824019 0.281863 0.649020
0.932843 0.286275 0.648039
1.000000 0.321079 0.650000
0.330392 0.318628 0.642647
0.365196 0.323529 0.646078
0.441176 0.329902 0.648529
0.542647 0.343137 0.655392
0.647058 0.365686 0.660294
0.742647 0.378431 0.668137
0.820588 0.374510 0.653922
0.929902 0.373039 0.650980
1.000000 0.400981 0.653922
0.269608 0.402451 0.627451
0.318137 0.412255 0.637745
0.420588 0.436765 0.643628
0.525490 0.449510 0.648529
0.633333 0.471079 0.657353
0.729412 0.487255 0.669608
0.812745 0.476961 0.657843
0.925000 0.474510 0.653922
1.000000 0.500000 0.660294
0.266667 0.531863 0.632843
0.307353 0.535294 0.636765
0.383333 0.535784 0.636765
0.479412 0.538235 0.634804
0.607353 0.564705 0.653922
0.712745 0.584313 0.667647
0.809804 0.579902 0.661765
0.911765 0.584314 0.661765
1.000000 0.598040 0.668137
0.279902 0.664216 0.652451
0.320589 0.665686 0.655882
0.390196 0.667157 0.656863
0.483333 0.668137 0.658824
0.588725 0.672059 0.663726
0.699510 0.681372 0.672059
0.793137 0.683824 0.668137
0.894608 0.683824 0.665196
1.000000 0.689216 0.665686
0.292157 0.790196 0.669608
0.326470 0.790686 0.671078
0.394117 0.790196 0.669608
0.482843 0.782843 0.667647
0.579902 0.775000 0.662745
0.656373 0.761764 0.648529
0.752451 0.760294 0.646078
0.869118 0.766667 0.631373
0.996078 0.761764 0.618627
0.309804 0.882843 0.672059
0.337255 0.883333 0.670098
0.396569 0.881863 0.671079
0.475000 0.877451 0.669118
0.544608 0.872059 0.653921
0.614216 0.862255 0.636765
0.715687 0.859314 0.633824
0.836274 0.866667 0.637255
0.977451 0.887255 0.638235
0.355392 0.992157 0.693137
0.376471 0.988725 0.691667
0.423529 0.989706 0.693137
0.459314 0.988235 0.680392
0.505392 0.988235 0.660294
0.602941 0.984314 0.664216
0.707843 0.984314 0.672059
0.828431 0.988235 0.676471
0.950490 0.992157 0.687745
0.417647 0.196078 0.753922
0.446569 0.199510 0.753922
0.508823 0.208823 0.753922
0.590686 0.227451 0.757843
0.683334 0.259804 0.760784
0.771568 0.307353 0.766176
0.855883 0.318628 0.773529
0.914705 0.314216 0.750981
1.000000 0.330392 0.758824
0.420588 0.250000 0.749510
0.452941 0.255392 0.753922
0.509804 0.262255 0.753922
0.590686 0.277451 0.757353
0.682843 0.303431 0.761274
0.770098 0.348530 0.771568
0.849510 0.354902 0.772058
0.910294 0.346569 0.750981
1.000000 0.360294 0.757843
0.423529 0.340196 0.746078
0.449020 0.344118 0.746568
0.504902 0.349020 0.750000
0.585784 0.362745 0.753922
0.675490 0.386274 0.762745
0.764215 0.418137 0.768627
0.843137 0.426471 0.772549
0.906372 0.417647 0.753922
1.000000 0.423530 0.759804
0.380392 0.427451 0.734314
0.423039 0.442647 0.743137
0.481372 0.447549 0.743627
0.564215 0.456863 0.747059
0.652451 0.473039 0.753922
0.745588 0.501960 0.765686
0.832353 0.513726 0.772059
0.902451 0.502941 0.756373
1.000000 0.502941 0.760294
0.297059 0.511764 0.720588
0.330392 0.515686 0.725490
0.403922 0.517648 0.728431
0.508823 0.534313 0.737745
0.625490 0.560785 0.748039
0.726961 0.587255 0.761764
0.817647 0.602941 0.772549
0.900980 0.593137 0.762745
1.000000 0.588236 0.759804
0.294118 0.637255 0.731863
0.324020 0.637255 0.734314
0.386274 0.639705 0.737255
0.469118 0.634314 0.735294
0.566177 0.633334 0.735294
0.698529 0.668137 0.757843
0.804902 0.695588 0.777451
0.902941 0.685294 0.766667
0.999019 0.694608 0.769607
0.295098 0.763725 0.754902
0.327941 0.765686 0.757843
0.388235 0.766667 0.758824
0.474020 0.766667 0.758824
0.572549 0.770588 0.762745
0.679902 0.776961 0.769117
0.793137 0.789215 0.781373
0.891667 0.786765 0.775000
1.000000 0.790196 0.778432
0.294118 0.902941 0.781373
0.325980 0.902941 0.781863
0.388235 0.900490 0.779412
0.472549 0.898529 0.780882
0.568628 0.895098 0.777942
0.669118 0.886765 0.774510
0.743137 0.871568 0.754902
0.855882 0.875490 0.757843
0.987745 0.882843 0.747059
0.333333 0.996078 0.785294
0.360294 0.997058 0.785294
0.408824 0.998039 0.784314
0.484804 0.996078 0.786275
0.571568 0.992157 0.785294
0.657843 0.992157 0.781863
0.727451 0.988235 0.766667
0.836765 0.988725 0.774020
0.964706 0.996078 0.785294
0.537745 0.282843 0.866667
0.553431 0.283334 0.863235
0.595588 0.293628 0.866177
0.653921 0.310294 0.867157
0.723530 0.331863 0.867157
0.795588 0.367157 0.868628
0.871568 0.416176 0.874510
0.950000 0.416666 0.879412
1.000000 0.400980 0.867647
0.530882 0.314706 0.859804
0.553921 0.325490 0.863725
0.591177 0.331862 0.865686
0.650000 0.342156 0.863725
0.719608 0.364706 0.866667
0.791666 0.394118 0.865687
0.868627 0.440196 0.872549
0.946569 0.439706 0.878921
1.000000 0.424019 0.864706
0.522549 0.387255 0.858824
0.541666 0.391176 0.859314
0.580882 0.399019 0.863235
0.637745 0.407353 0.863235
0.708333 0.423529 0.863725
0.786275 0.453431 0.867647
0.864216 0.486764 0.872549
0.942157 0.489706 0.879412
1.000000 0.473039 0.862745
0.488726 0.465686 0.851961
0.511275 0.474020 0.855392
0.553921 0.475000 0.857353
0.618137 0.485294 0.859804
0.690196 0.498530 0.859804
0.775000 0.525000 0.868138
0.853921 0.552451 0.873529
0.934313 0.559804 0.879412
1.000000 0.543627 0.859804
0.380882 0.525490 0.845588
0.407843 0.525490 0.848039
0.478431 0.537745 0.848039
0.571568 0.556863 0.851961
0.659314 0.572549 0.855882
0.748530 0.594118 0.863235
0.836765 0.622059 0.871568
0.924020 0.631373 0.880882
0.998039 0.619607 0.863725
0.309804 0.626470 0.836274
0.333823 0.626470 0.837255
0.384804 0.622549 0.836274
0.471079 0.621569 0.841177
0.581863 0.628922 0.847549
0.711275 0.664216 0.859314
0.817647 0.693627 0.868138
0.916666 0.715196 0.882843
1.000000 0.707353 0.871078
0.287745 0.747549 0.850000
0.317157 0.747059 0.849509
0.371568 0.746569 0.854412
0.450491 0.741667 0.847549
0.543137 0.739216 0.848530
0.641667 0.731373 0.844608
0.786275 0.767647 0.864216
0.906862 0.805883 0.887745
1.000000 0.798529 0.879902
0.281863 0.878921 0.875000
0.311765 0.877941 0.874510
0.370098 0.878921 0.875000
0.450980 0.876961 0.873039
0.549020 0.877451 0.875000
0.657843 0.883333 0.879412
0.774510 0.887745 0.883333
0.898529 0.899019 0.895098
0.992647 0.899019 0.891176
0.317157 1.000000 0.887255
0.343627 1.000000 0.890196
0.399019 1.000000 0.887255
0.481372 1.000000 0.888726
0.576470 1.000000 0.891176
0.680392 0.999019 0.891176
0.786275 0.996078 0.894608
0.863725 0.992157 0.883333
0.980392 0.996078 0.894608
0.639216 0.435294 0.980392
0.650980 0.439216 0.980882
0.674510 0.440196 0.980392
0.716177 0.453431 0.980392
0.766666 0.470588 0.980392
0.828922 0.494118 0.980392
0.895098 0.518628 0.976471
0.969117 0.556863 0.979902
1.000000 0.545098 0.980392
0.635294 0.454412 0.980392
0.647059 0.458824 0.980882
0.670098 0.462745 0.980392
0.712255 0.474020 0.980392
0.764706 0.486275 0.976961
0.825000 0.507353 0.977941
0.892157 0.534313 0.977451
0.965196 0.568628 0.979902
1.000000 0.560784 0.984314
0.623529 0.500000 0.980392
0.635294 0.500980 0.980392
0.661765 0.504902 0.980392
0.701471 0.512255 0.980392
0.754902 0.527451 0.976471
0.817157 0.544118 0.976471
0.890197 0.568628 0.979412
0.961274 0.596568 0.977451
1.000000 0.590196 0.980392
0.600000 0.551471 0.976471
0.613235 0.559314 0.980392
0.642157 0.563725 0.980882
0.686275 0.567157 0.980392
0.740686 0.580882 0.978431
0.806862 0.593627 0.975491
0.879412 0.615197 0.976471
0.957353 0.645588 0.982352
1.000000 0.637745 0.984314
0.550980 0.613725 0.980392
0.568627 0.617647 0.980392
0.600000 0.620588 0.979412
0.655392 0.625490 0.980882
0.717647 0.637255 0.980392
0.789706 0.653431 0.980882
0.867647 0.668628 0.975491
0.949510 0.692647 0.978432
1.000000 0.694117 0.984314
0.445588 0.664216 0.976471
0.467157 0.670098 0.976471
0.504412 0.668137 0.980392
0.568137 0.665686 0.977941
0.671078 0.696079 0.980882
0.758333 0.707353 0.980392
0.851961 0.730882 0.980392
0.937745 0.754412 0.980392
1.000000 0.762255 0.984314
0.393137 0.762745 0.980392
0.411765 0.765686 0.980392
0.451961 0.764705 0.980392
0.504412 0.756372 0.980392
0.583333 0.754902 0.982353
0.687745 0.761764 0.983334
0.821569 0.794118 0.984314
0.929902 0.825490 0.984314
1.000000 0.837255 0.985294
0.372549 0.875490 0.988235
0.388235 0.875490 0.988235
0.433824 0.875490 0.991667
0.492156 0.875000 0.988235
0.567157 0.870098 0.986764
0.661765 0.871568 0.992157
0.758824 0.867647 0.988235
0.906372 0.894608 0.988235
1.000000 0.922059 0.992157
0.349020 0.992157 0.992157
0.368137 0.992157 0.992157
0.414706 0.992157 0.993137
0.484804 0.992157 0.993627
0.574510 0.992157 0.994117
0.677451 0.992157 0.993627
0.786275 0.993137 0.993137
0.895098 0.996078 0.996078
1.000000 1.000000 1.000000
