Color/Fuji/Fuji Provia 100F 65x.cube
TITLE "Fuji Provia 100F"
LUT_3D_SIZE 65
DOMAIN_MIN 0.000000 0.000000 0.000000
DOMAIN_MAX 1.000000 1.000000 1.000000
0.000000 0.000000 0.000000
0.008762 0.000000 0.000000
0.021446 0.000000 0.000000
0.034130 0.000000 0.000000
0.046814 0.000000 0.000000
0.060172 0.000000 0.000000
0.076103 0.000000 0.000000
0.091299 0.000000 0.000000
0.104902 0.000000 0.000000
0.118505 0.000000 0.000000
0.136029 0.000000 0.000000
0.149632 0.000000 0.000000
0.163235 0.000000 0.000000
0.180760 0.000000 0.000000
0.198284 0.000000 0.000000
0.215809 0.000000 0.000000
0.229412 0.000000 0.000000
0.246936 0.000000 0.000000
0.260540 0.000000 0.000000
0.278064 0.000000 0.000000
0.292892 0.000000 0.000000
0.309191 0.000000 0.000000
0.326715 0.000000 0.000000
0.344240 0.000000 0.000000
0.361765 0.000000 0.000000
0.379289 0.000000 0.000000
0.392892 0.000000 0.000000
0.410416 0.000000 0.000000
0.427941 0.000000 0.000000
0.445466 0.000000 0.000000
0.466912 0.000000 0.000000
0.484436 0.000000 0.000000
0.501961 0.000000 0.000000
0.519486 0.000000 0.000000
0.540931 0.000000 0.000000
0.558456 0.000000 0.000000
0.579902 0.000000 0.000000
0.600062 0.000000 0.000000
0.618873 0.000000 0.000000
0.640319 0.000000 0.000000
0.661765 0.000000 0.000000
0.681679 0.000000 0.000000
0.704044 0.000000 0.000000
0.726103 0.000000 0.000000
0.744853 0.000000 0.000000
0.767218 0.000000 0.000000
0.789583 0.000000 0.000000
0.811888 0.000000 0.000000
0.830392 0.000000 0.000000
0.852758 0.000000 0.000000
0.872304 0.000000 0.000000
0.893750 0.000000 0.000000
0.915196 0.000000 0.000000
0.936642 0.000000 0.000000
0.956740 0.000000 0.000000
0.975613 0.000000 0.000000
0.996568 0.000000 0.000000
1.000000 0.000000 0.000000
1.000000 0.000000 0.000000
1.000000 0.000000 0.000000
1.000000 0.000000 0.000000
1.000000 0.000000 0.000000
1.000000 0.000000 0.000000
1.000000 0.000000 0.000000
1.000000 0.000000 0.000000
0.000000 0.009681 0.000000
0.013603 0.009681 0.000000
0.027206 0.009681 0.000000
0.040809 0.009681 0.000000
0.054412 0.009681 0.000000
0.068260 0.009681 0.000000
0.081618 0.009681 0.000000
0.093627 0.009681 0.000000
0.112745 0.008762 0.000000
0.126348 0.008762 0.000000
0.143872 0.008762 0.000000
0.157475 0.008762 0.000000
0.168812 0.008762 0.000000
0.185601 0.008762 0.000000
0.203125 0.008762 0.000000
0.220649 0.008762 0.000000
0.237255 0.008762 0.000000
0.251777 0.008762 0.000000
0.268383 0.008762 0.000000
0.285907 0.008762 0.000000
0.297733 0.008762 0.000000
0.317034 0.008762 0.000000
0.331556 0.008762 0.000000
0.349081 0.008762 0.000000
0.364154 0.008762 0.000000
0.383211 0.004841 0.000000
0.400735 0.004841 0.000000
0.418259 0.004841 0.000000
0.435785 0.004841 0.000000
0.453309 0.004841 0.000000
0.470833 0.004841 0.000000
0.489400 0.004841 0.000000
0.506802 0.004841 0.000000
0.527329 0.001962 0.000000
0.544853 0.003922 0.000000
0.563174 0.000919 0.000000
0.583823 0.000919 0.000000
0.602267 0.000919 0.000000
0.626348 0.000919 0.000000
0.645159 0.000919 0.000000
0.665686 0.000919 0.000000
0.684130 -0.001471 0.000000
0.707966 0.000000 0.000000
0.726409 0.000000 0.000000
0.748468 0.001226 0.000000
0.771140 0.000919 0.000000
0.793505 -0.002145 0.000000
0.811949 0.000000 0.000000
0.834314 0.000000 0.000000
0.856679 0.000000 0.000000
0.876225 0.000000 0.000000
0.894669 0.000000 0.000000
0.915931 0.000000 0.000000
0.938296 0.000000 0.000000
0.958088 0.000000 0.000000
0.976531 0.000000 0.000000
0.996568 0.000000 0.000000
1.000000 0.000000 0.000000
1.000000 0.000000 0.000000
1.000000 0.000000 0.000000
1.000000 0.000000 0.000000
1.000000 0.000000 0.000000
1.000000 0.000000 0.000000
1.000000 0.000000 0.000000
1.000000 0.000000 0.000000
0.005760 0.025367 0.003922
0.016605 0.023284 0.001838
0.027206 0.023284 0.001838
0.039889 0.023284 0.001838
0.052574 0.023284 0.001838
0.068015 0.023284 0.000000
0.085784 0.023284 0.000000
0.099142 0.023284 0.000000
0.111151 0.021446 0.000000
0.130270 0.021446 0.000000
0.143872 0.021446 0.000000
0.159130 0.021446 0.000000
0.175000 0.021446 0.000000
0.188603 0.021446 0.000000
0.206128 0.021446 0.000000
0.223652 0.019362 0.000000
0.238236 0.019362 0.000000
0.254779 0.019362 0.000000
0.273284 0.019362 0.000000
0.285907 0.019362 0.000000
0.303431 0.019362 0.000000
0.315257 0.019362 0.000000
0.334558 0.019362 0.000000
0.352084 0.017524 0.000000
0.369608 0.017524 0.000000
0.387132 0.017524 0.000000
0.402574 0.013603 0.000000
0.418259 0.013603 0.000000
0.435785 0.013603 0.000000
0.453309 0.013603 0.000000
0.472672 0.013603 0.000000
0.492279 0.013603 0.000000
0.509804 0.013603 0.000000
0.527329 0.013603 0.000000
0.548652 0.007721 0.000000
0.566299 0.009681 0.000000
0.585539 0.009681 0.000000
0.605270 0.009681 0.000000
0.626716 0.009681 0.000000
0.644791 0.009681 0.000000
0.667157 0.008211 0.000000
0.689522 0.005760 0.000000
0.708579 0.005760 0.000000
0.731863 0.005760 0.000000
0.751471 0.005760 0.000000
0.772917 0.005760 0.000000
0.792279 0.002697 0.000000
0.815809 0.005699 0.000000
0.837255 0.001838 0.000000
0.856679 0.001838 0.000000
0.879044 0.001838 0.000000
0.897671 0.001838 0.000000
0.919118 0.000000 0.000000
0.938296 0.000000 0.000000
0.960662 0.000000 0.000000
0.979534 0.000000 0.000000
1.000000 0.000000 0.000000
1.000000 0.000000 0.000000
1.000000 0.000000 0.000000
1.000000 0.000000 0.000000
1.000000 0.000000 0.000000
1.000000 0.000000 0.000000
1.000000 0.000000 0.000000
1.000000 0.000000 0.000000
1.000000 0.000000 0.000000
0.010601 0.038052 0.003922
0.023285 0.038052 0.003922
0.032046 0.038971 0.003922
0.041973 0.036888 0.003922
0.058334 0.036888 0.003922
0.074019 0.036888 0.003922
0.085539 0.036888 0.003922
0.099142 0.036888 0.003922
0.116667 0.036888 0.003922
0.130270 0.034130 0.003922
0.149203 0.034130 0.005331
0.161397 0.034130 0.002758
0.175000 0.034130 0.002758
0.192525 0.034130 0.002758
0.210049 0.032966 0.002758
0.223652 0.032966 0.000000
0.241176 0.032966 0.000000
0.253677 0.032966 0.000000
0.272304 0.032966 0.000000
0.288052 0.032966 0.000000
0.303431 0.032966 0.000000
0.320956 0.032966 0.000000
0.334558 0.030209 0.000000
0.352084 0.030209 0.000000
0.369608 0.030515 0.000000
0.387132 0.025674 0.000000
0.404657 0.026287 0.000000
0.422181 0.026287 0.000000
0.440257 0.026287 0.000000
0.456067 0.026287 0.000000
0.474755 0.025123 0.000000
0.492279 0.022365 0.000000
0.509804 0.022365 0.000000
0.527329 0.022365 0.000000
0.547611 0.022365 0.000000
0.566299 0.018444 0.000000
0.587745 0.018444 0.000000
0.608027 0.018444 0.000000
0.626716 0.018444 0.000000
0.648162 0.018444 0.000000
0.669608 0.014522 0.000000
0.689522 0.014522 0.000000
0.711888 0.014522 0.000000
0.730331 0.014522 0.000000
0.752696 0.014522 0.000000
0.775674 0.011765 0.000000
0.794362 0.010601 0.000000
0.818566 0.007843 0.000000
0.837255 0.007843 0.000000
0.858701 0.006679 0.000000
0.879044 0.006679 0.000000
0.901410 0.006679 0.000000
0.921875 0.003922 0.000000
0.940564 0.005025 0.000000
0.960662 0.002758 0.000000
0.979534 0.002758 0.000000
1.000000 0.000000 0.000000
1.000000 0.000000 0.000000
1.000000 0.000000 0.000000
1.000000 0.000000 0.000000
1.000000 0.000000 0.000000
1.000000 0.000000 0.000000
1.000000 0.000000 0.000000
1.000000 0.000000 0.000000
1.000000 0.000000 0.000000
0.015686 0.054412 0.007843
0.028125 0.054412 0.007843
0.036888 0.054412 0.007843
0.045895 0.054412 0.008762
0.058334 0.050735 0.007598
0.071936 0.050735 0.007598
0.085539 0.052818 0.007598
0.103063 0.050490 0.007598
0.116667 0.050490 0.007598
0.137438 0.050490 0.003922
0.147794 0.050490 0.003922
0.161397 0.050490 0.003922
0.179412 0.050490 0.003922
0.192525 0.046814 0.003922
0.210049 0.046814 0.003922
0.227574 0.046814 0.003922
0.241176 0.046569 0.003922
0.258701 0.046569 0.003922
0.272304 0.046569 0.006741
0.289829 0.046569 0.003677
0.303431 0.046569 0.003677
0.320956 0.046569 0.003677
0.341545 0.046569 0.000000
0.352084 0.042892 0.000000
0.369608 0.044118 0.000000
0.387132 0.042647 0.000000
0.404657 0.038971 0.000000
0.422181 0.038971 0.000000
0.439706 0.038971 0.000000
0.457231 0.039522 0.000000
0.474755 0.038726 0.000000
0.492279 0.035049 0.000000
0.509804 0.035049 0.000000
0.527329 0.035846 0.000000
0.548775 0.034804 0.000000
0.566299 0.031128 0.000000
0.587745 0.031128 0.000000
0.607905 0.032170 0.000000
0.626716 0.030883 0.000000
0.648162 0.027206 0.000000
0.669608 0.027206 0.000000
0.691054 0.023284 0.000000
0.711888 0.023284 0.000000
0.733946 0.023284 0.000000
0.752696 0.023284 0.000000
0.775061 0.023284 0.000000
0.797426 0.019363 0.000000
0.815870 0.019301 0.000000
0.838235 0.015441 0.000000
0.858701 0.015441 0.000000
0.880147 0.015441 0.000000
0.901410 0.011765 0.000000
0.919853 0.011520 0.000000
0.940564 0.007843 0.000000
0.962010 0.007843 0.000000
0.983027 0.008027 0.000000
1.000000 0.003922 0.000000
1.000000 0.006189 0.000000
1.000000 0.003677 0.000000
1.000000 0.003677 0.000000
1.000000 0.000000 0.000000
1.000000 0.000000 0.000000
1.000000 0.000000 0.000000
1.000000 0.000000 0.000000
1.000000 0.000000 0.000000
0.024203 0.068015 0.012439
0.032966 0.068015 0.012439
0.041728 0.068015 0.010601
0.050491 0.068015 0.011765
0.062500 0.068015 0.011765
0.075858 0.068015 0.011765
0.089461 0.068015 0.011765
0.101225 0.068015 0.008517
0.120588 0.067341 0.008517
0.134191 0.067586 0.008517
0.150368 0.064093 0.008517
0.165318 0.064093 0.008517
0.176409 0.064093 0.008517
0.196446 0.064093 0.007843
0.213971 0.064093 0.007843
0.226225 0.063419 0.007843
0.245098 0.063419 0.007843
0.258701 0.063419 0.007843
0.276226 0.060172 0.007843
0.289829 0.060172 0.004596
0.307353 0.060172 0.004596
0.318016 0.060172 0.004596
0.338480 0.060172 0.003922
0.356005 0.060172 0.003922
0.373529 0.059498 0.003922
0.387132 0.056250 0.003922
0.404657 0.056250 0.003922
0.422181 0.054963 0.003922
0.439706 0.055576 0.003922
0.457231 0.055576 0.003922
0.474755 0.052328 0.000674
0.492279 0.051286 0.000674
0.509804 0.051654 0.000000
0.530208 0.048407 0.000000
0.548775 0.048407 0.000000
0.567096 0.047733 0.000000
0.587745 0.044485 0.000000
0.607905 0.044485 0.000000
0.626716 0.044485 0.000000
0.648162 0.040564 0.000000
0.669608 0.040564 0.000000
0.691054 0.039890 0.000000
0.711888 0.036642 0.000000
0.733946 0.036642 0.000000
0.755392 0.035968 0.000000
0.773590 0.035968 0.000000
0.797426 0.029657 0.000000
0.819731 0.028125 0.000000
0.841177 0.028125 0.000000
0.860601 0.024877 0.000000
0.882966 0.022058 0.000000
0.901593 0.024203 0.000000
0.923040 0.020221 0.000000
0.942218 0.020282 0.000000
0.962010 0.016360 0.000000
0.983456 0.016360 0.000000
1.000000 0.012439 0.000000
1.000000 0.011030 0.000000
1.000000 0.008517 0.000000
1.000000 0.008517 0.000000
1.000000 0.008272 0.000000
1.000000 0.004596 0.000000
1.000000 0.003922 0.000000
1.000000 0.003922 0.000000
1.000000 0.000674 0.000000
0.032966 0.085539 0.017279
0.041728 0.085539 0.017279
0.050490 0.085539 0.017279
0.059252 0.085539 0.017279
0.068014 0.085539 0.017279
0.075858 0.083946 0.015686
0.089461 0.081618 0.015686
0.106985 0.081618 0.015686
0.120588 0.081618 0.013358
0.139277 0.081618 0.013358
0.151716 0.081618 0.013358
0.165318 0.081618 0.013358
0.182843 0.081618 0.013358
0.196446 0.080024 0.013358
0.213971 0.077696 0.011765
0.229473 0.077696 0.011765
0.245098 0.077696 0.011765
0.256434 0.077696 0.011765
0.276226 0.077696 0.009436
0.289829 0.077696 0.009436
0.307353 0.077696 0.009436
0.324877 0.077696 0.009436
0.338480 0.076103 0.007843
0.356005 0.073774 0.007843
0.373530 0.073774 0.007843
0.391054 0.073774 0.007843
0.404657 0.069853 0.005515
0.422181 0.069853 0.005515
0.439706 0.069853 0.005515
0.457231 0.069853 0.002390
0.474755 0.069731 0.003922
0.492279 0.065931 0.003922
0.509804 0.065931 0.003922
0.531250 0.063052 0.003922
0.548775 0.064338 0.003922
0.567096 0.062010 0.001593
0.587745 0.060294 0.000000
0.607905 0.060417 0.000000
0.626716 0.058088 0.000000
0.648162 0.056495 0.000000
0.669608 0.054167 0.000000
0.691054 0.054167 0.000000
0.710172 0.052573 0.000000
0.733946 0.050245 0.000000
0.755392 0.050245 0.000000
0.776838 0.048652 0.000000
0.797426 0.046323 0.000000
0.819731 0.042402 0.000000
0.841177 0.040809 0.000000
0.862623 0.040809 0.000000
0.882966 0.038480 0.000000
0.901593 0.036887 0.000000
0.923040 0.032966 0.000000
0.944485 0.028983 0.000000
0.964583 0.029044 0.000000
0.983456 0.026716 0.000000
1.000000 0.021201 0.000000
1.000000 0.021201 0.000000
1.000000 0.016544 0.000000
1.000000 0.017279 0.000000
1.000000 0.013358 0.000000
1.000000 0.012194 0.000000
1.000000 0.009436 0.000000
1.000000 0.006434 0.000000
1.000000 0.005515 0.000000
0.041728 0.103063 0.026042
0.050491 0.103063 0.023529
0.056740 0.100552 0.023529
0.064094 0.100552 0.023529
0.072856 0.099142 0.022120
0.083027 0.099142 0.022120
0.093382 0.099142 0.022120
0.106985 0.099142 0.022120
0.124510 0.099142 0.022120
0.138113 0.099142 0.019608
0.151716 0.099142 0.019608
0.165318 0.099142 0.019853
0.182843 0.099142 0.018199
0.202696 0.095220 0.018199
0.213971 0.095220 0.018199
0.231985 0.095220 0.018199
0.245098 0.095220 0.018199
0.262622 0.095220 0.014338
0.276226 0.095220 0.015686
0.291973 0.092709 0.014277
0.307353 0.091299 0.014277
0.324877 0.091299 0.014277
0.338480 0.091299 0.011765
0.356005 0.091299 0.011765
0.373529 0.091299 0.011765
0.391054 0.088787 0.011765
0.408211 0.087377 0.010356
0.422181 0.087377 0.010356
0.439706 0.087377 0.010356
0.457231 0.084866 0.010356
0.474755 0.083456 0.007843
0.492279 0.083456 0.007843
0.511764 0.080944 0.006434
0.531250 0.079534 0.006434
0.548775 0.079534 0.002635
0.567096 0.077022 0.003922
0.587745 0.075612 0.003922
0.607905 0.075612 0.003922
0.626716 0.075612 0.002513
0.648162 0.071691 0.000000
0.669608 0.069179 0.000000
0.691054 0.069301 0.000000
0.712500 0.067769 0.000000
0.733946 0.065258 0.000000
0.755392 0.063848 0.000000
0.776838 0.061336 0.000000
0.797426 0.061336 0.000000
0.819731 0.059866 0.000000
0.841177 0.056005 0.000000
0.862623 0.053493 0.000000
0.882966 0.052083 0.000000
0.905331 0.048345 0.000000
0.923775 0.048161 0.000000
0.944485 0.044240 0.000000
0.965931 0.041728 0.000000
0.983456 0.040318 0.000000
1.000000 0.033885 0.000000
1.000000 0.032475 0.000000
1.000000 0.029964 0.000000
1.000000 0.026042 0.000000
1.000000 0.022120 0.000000
1.000000 0.023468 0.000000
1.000000 0.018199 0.000000
1.000000 0.015196 0.000000
1.000000 0.011765 0.000000
0.050490 0.120588 0.034804
0.058334 0.116667 0.034804
0.064094 0.116667 0.030883
0.072856 0.116667 0.030883
0.081618 0.116667 0.030883
0.090381 0.116667 0.030883
0.097304 0.116667 0.030883
0.111825 0.116667 0.030883
0.124510 0.116667 0.027451
0.138113 0.116667 0.026961
0.151716 0.116667 0.026961
0.170405 0.113235 0.026961
0.182843 0.112745 0.026961
0.200368 0.112745 0.026961
0.216789 0.112745 0.026961
0.231495 0.112745 0.023529
0.245098 0.112745 0.024019
0.262622 0.112745 0.023039
0.276226 0.109314 0.023039
0.291973 0.108824 0.023039
0.307353 0.108824 0.023039
0.324877 0.108824 0.019608
0.338480 0.108824 0.019118
0.356005 0.108824 0.019118
0.373529 0.106372 0.019118
0.391054 0.104902 0.015686
0.408578 0.104902 0.015686
0.422181 0.104902 0.015196
0.439706 0.102696 0.015196
0.457231 0.100981 0.015196
0.474755 0.100981 0.011765
0.492279 0.099939 0.014155
0.513725 0.097059 0.011275
0.531250 0.097059 0.011275
0.548775 0.097059 0.007475
0.570220 0.093138 0.007843
0.587745 0.093138 0.009558
0.609192 0.093138 0.007353
0.630270 0.089706 0.003922
0.648713 0.085785 0.003922
0.669608 0.085295 0.005883
0.691054 0.085295 0.003432
0.712500 0.081863 0.000000
0.733946 0.081373 0.000000
0.755392 0.081373 0.000000
0.776838 0.079228 0.000000
0.797426 0.077451 0.000000
0.819731 0.073530 0.000000
0.841177 0.072549 0.000000
0.862623 0.069608 0.000000
0.882966 0.066177 0.000000
0.901593 0.065687 0.000000
0.923775 0.064951 0.000000
0.944485 0.058334 0.000000
0.965931 0.057844 0.000000
0.986887 0.054412 0.000000
1.000000 0.053431 0.000000
1.000000 0.048591 0.000000
1.000000 0.042647 0.000000
1.000000 0.038726 0.000000
1.000000 0.034804 0.000000
1.000000 0.030883 0.000000
1.000000 0.028799 0.000000
1.000000 0.027390 0.000000
1.000000 0.023039 0.000000
0.059253 0.133762 0.043566
0.064093 0.133762 0.043566
0.072855 0.133762 0.043566
0.081189 0.133762 0.037316
0.086458 0.133762 0.039645
0.095221 0.130270 0.039645
0.107475 0.130270 0.039645
0.116667 0.130270 0.039645
0.125430 0.130270 0.039645
0.138113 0.130270 0.035723
0.154289 0.130270 0.035723
0.169240 0.130270 0.035723
0.186764 0.127083 0.035723
0.200368 0.129841 0.035723
0.217892 0.126348 0.035723
0.231495 0.126348 0.031802
0.246078 0.126348 0.031802
0.262622 0.126348 0.031802
0.276226 0.126348 0.031802
0.293750 0.125919 0.031802
0.305086 0.125919 0.027880
0.324877 0.122427 0.027880
0.342402 0.122427 0.027880
0.354902 0.122427 0.026348
0.373529 0.119976 0.023958
0.391054 0.121998 0.023958
0.408578 0.118505 0.023958
0.426103 0.118505 0.022671
0.437929 0.118076 0.020037
0.457231 0.118076 0.020037
0.474755 0.114583 0.020037
0.493321 0.113541 0.019608
0.513726 0.114154 0.016115
0.531250 0.110662 0.016115
0.548775 0.110662 0.015686
0.570220 0.110233 0.012194
0.587745 0.106740 0.012194
0.609192 0.106740 0.011765
0.630270 0.106311 0.008272
0.648713 0.102819 0.007720
0.669608 0.102390 0.007843
0.691054 0.098897 0.007843
0.712500 0.095588 0.004351
0.733946 0.094976 0.003922
0.755392 0.094976 0.003922
0.776838 0.094547 0.003922
0.797426 0.087991 0.000429
0.819731 0.087133 0.000000
0.841177 0.086704 0.000000
0.860601 0.083211 0.000000
0.882966 0.082782 0.000000
0.901593 0.079289 0.000000
0.923775 0.075368 0.000000
0.944485 0.074939 0.000000
0.965931 0.068873 0.000000
0.986948 0.071017 0.000000
1.000000 0.063603 0.000000
1.000000 0.059682 0.000000
1.000000 0.059253 0.000000
1.000000 0.052513 0.000000
1.000000 0.051593 0.000000
1.000000 0.047488 0.000000
1.000000 0.043566 0.000000
1.000000 0.039645 0.000000
1.000000 0.032231 0.000000
0.068015 0.147794 0.052328
0.072855 0.147794 0.052328
0.081618 0.147794 0.052328
0.086458 0.147794 0.052328
0.095220 0.147794 0.052328
0.103983 0.147794 0.048407
0.112745 0.147794 0.048407
0.121507 0.146446 0.048407
0.132843 0.146446 0.048407
0.142953 0.146446 0.049326
0.155637 0.143872 0.044485
0.168321 0.143872 0.044485
0.186764 0.143872 0.044485
0.205454 0.143872 0.044485
0.217892 0.143872 0.044485
0.231495 0.143872 0.041912
0.246078 0.142524 0.040564
0.262622 0.142524 0.040564
0.276226 0.139951 0.040564
0.293750 0.139951 0.040564
0.308578 0.139951 0.040564
0.324877 0.139951 0.034375
0.342402 0.139338 0.036642
0.359927 0.136029 0.036642
0.373530 0.136029 0.032721
0.391054 0.136029 0.032721
0.408578 0.134681 0.032721
0.426103 0.132108 0.031434
0.441422 0.132108 0.028799
0.457231 0.132108 0.028799
0.474755 0.131985 0.027451
0.493321 0.128186 0.024877
0.513726 0.128186 0.022916
0.531250 0.128186 0.020956
0.548775 0.126838 0.020956
0.570220 0.124265 0.019608
0.587745 0.122549 0.017034
0.609192 0.120343 0.017034
0.630270 0.120343 0.015686
0.648713 0.119792 0.013113
0.671079 0.116421 0.011765
0.691054 0.114031 0.011765
0.712500 0.112500 0.009191
0.733946 0.111152 0.007843
0.755392 0.108578 0.005270
0.776838 0.108578 0.005270
0.797426 0.104657 0.003922
0.819731 0.104596 0.003922
0.841177 0.100735 0.004290
0.860601 0.099387 -0.000552
0.882966 0.096814 0.000000
0.901593 0.095466 0.000000
0.922427 0.092157 0.000000
0.944485 0.087316 0.000000
0.965931 0.085049 0.000000
0.983456 0.083701 0.000000
1.000000 0.080637 0.000000
1.000000 0.075858 0.000000
1.000000 0.070956 0.000000
1.000000 0.069363 0.000000
1.000000 0.064093 0.000000
1.000000 0.060356 0.000000
1.000000 0.055515 0.000000
1.000000 0.050674 0.000000
1.000000 0.045833 0.000000
0.076777 0.165318 0.061091
0.081618 0.165318 0.061091
0.090380 0.165318 0.061091
0.095220 0.165318 0.061091
0.103982 0.163051 0.061091
0.110478 0.161397 0.061091
0.119240 0.161397 0.059436
0.130514 0.161397 0.057169
0.139031 0.161397 0.057169
0.147794 0.161397 0.057169
0.158211 0.161397 0.057169
0.173162 0.161397 0.057169
0.186764 0.161397 0.055515
0.204290 0.161397 0.053247
0.217892 0.159130 0.053247
0.231495 0.157475 0.053247
0.249019 0.157475 0.053247
0.262622 0.157475 0.053247
0.279289 0.157475 0.049326
0.293750 0.157475 0.049326
0.311275 0.154780 0.049326
0.324877 0.155208 0.049326
0.342402 0.153554 0.045404
0.359927 0.153554 0.045404
0.377451 0.153554 0.042953
0.391054 0.153554 0.041483
0.408578 0.149632 0.041483
0.426103 0.149632 0.041483
0.443628 0.149632 0.037561
0.456373 0.149632 0.037561
0.474755 0.145711 0.037561
0.493321 0.145711 0.033640
0.513726 0.145711 0.033640
0.531250 0.142831 0.029718
0.548775 0.141789 0.029718
0.570220 0.141789 0.025796
0.587745 0.140073 0.025796
0.609192 0.137867 0.023161
0.630270 0.137867 0.021875
0.648713 0.133946 0.021324
0.671078 0.133946 0.017953
0.691054 0.130024 0.015563
0.712500 0.130024 0.015686
0.733946 0.129718 0.011765
0.755392 0.126103 0.012807
0.776838 0.123958 0.010110
0.798284 0.122181 0.007843
0.819731 0.118260 0.010049
0.841177 0.117279 0.003922
0.860601 0.114338 0.003922
0.882966 0.111519 0.003922
0.901593 0.110416 0.002267
0.923040 0.106495 0.000000
0.944485 0.104841 0.000000
0.965931 0.100000 0.000000
0.983456 0.098652 0.000000
1.000000 0.094730 0.000000
1.000000 0.090809 0.000000
1.000000 0.088481 0.000000
1.000000 0.083640 0.000000
1.000000 0.082720 0.000000
1.000000 0.077880 0.000000
1.000000 0.071201 0.000000
1.000000 0.067279 0.000000
1.000000 0.061091 0.000000
0.085540 0.182843 0.069853
0.093383 0.182843 0.069853
0.099143 0.182843 0.069853
0.103982 0.182843 0.069853
0.112745 0.178921 0.069853
0.117586 0.178921 0.069853
0.126349 0.178921 0.069853
0.135111 0.178921 0.070527
0.143873 0.178921 0.065932
0.149878 0.178921 0.065932
0.165318 0.178921 0.065932
0.173162 0.178921 0.065932
0.190686 0.178921 0.065932
0.204290 0.178921 0.062010
0.217892 0.175000 0.062010
0.233395 0.175000 0.062010
0.249019 0.175000 0.062010
0.262684 0.175000 0.062010
0.279289 0.175000 0.058089
0.293750 0.175000 0.058089
0.311275 0.175000 0.058089
0.324448 0.171078 0.058089
0.342402 0.171078 0.060662
0.359927 0.171078 0.054167
0.377451 0.171078 0.054167
0.390870 0.171078 0.050061
0.408578 0.167156 0.050245
0.426103 0.167156 0.050245
0.443628 0.167156 0.051225
0.461152 0.167156 0.046324
0.477942 0.163235 0.046324
0.496201 0.163235 0.042402
0.513726 0.163235 0.042402
0.531250 0.163235 0.038481
0.548775 0.158701 0.038481
0.570220 0.159313 0.034559
0.589461 0.159313 0.034559
0.609192 0.155392 0.031925
0.630270 0.155392 0.030638
0.648713 0.151470 0.026716
0.671079 0.151470 0.023529
0.691054 0.152267 0.022794
0.712500 0.147549 0.019485
0.734252 0.150429 0.018873
0.755392 0.143627 0.015686
0.776838 0.143627 0.014951
0.798284 0.139705 0.011765
0.819731 0.135784 0.011030
0.841177 0.135784 0.007843
0.860601 0.131862 0.007843
0.882966 0.131862 0.007108
0.901593 0.127390 0.003922
0.923040 0.124019 0.006373
0.944485 0.125551 0.003187
0.965931 0.120098 0.000000
0.983456 0.115870 0.000000
1.000000 0.112254 0.000000
1.000000 0.108333 0.000000
1.000000 0.106005 0.000000
1.000000 0.104411 0.000000
1.000000 0.100245 0.000000
1.000000 0.095404 0.000000
1.000000 0.088725 0.000000
1.000000 0.084804 0.000000
1.000000 0.080147 0.000000
0.094302 0.196446 0.078615
0.102880 0.196446 0.078615
0.107720 0.196446 0.078615
0.109988 0.196446 0.078615
0.121324 0.196446 0.078615
0.126164 0.196262 0.078615
0.134926 0.196262 0.077022
0.139951 0.196262 0.078431
0.148713 0.196262 0.074694
0.157476 0.196262 0.074694
0.169975 0.192525 0.074694
0.178922 0.192525 0.074694
0.194607 0.192525 0.071508
0.204290 0.192525 0.070772
0.220711 0.192525 0.070772
0.235417 0.192525 0.070772
0.246262 0.189583 0.070772
0.266544 0.192341 0.070772
0.280147 0.188603 0.066851
0.297672 0.188603 0.066851
0.311275 0.188603 0.066851
0.328799 0.188603 0.066851
0.341973 0.188419 0.066238
0.359927 0.188419 0.062929
0.377451 0.184682 0.062929
0.394975 0.184682 0.059558
0.408578 0.184682 0.059008
0.426103 0.184682 0.059008
0.443628 0.184498 0.056802
0.461152 0.184498 0.055086
0.478676 0.180760 0.055086
0.496201 0.180760 0.051164
0.513726 0.180576 0.051164
0.531250 0.176839 0.047243
0.548958 0.176839 0.047243
0.570220 0.176042 0.043321
0.587929 0.172917 0.043321
0.609192 0.172917 0.039400
0.630638 0.172917 0.035846
