Color/Fuji/Fuji Superia 200 65x.cube
TITLE "Fuji Superia 200"
LUT_3D_SIZE 65
DOMAIN_MIN 0.000000 0.000000 0.000000
DOMAIN_MAX 1.000000 1.000000 1.000000
0.000000 0.000000 0.000000
0.004841 0.000000 0.000000
0.009681 0.000000 0.000000
0.018444 0.000000 0.000000
0.027206 0.000000 0.000000
0.035968 0.000000 0.000000
0.044730 0.000000 0.000000
0.053493 0.000000 0.000000
0.066177 0.000000 0.000000
0.075368 0.000000 0.000000
0.087623 0.000000 0.000000
0.096385 0.000000 0.000000
0.109069 0.000000 0.000000
0.121753 0.000000 0.000000
0.135539 0.000000 0.000000
0.149142 0.000000 0.000000
0.163725 0.000000 0.000000
0.180269 0.000000 0.000000
0.197794 0.000000 0.000000
0.219240 0.000000 0.000000
0.236765 0.000000 0.000000
0.254289 0.000000 0.000000
0.275735 0.000000 0.000000
0.294792 0.000000 0.000000
0.314706 0.000000 0.000000
0.332230 0.000000 0.000000
0.349755 0.000000 0.000000
0.368566 0.000000 0.000000
0.388726 0.000000 0.000000
0.406250 0.000000 0.000000
0.423774 0.000000 0.000000
0.441299 0.000000 0.000000
0.458823 0.000000 0.000000
0.479228 0.000000 0.000000
0.497794 0.000000 0.000000
0.515319 0.000000 0.000000
0.532843 0.000000 0.000000
0.550368 0.000000 0.000000
0.567892 0.000000 0.000000
0.585417 0.000000 0.000000
0.601471 0.000000 0.000000
0.616544 0.000000 0.000000
0.630147 0.000000 0.000000
0.643443 0.000000 0.000000
0.656128 0.000000 0.000000
0.667034 0.000000 0.000000
0.677573 0.000000 0.000000
0.690257 0.000000 0.000000
0.699019 0.000000 0.000000
0.711704 0.000000 0.000000
0.720466 0.000000 0.000000
0.732965 0.000000 0.000000
0.741911 0.000000 0.000000
0.750674 0.000000 0.000000
0.759436 0.000000 0.000000
0.768198 0.000000 0.000000
0.776961 0.000000 0.000000
0.785723 0.000000 0.000000
0.794485 0.000000 0.000000
0.799326 0.000000 0.000000
0.808088 0.000000 0.000000
0.816850 0.000000 0.000000
0.821691 0.000000 0.000000
0.830454 0.000000 0.000000
0.835294 0.000000 0.000000
0.000919 0.013603 0.000000
0.012684 0.008762 0.000000
0.023284 0.008762 0.000000
0.031127 0.003003 0.000000
0.039889 0.004841 0.000000
0.048652 0.004841 0.000000
0.058334 0.000919 0.000000
0.070099 0.000919 0.000000
0.078861 0.000919 0.000000
0.091544 0.000000 0.000000
0.100306 0.000000 0.000000
0.109068 0.000000 0.000000
0.118749 0.000000 0.000000
0.130699 0.000000 0.000000
0.147120 0.000000 0.000000
0.159804 0.000000 0.000000
0.175428 0.000000 0.000000
0.189032 0.000000 0.000000
0.206557 0.000000 0.000000
0.224081 0.000000 0.000000
0.244301 0.000000 0.000000
0.263051 0.000000 0.000000
0.280576 0.000000 0.000000
0.302635 0.000000 0.000000
0.319547 0.000000 0.000000
0.337071 0.000000 0.000000
0.354595 0.000000 0.000000
0.372120 0.000000 0.000000
0.387439 0.000000 0.000000
0.406250 0.000000 0.000000
0.423774 0.000000 0.000000
0.441299 0.000000 0.000000
0.458824 0.000000 0.000000
0.476348 0.000000 0.000000
0.497671 0.000000 0.000000
0.515319 0.000000 0.000000
0.532843 0.000000 0.000000
0.550368 0.000000 0.000000
0.567892 0.000000 0.000000
0.581495 0.000000 0.000000
0.599020 0.000000 0.000000
0.612622 0.000000 0.000000
0.626838 0.000000 0.000000
0.639829 0.000000 0.000000
0.652206 0.000000 0.000000
0.664890 0.000000 0.000000
0.679718 0.000000 0.000000
0.685478 0.000000 0.000000
0.699019 0.000000 0.000000
0.707782 0.000000 0.000000
0.722365 0.000000 0.000000
0.729228 0.000000 0.000000
0.737990 0.000000 0.000000
0.746753 0.000000 0.000000
0.755515 0.000000 0.000000
0.764277 0.000000 0.000000
0.773039 0.000000 0.000000
0.781801 0.000000 0.000000
0.790564 0.000000 0.000000
0.799326 0.000000 0.000000
0.807843 0.000000 0.000000
0.812929 0.000000 0.000000
0.819608 0.000000 0.000000
0.826532 0.000000 0.000000
0.834375 0.000000 0.000000
0.009681 0.031127 0.000000
0.018443 0.023284 0.000000
0.027206 0.021446 0.000000
0.035969 0.019362 0.000000
0.046814 0.017524 0.000000
0.057414 0.013603 0.000000
0.065931 0.013848 0.000000
0.077022 0.009681 0.000000
0.087622 0.009681 0.000000
0.094976 0.005760 0.000000
0.109068 0.005760 0.000000
0.117831 0.003493 0.000000
0.126594 0.003922 0.000000
0.139461 0.001838 0.000000
0.153064 0.000000 0.000000
0.168750 0.000000 0.000000
0.181250 0.000000 0.000000
0.197794 0.000000 0.000000
0.215319 0.000000 0.000000
0.232843 0.000000 0.000000
0.250367 0.000000 0.000000
0.273591 0.000000 0.000000
0.289338 0.000000 0.000000
0.306863 0.000000 0.000000
0.324387 0.000000 0.000000
0.341912 0.000000 0.000000
0.359436 0.000000 0.000000
0.376961 0.000000 0.000000
0.394485 0.000000 0.000000
0.412010 0.000000 0.000000
0.429535 0.000000 0.000000
0.447059 0.000000 0.000000
0.464583 0.000000 0.000000
0.482108 0.000000 0.000000
0.499632 0.000000 0.000000
0.517157 0.000000 0.000000
0.534681 0.000000 0.000000
0.550368 0.000000 0.000000
0.567892 0.000000 0.000000
0.581495 0.000000 0.000000
0.599019 0.000000 0.000000
0.612622 0.000000 0.000000
0.626226 0.000000 0.000000
0.639522 0.000000 0.000000
0.652206 0.000000 0.000000
0.665196 0.000000 0.000000
0.676715 0.000000 0.000000
0.686336 0.000000 0.000000
0.699019 0.000000 0.000000
0.707782 0.000000 0.000000
0.716544 0.000000 0.000000
0.729228 0.000000 0.000000
0.737990 0.000000 0.000000
0.746753 0.000000 0.000000
0.755515 0.000000 0.000000
0.764277 0.000000 0.000000
0.773039 0.000000 0.000000
0.781801 0.000000 0.000000
0.790564 0.000000 0.000000
0.797487 0.000000 0.000000
0.804167 0.000000 0.000000
0.812929 0.000000 0.000000
0.817770 0.000000 0.000000
0.826532 0.000000 0.000000
0.831373 0.000000 0.000000
0.018444 0.044731 0.002758
0.026287 0.039890 0.000000
0.032046 0.034130 0.000000
0.040809 0.032966 0.000000
0.050735 0.030209 0.000000
0.062256 0.026287 0.000000
0.072181 0.022365 0.000000
0.083701 0.022365 0.000000
0.092464 0.017770 0.000000
0.105148 0.014522 0.000000
0.113909 0.014522 0.000000
0.122181 0.012255 0.000000
0.135784 0.010601 0.000000
0.148039 0.010416 0.000000
0.159069 0.006679 0.000000
0.172672 0.003922 0.000000
0.189032 0.002758 0.000000
0.203799 -0.001103 0.000000
0.221324 0.000000 0.000000
0.238848 0.000000 0.000000
0.259130 0.000000 0.000000
0.276654 0.000000 0.000000
0.292034 0.000000 0.000000
0.312868 0.000000 0.000000
0.330392 0.000000 0.000000
0.350674 0.000000 0.000000
0.365441 0.000000 0.000000
0.382965 0.000000 0.000000
0.400490 0.000000 0.000000
0.418015 0.000000 0.000000
0.438174 0.000000 0.000000
0.451900 0.000000 0.000000
0.469424 0.000000 0.000000
0.486948 0.000000 0.000000
0.504473 0.000000 0.000000
0.521998 0.000000 0.000000
0.539522 0.000000 0.000000
0.557046 0.000000 0.000000
0.571814 0.000000 0.000000
0.585417 0.000000 0.000000
0.599019 0.000000 0.000000
0.614154 0.000000 0.000000
0.626838 0.000000 0.000000
0.639522 0.000000 0.000000
0.652206 0.000000 0.000000
0.663113 0.000000 0.000000
0.673652 0.000000 0.000000
0.686336 0.000000 0.000000
0.693321 0.000000 0.000000
0.707782 0.000000 0.000000
0.716544 0.000000 0.000000
0.725306 0.000000 0.000000
0.737990 0.000000 0.000000
0.746753 0.000000 0.000000
0.755515 0.000000 0.000000
0.764277 0.000000 0.000000
0.773039 0.000000 0.000000
0.781801 0.000000 0.000000
0.788235 0.000000 0.000000
0.795404 0.000000 0.000000
0.804167 0.000000 0.000000
0.811765 0.000000 0.000000
0.817770 0.000000 0.000000
0.823529 0.000000 0.000000
0.831373 0.000000 0.000000
0.023284 0.058334 0.003922
0.032046 0.057414 0.003677
0.040808 0.052573 0.000000
0.045895 0.050490 0.000000
0.054657 0.046569 0.000000
0.067095 0.042647 0.000000
0.076103 0.041054 0.000000
0.088541 0.035049 0.000000
0.097304 0.034804 0.000000
0.109987 0.027206 0.000000
0.118750 0.029534 0.000000
0.126103 0.023284 0.000000
0.140196 0.019363 0.000000
0.149388 0.019178 0.000000
0.162990 0.011765 0.000000
0.180270 0.011520 0.000000
0.194852 0.007843 0.000000
0.211397 0.007598 0.000000
0.228921 0.006741 0.000000
0.242770 0.003677 0.000000
0.263971 0.000000 0.000000
0.281434 0.000000 0.000000
0.299264 0.000000 0.000000
0.320466 0.000000 0.000000
0.337990 0.000000 0.000000
0.355515 0.000000 0.000000
0.373038 0.000000 0.000000
0.390563 0.000000 0.000000
0.408089 0.000000 0.000000
0.421936 0.000000 0.000000
0.439461 0.000000 0.000000
0.456985 0.000000 0.000000
0.474510 0.000000 0.000000
0.492035 0.000000 0.000000
0.509559 0.000000 0.000000
0.527083 0.000000 0.000000
0.544363 0.000000 0.000000
0.561887 0.000000 0.000000
0.575736 0.000000 0.000000
0.589338 0.000000 0.000000
0.606618 0.000000 0.000000
0.616544 0.000000 0.000000
0.630147 0.000000 0.000000
0.639829 0.000000 0.000000
0.655883 0.000000 0.000000
0.664890 0.000000 0.000000
0.673652 0.000000 0.000000
0.686336 0.000000 0.000000
0.695098 0.000000 0.000000
0.707782 0.000000 0.000000
0.716544 0.000000 0.000000
0.725306 0.000000 0.000000
0.734314 0.000000 0.000000
0.746753 0.000000 0.000000
0.755515 0.000000 0.000000
0.764277 0.000000 0.000000
0.769362 0.000000 0.000000
0.777880 0.000000 0.000000
0.786642 0.000000 0.000000
0.795404 0.000000 0.000000
0.800491 0.000000 0.000000
0.809007 0.000000 0.000000
0.817770 0.000000 0.000000
0.822610 0.000000 0.000000
0.827696 0.000000 0.000000
0.035968 0.075858 0.007843
0.040809 0.071936 0.004596
0.047733 0.068015 0.003922
0.054412 0.065257 0.003922
0.059498 0.064093 0.003922
0.071262 0.060172 0.000000
0.081618 0.056250 0.000000
0.089461 0.053738 0.000000
0.101471 0.048896 0.000000
0.110662 0.047978 0.000000
0.122917 0.043137 0.000000
0.132353 0.040564 0.000000
0.141116 0.036642 0.000000
0.157721 0.032537 0.000000
0.170404 0.027696 0.000000
0.183088 0.022855 0.000000
0.198714 0.018015 0.000000
0.216238 0.013174 0.000000
0.233089 0.012439 0.000000
0.251287 0.008517 0.000000
0.268811 0.005821 0.000000
0.286335 0.004596 0.000000
0.307782 0.003922 0.000000
0.325307 0.003922 0.000000
0.342831 -0.001777 0.000000
0.360355 0.000000 0.000000
0.377880 0.000000 0.000000
0.395405 0.000000 0.000000
0.412255 0.000000 0.000000
0.429780 0.000000 0.000000
0.447856 0.000000 0.000000
0.461581 0.000000 0.000000
0.479106 0.000000 0.000000
0.496630 0.000000 0.000000
0.514154 0.000000 0.000000
0.531679 0.000000 0.000000
0.549203 0.000000 0.000000
0.564093 0.000000 0.000000
0.583579 0.000000 0.000000
0.597304 0.000000 0.000000
0.609987 0.000000 0.000000
0.622672 0.000000 0.000000
0.635356 0.000000 0.000000
0.648039 0.000000 0.000000
0.660049 0.000000 0.000000
0.670956 0.000000 0.000000
0.678248 0.000000 0.000000
0.687010 0.000000 0.000000
0.695772 0.000000 0.000000
0.704535 0.000000 0.000000
0.716544 0.000000 0.000000
0.725306 0.000000 0.000000
0.734068 0.000000 0.000000
0.742831 0.000000 0.000000
0.751593 0.000000 0.000000
0.760355 0.000000 0.000000
0.769117 0.000000 0.000000
0.777880 0.000000 0.000000
0.786642 0.000000 0.000000
0.794731 0.000000 0.000000
0.800245 0.000000 0.000000
0.807843 0.000000 0.000000
0.813848 0.000000 0.000000
0.819608 0.000000 0.000000
0.827451 0.000000 0.000000
0.044730 0.091789 0.011765
0.049571 0.087868 0.007843
0.058333 0.085539 0.007843
0.063175 0.081618 0.005515
0.068014 0.081618 0.001839
0.075184 0.077696 0.003922
0.083946 0.073774 0.001593
0.094301 0.069853 -0.000919
0.105392 0.066421 0.000000
0.114583 0.062010 0.000000
0.126838 0.060662 0.000000
0.137867 0.058088 0.000000
0.148285 0.054167 0.000000
0.161152 0.050061 0.000000
0.176348 0.042402 0.000000
0.189951 0.038480 0.000000
0.205882 0.034559 0.000000
0.221078 0.026777 0.000000
0.238603 0.025857 0.000000
0.256127 0.021201 0.000000
0.273652 0.017279 0.000000
0.297120 0.013358 0.000000
0.312623 0.009436 0.000000
0.330147 0.007904 0.000000
0.347671 0.003064 0.000000
0.365196 0.003922 0.000000
0.382721 0.000000 0.000000
0.400245 0.000000 0.000000
0.417770 0.000000 0.000000
0.432169 0.000000 0.000000
0.451225 0.000000 0.000000
0.468750 0.000000 0.000000
0.486275 0.000000 0.000000
0.503799 0.000000 0.000000
0.521324 0.000000 0.000000
0.536519 0.000000 0.000000
0.554044 0.000000 0.000000
0.568934 0.000000 0.000000
0.587500 0.000000 0.000000
0.602144 0.000000 0.000000
0.614706 0.000000 0.000000
0.627512 0.000000 0.000000
0.640196 0.000000 0.000000
0.652880 0.000000 0.000000
0.663971 0.000000 0.000000
0.674877 0.000000 0.000000
0.683088 0.000000 0.000000
0.691850 0.000000 0.000000
0.700612 0.000000 0.000000
0.709375 0.000000 0.000000
0.718138 0.000000 0.000000
0.725306 0.000000 0.000000
0.734068 0.000000 0.000000
0.742831 0.000000 0.000000
0.751593 0.000000 0.000000
0.760355 0.000000 0.000000
0.769117 0.000000 0.000000
0.776287 0.000000 0.000000
0.785049 0.000000 0.000000
0.791483 0.000000 0.000000
0.798652 0.000000 0.000000
0.805086 0.000000 0.000000
0.813848 0.000000 0.000000
0.821017 0.000000 0.000000
0.825858 0.000000 0.000000
0.053493 0.106985 0.015686
0.061336 0.106066 0.014277
0.067095 0.103063 0.011765
0.071937 0.099142 0.010356
0.076776 0.099142 0.010356
0.081618 0.095220 0.009681
0.090380 0.091299 0.003922
0.099142 0.088787 0.003922
0.109314 0.083947 0.003922
0.120588 0.083027 0.000000
0.130760 0.080699 0.000000
0.142034 0.075612 0.000000
0.155392 0.071691 0.000000
0.165074 0.067586 0.000000
0.181189 0.062745 0.000000
0.196691 0.056005 0.000000
0.209375 0.052083 0.000000
0.227328 0.044302 0.000000
0.246507 0.037807 0.000000
0.262378 0.034620 0.000000
0.282415 0.029964 0.000000
0.299939 0.026042 0.000000
0.315564 0.018199 0.000000
0.336397 0.014277 0.000000
0.353922 0.011826 0.000000
0.371446 0.006985 0.000000
0.388970 0.003922 0.000000
0.407721 0.002513 0.000000
0.422610 0.000000 0.000000
0.440135 0.000000 0.000000
0.457660 0.000000 0.000000
0.472671 0.000000 0.000000
0.490197 0.000000 0.000000
0.507721 0.000000 0.000000
0.525245 0.000000 0.000000
0.542769 0.000000 0.000000
0.558885 0.000000 0.000000
0.576409 0.000000 0.000000
0.591422 0.000000 0.000000
0.605025 0.000000 0.000000
0.618627 0.000000 0.000000
0.632230 0.000000 0.000000
0.645037 0.000000 0.000000
0.657720 0.000000 0.000000
0.667892 0.000000 0.000000
0.679167 0.000000 0.000000
0.687929 0.000000 0.000000
0.696692 0.000000 0.000000
0.705454 0.000000 0.000000
0.714216 0.000000 0.000000
0.722978 0.000000 0.000000
0.729228 0.000000 0.000000
0.739767 0.000000 0.000000
0.742831 0.000000 0.000000
0.751593 0.000000 0.000000
0.756863 0.000000 0.000000
0.768627 0.000000 0.000000
0.773958 0.000000 0.000000
0.782721 0.000000 0.000000
0.791483 0.000000 0.000000
0.796323 0.000000 0.000000
0.805086 0.000000 0.000000
0.811765 0.000000 0.000000
0.818689 0.000000 0.000000
0.823529 0.000000 0.000000
0.066177 0.124510 0.023039
0.071018 0.127022 0.019608
0.075857 0.120588 0.019118
0.080699 0.117831 0.015686
0.085540 0.116667 0.015196
0.090381 0.112745 0.011765
0.095711 0.108824 0.011275
0.103982 0.109743 0.007843
0.113235 0.104902 0.007353
0.125430 0.103983 0.003922
0.132108 0.097059 0.003922
0.146875 0.093138 0.003432
0.159558 0.089951 0.000000
0.172426 0.088542 0.000000
0.188849 0.080270 0.000000
0.201532 0.075429 0.000000
0.217157 0.070588 0.000000
0.234681 0.065687 0.000000
0.252206 0.057844 0.000000
0.269731 0.052144 0.000000
0.286519 0.046079 0.000000
0.305269 0.038542 0.000000
0.326225 0.030883 0.000000
0.343750 0.028860 0.000000
0.361275 0.024019 0.000000
0.378799 0.015747 0.000000
0.396324 0.011275 0.000000
0.410416 0.009987 0.000000
0.427941 0.003922 0.000000
0.445772 0.004228 0.000000
0.462500 0.000000 0.000000
0.480025 0.000000 0.000000
0.497549 0.000000 0.000000
0.515073 0.000000 0.000000
0.528799 0.000000 0.000000
0.546691 0.000000 0.000000
0.565931 0.000000 0.000000
0.581250 0.000000 0.000000
0.595220 0.000000 0.000000
0.608946 0.000000 0.000000
0.622549 0.000000 0.000000
0.636152 0.000000 0.000000
0.649877 0.000000 0.000000
0.662562 0.000000 0.000000
0.671814 0.000000 0.000000
0.680576 0.000000 0.000000
0.692770 0.000000 0.000000
0.701531 0.000000 0.000000
0.710294 0.000000 0.000000
0.719057 0.000000 0.000000
0.724387 0.000000 0.000000
0.733149 0.000000 0.000000
0.741422 0.000000 0.000000
0.746753 0.000000 0.000000
0.755025 0.000000 0.000000
0.760355 0.000000 0.000000
0.765196 0.000000 0.000000
0.773958 0.000000 0.000000
0.779289 0.000000 0.000000
0.788235 0.000000 0.000000
0.792891 0.000000 0.000000
0.803922 0.000000 0.000000
0.809927 0.000000 0.000000
0.815686 0.000000 0.000000
0.820098 0.000000 0.000000
0.075368 0.142034 0.031802
0.079289 0.141115 0.031802
0.083211 0.138113 0.027880
0.087133 0.135355 0.025122
0.094547 0.134191 0.023958
0.099142 0.130270 0.020037
0.106311 0.128677 0.018444
0.112745 0.126348 0.016115
0.121079 0.122427 0.012194
0.129841 0.118505 0.011765
0.139951 0.114583 0.008272
0.147794 0.112316 0.007843
0.160478 0.107475 0.001165
0.177267 0.103064 0.004167
0.194363 0.097794 0.000000
0.207966 0.092954 0.000000
0.221997 0.088113 0.000000
0.239522 0.083211 0.000000
0.257047 0.075368 0.000000
0.274571 0.069669 0.000000
0.298284 0.061335 0.000000
0.313541 0.056066 0.000000
0.331066 0.051225 0.000000
0.348591 0.042463 0.000000
0.366115 0.037623 0.000000
0.383640 0.028860 0.000000
0.401164 0.024019 0.000000
0.417402 0.020037 0.000000
0.435785 0.016115 0.000000
0.449816 0.012194 0.000000
0.467341 0.008149 0.000000
0.484865 0.003309 0.000000
0.502389 0.000429 0.000000
0.519486 0.000000 0.000000
0.537010 0.000000 0.000000
0.551042 0.000000 0.000000
0.568567 0.000000 0.000000
0.585662 0.000000 0.000000
0.603187 0.000000 0.000000
0.616789 0.000000 0.000000
0.630392 0.000000 0.000000
0.641605 0.000000 0.000000
0.650797 0.000000 0.000000
0.663358 0.000000 0.000000
0.675735 0.000000 0.000000
0.684926 0.000000 0.000000
0.693688 0.000000 0.000000
0.702451 0.000000 0.000000
0.711213 0.000000 0.000000
0.719975 0.000000 0.000000
0.725919 0.000000 0.000000
0.737071 0.000000 0.000000
0.742340 0.000000 0.000000
0.750674 0.000000 0.000000
0.753370 0.000000 0.000000
0.764277 0.000000 0.000000
0.769117 0.000000 0.000000
0.773958 0.000000 0.000000
0.778799 0.000000 0.000000
0.787561 0.000000 0.000000
0.792402 0.000000 0.000000
0.800735 0.000000 0.000000
0.806005 0.000000 0.000000
0.811765 0.000000 0.000000
0.819179 0.000000 0.000000
0.087623 0.160907 0.044485
0.092892 0.159559 0.040564
0.095466 0.155147 0.040564
0.099387 0.155637 0.036642
0.103309 0.149388 0.030392
0.107904 0.151042 0.032047
0.115073 0.147794 0.028799
0.121507 0.142708 0.024877
0.124265 0.140441 0.020956
0.135110 0.136029 0.017034
0.143872 0.136029 0.015686
0.157475 0.132108 0.010846
0.171078 0.128186 0.009191
0.185846 0.120343 0.005270
0.198529 0.116421 0.003922
0.213235 0.112500 0.001348
0.229412 0.108578 0.000000
0.246936 0.100796 0.000000
0.264461 0.095956 0.000000
0.283333 0.088971 0.000000
0.300858 0.082353 0.000000
0.318382 0.077206 0.000000
0.339829 0.068750 0.000000
0.357353 0.061520 0.000000
0.374877 0.055147 0.000000
0.391054 0.046385 0.000000
0.406005 0.041544 0.000000
0.423530 0.034069 0.000000
0.441054 0.027941 0.000000
0.455454 0.024877 0.000000
0.472181 0.016911 0.000000
0.489706 0.012071 0.000000
0.507231 0.007230 0.000000
0.524755 0.002390 0.000000
0.542279 0.001348 0.000000
0.558456 0.000000 0.000000
0.573407 0.000000 0.000000
0.588297 0.000000 0.000000
0.607108 0.000000 0.000000
0.621508 0.000000 0.000000
0.634314 0.000000 0.000000
0.645527 0.000000 0.000000
0.655637 0.000000 0.000000
0.667280 0.000000 0.000000
0.679657 0.000000 0.000000
0.688419 0.000000 0.000000
0.698530 0.000000 0.000000
0.707291 0.000000 0.000000
0.716054 0.000000 0.000000
0.722917 0.000000 0.000000
0.732230 0.000000 0.000000
0.740992 0.000000 0.000000
0.745833 0.000000 0.000000
0.754596 0.000000 0.000000
0.759436 0.000000 0.000000
0.762132 0.000000 0.000000
0.772549 0.000000 0.000000
0.773897 0.000000 0.000000
0.780392 0.000000 0.000000
0.787561 0.000000 0.000000
0.792157 0.000000 0.000000
0.797242 0.000000 0.000000
0.803922 0.000000 0.000000
0.810846 0.000000 0.000000
0.815686 0.000000 0.000000
0.100306 0.183272 0.055515
0.101225 0.182353 0.054595
0.106066 0.177083 0.049326
0.110416 0.177083 0.049326
0.115748 0.175429 0.045404
0.119914 0.171508 0.041483
0.125429 0.169914 0.037561
0.130269 0.165073 0.033395
0.135600 0.163664 0.033640
0.143872 0.159743 0.029289
0.150368 0.158394 0.024448
0.161397 0.153554 0.019608
0.174081 0.149632 0.014767
0.188603 0.141789 0.013849
0.204473 0.137867 0.007843
0.219975 0.134191 0.003922
0.235601 0.130024 0.003922
0.253125 0.120588 -0.001593
0.270649 0.114338 0.000000
0.292096 0.110906 0.000000
0.309621 0.102144 0.000000
0.327145 0.098652 0.000000
0.344668 0.090196 0.000000
0.362194 0.083701 0.000000
0.379718 0.074938 0.000000
0.397242 0.067831 0.000000
0.414767 0.061336 0.000000
0.430024 0.054228 0.000000
0.447610 0.047732 0.000000
0.463419 0.040625 0.000000
0.480943 0.031863 0.000000
0.498468 0.021875 0.000000
0.513726 0.017953 0.000000
0.531250 0.014032 0.000000
0.547121 0.010110 0.000000
0.564645 0.003922 0.000000
0.579902 0.002267 0.000000
0.595772 0.000000 0.000000
0.609743 0.000000 0.000000
0.626348 0.000000 0.000000
0.639032 0.000000 0.000000
0.651838 0.000000 0.000000
0.660478 0.000000 0.000000
0.673161 0.000000 0.000000
0.683579 0.000000 0.000000
0.692341 0.000000 0.000000
0.703370 0.000000 0.000000
0.712132 0.000000 0.000000
0.718628 0.000000 0.000000
0.727390 0.000000 0.000000
0.736152 0.000000 0.000000
0.743260 0.000000 0.000000
0.749755 0.000000 0.000000
0.756862 0.000000 0.000000
0.763358 0.000000 0.000000
0.766973 0.000000 0.000000
0.773039 0.000000 0.000000
0.777880 0.000000 0.000000
0.782659 0.000000 0.000000
0.786581 0.000000 0.000000
0.792157 0.000000 0.000000
0.794975 0.000000 0.000000
0.802084 0.000000 0.000000
0.808578 0.000000 0.000000
0.815686 0.000000 0.000000
0.101961 0.209559 0.065932
0.106801 0.205637 0.062010
0.111642 0.205637 0.060172
0.116483 0.201716 0.058089
0.120834 0.201716 0.058089
0.129350 0.197794 0.056679
0.134192 0.193872 0.050245
0.143627 0.193872 0.046324
0.147794 0.189951 0.042157
0.152635 0.186029 0.038481
0.161397 0.182108 0.034559
0.170159 0.178186 0.031557
0.182108 0.174265 0.023529
0.195711 0.170158 0.018873
0.212132 0.165319 0.014951
0.226839 0.160477 0.011030
0.244363 0.154657 0.008088
0.261887 0.146875 0.003922
0.279412 0.142034 0.000000
0.298713 0.135049 0.000000
0.318383 0.128432 0.000000
0.335907 0.123284 0.000000
0.353431 0.114828 0.000000
0.370956 0.107598 0.000000
0.388480 0.101226 0.000000
0.406005 0.092464 0.000000
0.423530 0.087622 0.000000
0.439767 0.078860 0.000000
0.454657 0.074020 0.000000
0.472182 0.065258 0.000000
0.486520 0.056495 0.000000
0.503309 0.047733 0.000000
0.520833 0.038971 0.000000
0.538358 0.030944 0.000000
0.555883 0.022181 0.000000
0.570220 0.014951 0.000000
0.587010 0.011030 0.000000
0.601348 0.007108 0.000000
0.618137 0.003922 0.000000
0.628554 0.000000 0.000000
0.642157 0.000000 0.000000
0.656557 0.000000 0.000000
0.669363 0.000000 0.000000
0.675123 0.000000 0.000000
0.690687 0.000000 0.000000
0.699449 0.000000 0.000000
0.708211 0.000000 0.000000
0.716974 0.000000 0.000000
0.725736 0.000000 0.000000
0.731311 0.000000 0.000000
0.740073 0.000000 0.000000
0.748101 0.000000 0.000000
0.753676 0.000000 0.000000
0.761704 0.000000 0.000000
0.767892 0.000000 0.000000
0.771814 0.000000 0.000000
0.776961 0.000000 0.000000
0.781801 0.000000 0.000000
0.786642 0.000000 0.000000
0.791422 0.000000 0.000000
0.799265 0.000000 0.000000
0.797242 0.000000 0.000000
0.802084 0.000000 0.000000
0.806924 0.000000 0.000000
0.811765 0.000000 0.000000
0.098039 0.231924 0.074694
0.102880 0.231741 0.070772
0.111459 0.228002 0.070772
0.116298 0.225245 0.064277
0.117647 0.227819 0.066851
0.126164 0.223407 0.062929
0.134742 0.220159 0.057598
0.139767 0.219976 0.059008
0.148530 0.216237 0.055086
0.157292 0.211888 0.050735
0.166054 0.208394 0.042157
0.175000 0.204473 0.039400
0.190686 0.197365 0.032291
0.200551 0.196446 0.027635
0.216973 0.191605 0.022610
0.235417 0.184865 0.017770
0.252941 0.178002 0.015686
0.270649 0.173163 0.008027
0.288174 0.168321 0.003248
0.305699 0.159558 -0.001593
0.329657 0.154719 0.000000
0.344670 0.145957 0.000000
0.362193 0.141115 0.000000
0.379718 0.132352 0.000000
0.397243 0.123590 0.000000
0.414767 0.118751 0.000000
0.431924 0.109988 0.000000
0.445894 0.105147 0.000000
0.463419 0.096384 0.000000
0.480944 0.087622 0.000000
0.494547 0.078860 0.000000
0.512071 0.070098 0.000000
0.529595 0.061335 0.000000
0.547120 0.052573 0.000000
0.560846 0.043811 0.000000
0.578248 0.034252 0.000000
0.594057 0.026103 0.000000
0.609375 0.017524 0.000000
0.623346 0.012500 0.000000
