Color/Fuji/Fuji FP-100c 1 -- 65x.cube
TITLE "Fuji FP-100c 1 --"
LUT_3D_SIZE 5
DOMAIN_MIN 0.000000 0.000000 0.000000
DOMAIN_MAX 1.000000 1.000000 1.000000
0.000000 0.000000 0.000000
0.174510 0.004902 0.000000
0.519608 0.000000 0.000000
0.846078 0.000000 0.000000
1.000000 0.149020 0.039216
0.000000 0.199020 0.000000
0.194117 0.220588 0.000000
0.609804 0.224510 0.000000
0.869608 0.219608 0.000000
1.000000 0.318627 0.056863
0.000000 0.492157 0.009804
0.143137 0.489216 0.016667
0.543137 0.523529 0.000000
0.862745 0.535294 0.000000
1.000000 0.580392 0.158824
0.000000 0.717647 0.101961
0.225490 0.712745 0.104902
0.513726 0.714707 0.016667
0.791176 0.741176 0.000000
1.000000 0.775490 0.000000
0.576471 0.960784 0.490196
0.623529 0.960784 0.495098
0.741176 0.956863 0.517647
0.870588 0.968627 0.477451
1.000000 0.988235 0.388235
0.000000 0.000000 0.205882
0.259804 0.000000 0.249019
0.500000 0.000000 0.221568
0.824510 0.000000 0.208824
1.000000 0.124510 0.217647
0.000000 0.211764 0.239215
0.244118 0.263726 0.271569
0.608823 0.252941 0.256863
0.852941 0.239215 0.230392
1.000000 0.318627 0.241176
0.000000 0.549019 0.268627
0.205882 0.538235 0.264706
0.580392 0.550000 0.205882
0.869608 0.554902 0.255883
1.000000 0.583333 0.311765
0.000000 0.737255 0.271568
0.257844 0.733333 0.272549
0.531372 0.724510 0.250000
0.796079 0.749020 0.125490
1.000000 0.781373 0.215687
0.565686 0.964706 0.533333
0.615686 0.960784 0.541176
0.735294 0.959804 0.559804
0.863726 0.968627 0.529412
1.000000 0.988235 0.453921
0.000000 0.000000 0.509804
0.284314 0.000000 0.557843
0.752941 0.000000 0.631373
0.771568 0.186274 0.511765
1.000000 0.196078 0.509804
0.000000 0.204902 0.507843
0.289216 0.228432 0.563725
0.748039 0.203922 0.638235
0.794118 0.345098 0.539215
1.000000 0.305882 0.502942
0.056862 0.531373 0.556863
0.350981 0.560785 0.579412
0.670589 0.631373 0.627451
0.851961 0.585294 0.569608
1.000000 0.574510 0.529412
0.304902 0.779412 0.592157
0.427451 0.781373 0.590196
0.588235 0.762745 0.546078
0.811765 0.772549 0.500981
1.000000 0.805883 0.568628
0.517648 0.970588 0.645098
0.576471 0.968627 0.649020
0.705882 0.964706 0.654902
0.852941 0.969607 0.652941
1.000000 0.988235 0.601961
0.229412 0.000000 0.766667
0.409804 0.000000 0.781373
0.745098 0.000000 0.824510
0.994118 0.000000 0.848039
1.000000 0.387255 0.762745
0.217647 0.196078 0.755883
0.397059 0.184314 0.772549
0.732353 0.131372 0.821569
0.980392 0.236274 0.847059
0.986274 0.490196 0.770588
0.000000 0.435294 0.677451
0.222548 0.455882 0.707843
0.639215 0.526471 0.779412
0.919608 0.609804 0.834314
0.949020 0.659804 0.780393
0.366667 0.736274 0.755882
0.466667 0.747059 0.766667
0.655882 0.772549 0.782353
0.854902 0.844118 0.833334
0.984314 0.809804 0.786275
0.580392 0.976471 0.860785
0.613725 0.978432 0.857843
0.700980 0.977451 0.841176
0.828432 0.976471 0.808823
1.000000 0.992157 0.790196
0.623529 0.156863 0.984314
0.682353 0.118627 0.985294
0.837255 0.000000 0.994117
1.000000 0.000000 1.000000
1.000000 0.274510 1.000000
0.609804 0.328431 0.979412
0.669608 0.317647 0.980392
0.819608 0.276470 0.988235
1.000000 0.228431 1.000000
1.000000 0.425490 1.000000
0.503922 0.549019 0.966666
0.583333 0.550980 0.966666
0.754902 0.549019 0.976471
0.953922 0.562745 0.992157
1.000000 0.649019 0.996078
0.444118 0.767647 0.950000
0.485294 0.770588 0.951961
0.592157 0.759804 0.952941
0.852941 0.783333 0.977451
1.000000 0.845098 0.992157
0.650980 0.968627 0.984314
0.670588 0.968627 0.984314
0.737255 0.972549 0.986274
0.841177 0.977451 0.988235
1.000000 1.000000 1.000000
