Color/Fuji/Fuji Provia 100F 65x.cube
TITLE "Fuji Provia 100F"
LUT_3D_SIZE 5
DOMAIN_MIN 0.000000 0.000000 0.000000
DOMAIN_MAX 1.000000 1.000000 1.000000
0.000000 0.000000 0.000000
0.229412 0.000000 0.000000
0.501961 0.000000 0.000000
0.830392 0.000000 0.000000
1.000000 0.000000 0.000000
0.097059 0.241176 0.104902
0.252941 0.237255 0.097059
0.515686 0.226470 0.075491
0.841177 0.205882 0.037255
1.000000 0.154902 0.000000
0.117647 0.511764 0.247058
0.281373 0.511764 0.241177
0.539215 0.507844 0.221569
0.850000 0.498039 0.178431
1.000000 0.476471 0.103921
0.213726 0.813726 0.409804
0.348039 0.813726 0.405883
0.593137 0.813726 0.393137
0.864706 0.809804 0.361764
1.000000 0.801961 0.284314
0.600000 1.000000 0.619608
0.646079 1.000000 0.615686
0.774510 1.000000 0.607843
0.965686 1.000000 0.591176
1.000000 1.000000 0.533333
0.000000 0.000000 0.108823
0.183334 0.000000 0.093137
0.469608 0.000000 0.073529
0.813726 0.000000 0.029412
1.000000 0.000000 0.000000
0.070588 0.221568 0.222549
0.217647 0.217647 0.217647
0.486274 0.205882 0.198039
0.817647 0.182353 0.158823
1.000000 0.130392 0.068627
0.039216 0.501961 0.342157
0.246078 0.501961 0.338235
0.516667 0.498039 0.322549
0.829412 0.486274 0.291177
1.000000 0.461765 0.216667
0.162745 0.809804 0.482353
0.314706 0.809804 0.479411
0.573529 0.806863 0.469608
0.849020 0.805883 0.447059
1.000000 0.794118 0.388235
0.580392 1.000000 0.674510
0.627451 1.000000 0.673530
0.758823 1.000000 0.666667
0.950000 1.000000 0.653921
1.000000 1.000000 0.603922
0.000000 0.000000 0.254902
0.129412 0.000000 0.245098
0.427451 0.000000 0.233333
0.775490 0.000000 0.201961
1.000000 0.000000 0.135294
0.043137 0.188235 0.365686
0.170588 0.182353 0.361765
0.447059 0.168627 0.350000
0.778432 0.142157 0.322549
1.000000 0.078431 0.259804
0.027451 0.482353 0.486274
0.172549 0.478432 0.482353
0.474510 0.474510 0.474510
0.794118 0.460784 0.451961
1.000000 0.431373 0.403922
0.009804 0.794118 0.626470
0.228432 0.794118 0.622549
0.524510 0.791176 0.615686
0.809804 0.786275 0.599019
1.000000 0.774510 0.557843
0.541176 1.000000 0.782353
0.591176 1.000000 0.782353
0.723529 1.000000 0.778431
0.918627 1.000000 0.766667
1.000000 1.000000 0.735294
0.000000 0.000000 0.424509
0.048039 0.000000 0.421569
0.365686 0.000000 0.412745
0.723530 0.000000 0.394118
1.000000 0.000000 0.353921
0.000000 0.127451 0.533333
0.099020 0.122549 0.533333
0.388235 0.103921 0.523530
0.727451 0.070588 0.501961
1.000000 0.010784 0.458824
0.000000 0.443137 0.652941
0.091177 0.440196 0.650000
0.413726 0.432353 0.646078
0.743137 0.419608 0.630392
1.000000 0.384313 0.599019
0.000000 0.770588 0.778432
0.062745 0.770588 0.778432
0.458823 0.767647 0.773529
0.762745 0.762745 0.762745
1.000000 0.747059 0.736274
0.474510 1.000000 0.914706
0.531373 1.000000 0.913725
0.676470 1.000000 0.910784
0.875490 1.000000 0.906862
1.000000 1.000000 0.887255
0.000000 0.000000 0.607843
0.000000 0.000000 0.607843
0.282353 0.000000 0.603922
0.657843 0.000000 0.592157
1.000000 0.000000 0.568627
0.000000 0.022549 0.698039
0.006863 0.017647 0.697059
0.303922 0.003922 0.690196
0.660785 0.000000 0.677451
1.000000 0.000000 0.650000
0.000000 0.376471 0.821568
0.006863 0.372549 0.817647
0.335294 0.362745 0.813725
0.686275 0.343137 0.805883
1.000000 0.296079 0.786274
0.000000 0.731373 0.933333
0.000000 0.728431 0.930392
0.359804 0.724510 0.929412
0.703922 0.716667 0.922549
1.000000 0.696079 0.910784
0.368627 1.000000 1.000000
0.438236 1.000000 1.000000
0.607843 1.000000 1.000000
0.832353 1.000000 1.000000
1.000000 1.000000 1.000000
