Color/Fuji/Fuji FP-100c 4 Alt 65x.cube
TITLE "Fuji FP-100c 4 Alt"
LUT_3D_SIZE 65
DOMAIN_MIN 0.000000 0.000000 0.000000
DOMAIN_MAX 1.000000 1.000000 1.000000
0.000000 0.000000 0.000000
0.000000 0.000000 0.000000
0.003922 0.000000 0.000000
0.006679 0.000000 0.000000
0.011520 0.000000 0.000000
0.015686 0.000000 0.000000
0.019608 0.000000 0.000000
0.026042 0.000000 0.000000
0.030883 0.000000 0.000000
0.039216 0.000000 0.000000
0.044485 0.000000 0.000000
0.053247 0.000000 0.000000
0.058089 0.000000 0.000000
0.066851 0.000000 0.000000
0.074510 0.000000 0.000000
0.080453 0.000000 0.000000
0.089216 0.000000 0.000000
0.097978 0.000000 0.000000
0.106740 0.000000 0.000000
0.115502 0.000000 0.000000
0.124265 0.000000 0.000000
0.133027 0.000000 0.000000
0.145711 0.000000 0.000000
0.154473 0.000000 0.000000
0.165686 0.000000 0.000000
0.175919 0.000000 0.000000
0.188603 0.000000 0.000000
0.198652 0.000000 0.000000
0.212255 0.000000 0.000000
0.225858 0.000000 0.000000
0.239339 0.000000 0.000000
0.253064 0.000000 0.000000
0.268628 0.000000 0.000000
0.284191 0.000000 0.000000
0.301716 0.000000 0.000000
0.319240 0.000000 0.000000
0.336764 0.000000 0.000000
0.358211 0.000000 0.000000
0.375736 0.000000 0.000000
0.397181 0.000000 0.000000
0.418627 0.000000 0.000000
0.438542 0.000000 0.000000
0.457598 0.000000 0.000000
0.479350 0.000000 0.000000
0.500490 0.000000 0.000000
0.521936 0.000000 0.000000
0.543382 0.000000 0.000000
0.564829 0.000000 0.000000
0.582353 0.000000 0.000000
0.603799 0.000000 0.000000
0.621323 0.000000 0.000000
0.638848 0.000000 0.000000
0.656373 0.000000 0.000000
0.673897 0.000000 0.000000
0.691422 0.000000 0.000000
0.708946 0.000000 0.000000
0.722549 0.000000 0.000000
0.740074 0.000000 0.000000
0.753677 0.000000 0.000000
0.767953 0.000000 0.000000
0.780882 0.000000 0.000000
0.794485 0.000000 0.000000
0.808089 0.000000 0.000000
0.818689 0.000000 0.000000
0.831373 0.000000 0.000000
0.000000 0.004841 0.000000
0.004841 0.004841 0.000000
0.008762 0.003922 0.000000
0.012684 0.003922 0.000000
0.016605 0.003922 0.000000
0.025122 0.000919 0.000000
0.032966 0.000919 0.000000
0.038725 0.000919 0.000000
0.046569 0.000919 0.000000
0.052328 0.000919 0.000000
0.059743 0.000919 0.000000
0.065931 0.000000 0.000000
0.071507 0.000000 0.000000
0.079534 0.000000 0.000000
0.088297 0.000000 0.000000
0.097059 0.000000 0.000000
0.101899 0.000000 0.000000
0.110661 0.000000 0.000000
0.119424 0.000000 0.000000
0.128186 0.000000 0.000000
0.136948 0.000000 0.000000
0.145711 0.000000 0.000000
0.158395 0.000000 0.000000
0.167157 0.000000 0.000000
0.178370 0.000000 0.000000
0.188603 0.000000 0.000000
0.201287 0.000000 0.000000
0.211336 0.000000 0.000000
0.222733 0.000000 0.000000
0.235417 0.000000 0.000000
0.248223 0.000000 0.000000
0.264706 0.000000 0.000000
0.279351 0.000000 0.000000
0.292954 0.000000 0.000000
0.310479 0.000000 0.000000
0.328002 0.000000 0.000000
0.345527 0.000000 0.000000
0.368689 0.000000 0.000000
0.384498 0.000000 0.000000
0.405944 0.000000 0.000000
0.423468 0.000000 0.000000
0.444914 0.000000 0.000000
0.468750 0.000000 0.000000
0.487807 0.000000 0.000000
0.508333 0.000000 0.000000
0.526777 0.000000 0.000000
0.550367 0.000000 0.000000
0.568750 0.000000 0.000000
0.587194 0.000000 0.000000
0.607721 0.000000 0.000000
0.625245 0.000000 0.000000
0.642769 0.000000 0.000000
0.660295 0.000000 0.000000
0.677819 0.000000 0.000000
0.695343 0.000000 0.000000
0.712868 0.000000 0.000000
0.726470 0.000000 0.000000
0.739583 0.000000 0.000000
0.755270 0.000000 0.000000
0.771201 0.000000 0.000000
0.784559 0.000000 0.000000
0.797242 0.000000 0.000000
0.806925 0.000000 0.000000
0.821691 0.000000 0.000000
0.832292 0.000000 0.000000
0.003922 0.013603 0.000000
0.008762 0.009681 0.000000
0.013603 0.009681 0.000000
0.017524 0.009681 0.000000
0.025123 0.009681 0.000000
0.029963 0.009681 0.000000
0.036887 0.007843 0.000000
0.045650 0.007843 0.000000
0.052329 0.005760 0.000000
0.060662 0.005760 0.000000
0.065931 0.005760 0.000000
0.072855 0.005760 0.000000
0.079535 0.002574 0.000000
0.086459 0.003922 0.000000
0.095221 0.003922 0.000000
0.101899 0.003922 0.000000
0.110661 0.003922 0.000000
0.119424 0.001838 0.000000
0.128186 0.001838 0.000000
0.136948 0.000000 0.000000
0.145711 0.000000 0.000000
0.154474 0.000000 0.000000
0.162009 0.000000 0.000000
0.175919 0.000000 0.000000
0.184681 0.000000 0.000000
0.198897 0.000000 0.000000
0.204657 0.000000 0.000000
0.218811 0.000000 0.000000
0.231863 0.000000 0.000000
0.245466 0.000000 0.000000
0.255147 0.000000 0.000000
0.270588 0.000000 0.000000
0.286274 0.000000 0.000000
0.301716 0.000000 0.000000
0.319240 0.000000 0.000000
0.336765 0.000000 0.000000
0.354289 0.000000 0.000000
0.371814 0.000000 0.000000
0.394975 0.000000 0.000000
0.409497 0.000000 0.000000
0.432231 0.000000 0.000000
0.449755 0.000000 0.000000
0.471201 0.000000 0.000000
0.492647 0.000000 0.000000
0.512255 0.000000 0.000000
0.531618 0.000000 0.000000
0.551225 0.000000 0.000000
0.568811 0.000000 0.000000
0.590196 0.000000 0.000000
0.609620 0.000000 0.000000
0.627084 0.000000 0.000000
0.646691 0.000000 0.000000
0.664216 0.000000 0.000000
0.679657 0.000000 0.000000
0.695343 0.000000 0.000000
0.712868 0.000000 0.000000
0.726470 0.000000 0.000000
0.742585 0.000000 0.000000
0.757598 0.000000 0.000000
0.771201 0.000000 0.000000
0.784559 0.000000 0.000000
0.797242 0.000000 0.000000
0.809927 0.000000 0.000000
0.821691 0.000000 0.000000
0.835294 0.000000 0.000000
0.010601 0.018444 0.000000
0.014522 0.018444 0.000000
0.018444 0.018444 0.000000
0.022365 0.018444 0.000000
0.026287 0.015686 0.000000
0.034805 0.014522 0.000000
0.040809 0.014522 0.000000
0.049571 0.014522 0.000000
0.057169 0.011091 0.000000
0.063174 0.011765 0.000000
0.070773 0.010601 0.000000
0.076777 0.010601 0.000000
0.084375 0.010601 0.000000
0.090380 0.010601 0.000000
0.099142 0.007843 0.000000
0.107904 0.007843 0.000000
0.115502 0.007843 0.000000
0.124264 0.006679 0.000000
0.133027 0.003922 0.000000
0.141789 0.003922 0.000000
0.150551 0.003922 0.000000
0.159313 0.003922 0.000000
0.171997 0.006067 0.000000
0.180760 0.002758 0.000000
0.190686 0.002758 0.000000
0.202206 0.000000 0.000000
0.214890 0.000000 0.000000
0.222181 0.000000 0.000000
0.235785 0.000000 0.000000
0.249019 0.000000 0.000000
0.261826 0.000000 0.000000
0.278309 0.000000 0.000000
0.290196 0.000000 0.000000
0.307721 0.000000 0.000000
0.324081 0.000000 0.000000
0.341606 0.000000 0.000000
0.359130 0.000000 0.000000
0.377819 0.000000 0.000000
0.398100 0.000000 0.000000
0.419547 0.000000 0.000000
0.437071 0.000000 0.000000
0.455760 0.000000 0.000000
0.476041 0.000000 0.000000
0.497488 0.000000 0.000000
0.516177 0.000000 0.000000
0.536458 0.000000 0.000000
0.555147 0.000000 0.000000
0.575429 0.000000 0.000000
0.594118 0.000000 0.000000
0.611642 0.000000 0.000000
0.629167 0.000000 0.000000
0.646691 0.000000 0.000000
0.664216 0.000000 0.000000
0.681740 0.000000 0.000000
0.696691 0.000000 0.000000
0.712868 0.000000 0.000000
0.729902 0.000000 0.000000
0.743995 0.000000 0.000000
0.757598 0.000000 0.000000
0.771201 0.000000 0.000000
0.784559 0.000000 0.000000
0.797242 0.000000 0.000000
0.809927 0.000000 0.000000
0.822610 0.000000 0.000000
0.835294 0.000000 0.000000
0.011765 0.027206 0.000000
0.019363 0.027206 0.000000
0.023284 0.027206 0.000000
0.027206 0.024448 0.000000
0.031128 0.023284 0.000000
0.039644 0.023284 0.000000
0.044730 0.023284 0.000000
0.054657 0.019608 0.000000
0.062010 0.019363 0.000000
0.067096 0.019363 0.000000
0.071936 0.019363 0.000000
0.080698 0.019363 0.000000
0.089216 0.015686 0.000000
0.094302 0.015441 0.000000
0.103064 0.015441 0.000000
0.111826 0.011765 0.000000
0.120343 0.011765 0.000000
0.129106 0.011765 0.000000
0.137867 0.011520 0.000000
0.146630 0.011520 0.000000
0.155393 0.007843 0.000000
0.164400 0.007843 0.000000
0.176838 0.007598 0.000000
0.185600 0.007598 0.000000
0.194608 0.003922 0.000000
0.207046 0.003922 0.000000
0.219730 0.003922 0.000000
0.232414 0.003677 0.000000
0.239706 0.003677 0.000000
0.253309 0.000000 0.000000
0.270466 0.000000 0.000000
0.280515 0.000000 0.000000
0.297794 0.000000 0.000000
0.311642 0.000000 0.000000
0.328922 0.000000 0.000000
0.346445 0.000000 0.000000
0.364215 0.000000 0.000000
0.385416 0.000000 0.000000
0.402942 0.000000 0.000000
0.424388 0.000000 0.000000
0.439706 0.000000 0.000000
0.463358 0.000000 0.000000
0.480515 0.000000 0.000000
0.502329 0.000000 0.000000
0.520098 0.000000 0.000000
0.541299 0.000000 0.000000
0.559068 0.000000 0.000000
0.580269 0.000000 0.000000
0.597795 0.000000 0.000000
0.615564 0.000000 0.000000
0.633088 0.000000 0.000000
0.650612 0.000000 0.000000
0.664216 0.000000 0.000000
0.681740 0.000000 0.000000
0.699265 0.000000 0.000000
0.712868 0.000000 0.000000
0.729902 0.000000 0.000000
0.743995 0.000000 0.000000
0.757598 0.000000 0.000000
0.771201 0.000000 0.000000
0.784804 0.000000 0.000000
0.797242 0.000000 0.000000
0.809927 0.000000 0.000000
0.822610 0.000000 0.000000
0.835294 0.000000 0.000000
0.020282 0.039890 0.003922
0.024448 0.036642 0.003922
0.029289 0.035968 0.000674
0.034130 0.035968 0.000674
0.038971 0.035968 0.000000
0.043811 0.032047 0.000000
0.049326 0.032047 0.000000
0.057415 0.032047 0.000000
0.066177 0.032047 0.000000
0.071017 0.028125 0.000000
0.079779 0.028125 0.000000
0.085294 0.028125 0.000000
0.093383 0.021691 0.000000
0.098897 0.024203 0.000000
0.107659 0.024203 0.000000
0.116421 0.022181 0.000000
0.124510 0.020282 0.000000
0.133272 0.020282 0.000000
0.142034 0.019424 0.000000
0.150797 0.016360 0.000000
0.160233 0.016360 0.000000
0.168996 0.012744 0.000000
0.181005 0.012439 0.000000
0.190441 0.012439 0.000000
0.199203 0.009988 0.000000
0.214583 0.011765 0.000000
0.223897 0.008517 0.000000
0.233334 0.007230 0.000000
0.246017 0.007843 0.000000
0.261152 0.004596 0.000000
0.271507 0.004596 0.000000
0.288358 0.003922 0.000000
0.300674 0.003922 0.000000
0.319486 0.003922 0.000000
0.333762 0.003922 0.000000
0.351287 0.000000 0.000000
0.368812 0.000000 0.000000
0.389584 0.000000 0.000000
0.407782 0.000000 0.000000
0.428554 0.000000 0.000000
0.446752 0.000000 0.000000
0.464277 0.000000 0.000000
0.485723 0.000000 0.000000
0.507169 0.000000 0.000000
0.524694 0.000000 0.000000
0.545466 0.000000 0.000000
0.563664 0.000000 0.000000
0.584437 0.000000 0.000000
0.601961 0.000000 0.000000
0.619485 0.000000 0.000000
0.637010 0.000000 0.000000
0.654534 0.000000 0.000000
0.668811 0.000000 0.000000
0.684681 0.000000 0.000000
0.703186 0.000000 0.000000
0.716789 0.000000 0.000000
0.730392 0.000000 0.000000
0.743260 0.000000 0.000000
0.759191 0.000000 0.000000
0.771875 0.000000 0.000000
0.784804 0.000000 0.000000
0.798407 0.000000 0.000000
0.809927 0.000000 0.000000
0.822610 0.000000 0.000000
0.835294 0.000000 0.000000
0.025122 0.050245 0.003922
0.028370 0.048652 0.003922
0.032966 0.048652 0.003922
0.036887 0.048652 0.003922
0.040809 0.042647 0.003922
0.047733 0.044730 0.003922
0.054167 0.044730 0.001593
0.061336 0.042402 0.001593
0.070098 0.040809 0.001593
0.074939 0.040809 0.000000
0.083946 0.038480 0.000000
0.087868 0.036887 0.000000
0.097304 0.036887 0.000000
0.103738 0.034559 0.000000
0.112500 0.032966 0.000000
0.121262 0.032966 0.000000
0.127083 0.027696 0.000000
0.137194 0.029044 0.000000
0.145956 0.028186 0.000000
0.156495 0.025122 0.000000
0.165073 0.025122 0.000000
0.173836 0.021507 0.000000
0.184927 0.021201 0.000000
0.195282 0.021201 0.000000
0.204044 0.017279 0.000000
0.216728 0.017279 0.000000
0.229412 0.016911 0.000000
0.237867 0.013358 0.000000
0.250858 0.013358 0.000000
0.263542 0.011765 0.000000
0.280147 0.009436 0.000000
0.292279 0.007843 0.000000
0.307476 0.007843 0.000000
0.323407 0.007843 0.000000
0.340931 0.005515 0.000000
0.355331 0.003922 0.000000
0.375980 0.001593 0.000000
0.395098 0.000000 0.000000
0.412623 0.000000 0.000000
0.434069 0.000000 0.000000
0.451593 0.000000 0.000000
0.471446 0.000000 0.000000
0.490564 0.000000 0.000000
0.512010 0.000000 0.000000
0.529167 0.000000 0.000000
0.551532 0.000000 0.000000
0.568505 0.000000 0.000000
0.588358 0.000000 0.000000
0.605883 0.000000 0.000000
0.623407 0.000000 0.000000
0.640931 0.000000 0.000000
0.658456 0.000000 0.000000
0.673652 0.000000 0.000000
0.689584 0.000000 0.000000
0.704779 0.000000 0.000000
0.720711 0.000000 0.000000
0.735416 0.000000 0.000000
0.748100 0.000000 0.000000
0.761520 0.000000 0.000000
0.775123 0.000000 0.000000
0.784804 0.000000 0.000000
0.798407 0.000000 0.000000
0.812010 0.000000 0.000000
0.822610 0.000000 0.000000
0.835294 0.000000 0.000000
0.033885 0.061336 0.007843
0.037807 0.062929 0.006434
0.041728 0.059926 0.006434
0.045895 0.057415 0.006434
0.049325 0.057415 0.003922
0.051654 0.059253 0.003922
0.059007 0.056005 0.003922
0.065258 0.053493 0.003922
0.074020 0.053493 0.003922
0.078860 0.052083 0.003922
0.088787 0.049571 0.003922
0.092463 0.049571 0.004167
0.101226 0.049571 0.002513
0.112316 0.045650 0.000000
0.117341 0.047059 0.000000
0.126103 0.041728 0.000000
0.131924 0.041728 0.000000
0.143628 0.041728 0.000000
0.152390 0.037807 0.000000
0.161152 0.038542 0.000000
0.169914 0.033701 0.000000
0.178676 0.033885 0.000000
0.191360 0.029964 0.000000
0.200123 0.029964 0.000000
0.210294 0.026042 0.000000
0.221568 0.026042 0.000000
0.234253 0.022120 0.000000
0.244424 0.022120 0.000000
0.255392 0.019914 0.000000
0.268382 0.018199 0.000000
0.284987 0.015686 0.000000
0.296201 0.014277 0.000000
0.312316 0.011765 0.000000
0.329841 0.011765 0.000000
0.344853 0.010356 0.000000
0.364890 0.009558 0.000000
0.382414 0.003922 0.000000
0.399939 0.003922 0.000000
0.417463 0.002513 0.000000
0.438909 0.000000 0.000000
0.455392 0.000000 0.000000
0.477880 0.000000 0.000000
0.495404 0.000000 0.000000
0.516851 0.000000 0.000000
0.533088 0.000000 0.000000
0.555821 0.000000 0.000000
0.573346 0.000000 0.000000
0.592280 0.000000 0.000000
0.609804 0.000000 0.000000
0.627328 0.000000 0.000000
0.644853 0.000000 0.000000
0.662377 0.000000 0.000000
0.675981 0.000000 0.000000
0.693505 0.000000 0.000000
0.707047 0.000000 0.000000
0.724632 0.000000 0.000000
0.737745 0.000000 0.000000
0.750429 0.000000 0.000000
0.763113 0.000000 0.000000
0.774387 0.000000 0.000000
0.788480 0.000000 0.000000
0.801164 0.000000 0.000000
0.812010 0.000000 0.000000
0.822610 0.000000 0.000000
0.835294 0.000000 0.000000
0.042647 0.074020 0.011275
0.046569 0.073530 0.011275
0.048406 0.070098 0.007843
0.049816 0.070098 0.007843
0.054412 0.070098 0.007843
0.059007 0.069608 0.007843
0.066177 0.066177 0.009681
0.069179 0.066177 0.007353
0.077941 0.066177 0.007353
0.082782 0.062255 0.003922
0.091055 0.062255 0.003922
0.096385 0.063419 0.003922
0.105147 0.061765 0.003922
0.117157 0.058334 0.003922
0.122181 0.057844 0.003922
0.130943 0.054412 0.005331
0.139705 0.054412 0.003432
0.148468 0.053922 -0.000429
0.157230 0.050490 0.000000
0.165992 0.046569 0.000000
0.174755 0.046569 0.000000
0.184008 0.042463 0.000000
0.196201 0.042647 0.000000
0.203064 0.038726 0.000000
0.217647 0.038726 0.000000
0.226348 0.034804 0.000000
0.239093 0.037868 0.000000
0.251777 0.030883 0.000000
0.264461 0.032108 0.000000
0.272917 0.026961 0.000000
0.286520 0.023039 0.000000
0.303554 0.023039 0.000000
0.319118 0.021079 0.000000
0.334681 0.019118 0.000000
0.352206 0.015686 0.000000
0.369731 0.011765 0.000000
0.387255 0.011275 0.000000
0.403983 0.007843 0.000000
0.422794 0.007353 0.000000
0.443750 0.003922 0.000000
0.461765 0.005883 0.000000
0.482721 0.000000 0.000000
0.500736 0.000000 0.000000
0.521691 0.000000 0.000000
0.539706 0.000000 0.000000
0.560662 0.000000 0.000000
0.578186 0.000000 0.000000
0.596201 0.000000 0.000000
0.613726 0.000000 0.000000
0.631250 0.000000 0.000000
0.648774 0.000000 0.000000
0.665809 0.000000 0.000000
0.679902 0.000000 0.000000
0.699204 0.000000 0.000000
0.711030 0.000000 0.000000
0.724571 0.000000 0.000000
0.738235 0.000000 0.000000
0.751839 0.000000 0.000000
0.765441 0.000000 0.000000
0.779044 0.000000 0.000000
0.788725 0.000000 0.000000
0.804595 0.000000 0.000000
0.813848 0.000000 0.000000
0.826042 0.000000 0.000000
0.835294 0.000000 0.000000
0.047488 0.083211 0.015686
0.051409 0.082782 0.012194
0.055331 0.082782 0.012194
0.059253 0.082782 0.012194
0.062930 0.079289 0.012194
0.067096 0.078860 0.011765
0.072181 0.078860 0.011765
0.077022 0.078860 0.011765
0.078860 0.075368 0.008272
0.086704 0.074939 0.008272
0.095466 0.074939 0.007843
0.100735 0.074939 0.007843
0.109497 0.068260 0.007843
0.118260 0.071017 0.007843
0.126593 0.066422 0.004351
0.135355 0.067096 0.004351
0.144118 0.067096 0.001410
0.152880 0.059743 0.003922
0.161642 0.063174 0.003922
0.170404 0.059253 0.003922
0.181863 0.059253 0.003922
0.188358 0.052145 0.000429
0.200613 0.055331 0.000000
0.209804 0.051409 0.000000
0.218566 0.051409 0.000000
0.234191 0.047488 0.000000
0.243934 0.043566 0.000000
0.252696 0.043566 0.000000
0.265380 0.037868 0.000000
0.278064 0.039645 0.000000
0.294670 0.036029 0.000000
0.307353 0.031802 0.000000
0.325490 0.026348 0.000000
0.339522 0.027880 0.000000
0.357047 0.023958 0.000000
0.374571 0.019240 0.000000
0.392095 0.016115 0.000000
0.409620 0.015686 0.000000
0.430638 0.012194 0.000000
0.448591 0.008272 0.000000
0.466115 0.007843 0.000000
0.489522 0.004351 0.000000
0.505086 0.003922 0.000000
0.526532 0.000429 0.000000
0.544056 0.000000 0.000000
0.565073 0.000000 0.000000
0.582598 0.000000 0.000000
0.600552 0.000000 0.000000
0.618076 0.000000 0.000000
0.633702 0.000000 0.000000
0.652696 0.000000 0.000000
0.670220 0.000000 0.000000
0.683517 0.000000 0.000000
0.701348 0.000000 0.000000
0.712806 0.000000 0.000000
0.732475 0.000000 0.000000
0.742095 0.000000 0.000000
0.754779 0.000000 0.000000
0.767464 0.000000 0.000000
0.782966 0.000000 0.000000
0.792647 0.000000 0.000000
0.805086 0.000000 0.000000
0.814277 0.000000 0.000000
0.826532 0.000000 0.000000
0.835723 0.000000 0.000000
0.056250 0.095466 0.019608
0.060172 0.095466 0.019608
0.064583 0.092892 0.019608
0.066850 0.092892 0.017034
0.068015 0.091544 0.017034
0.072610 0.091544 0.017034
0.075858 0.091544 0.015686
0.079779 0.088971 0.015686
0.087132 0.087623 0.013113
0.090625 0.087623 0.013113
0.099387 0.085049 0.011765
0.105576 0.083701 0.011765
0.114338 0.083701 0.011765
0.123101 0.079779 0.009191
0.130515 0.079779 0.009191
0.139277 0.079779 0.007169
0.148040 0.074265 0.007843
0.156802 0.075858 0.007843
0.165564 0.071936 0.005270
0.174326 0.071936 0.005270
0.185784 0.069363 0.003922
0.193198 0.068015 0.003922
0.205883 0.064093 0.003922
0.214645 0.064093 0.001348
0.225980 0.059069 -0.001103
0.236091 0.060172 0.000000
0.248775 0.056250 0.000000
0.261459 0.053676 0.000000
0.270221 0.052328 0.000000
0.282905 0.046630 0.000000
0.298284 0.044485 0.000000
0.313235 0.044792 0.000000
0.329411 0.040564 0.000000
0.344363 0.036642 0.000000
0.361887 0.032721 0.000000
0.379412 0.028003 0.000000
0.396937 0.024877 0.000000
0.417035 0.020956 0.000000
0.438113 0.017402 0.000000
0.453431 0.016482 0.000000
0.473529 0.011642 0.000000
0.492402 0.009191 0.000000
0.509927 0.007843 0.000000
0.531373 0.003922 0.000000
0.548775 0.003922 0.000000
0.568995 0.001348 0.000000
0.589583 -0.001716 0.000000
0.605392 0.000000 0.000000
0.622917 0.000000 0.000000
0.638541 0.000000 0.000000
0.656618 0.000000 0.000000
0.674142 0.000000 0.000000
0.687746 0.000000 0.000000
0.705270 0.000000 0.000000
0.718873 0.000000 0.000000
0.730330 0.000000 0.000000
0.746078 0.000000 0.000000
0.759682 0.000000 0.000000
0.773284 0.000000 0.000000
0.786887 0.000000 0.000000
0.797671 0.000000 0.000000
0.806250 0.000000 0.000000
0.819853 0.000000 0.000000
0.827880 0.000000 0.000000
0.839216 0.000000 0.000000
0.065012 0.108149 0.025796
0.068934 0.106495 0.023529
0.070772 0.106495 0.023529
0.072855 0.104228 0.023529
0.076777 0.104228 0.021875
0.080698 0.105821 0.021875
0.084620 0.102573 0.021875
0.088542 0.100061 0.019608
0.092463 0.100306 0.019608
0.096814 0.098652 0.017953
0.104228 0.098652 0.017953
0.110416 0.096385 0.015686
0.119179 0.096385 0.015686
0.127941 0.092463 0.014032
0.134436 0.092463 0.011765
0.143198 0.090809 0.011765
0.151961 0.087868 0.011765
0.160723 0.088542 0.011765
0.169485 0.084620 0.010110
0.180515 0.085111 0.007843
0.189277 0.080269 0.007843
0.198039 0.080698 0.007843
0.210723 0.076777 0.003922
0.219485 0.077512 0.003922
0.232353 0.072672 0.003922
0.240931 0.072855 0.003922
0.253615 0.068934 0.000000
0.266299 0.065012 0.000000
0.278983 0.065074 0.000000
0.292525 0.061091 0.000000
0.302206 0.057169 0.000000
0.320956 0.055515 0.000000
0.335600 0.053554 0.000000
0.350858 0.049326 0.000000
0.368382 0.045404 0.000000
0.385907 0.037561 0.000000
0.403431 0.033640 0.000000
0.423223 0.031005 0.000000
0.440748 0.029718 0.000000
0.459927 0.025244 0.000000
0.479719 0.020405 0.000000
0.497243 0.015563 0.000000
0.519731 0.014032 0.000000
0.536213 0.010110 0.000000
0.555392 0.007843 0.000000
0.572917 0.006189 0.000000
0.592708 0.003922 0.000000
0.610233 0.002267 0.000000
0.627757 0.000000 0.000000
0.643015 0.000000 0.000000
0.660539 0.000000 0.000000
0.678063 0.000000 0.000000
0.691667 0.000000 0.000000
0.707537 0.000000 0.000000
0.722794 0.000000 0.000000
0.736397 0.000000 0.000000
0.751778 0.000000 0.000000
0.764460 0.000000 0.000000
0.774878 0.000000 0.000000
0.785906 0.000000 0.000000
0.800245 0.000000 0.000000
0.811274 0.000000 0.000000
0.821691 0.000000 0.000000
0.833456 0.000000 0.000000
0.843137 0.000000 0.000000
0.073775 0.120098 0.030638
0.077696 0.120098 0.030638
0.079535 0.120098 0.027451
0.081618 0.120098 0.027451
0.085540 0.116912 0.027451
0.089461 0.119424 0.026716
0.093383 0.116176 0.026716
0.097304 0.116176 0.023529
0.100736 0.112990 0.023529
0.105147 0.115747 0.022794
0.107230 0.112254 0.022794
0.116912 0.112254 0.019608
0.124019 0.109069 0.019608
0.132782 0.108333 0.018873
0.138358 0.105147 0.015686
0.147120 0.106311 0.015686
0.155883 0.104411 0.015931
0.164645 0.101226 0.014951
0.176593 0.100490 0.011765
0.185355 0.097304 0.011765
0.194117 0.096568 0.012255
0.203616 0.093383 0.011030
0.215564 0.092647 0.007843
0.222672 0.091115 0.009497
0.237010 0.088725 0.003922
0.245772 0.085540 0.003922
0.255637 0.081618 0.003922
0.269240 0.080882 0.005822
0.283824 0.078676 0.000000
0.296507 0.073775 0.000000
0.313112 0.069853 0.000000
0.323652 0.069117 0.000000
0.340441 0.067157 0.000000
0.357966 0.062316 0.000000
0.375491 0.058089 0.000000
0.393015 0.050245 0.000000
0.410539 0.046324 0.000000
0.428064 0.045588 0.000000
0.446324 0.042402 0.000000
0.467035 0.034559 0.000000
0.484558 0.030638 0.000000
0.506005 0.026716 0.000000
0.523529 0.022794 0.000000
0.541789 0.018873 0.000000
0.562500 0.014951 0.000000
0.580025 0.012807 0.000000
0.597549 0.011030 0.000000
0.615073 0.007108 0.000000
0.632598 0.003922 0.000000
0.650123 0.003922 0.000000
0.664461 0.003187 0.000000
0.681985 0.000000 0.000000
0.695589 0.000000 0.000000
0.712377 0.000000 0.000000
0.727329 0.000000 0.000000
0.740318 0.000000 0.000000
0.753431 0.000000 0.000000
0.766115 0.000000 0.000000
0.777206 0.000000 0.000000
0.790748 0.000000 0.000000
0.800490 0.000000 0.000000
0.812929 0.000000 0.000000
0.823775 0.000000 0.000000
0.834375 0.000000 0.000000
0.846324 0.000000 0.000000
0.082537 0.133517 0.035478
0.086459 0.133517 0.035294
0.088297 0.133517 0.035294
0.090380 0.129780 0.035294
0.094056 0.129780 0.031557
0.098713 0.129596 0.031557
0.098223 0.129596 0.031557
0.102145 0.129596 0.031373
0.106066 0.125858 0.031373
0.110417 0.125429 0.027635
0.115257 0.125674 0.027451
0.123836 0.125674 0.027451
0.128860 0.118750 0.023713
0.137439 0.121753 0.023529
0.146201 0.118015 0.023529
0.151226 0.115993 0.019792
0.159988 0.117831 0.016851
0.172488 0.114093 0.019608
0.181250 0.113909 0.015870
0.191789 0.110172 0.015686
0.198958 0.109988 0.015686
0.207721 0.106250 0.011949
0.220833 0.106066 0.011765
0.229166 0.100797 0.011765
0.244118 0.102145 0.005576
0.250613 0.095037 0.007843
0.263296 0.094486 0.004106
0.275981 0.094302 0.003922
0.288665 0.090564 0.003922
0.301347 0.090380 0.003922
0.317953 0.086520 0.000000
0.330638 0.082537 0.000000
0.349020 0.076838 0.000000
0.362806 0.071997 0.000000
0.380331 0.067157 0.000000
0.397855 0.066851 0.000000
0.415380 0.062929 0.000000
0.432904 0.059008 0.000000
0.454167 0.051716 0.000000
