Color/Fuji/Fuji Provia 400X 65x.cube
TITLE "Fuji Provia 400X"
LUT_3D_SIZE 65
DOMAIN_MIN 0.000000 0.000000 0.000000
DOMAIN_MAX 1.000000 1.000000 1.000000
0.000000 0.000000 0.000000
0.017524 0.000000 0.000000
0.038970 0.000000 0.000000
0.056495 0.000000 0.000000
0.074020 0.000000 0.000000
0.091544 0.000000 0.000000
0.109068 0.000000 0.000000
0.122671 0.000000 0.000000
0.140196 0.000000 0.000000
0.157721 0.000000 0.000000
0.175245 0.000000 0.000000
0.188848 0.000000 0.000000
0.203187 0.000000 0.000000
0.219976 0.000000 0.000000
0.237500 0.000000 0.000000
0.255025 0.000000 0.000000
0.272549 0.000000 0.000000
0.286152 0.000000 0.000000
0.303677 0.000000 0.000000
0.321201 0.000000 0.000000
0.338725 0.000000 0.000000
0.356250 0.000000 0.000000
0.373774 0.000000 0.000000
0.392831 0.000000 0.000000
0.412745 0.000000 0.000000
0.433640 0.000000 0.000000
0.451715 0.000000 0.000000
0.473161 0.000000 0.000000
0.494608 0.000000 0.000000
0.515257 0.000000 0.000000
0.537500 0.000000 0.000000
0.556066 0.000000 0.000000
0.578431 0.000000 0.000000
0.600797 0.000000 0.000000
0.623161 0.000000 0.000000
0.641606 0.000000 0.000000
0.662255 0.000000 0.000000
0.683701 0.000000 0.000000
0.701226 0.000000 0.000000
0.722672 0.000000 0.000000
0.740196 0.000000 0.000000
0.757720 0.000000 0.000000
0.775245 0.000000 0.000000
0.792463 0.000000 0.000000
0.806373 0.000000 0.000000
0.823897 0.000000 0.000000
0.838358 0.000000 0.000000
0.854963 0.000000 0.000000
0.868628 0.000000 0.000000
0.882230 0.000000 0.000000
0.896936 0.000000 0.000000
0.913357 0.000000 0.000000
0.926961 0.000000 0.000000
0.940564 0.000000 0.000000
0.954167 0.000000 0.000000
0.968198 0.000000 0.000000
0.984804 0.000000 0.000000
0.997487 0.000000 0.000000
1.000000 0.000000 0.000000
1.000000 0.000000 0.000000
1.000000 0.000000 0.000000
1.000000 0.000000 0.000000
1.000000 0.000000 0.000000
1.000000 0.000000 0.000000
1.000000 0.000000 0.000000
0.000000 0.018443 0.000000
0.018443 0.017524 0.000000
0.038970 0.017524 0.000000
0.056495 0.017524 0.000000
0.074020 0.017524 0.000000
0.091544 0.013603 0.000000
0.109068 0.013603 0.000000
0.126593 0.013603 0.000000
0.140196 0.013603 0.000000
0.157721 0.013603 0.000000
0.175245 0.013603 0.000000
0.188848 0.013603 0.000000
0.203187 0.010417 0.000000
0.219976 0.009681 0.000000
0.237500 0.009681 0.000000
0.255025 0.009681 0.000000
0.272549 0.009681 0.000000
0.290073 0.009681 0.000000
0.303677 0.009681 0.000000
0.321201 0.009681 0.000000
0.338725 0.009681 0.000000
0.356250 0.006067 0.000000
0.374694 0.008762 0.000000
0.395221 0.005760 0.000000
0.415196 0.005760 0.000000
0.434191 0.004841 0.000000
0.452083 0.004841 0.000000
0.474448 0.004841 0.000000
0.494608 0.004841 0.000000
0.513051 0.004841 0.000000
0.537500 0.000919 0.000000
0.558946 0.000919 0.000000
0.580392 0.000919 0.000000
0.598836 0.000919 0.000000
0.620282 0.000919 0.000000
0.644730 0.000919 0.000000
0.663174 0.000919 0.000000
0.683701 0.000000 0.000000
0.702145 0.000000 0.000000
0.722672 0.000000 0.000000
0.740196 0.000000 0.000000
0.757720 0.000000 0.000000
0.775245 0.000000 0.000000
0.792770 0.000000 0.000000
0.807292 0.000000 0.000000
0.823897 0.000000 0.000000
0.841421 0.000000 0.000000
0.855882 0.000000 0.000000
0.868628 0.000000 0.000000
0.881250 0.000000 0.000000
0.896936 0.000000 0.000000
0.913357 0.000000 0.000000
0.923040 0.000000 0.000000
0.940564 0.000000 0.000000
0.954167 0.000000 0.000000
0.967769 0.000000 0.000000
0.981372 0.000000 0.000000
0.993076 0.000000 0.000000
1.000000 0.000000 0.000000
1.000000 0.000000 0.000000
1.000000 0.000000 0.000000
1.000000 0.000000 0.000000
1.000000 0.000000 0.000000
1.000000 0.000000 0.000000
1.000000 0.000000 0.000000
0.005760 0.038970 0.000000
0.023285 0.039889 0.000000
0.038970 0.035049 0.000000
0.056495 0.035049 0.000000
0.074020 0.035049 0.000000
0.091544 0.035049 0.000000
0.109068 0.035049 0.000000
0.124755 0.032966 0.000000
0.140196 0.031127 0.000000
0.157721 0.031127 0.000000
0.173897 0.031127 0.000000
0.188848 0.031127 0.000000
0.202451 0.031127 0.000000
0.219976 0.027206 0.000000
0.237500 0.027206 0.000000
0.255025 0.027206 0.000000
0.272549 0.027206 0.000000
0.286214 0.027206 0.000000
0.303677 0.025367 0.000000
0.321201 0.025367 0.000000
0.338725 0.023284 0.000000
0.356250 0.023284 0.000000
0.377696 0.021446 0.000000
0.395221 0.021752 0.000000
0.414583 0.019362 0.000000
0.434191 0.019362 0.000000
0.455637 0.017524 0.000000
0.474448 0.018076 0.000000
0.496814 0.015441 0.000000
0.516054 0.013603 0.000000
0.537623 0.013603 0.000000
0.559988 0.011519 0.000000
0.582353 0.009559 0.000000
0.604718 0.009681 0.000000
0.627083 0.009681 0.000000
0.645527 0.009681 0.000000
0.668015 0.009804 0.000000
0.687623 0.005760 0.000000
0.708701 0.005760 0.000000
0.726593 0.005760 0.000000
0.744117 0.005760 0.000000
0.761642 0.005760 0.000000
0.779167 0.005760 0.000000
0.794608 0.003922 0.000000
0.810294 0.001838 0.000000
0.827819 -0.000306 0.000000
0.840196 0.000000 0.000000
0.855025 0.000000 0.000000
0.873406 0.000000 0.000000
0.886152 0.000000 0.000000
0.898775 0.000000 0.000000
0.911458 0.000000 0.000000
0.926961 0.000000 0.000000
0.940564 0.000000 0.000000
0.958088 0.000000 0.000000
0.971691 0.000000 0.000000
0.984804 0.000000 0.000000
0.997916 0.000000 0.000000
1.000000 0.000000 0.000000
1.000000 0.000000 0.000000
1.000000 0.000000 0.000000
1.000000 0.000000 0.000000
1.000000 0.000000 0.000000
1.000000 0.000000 0.000000
1.000000 0.000000 0.000000
0.014522 0.056495 0.002758
0.031127 0.056495 0.002758
0.042892 0.056495 0.002758
0.056495 0.052574 0.002758
0.074020 0.052574 -0.000919
0.091544 0.052574 0.002758
0.107475 0.052574 0.000000
0.122671 0.052574 0.000000
0.140196 0.048652 0.000000
0.157292 0.048652 0.000000
0.171323 0.048652 0.002758
0.186581 0.048652 0.002758
0.202451 0.048652 0.002758
0.219976 0.044731 0.002758
0.237500 0.044731 0.002758
0.255025 0.044731 0.000000
0.269608 0.044731 0.000000
0.286152 0.040870 0.000000
0.303677 0.040809 0.000000
0.321201 0.040809 0.000000
0.338725 0.040809 0.000000
0.356250 0.040809 0.000000
0.377696 0.036888 0.000000
0.395221 0.036888 0.000000
0.415196 0.034436 0.000000
0.434191 0.032966 0.000000
0.455637 0.032966 0.000000
0.474448 0.030209 0.000000
0.496814 0.029044 0.000000
0.519179 0.025919 0.000000
0.541421 0.025123 0.000000
0.559988 0.025123 0.000000
0.582353 0.022365 0.000000
0.604595 0.022365 0.000000
0.626042 0.022365 0.000000
0.648652 0.018444 0.000000
0.667892 0.018444 0.000000
0.690380 0.018566 0.000000
0.709069 0.014522 0.000000
0.729351 0.014522 0.000000
0.746874 0.014522 0.000000
0.764399 0.014522 0.000000
0.781924 0.011765 0.000000
0.796691 0.010601 0.000000
0.814216 0.009375 0.000000
0.830576 0.006679 0.000000
0.845343 0.006679 0.000000
0.858947 0.003922 0.000000
0.872549 0.003922 0.000000
0.890932 0.003922 0.000000
0.903676 0.003922 0.000000
0.916299 0.002758 0.000000
0.930883 0.000000 0.000000
0.944485 0.000000 0.000000
0.958088 0.000000 0.000000
0.972120 0.000000 0.000000
0.985294 0.000000 0.000000
0.997487 0.000000 0.000000
1.000000 0.000000 0.000000
1.000000 0.000000 0.000000
1.000000 0.000000 0.000000
1.000000 0.000000 0.000000
1.000000 0.000000 0.000000
1.000000 0.000000 0.000000
1.000000 0.000000 0.000000
0.019608 0.074020 0.003922
0.033211 0.074020 0.003922
0.046813 0.072181 0.003922
0.061336 0.070098 0.003922
0.074020 0.070098 0.003922
0.087623 0.070098 0.003922
0.105147 0.070098 0.003922
0.122671 0.067586 0.003922
0.140196 0.066177 0.003922
0.153799 0.066177 0.003922
0.171323 0.066177 0.003922
0.184926 0.066177 0.003922
0.202451 0.062990 0.003922
0.219976 0.062255 0.003922
0.237500 0.062255 0.003922
0.251348 0.062255 0.003922
0.268627 0.058579 0.003922
0.286152 0.058334 0.003922
0.303677 0.058334 0.003922
0.321201 0.058334 0.003922
0.338725 0.058334 0.003922
0.356250 0.054718 0.003922
0.370710 0.054412 0.006986
0.395221 0.052880 0.003677
0.411519 0.050490 0.003677
0.434191 0.050490 0.003370
0.455637 0.050122 0.003922
0.474448 0.046569 0.006312
0.496814 0.042892 0.003677
0.519179 0.042647 0.003677
0.541421 0.042647 0.000000
0.562867 0.041605 0.000000
0.584314 0.038726 0.000000
0.609437 0.038726 0.000000
0.627206 0.035049 0.000000
0.649449 0.034804 0.000000
0.670098 0.031128 0.000000
0.691545 0.030883 0.000000
0.712746 0.027206 0.000000
0.730515 0.026961 0.000000
0.748039 0.023284 0.000000
0.765563 0.023284 0.000000
0.783089 0.023284 0.000000
0.800613 0.019363 0.000000
0.817892 0.021813 0.000000
0.831740 0.015441 0.000000
0.849877 0.015441 0.000000
0.866482 0.011520 0.000000
0.876471 0.011520 0.000000
0.890074 0.011520 0.000000
0.908456 0.011520 0.000000
0.921201 0.007843 0.000000
0.937744 0.007598 0.000000
0.950429 0.003922 0.000000
0.962010 0.003922 0.000000
0.975613 0.003922 0.000000
0.988725 0.003677 0.000000
1.000000 0.000000 0.000000
1.000000 0.000000 0.000000
1.000000 0.000000 0.000000
1.000000 0.000000 0.000000
1.000000 0.000000 0.000000
1.000000 0.000000 0.000000
1.000000 0.000000 0.000000
1.000000 0.000000 0.000000
0.028125 0.091544 0.007843
0.040809 0.090870 0.007843
0.053493 0.087623 0.007843
0.065503 0.087623 0.007843
0.074938 0.087623 0.007843
0.087623 0.087623 0.004596
0.105147 0.086949 0.004596
0.121998 0.083701 0.004596
0.136275 0.083701 0.004596
0.153799 0.083701 0.004596
0.170649 0.083701 0.004596
0.184926 0.079779 0.007843
0.201777 0.079779 0.007843
0.216054 0.079779 0.007843
0.233579 0.079779 0.007843
0.251103 0.079105 0.007843
0.268627 0.075858 0.004596
0.286152 0.075858 0.004596
0.303677 0.075858 0.004596
0.320527 0.075858 0.004596
0.340747 0.075184 0.004596
0.356250 0.071936 0.004596
0.373774 0.071936 0.004596
0.396079 0.068015 0.004596
0.412745 0.068015 0.004596
0.436887 0.064645 0.004596
0.452083 0.064093 0.004596
0.474448 0.064093 0.003309
0.494608 0.063419 0.003922
0.516054 0.060172 0.003922
0.541421 0.060049 0.003922
0.562867 0.056250 0.003922
0.584313 0.056250 0.003922
0.605760 0.055576 0.003922
0.631005 0.052328 0.003922
0.652573 0.051654 0.000674
0.674019 0.048407 0.000674
0.694179 0.045772 0.000674
0.712991 0.044485 0.000674
0.731066 0.040564 0.000000
0.751961 0.040564 0.001471
0.769485 0.038174 0.000674
0.787010 0.036642 0.000674
0.804902 0.036336 0.000000
0.817585 0.031495 0.000000
0.835662 0.028799 0.000000
0.846874 0.028125 0.000000
0.867402 0.024877 0.000000
0.880392 0.024203 0.000000
0.892769 0.024203 0.000000
0.908701 0.018137 0.000000
0.925122 0.020282 0.000000
0.937990 0.016360 0.000000
0.952329 0.012439 0.000000
0.965931 0.012439 0.000000
0.979534 0.012439 0.000000
0.992647 0.008517 0.000000
1.000000 0.007108 0.000000
1.000000 0.004596 0.000000
1.000000 0.001349 0.000000
1.000000 0.004351 0.000000
1.000000 0.000674 0.000000
1.000000 0.000674 0.000000
1.000000 0.000000 0.000000
1.000000 0.000000 0.000000
0.036887 0.105147 0.009436
0.049571 0.105147 0.009436
0.060662 0.105147 0.009436
0.071018 0.105147 0.009436
0.079780 0.105147 0.009436
0.092463 0.104473 0.009436
0.105147 0.101225 0.009436
0.118750 0.101225 0.009436
0.136275 0.101225 0.009436
0.153370 0.101225 0.009436
0.167402 0.099877 0.009436
0.183333 0.097304 0.009436
0.198529 0.097304 0.009436
0.216054 0.097304 0.009436
0.233579 0.096201 0.009436
0.251103 0.093382 0.009436
0.265686 0.093382 0.009436
0.284559 0.093382 0.009436
0.299755 0.093382 0.009436
0.317280 0.091789 0.009436
0.334804 0.089461 0.009436
0.356250 0.089461 0.009436
0.373774 0.088848 0.007843
0.392831 0.085539 0.007843
0.412745 0.085539 0.007843
0.433640 0.083946 0.007843
0.452083 0.081618 0.007843
0.472855 0.081618 0.007843
0.494608 0.077696 0.007843
0.516054 0.077696 0.007843
0.537623 0.073774 0.007843
0.562867 0.073774 0.008394
0.584313 0.071814 0.005515
0.605760 0.069853 0.005515
0.631005 0.069853 0.001716
0.652573 0.065931 0.003922
0.674019 0.065931 0.003922
0.694179 0.062010 0.003922
0.716544 0.062010 0.003922
0.734436 0.058088 0.003922
0.753554 0.058088 0.003922
0.771079 0.056495 0.003922
0.788603 0.054167 0.003922
0.804535 0.050245 0.003922
0.822059 0.046323 0.003922
0.839583 0.046323 0.003922
0.853186 0.042402 0.003922
0.866790 0.038480 0.003922
0.884926 0.038480 0.003922
0.897917 0.036581 0.001593
0.911519 0.034559 0.001593
0.922978 0.032966 0.001593
0.938726 0.029902 0.001593
0.952267 0.025122 0.001593
0.967279 0.022794 0.001593
0.983456 0.019301 0.001593
0.992647 0.017279 0.000000
1.000000 0.015870 0.000000
1.000000 0.013358 0.000000
1.000000 0.010111 0.000000
1.000000 0.009436 0.000000
1.000000 0.008272 0.000000
1.000000 0.005515 0.000000
1.000000 0.005515 0.000000
1.000000 0.003922 0.000000
0.045650 0.122671 0.014277
0.058333 0.122671 0.014277
0.067095 0.122671 0.014277
0.075857 0.119914 0.014277
0.084620 0.120160 0.014277
0.097304 0.118750 0.014277
0.105147 0.118750 0.014277
0.118750 0.118750 0.014277
0.132843 0.118750 0.014277
0.149878 0.118321 0.014277
0.166054 0.114828 0.014277
0.181005 0.114828 0.014277
0.198529 0.114828 0.014277
0.216054 0.114828 0.014277
0.233579 0.110906 0.014277
0.249081 0.110906 0.014277
0.264706 0.110906 0.014277
0.282230 0.110906 0.014277
0.299755 0.110049 0.011765
0.317280 0.106985 0.014277
0.334804 0.106985 0.014277
0.352328 0.103370 0.014277
0.373774 0.103063 0.011765
0.390318 0.103063 0.011765
0.412745 0.100552 0.011765
0.430270 0.099142 0.011765
0.451715 0.099142 0.011765
0.473161 0.097856 0.011765
0.494608 0.095220 0.011765
0.516054 0.095220 0.011765
0.537623 0.091299 0.014155
0.559988 0.091299 0.010356
0.584313 0.089338 0.010356
0.605760 0.087377 0.007475
0.627206 0.083579 0.007843
0.652573 0.083456 0.007843
0.674019 0.081740 0.007843
0.694179 0.079534 0.006434
0.716544 0.079534 0.002880
0.734436 0.075612 0.003922
0.755882 0.073101 0.003922
0.773407 0.071691 0.003922
0.790932 0.068382 0.003922
0.808456 0.067769 0.003922
0.824571 0.063848 0.003922
0.839583 0.061704 0.003922
0.857108 0.059926 0.003922
0.870711 0.056005 0.003922
0.884314 0.056005 0.003922
0.897917 0.052083 0.003922
0.915441 0.049264 0.003922
0.929044 0.048161 0.003922
0.944424 0.041728 0.003922
0.956250 0.040318 0.003922
0.969792 0.037745 0.003922
0.982476 0.036397 0.003922
0.996568 0.029964 0.003922
1.000000 0.026042 0.003922
1.000000 0.026225 0.003922
1.000000 0.022120 0.003922
1.000000 0.018199 0.002513
1.000000 0.014277 0.002513
1.000000 0.014277 0.000000
1.000000 0.011765 0.000000
1.000000 0.007843 0.000000
0.054412 0.140196 0.023039
0.060662 0.136765 0.019608
0.072426 0.138358 0.019608
0.081189 0.136275 0.019608
0.089951 0.136275 0.019608
0.102144 0.136275 0.019608
0.109068 0.136275 0.019118
0.123590 0.136275 0.019118
0.132843 0.132843 0.019118
0.146446 0.132353 0.019118
0.163480 0.132353 0.019118
0.177573 0.132353 0.019118
0.195343 0.132353 0.019118
0.216054 0.132169 0.019118
0.230147 0.128432 0.016789
0.247181 0.128432 0.019608
0.264706 0.128432 0.019118
0.282230 0.125000 0.019118
0.299755 0.124510 0.019118
0.317280 0.124510 0.019118
0.334804 0.121079 0.019118
0.352328 0.120588 0.019118
0.373774 0.120589 0.019118
0.391299 0.120588 0.019118
0.412745 0.118137 0.019118
0.430270 0.116667 0.019118
0.451715 0.113235 0.019118
0.473161 0.112745 0.019118
0.494608 0.112745 0.015686
0.516054 0.109620 0.015686
0.537623 0.108824 0.015686
0.559988 0.108824 0.015196
0.584313 0.104902 0.015196
0.605760 0.104902 0.011765
0.627206 0.101471 0.011765
0.652573 0.100981 0.011765
0.671814 0.097059 0.013481
0.694179 0.097059 0.011275
0.716544 0.093505 0.007843
0.734436 0.093138 0.007843
0.753432 0.089216 0.007843
0.773407 0.089216 0.008885
0.790932 0.085907 0.007353
0.808456 0.084987 0.003922
0.825980 0.081373 0.003922
0.843505 0.079228 0.003922
0.857108 0.077451 0.003922
0.874142 0.073530 0.003922
0.890687 0.072549 0.003922
0.901838 0.069608 0.003922
0.915441 0.066789 0.003922
0.932965 0.061948 0.003922
0.942647 0.061030 0.003922
0.961949 0.057844 0.003922
0.974633 0.053922 0.003922
0.987377 0.050429 0.003922
1.000000 0.049509 0.003922
1.000000 0.042157 0.003922
1.000000 0.039829 0.003922
1.000000 0.034804 0.003922
1.000000 0.034069 0.003922
1.000000 0.026961 0.003922
1.000000 0.023039 0.003922
1.000000 0.023468 0.003922
1.000000 0.019118 0.003922
0.063174 0.153370 0.027880
0.071936 0.153370 0.027880
0.080698 0.153370 0.027880
0.089032 0.149878 0.027880
0.097794 0.149878 0.027880
0.106556 0.149878 0.027880
0.115318 0.149878 0.027880
0.124510 0.149449 0.027880
0.136765 0.149449 0.027451
0.145956 0.149449 0.023958
0.162132 0.145956 0.023958
0.177083 0.145956 0.023958
0.194607 0.145956 0.027451
0.212133 0.145527 0.027451
0.229657 0.142034 0.027451
0.247181 0.142034 0.027451
0.261765 0.139092 0.027880
0.281801 0.141605 0.024019
0.299326 0.138113 0.023958
0.313358 0.138113 0.023958
0.334804 0.135416 0.027451
0.352328 0.137684 0.027451
0.369853 0.134191 0.023958
0.391299 0.132659 0.023958
0.411274 0.133762 0.023958
0.430270 0.130270 0.023958
0.451715 0.129841 0.023958
0.473161 0.129841 0.023958
0.494608 0.126348 0.023958
0.516054 0.123223 0.023958
0.537623 0.122427 0.023529
0.559988 0.121385 0.020037
0.584313 0.121998 0.020037
0.605760 0.118505 0.020037
0.627206 0.118076 0.016238
0.649449 0.114583 0.019608
0.671814 0.114154 0.016115
0.694179 0.110662 0.016115
0.712991 0.107108 0.015686
0.734436 0.106740 0.012194
0.751961 0.106311 0.012194
0.773407 0.102819 0.012194
0.790932 0.102390 0.011765
0.808456 0.098468 0.008272
0.825980 0.094976 0.007843
0.843505 0.092831 0.007843
0.857966 0.091054 0.007843
0.874633 0.087133 0.004351
0.892157 0.086152 0.003922
0.905760 0.083211 0.003922
0.916973 0.082782 0.003922
0.936887 0.075551 0.003922
0.946262 0.074632 0.003922
0.964093 0.071446 0.003922
0.977696 0.071017 0.003922
0.991299 0.064032 0.003922
1.000000 0.063174 0.003922
1.000000 0.059253 0.003922
1.000000 0.053432 0.003922
1.000000 0.048590 0.003922
1.000000 0.047672 0.003922
1.000000 0.043566 0.003922
1.000000 0.037990 0.003922
1.000000 0.035723 0.003922
1.000000 0.027880 0.003922
0.071936 0.167402 0.036642
0.079350 0.166054 0.036642
0.085539 0.166054 0.036642
0.094301 0.166054 0.036642
0.101716 0.163480 0.036642
0.110478 0.163480 0.036642
0.119240 0.163480 0.036642
0.129350 0.163480 0.036642
0.138112 0.163480 0.033210
0.149449 0.162132 0.032721
0.162132 0.162132 0.032721
0.177083 0.159559 0.032721
0.194607 0.159559 0.032721
0.212133 0.158211 0.032721
0.229657 0.158211 0.032721
0.245159 0.155637 0.032721
0.260784 0.155637 0.035294
0.278308 0.155637 0.035294
0.295834 0.154289 0.032721
0.313358 0.151716 0.032721
0.330882 0.151716 0.032721
0.352328 0.148100 0.035294
0.369853 0.147794 0.032721
0.391299 0.147794 0.032721
0.411274 0.147794 0.032721
0.430270 0.146446 0.032721
0.451715 0.143872 0.032721
0.473161 0.143872 0.032721
0.492892 0.142524 0.030515
0.517831 0.139951 0.031373
0.537623 0.139828 0.028799
0.559988 0.136029 0.028799
0.582353 0.134069 0.027451
0.605760 0.134681 0.024877
0.627206 0.132108 0.024877
0.649449 0.128186 0.024877
0.671814 0.128186 0.024877
0.694179 0.126838 0.023529
0.712991 0.124265 0.020956
0.734436 0.123713 0.019608
0.751961 0.120343 0.019608
0.773407 0.118995 0.017034
0.790932 0.116421 0.017034
0.808456 0.112500 0.013113
0.825980 0.111152 0.011765
0.843505 0.108578 0.011765
0.857966 0.105515 0.011765
0.874633 0.104596 0.009191
0.892157 0.100735 0.007843
0.905209 0.098836 0.007843
0.923284 0.096814 0.005270
0.936887 0.095466 0.003922
0.950491 0.088971 0.003922
0.963786 0.087316 0.003922
0.976470 0.082476 0.003922
0.991728 0.081127 0.003922
1.000000 0.075858 0.003922
1.000000 0.071875 0.003922
1.000000 0.069363 0.003922
1.000000 0.065441 0.003922
1.000000 0.061275 0.003922
1.000000 0.056250 0.003922
1.000000 0.051593 0.003922
1.000000 0.046752 0.003922
1.000000 0.041912 0.003922
0.080698 0.181005 0.045404
0.088542 0.181005 0.045404
0.094301 0.181005 0.045404
0.100797 0.181005 0.045404
0.107905 0.181005 0.045404
0.116666 0.178738 0.045404
0.125429 0.178738 0.045404
0.134191 0.178738 0.045404
0.142954 0.177083 0.043137
0.153370 0.177083 0.041483
0.164399 0.177083 0.041483
0.177083 0.177083 0.041483
0.194607 0.174816 0.041483
0.212133 0.173162 0.041483
0.228554 0.173162 0.041483
0.243260 0.173162 0.041483
0.260784 0.170220 0.041483
0.278308 0.169240 0.041483
0.295834 0.169240 0.041483
0.313358 0.169240 0.041483
0.330882 0.166973 0.041483
0.352022 0.165318 0.041483
0.369853 0.165318 0.041483
0.391299 0.163051 0.041483
0.408824 0.163051 0.041483
0.430270 0.161397 0.041483
0.451715 0.161397 0.041483
0.473161 0.160110 0.039216
0.492892 0.157475 0.037561
0.515257 0.154351 0.037561
0.537623 0.153554 0.037561
0.559988 0.153554 0.037561
0.582353 0.149632 0.033640
0.605760 0.149632 0.033640
0.627206 0.145834 0.033640
0.649449 0.145711 0.031373
0.671814 0.143443 0.031925
0.694179 0.141789 0.029718
0.712991 0.141789 0.026164
0.734436 0.137867 0.025796
0.751961 0.136397 0.025796
0.773407 0.133946 0.023406
0.790932 0.130637 0.023529
0.808456 0.130024 0.021569
0.825980 0.128799 0.017953
0.843505 0.126103 0.017953
0.857966 0.123836 0.015686
0.874633 0.122121 0.014032
0.892157 0.118260 0.011765
0.907782 0.114338 0.010110
0.923284 0.114338 0.007291
0.940808 0.110416 0.007843
0.955943 0.106495 0.007843
0.968015 0.104841 0.008456
0.981312 0.100000 0.006189
0.993995 0.098652 0.006189
1.000000 0.094240 0.006189
1.000000 0.089400 0.003922
1.000000 0.086887 0.003922
1.000000 0.082966 0.003922
1.000000 0.078799 0.003922
1.000000 0.073958 0.003922
1.000000 0.069118 0.003922
1.000000 0.064277 0.003922
1.000000 0.059436 0.003922
0.085540 0.198529 0.050980
0.091115 0.198529 0.050980
0.099143 0.198529 0.052328
0.104718 0.198529 0.050245
0.112745 0.198529 0.050245
0.121507 0.194607 0.050245
0.127083 0.194607 0.050245
0.135846 0.194607 0.050245
0.147794 0.194607 0.050245
0.153799 0.194607 0.050245
0.169240 0.194607 0.050245
0.181924 0.194607 0.050245
0.194607 0.190686 0.050245
0.208946 0.190686 0.050245
0.225735 0.190686 0.050245
0.243260 0.190686 0.050245
0.260784 0.187745 0.050245
0.278308 0.186764 0.050245
0.295834 0.186764 0.050245
0.313358 0.186764 0.050245
0.330882 0.182843 0.050245
0.348407 0.182843 0.050245
0.369853 0.182843 0.050245
0.388909 0.181311 0.047059
0.408824 0.178921 0.047794
0.430270 0.178921 0.046324
0.451715 0.178921 0.046324
0.473161 0.175000 0.046324
0.492892 0.175000 0.046324
0.515257 0.175000 0.046324
0.537623 0.171078 0.043137
0.559988 0.171078 0.045281
0.584313 0.167156 0.042402
0.605760 0.167156 0.042402
0.631005 0.167156 0.039216
0.652573 0.163235 0.038481
0.674019 0.163235 0.038481
0.694179 0.159313 0.035294
0.716544 0.159313 0.034559
0.734436 0.155392 0.031373
0.753432 0.153922 0.030638
0.773407 0.151470 0.030638
0.790932 0.151470 0.027328
0.808456 0.147549 0.023529
0.825980 0.149510 0.025490
0.843505 0.143627 0.022794
0.861029 0.140563 0.019608
0.874633 0.139644 0.018873
0.892157 0.135784 0.015686
0.910968 0.133885 0.014951
0.923284 0.131862 0.011765
0.940808 0.127390 0.011765
0.954412 0.124019 0.007843
0.973468 0.125551 0.007843
0.986152 0.120098 0.007843
0.995649 0.116176 0.007843
1.000000 0.112254 0.007843
1.000000 0.108333 0.007843
1.000000 0.104411 0.007843
1.000000 0.100429 0.007843
1.000000 0.096568 0.007843
1.000000 0.092647 0.009865
1.000000 0.088725 0.007108
1.000000 0.084988 0.007108
1.000000 0.076960 0.003922
0.082353 0.212133 0.055086
0.090931 0.212133 0.055086
0.094118 0.212133 0.055086
0.104535 0.212133 0.055086
0.109559 0.212133 0.055086
0.118137 0.211459 0.055086
0.126899 0.211949 0.055086
0.135661 0.211949 0.055086
0.144423 0.211949 0.055086
0.153370 0.208211 0.055086
0.166054 0.208211 0.055086
0.178738 0.208211 0.055086
0.194607 0.205025 0.055086
0.208211 0.208027 0.055086
0.225735 0.204290 0.055086
0.243260 0.204290 0.055086
0.260784 0.204290 0.055086
0.278308 0.200429 0.055086
0.295834 0.204106 0.055086
0.313358 0.200368 0.055086
0.330882 0.200368 0.055086
0.348407 0.196753 0.055086
0.369853 0.196446 0.055086
0.387561 0.196446 0.055086
0.408824 0.193994 0.054902
0.430270 0.196262 0.054902
0.451715 0.192525 0.051164
0.473161 0.192525 0.051164
0.494608 0.192341 0.051164
0.516054 0.188603 0.051164
0.537623 0.188419 0.051164
0.559130 0.184682 0.050122
0.584313 0.184682 0.047243
0.608640 0.181801 0.047243
0.631005 0.180760 0.043444
0.653370 0.180576 0.047059
0.674019 0.176839 0.043321
0.695466 0.176839 0.043321
0.716544 0.173284 0.043137
