Color/Fuji/Fuji 160C 1 - 65x.cube
TITLE "Fuji 160C 1 -"
LUT_3D_SIZE 5
DOMAIN_MIN 0.000000 0.000000 0.000000
DOMAIN_MAX 1.000000 1.000000 1.000000
0.000000 0.000000 0.000000
0.288235 0.000000 0.004902
0.631373 0.000000 0.000000
0.860785 0.000000 0.008823
1.000000 0.262745 0.094118
0.000000 0.275490 0.000000
0.237255 0.272549 0.000000
0.615687 0.240196 0.000000
0.843138 0.271569 0.000000
1.000000 0.377451 0.060784
0.000000 0.539215 0.000000
0.083334 0.531373 0.025490
0.507843 0.531373 0.000000
0.783333 0.542157 0.000000
0.998039 0.566666 0.000000
0.000000 0.735294 0.150981
0.157843 0.727451 0.158824
0.465686 0.723530 0.164706
0.711765 0.731373 0.150981
0.961765 0.778432 0.124510
0.223529 0.980392 0.360784
0.321569 0.977451 0.368627
0.500000 0.976471 0.396078
0.714706 0.983334 0.403922
0.937255 0.992157 0.431373
0.012745 0.023529 0.256863
0.314706 0.000000 0.267647
0.639215 0.000000 0.244118
0.848039 0.202941 0.304902
1.000000 0.320588 0.322549
0.000000 0.291177 0.276470
0.322549 0.302941 0.283334
0.624510 0.310785 0.290196
0.833334 0.336274 0.289216
1.000000 0.408824 0.309804
0.071569 0.560784 0.291176
0.265686 0.547059 0.284314
0.539216 0.542157 0.280392
0.784314 0.545098 0.248039
0.996078 0.572549 0.258823
0.018627 0.743137 0.300980
0.251961 0.737255 0.303921
0.483333 0.726471 0.306863
0.719608 0.735294 0.301961
0.967647 0.778432 0.285294
0.219608 0.980392 0.419608
0.320588 0.977451 0.427451
0.500000 0.976471 0.450000
0.710784 0.980392 0.458824
0.940196 0.992157 0.485295
0.164706 0.076470 0.533334
0.362745 0.100000 0.542157
0.643138 0.141176 0.560785
0.853921 0.135294 0.525490
1.000000 0.298039 0.543137
0.222549 0.290196 0.533333
0.392157 0.317647 0.545098
0.634314 0.346079 0.561765
0.842157 0.342157 0.538235
1.000000 0.416667 0.555882
0.207843 0.562745 0.550980
0.368627 0.568628 0.555882
0.603921 0.576470 0.562745
0.800981 0.576470 0.555882
1.000000 0.596078 0.556863
0.309804 0.770588 0.559804
0.401961 0.765686 0.559804
0.529411 0.750000 0.529411
0.735294 0.749020 0.525490
0.980392 0.772549 0.504902
0.200000 0.986274 0.564705
0.304902 0.984314 0.562745
0.496078 0.980392 0.570588
0.707843 0.982353 0.587255
0.945098 0.992157 0.605882
0.417647 0.196078 0.753922
0.508823 0.208823 0.753922
0.683334 0.259804 0.760784
0.855883 0.318628 0.773529
1.000000 0.330392 0.758824
0.423529 0.340196 0.746078
0.504902 0.349020 0.750000
0.675490 0.386274 0.762745
0.843137 0.426471 0.772549
1.000000 0.423530 0.759804
0.297059 0.511764 0.720588
0.403922 0.517648 0.728431
0.625490 0.560785 0.748039
0.817647 0.602941 0.772549
1.000000 0.588236 0.759804
0.295098 0.763725 0.754902
0.388235 0.766667 0.758824
0.572549 0.770588 0.762745
0.793137 0.789215 0.781373
1.000000 0.790196 0.778432
0.333333 0.996078 0.785294
0.408824 0.998039 0.784314
0.571568 0.992157 0.785294
0.727451 0.988235 0.766667
0.964706 0.996078 0.785294
0.639216 0.435294 0.980392
0.674510 0.440196 0.980392
0.766666 0.470588 0.980392
0.895098 0.518628 0.976471
1.000000 0.545098 0.980392
0.623529 0.500000 0.980392
0.661765 0.504902 0.980392
0.754902 0.527451 0.976471
0.890197 0.568628 0.979412
1.000000 0.590196 0.980392
0.550980 0.613725 0.980392
0.600000 0.620588 0.979412
0.717647 0.637255 0.980392
0.867647 0.668628 0.975491
1.000000 0.694117 0.984314
0.393137 0.762745 0.980392
0.451961 0.764705 0.980392
0.583333 0.754902 0.982353
0.821569 0.794118 0.984314
1.000000 0.837255 0.985294
0.349020 0.992157 0.992157
0.414706 0.992157 0.993137
0.574510 0.992157 0.994117
0.786275 0.993137 0.993137
1.000000 1.000000 1.000000
