Color/Fuji/Fuji Superia 100 1 - 65x.cube
TITLE "Fuji Superia 100 1 -"
LUT_3D_SIZE 9
DOMAIN_MIN 0.000000 0.000000 0.000000
DOMAIN_MAX 1.000000 1.000000 1.000000
0.000000 0.000000 0.000000
0.038236 0.003432 0.000000
0.178431 0.023529 0.000000
0.356372 0.054902 0.000000
0.517648 0.086275 0.000000
0.661765 0.113725 0.000000
0.774510 0.138235 0.000000
0.890686 0.172549 0.000000
1.000000 0.211765 0.000000
0.000000 0.061765 0.000000
0.031373 0.073530 0.000000
0.200981 0.120098 0.000000
0.375980 0.148040 0.000000
0.529411 0.164216 0.000000
0.669608 0.184804 0.000000
0.780883 0.199020 0.000000
0.891176 0.219118 0.000000
1.000000 0.254412 0.000000
0.000000 0.257843 0.000000
0.000000 0.262745 0.000000
0.182353 0.255883 0.000000
0.399510 0.286764 0.000000
0.567647 0.300981 0.000000
0.690687 0.300000 0.000000
0.795098 0.302941 0.000000
0.899019 0.311765 0.000000
1.000000 0.334314 0.000000
0.000000 0.440196 0.108333
0.000000 0.457843 0.125000
0.093627 0.450980 0.106863
0.373529 0.436275 0.051961
0.560294 0.444118 0.000000
0.697059 0.438725 0.000000
0.809804 0.426961 0.000000
0.914705 0.429902 0.000000
1.000000 0.445588 0.000000
0.000000 0.601961 0.239216
0.000000 0.609804 0.243628
0.000000 0.607843 0.249020
0.313236 0.594118 0.217647
0.503922 0.574510 0.170588
0.674019 0.572549 0.110294
0.799999 0.569608 0.046078
0.922549 0.566666 0.000000
1.000000 0.570588 0.001961
0.000000 0.724510 0.340196
0.000000 0.736274 0.353922
0.000000 0.736274 0.354412
0.267647 0.729902 0.341666
0.454902 0.716177 0.312745
0.616177 0.698530 0.269608
0.777942 0.696569 0.217157
0.906372 0.702451 0.191176
1.000000 0.704902 0.184804
0.000000 0.850000 0.459804
0.019118 0.852941 0.465686
0.169607 0.852941 0.465686
0.298039 0.852941 0.472549
0.450000 0.847059 0.451961
0.590686 0.837255 0.421078
0.728431 0.818627 0.376471
0.888236 0.822059 0.332353
1.000000 0.825490 0.333333
0.342647 0.945098 0.593137
0.365686 0.945588 0.597058
0.396568 0.945588 0.599999
0.450491 0.947549 0.604412
0.520588 0.940195 0.595588
0.618627 0.941176 0.579902
0.722549 0.933823 0.553921
0.839706 0.925980 0.522549
0.975981 0.925980 0.491176
0.603922 1.000000 0.745098
0.611765 1.000000 0.745098
0.624510 1.000000 0.746079
0.649510 1.000000 0.752941
0.682353 1.000000 0.756863
0.724510 1.000000 0.749020
0.781373 1.000000 0.740196
0.851961 1.000000 0.729412
0.933333 1.000000 0.721569
0.000000 0.000000 0.065687
0.053922 0.000000 0.065687
0.185294 0.000000 0.073039
0.369118 0.000000 0.050490
0.520098 0.000000 0.049509
0.654412 0.057353 0.028432
0.764216 0.109804 0.010294
0.875490 0.149020 0.000000
1.000000 0.196078 0.000000
0.000000 0.073530 0.070098
0.046079 0.081373 0.077451
0.212255 0.096569 0.073530
0.380883 0.115196 0.064216
0.533334 0.134314 0.047059
0.665686 0.157843 0.029412
0.771078 0.177451 0.013235
0.883824 0.204412 0.000000
1.000000 0.239216 0.000000
0.000000 0.257843 0.152941
0.000000 0.263726 0.127451
0.200981 0.260294 0.111764
0.411765 0.284314 0.079902
0.567157 0.287745 0.056373
0.683333 0.288235 0.040196
0.786275 0.290196 0.025000
0.897059 0.303921 0.012255
1.000000 0.326471 0.020588
0.000000 0.436275 0.214216
0.000000 0.451961 0.212255
0.152451 0.450980 0.205392
0.382353 0.437255 0.171569
0.564705 0.444118 0.126471
0.696079 0.434804 0.085785
0.804902 0.425000 0.066176
0.910784 0.426470 0.055392
1.000000 0.440196 0.067647
0.000000 0.598039 0.297549
0.000000 0.606373 0.298040
0.074020 0.605882 0.303431
0.336764 0.595588 0.279412
0.511765 0.574510 0.240686
0.670588 0.568628 0.190196
0.798039 0.566176 0.156372
0.925000 0.563725 0.122549
1.000000 0.569118 0.128432
0.000000 0.724510 0.377451
0.000000 0.736274 0.389216
0.114706 0.736274 0.391176
0.304902 0.732353 0.386765
0.467647 0.717157 0.354412
0.622549 0.699510 0.314706
0.779412 0.697549 0.264706
0.905392 0.703922 0.244118
1.000000 0.703431 0.235784
0.073530 0.847549 0.482353
0.150980 0.852941 0.491667
0.237255 0.852941 0.492647
0.336275 0.854411 0.497059
0.467157 0.848530 0.478431
0.597549 0.834314 0.449020
0.731373 0.821569 0.406863
0.887255 0.822059 0.360294
1.000000 0.826470 0.363235
0.374510 0.941666 0.608823
0.393628 0.942647 0.612745
0.424509 0.944608 0.616176
0.474020 0.945098 0.620588
0.539215 0.944608 0.618137
0.625490 0.937745 0.597058
0.726961 0.933823 0.572549
0.840196 0.925980 0.537745
0.975490 0.925980 0.506862
0.615686 1.000000 0.752941
0.623529 1.000000 0.752941
0.638726 1.000000 0.756863
0.658824 1.000000 0.760784
0.692157 1.000000 0.768627
0.733333 1.000000 0.760784
0.787745 1.000000 0.749020
0.852451 0.997059 0.737745
0.933823 0.996568 0.729412
0.000000 0.000000 0.255883
0.081373 0.000000 0.252451
0.228432 0.000000 0.248039
0.380883 0.000000 0.233333
0.537254 0.000000 0.219608
0.665196 0.000000 0.179902
0.756863 0.048039 0.199020
0.871568 0.115196 0.190196
0.996078 0.164706 0.185294
0.000000 0.081863 0.256373
0.019118 0.081863 0.257353
0.233333 0.089706 0.253431
0.389216 0.101471 0.237255
0.549019 0.056373 0.218628
0.663235 0.102941 0.210294
0.763235 0.152941 0.205392
0.875000 0.183824 0.194117
1.000000 0.219608 0.193627
0.000000 0.263726 0.259804
0.013235 0.264706 0.263726
0.244118 0.267647 0.263726
0.415686 0.271569 0.257353
0.559804 0.274510 0.248039
0.673529 0.274020 0.232353
0.776471 0.280392 0.220588
0.887255 0.292157 0.208824
1.000000 0.314706 0.203922
0.101961 0.432353 0.327451
0.200981 0.440686 0.342647
0.255883 0.448039 0.327451
0.407353 0.439706 0.307353
0.569608 0.440196 0.276470
0.692647 0.427941 0.258333
0.795098 0.417647 0.241176
0.902451 0.420588 0.231373
1.000000 0.435785 0.228922
0.217647 0.589216 0.413725
0.231863 0.596569 0.409314
0.256863 0.598039 0.391176
0.380392 0.596078 0.385294
0.525490 0.573530 0.346079
0.673529 0.568628 0.308334
0.800000 0.565686 0.283334
0.920098 0.562255 0.265196
1.000000 0.562745 0.259804
0.223529 0.719118 0.467157
0.243628 0.729412 0.471079
0.277941 0.730882 0.461765
0.368627 0.732353 0.464706
0.498039 0.717647 0.435785
0.631373 0.698039 0.396568
0.781863 0.698039 0.356373
0.905392 0.703431 0.333823
1.000000 0.703431 0.325000
0.289216 0.846078 0.547059
0.299019 0.849020 0.542647
0.335294 0.850980 0.542157
0.405882 0.852941 0.547059
0.499020 0.846078 0.535294
0.615686 0.835784 0.504902
0.740196 0.819608 0.467647
0.888236 0.822059 0.425000
1.000000 0.825490 0.421569
0.447549 0.941666 0.650490
0.455392 0.941666 0.650490
0.482353 0.942647 0.655392
0.521079 0.942647 0.655882
0.575000 0.944117 0.659314
0.648529 0.941176 0.639706
0.739216 0.933823 0.612745
0.845098 0.925980 0.577941
0.979902 0.929902 0.549020
0.643137 1.000000 0.772549
0.648039 1.000000 0.773529
0.658824 1.000000 0.776471
0.681372 1.000000 0.780392
0.712746 1.000000 0.785294
0.746569 1.000000 0.780392
0.797058 0.997059 0.768627
0.859804 0.996568 0.757353
0.940196 0.999019 0.749020
0.000000 0.000000 0.436275
0.084804 0.000000 0.434804
0.264706 0.000000 0.432353
0.423039 0.000000 0.424510
0.555392 0.000000 0.397059
0.673530 0.011274 0.371078
0.777451 0.000000 0.341176
0.885294 0.000000 0.304902
0.996078 0.026471 0.304412
0.000000 0.079902 0.434804
0.000000 0.083824 0.439216
0.256373 0.084804 0.436275
0.424510 0.092647 0.428431
0.560785 0.130392 0.400981
0.675000 0.139706 0.373529
0.777941 0.109314 0.341176
0.885785 0.042647 0.306373
0.995588 0.172059 0.321079
0.000000 0.264216 0.435785
0.000000 0.265686 0.440196
0.256863 0.272549 0.441176
0.439216 0.283824 0.439216
0.561765 0.292647 0.409804
0.677451 0.267157 0.379902
0.778432 0.243137 0.344118
0.872059 0.276470 0.344608
0.998039 0.294118 0.339216
0.000000 0.433824 0.433824
0.153922 0.445588 0.445588
0.305882 0.447549 0.447549
0.440196 0.440196 0.440196
0.566176 0.426470 0.418627
0.672059 0.416667 0.399510
0.777451 0.411765 0.382843
0.887255 0.408824 0.361765
1.000000 0.420588 0.356372
0.286765 0.582843 0.488725
0.330882 0.589216 0.498530
0.400981 0.585294 0.502451
0.448039 0.588236 0.490687
0.545588 0.572549 0.463726
0.679902 0.568628 0.434314
0.801471 0.561765 0.413235
0.908333 0.555882 0.394118
1.000000 0.556863 0.383333
0.393627 0.708824 0.560784
0.425000 0.717157 0.569117
0.436275 0.720588 0.561765
0.454412 0.724510 0.545098
0.535784 0.718137 0.533333
0.647059 0.697059 0.495098
0.786275 0.700980 0.461275
0.907843 0.699510 0.440196
1.000000 0.699510 0.427451
0.451961 0.838235 0.632843
0.457843 0.842157 0.631863
0.463726 0.843627 0.622059
0.486765 0.849020 0.616176
0.550980 0.848530 0.616176
0.641176 0.837745 0.585294
0.751961 0.821079 0.545098
0.890196 0.820098 0.504902
1.000000 0.824020 0.499510
0.548530 0.935784 0.712745
0.556373 0.938235 0.715196
0.560294 0.939216 0.708824
0.581372 0.939215 0.706372
0.625980 0.941666 0.710784
0.681373 0.937745 0.698529
0.757843 0.933333 0.669608
0.855882 0.925980 0.638235
0.987745 0.929902 0.604902
0.692647 0.996078 0.807843
0.698039 0.997549 0.807843
0.700490 1.000000 0.807353
0.716177 1.000000 0.807843
0.739216 0.998039 0.810294
0.770098 0.999019 0.813235
0.815686 0.999019 0.803922
0.871078 0.999510 0.790686
0.945098 0.996078 0.778922
0.000000 0.000000 0.592156
0.078922 0.000000 0.592156
0.271569 0.000000 0.590196
0.428922 0.000000 0.586275
0.584313 0.000000 0.580392
0.691667 0.037745 0.535784
0.789215 0.155883 0.503922
0.898529 0.148529 0.483823
1.000000 0.105882 0.462746
0.000000 0.077451 0.588726
0.010294 0.080882 0.590196
0.264706 0.084804 0.590686
0.435294 0.104412 0.591176
0.584804 0.130392 0.580392
0.690196 0.169608 0.538235
0.787745 0.224019 0.508334
0.896569 0.201470 0.483823
1.000000 0.166666 0.462746
0.000000 0.262745 0.594118
0.005882 0.275490 0.599020
0.273529 0.281373 0.596078
0.438725 0.289706 0.590686
0.585294 0.298040 0.579412
0.686765 0.308824 0.539706
0.787255 0.323529 0.514706
0.895098 0.290196 0.486274
1.000000 0.250980 0.458824
0.000000 0.428431 0.582353
0.080883 0.435295 0.594608
0.272059 0.430882 0.589216
0.442647 0.440196 0.584313
0.578431 0.446078 0.574510
0.678922 0.447549 0.546569
0.781373 0.419117 0.516177
0.891176 0.377451 0.474509
1.000000 0.379412 0.462746
0.219608 0.580392 0.582353
0.277941 0.585784 0.585784
0.367647 0.582353 0.583333
0.471569 0.576470 0.576470
0.568628 0.568628 0.568628
0.674510 0.555392 0.547549
0.781373 0.542157 0.525490
0.891176 0.531373 0.501961
1.000000 0.531373 0.486274
0.405392 0.706863 0.617647
0.434314 0.714706 0.627451
0.477451 0.712745 0.628432
0.541176 0.712745 0.633333
0.580392 0.712745 0.620588
0.665686 0.695588 0.591666
0.793137 0.697059 0.563235
0.911765 0.688726 0.540686
1.000000 0.685294 0.525490
0.512745 0.836275 0.697059
0.531863 0.837255 0.701961
0.562745 0.836274 0.702941
0.592157 0.837745 0.698529
0.609804 0.844117 0.686275
0.672549 0.837745 0.671078
0.770588 0.822549 0.632353
0.895589 0.821569 0.596078
1.000000 0.820588 0.584314
0.646078 0.931863 0.780883
0.651961 0.932353 0.782843
0.655392 0.933823 0.778922
0.662745 0.935784 0.770588
0.678922 0.941176 0.763235
0.723530 0.938235 0.765686
0.782843 0.933823 0.739216
0.869118 0.924510 0.704902
0.991667 0.929902 0.676961
0.749020 0.992157 0.850980
0.754902 0.996078 0.852941
0.754902 0.992157 0.849020
0.762255 0.996078 0.845098
0.772549 0.996078 0.843137
0.801471 0.996078 0.850980
0.836274 0.996078 0.841176
0.886765 0.996568 0.829412
0.952941 0.996078 0.815686
0.000000 0.000000 0.723039
0.082353 0.000000 0.722549
0.268627 0.000000 0.724510
0.428431 0.000000 0.724510
0.571078 0.000000 0.715196
0.707353 0.065686 0.699510
0.808333 0.144118 0.661765
0.907353 0.224510 0.634804
1.000000 0.281372 0.627941
0.000000 0.084314 0.722549
0.064216 0.092157 0.728431
0.271079 0.102451 0.726961
0.430392 0.123529 0.723039
0.574510 0.153922 0.715196
0.707353 0.181373 0.701470
0.808823 0.220098 0.664706
0.906862 0.274510 0.638235
1.000000 0.312255 0.630392
0.000000 0.275980 0.727941
0.103921 0.279412 0.727941
0.285784 0.284314 0.726961
0.437745 0.294118 0.722059
0.576470 0.307843 0.713726
0.706373 0.319608 0.700980
0.807843 0.337745 0.667647
0.906372 0.366666 0.642157
1.000000 0.370098 0.629412
0.000000 0.415196 0.711275
0.128922 0.424510 0.722059
0.301471 0.432353 0.717647
0.445588 0.438725 0.712746
0.580392 0.447549 0.708824
0.704902 0.456863 0.698039
0.798529 0.458824 0.666176
0.901471 0.469608 0.648529
1.000000 0.437745 0.625000
0.159804 0.570588 0.709314
0.229412 0.576470 0.712745
0.328431 0.571569 0.707843
0.440686 0.565686 0.701470
0.572549 0.568628 0.697059
0.695098 0.574510 0.693627
0.792157 0.572549 0.667647
0.899019 0.539215 0.635294
1.000000 0.495098 0.596568
0.334804 0.704902 0.704902
0.365686 0.710784 0.708824
0.424019 0.708824 0.707843
0.502941 0.707353 0.703431
0.591666 0.700980 0.699020
0.685294 0.693137 0.689216
0.789216 0.675980 0.664216
0.894608 0.657353 0.637745
1.000000 0.650000 0.616177
0.521568 0.834314 0.748530
0.537745 0.835294 0.752451
0.570588 0.837255 0.756373
0.616176 0.834314 0.757353
0.675490 0.830883 0.760294
0.717157 0.836765 0.752451
0.787255 0.819117 0.721569
0.902941 0.814706 0.689706
1.000000 0.809804 0.676961
0.655882 0.929902 0.820098
0.667647 0.929902 0.821569
0.690196 0.932843 0.826961
0.723039 0.931863 0.830392
0.755882 0.933823 0.832843
0.770588 0.937745 0.824019
0.817157 0.937255 0.813726
0.885785 0.926470 0.778432
0.989706 0.927451 0.748529
0.792157 0.992157 0.890196
0.796078 0.992157 0.890196
0.809314 0.992157 0.895588
0.817157 0.992157 0.891667
0.825000 0.992157 0.887745
0.836765 0.996078 0.886275
0.864216 0.996078 0.887745
0.902451 0.996078 0.874510
0.960784 0.996078 0.860294
0.000000 0.000000 0.851961
0.112745 0.000000 0.848039
0.276470 0.000000 0.848039
0.423529 0.000000 0.844118
0.566666 0.039216 0.839216
0.700000 0.128431 0.832353
0.828432 0.178432 0.821569
0.927451 0.223529 0.790196
1.000000 0.314706 0.770588
0.000000 0.100000 0.845098
0.120098 0.111764 0.851961
0.280392 0.120098 0.845588
0.428431 0.139705 0.845098
0.568628 0.174020 0.839706
0.705883 0.217647 0.835784
0.829412 0.245098 0.822059
0.926961 0.274510 0.790686
1.000000 0.350980 0.770588
0.019608 0.278431 0.846078
0.158333 0.283334 0.848039
0.299020 0.287255 0.844118
0.440686 0.299020 0.843137
0.577451 0.316667 0.841177
0.706863 0.341176 0.835294
0.828431 0.354902 0.820588
0.922549 0.369608 0.789215
1.000000 0.419608 0.772549
0.070588 0.415686 0.832353
0.214706 0.432353 0.841177
0.326961 0.435294 0.837255
0.452941 0.441176 0.835784
0.580392 0.450980 0.830882
0.706372 0.467647 0.828432
0.824510 0.474510 0.818137
0.916666 0.476961 0.788235
1.000000 0.508333 0.772059
0.089216 0.549019 0.827451
0.191177 0.552941 0.829902
0.316667 0.556863 0.829412
0.444608 0.561275 0.827941
0.577451 0.572549 0.825490
0.703431 0.584314 0.825000
0.817647 0.589216 0.815686
0.911765 0.585294 0.787255
1.000000 0.604902 0.771568
0.272549 0.700000 0.822059
0.311274 0.703922 0.824509
0.374509 0.702941 0.825490
0.462746 0.697059 0.821569
0.559804 0.689216 0.817647
0.692157 0.698529 0.816667
0.812745 0.707353 0.812745
0.902941 0.700490 0.786275
0.999019 0.673039 0.758824
0.432353 0.830392 0.826470
0.456863 0.833334 0.828432
0.499020 0.833334 0.829412
0.559804 0.830392 0.826470
0.637255 0.827451 0.822549
0.721078 0.825000 0.820098
0.805883 0.816667 0.809804
0.895589 0.791666 0.779412
1.000000 0.779412 0.759804
0.663725 0.929902 0.863235
0.676471 0.930882 0.864216
0.696079 0.931373 0.867157
0.729902 0.932843 0.871078
0.771568 0.931373 0.875981
0.821078 0.930883 0.879902
0.852451 0.934313 0.879412
0.902451 0.925980 0.852451
0.992157 0.922059 0.828432
0.796078 0.992157 0.914706
0.803432 0.992157 0.917647
0.813725 0.990196 0.919608
0.833824 0.992157 0.922549
0.859804 0.989215 0.926470
0.890196 0.992157 0.933333
0.899020 0.996078 0.926471
0.925980 0.996078 0.922059
0.976471 0.999019 0.909804
0.043627 0.000000 0.949510
0.156373 0.000000 0.946079
0.290687 0.000000 0.948530
0.424510 0.053921 0.945588
0.556863 0.117647 0.941666
0.685784 0.178432 0.938235
0.812745 0.244117 0.933823
0.934313 0.287255 0.926470
1.000000 0.322059 0.918627
0.063235 0.128922 0.945588
0.172059 0.140686 0.949510
0.298530 0.154902 0.948040
0.428922 0.171079 0.943627
0.560785 0.204902 0.943137
0.687256 0.244118 0.934804
0.813725 0.298039 0.934313
0.934314 0.325980 0.925980
1.000000 0.357353 0.915196
0.143628 0.287745 0.945098
0.213725 0.291667 0.945098
0.323529 0.300000 0.945588
0.444118 0.310295 0.941666
0.569118 0.327941 0.938235
0.696079 0.352941 0.936765
0.814216 0.387745 0.928922
0.933823 0.410294 0.925000
1.000000 0.427451 0.910294
0.204412 0.428431 0.938235
0.266177 0.436765 0.941666
0.352451 0.438235 0.939706
0.465196 0.448039 0.939706
0.580392 0.455392 0.934313
0.701960 0.475490 0.934803
0.818627 0.498530 0.929902
0.930392 0.508823 0.922549
1.000000 0.518628 0.902941
0.203922 0.547059 0.935294
0.260784 0.552941 0.935784
0.352941 0.554902 0.933823
0.471569 0.569118 0.933823
0.584314 0.576470 0.930392
0.700980 0.588236 0.929902
0.814706 0.604412 0.926470
0.924020 0.613726 0.920098
1.000000 0.618137 0.897059
0.233824 0.677451 0.925980
0.273529 0.677941 0.926961
0.341177 0.674510 0.924510
0.445588 0.676471 0.928922
0.571078 0.685294 0.924510
0.697059 0.700980 0.922059
0.813726 0.716667 0.922059
0.920589 0.726961 0.918137
1.000000 0.728431 0.898529
0.404902 0.818627 0.923040
0.429902 0.821569 0.925980
0.468627 0.821078 0.927941
0.529412 0.818627 0.921079
0.608334 0.816666 0.922059
0.693137 0.809804 0.918137
0.810784 0.818627 0.915196
0.915196 0.833334 0.918627
0.993137 0.830392 0.899510
0.592647 0.929902 0.925980
0.603922 0.929902 0.928922
0.630883 0.929902 0.928431
0.671568 0.929902 0.927451
0.727941 0.929902 0.927941
0.791666 0.930392 0.927451
0.856373 0.929902 0.925980
0.914705 0.922059 0.918137
0.992157 0.902941 0.895098
0.799510 0.992157 0.945588
0.806863 0.991667 0.948530
0.819608 0.992157 0.946569
0.841667 0.992157 0.950981
0.868627 0.992157 0.954902
0.898039 0.992157 0.959804
0.930392 0.992157 0.965196
0.949510 0.992647 0.964706
0.987745 0.999510 0.956863
0.164706 0.098039 1.000000
0.223039 0.109804 1.000000
0.316667 0.129412 1.000000
0.432353 0.163235 1.000000
0.556863 0.205882 1.000000
0.677451 0.258824 1.000000
0.793137 0.314706 1.000000
0.906372 0.380392 1.000000
1.000000 0.423529 1.000000
0.180392 0.183824 1.000000
0.234804 0.195588 1.000000
0.328431 0.206372 1.000000
0.440196 0.229412 1.000000
0.558823 0.262255 1.000000
0.677451 0.302941 1.000000
0.794118 0.350490 1.000000
0.902941 0.407844 1.000000
1.000000 0.450490 1.000000
0.232353 0.313725 1.000000
0.276960 0.315686 1.000000
0.354902 0.323529 1.000000
0.458823 0.339215 1.000000
0.571569 0.361765 1.000000
0.685294 0.390196 1.000000
0.798039 0.426471 1.000000
0.906372 0.470099 1.000000
1.000000 0.502941 1.000000
0.280882 0.436275 1.000000
0.323529 0.444118 1.000000
0.389706 0.449510 1.000000
0.483333 0.459804 1.000000
0.586275 0.473039 1.000000
0.694608 0.494117 1.000000
0.801961 0.517157 1.000000
0.908823 0.557843 1.000000
1.000000 0.582843 1.000000
0.307843 0.556863 1.000000
0.350490 0.564705 1.000000
0.408824 0.564705 1.000000
0.496569 0.572549 1.000000
0.596078 0.584313 1.000000
0.701470 0.600000 1.000000
0.804902 0.618627 1.000000
0.908333 0.652941 1.000000
1.000000 0.672549 1.000000
0.274510 0.656373 1.000000
0.319118 0.663726 1.000000
0.389705 0.665686 1.000000
0.487255 0.675980 1.000000
0.602451 0.693627 1.000000
0.707353 0.708824 1.000000
0.812745 0.728431 1.000000
0.907843 0.751961 1.000000
1.000000 0.770098 0.997549
0.401960 0.795098 1.000000
0.425980 0.798039 1.000000
0.460784 0.797059 1.000000
0.513726 0.794118 1.000000
0.597059 0.794118 1.000000
0.712255 0.810294 1.000000
0.821569 0.829412 1.000000
0.918628 0.849020 1.000000
0.996078 0.856863 0.996078
0.601471 0.918627 0.996568
0.609314 0.915196 0.996078
0.632353 0.922059 0.997059
0.667647 0.921569 0.999510
0.715196 0.918627 0.996568
0.778432 0.922059 1.000000
0.836765 0.918137 0.995588
0.925490 0.929412 0.996078
0.996078 0.937745 0.996078
0.760784 0.992157 0.992157
0.764706 0.992157 0.992157
0.780392 0.996078 0.993137
0.801471 0.993627 0.993627
0.835294 0.994117 0.994117
0.872059 0.993627 0.993627
0.914706 0.996078 0.996078
0.957353 0.996568 0.996568
1.000000 1.000000 1.000000
