Color/Fuji/Fuji 400H 1 - 65x.cube
TITLE "Fuji 400H 1 -"
LUT_3D_SIZE 65
DOMAIN_MIN 0.000000 0.000000 0.000000
DOMAIN_MAX 1.000000 1.000000 1.000000
0.000000 0.000000 0.000000
0.007843 0.000000 0.000000
0.017524 0.003922 0.000000
0.023529 0.001164 0.000000
0.031128 0.000000 0.000000
0.047733 0.003922 0.000000
0.062010 0.007843 0.003922
0.073101 0.006434 0.000000
0.089216 0.011275 0.003432
0.098897 0.008272 0.000000
0.116421 0.013113 0.003922
0.133946 0.015686 0.002267
0.151470 0.018873 0.003922
0.168995 0.019424 0.003922
0.190441 0.018505 0.002819
0.209988 0.015686 0.002022
0.233333 0.012745 0.003922
0.254718 0.007904 0.000000
0.280147 0.006985 0.003064
0.305147 0.000000 0.001777
0.329657 0.000000 0.003922
0.352328 0.000000 0.000000
0.378309 0.000000 0.000000
0.404596 0.000000 0.000000
0.430882 0.000000 0.000000
0.457170 0.000000 0.000000
0.483088 0.000000 0.000000
0.505821 0.000000 0.000000
0.529902 0.000000 0.000000
0.554473 0.000000 0.000000
0.576716 0.000000 0.000000
0.598162 0.000000 0.000000
0.619607 0.000000 0.000000
0.641054 0.000000 0.000000
0.658579 0.000000 0.000000
0.676103 0.000000 0.000000
0.697549 0.000000 0.000000
0.715074 0.000000 0.000000
0.732598 0.000000 0.000000
0.749571 0.000000 0.000000
0.766176 0.000000 0.000000
0.778860 0.000000 0.000000
0.794853 0.000000 0.000000
0.804535 0.000000 0.000000
0.820833 0.000000 0.000000
0.829596 0.000000 0.000000
0.841421 0.000000 0.000000
0.854902 0.000000 0.000000
0.860785 0.000000 0.000000
0.872488 0.000000 0.000000
0.884069 0.000000 0.000000
0.893934 0.000000 0.000000
0.902696 0.022549 0.000000
0.915380 0.055943 0.000000
0.924142 0.079657 0.000000
0.932904 0.100674 0.000000
0.941666 0.118137 0.000000
0.950429 0.134742 0.003922
0.961520 0.149755 0.010172
0.971201 0.166605 0.015012
0.980637 0.180637 0.019608
0.989399 0.190563 0.024693
1.000000 0.206005 0.033456
1.000000 0.220772 0.045221
1.000000 0.239216 0.058824
0.000000 0.008762 0.000000
0.007843 0.011765 0.003003
0.013603 0.008762 0.000000
0.022365 0.006924 0.000000
0.037807 0.012684 0.000000
0.048407 0.013358 0.003003
0.062010 0.017279 0.000000
0.071691 0.016605 0.000000
0.085785 0.017524 0.000000
0.098897 0.021446 0.000000
0.116421 0.025796 0.000000
0.133946 0.026716 0.002267
0.151470 0.031556 0.003922
0.168259 0.028370 -0.000735
0.187623 0.029473 0.001103
0.211887 0.027267 0.003922
0.232353 0.027390 0.002942
0.254779 0.024448 -0.002942
0.281005 0.016605 -0.000061
0.303370 0.012684 0.000000
0.328431 0.004841 0.000000
0.352328 -0.002696 0.000000
0.382230 0.000000 0.000000
0.403983 0.000000 0.000000
0.433885 0.000000 0.000000
0.457170 0.000000 0.000000
0.479534 0.000000 0.000000
0.505454 0.000000 0.000000
0.531188 0.000000 0.000000
0.554473 0.000000 0.000000
0.576716 0.000000 0.000000
0.598162 0.000000 0.000000
0.619607 0.000000 0.000000
0.640135 0.000000 0.000000
0.655577 0.000000 0.000000
0.676103 0.000000 0.000000
0.693627 0.000000 0.000000
0.709436 0.000000 0.000000
0.732598 0.000000 0.000000
0.749204 0.000000 0.000000
0.763725 0.000000 0.000000
0.780331 0.000000 0.000000
0.794853 0.000000 0.000000
0.804228 0.000000 0.000000
0.816912 0.000000 0.000000
0.830821 0.000000 0.000000
0.841421 0.000000 0.000000
0.851041 0.000000 0.000000
0.860723 0.000000 0.000000
0.872488 0.000000 0.000000
0.879350 0.000000 0.000000
0.893750 0.016789 0.000000
0.902696 0.043260 0.000000
0.911458 0.067892 0.000000
0.918566 0.089338 0.000000
0.935478 0.109865 0.000000
0.941666 0.126899 0.000000
0.953431 0.142585 0.004412
0.961520 0.157598 0.006250
0.974203 0.171201 0.011765
0.980637 0.184559 0.019608
0.992402 0.197242 0.027696
0.996997 0.209008 0.032292
1.000000 0.222610 0.045220
1.000000 0.240135 0.057905
0.000000 0.019362 0.001838
0.000919 0.017524 0.000000
0.011519 0.019362 0.001838
0.018444 0.021446 0.000000
0.032966 0.021446 0.000000
0.045895 0.026531 0.003248
0.058088 0.025367 0.000000
0.071691 0.027880 0.000000
0.089216 0.034804 0.000000
0.100980 0.033640 -0.001409
0.116421 0.037623 0.000000
0.132292 0.039828 0.002267
0.147549 0.037132 0.000000
0.168995 0.039216 0.003738
0.188358 0.038970 0.000000
0.207966 0.036949 0.000000
0.231250 0.036030 -0.001103
0.256802 0.033272 0.000000
0.277941 0.026225 0.000000
0.303370 0.021446 0.000000
0.329657 0.013970 0.000000
0.357721 0.006066 0.000000
0.383456 0.000000 0.000000
0.408824 0.000000 0.000000
0.430269 0.000000 0.000000
0.457170 0.000000 0.000000
0.479534 0.000000 0.000000
0.505821 0.000000 0.000000
0.527819 0.000000 0.000000
0.551348 0.000000 0.000000
0.572917 0.000000 0.000000
0.598162 0.000000 0.000000
0.615687 0.000000 0.000000
0.637133 0.000000 0.000000
0.656496 0.000000 0.000000
0.676103 0.000000 0.000000
0.693627 0.000000 0.000000
0.715074 0.000000 0.000000
0.728677 0.000000 0.000000
0.751410 0.000000 0.000000
0.761887 0.000000 0.000000
0.778860 0.000000 0.000000
0.791544 0.000000 0.000000
0.804228 0.000000 0.000000
0.816912 0.000000 0.000000
0.825674 0.000000 0.000000
0.838358 0.000000 0.000000
0.852880 0.000000 0.000000
0.863725 0.000000 0.000000
0.872488 0.000000 0.000000
0.881250 0.008456 0.000000
0.888113 0.028676 0.000000
0.902696 0.060049 0.000000
0.911458 0.081495 0.000000
0.922794 0.099019 0.000000
0.932904 0.118628 0.000000
0.941666 0.130883 0.000000
0.952268 0.147671 0.001409
0.963113 0.163358 0.005760
0.971201 0.176960 0.011091
0.980637 0.186642 0.015931
0.988725 0.202328 0.024693
1.000245 0.215932 0.031618
1.000000 0.227452 0.043382
1.000000 0.243137 0.054902
0.000000 0.026287 0.002758
0.006679 0.030209 0.003922
0.009681 0.028125 0.003922
0.018444 0.030209 0.002758
0.030883 0.033885 0.002758
0.038481 0.034805 -0.002084
0.056495 0.035724 0.000000
0.068934 0.038052 0.000000
0.086459 0.042647 0.000000
0.098897 0.044731 0.000000
0.113664 0.045895 0.000000
0.131189 0.045404 0.000000
0.147120 0.048652 0.000000
0.168995 0.052390 0.000000
0.187623 0.049816 0.000000
0.209988 0.049816 0.000000
0.232353 0.045711 0.000000
0.255883 0.045895 0.000000
0.277084 0.040809 0.000000
0.303370 0.037255 0.000000
0.329657 0.028983 0.000000
0.355944 0.021507 0.000000
0.378922 0.012745 0.000000
0.404596 0.000000 0.000000
0.430882 0.000000 0.000000
0.457170 0.000000 0.000000
0.485846 0.000000 0.000000
0.505821 0.000000 0.000000
0.529350 0.000000 0.000000
0.550184 0.000000 0.000000
0.576716 0.000000 0.000000
0.595282 0.000000 0.000000
0.614890 0.000000 0.000000
0.640012 0.000000 0.000000
0.659620 0.000000 0.000000
0.673345 0.000000 0.000000
0.693627 0.000000 0.000000
0.712439 0.000000 0.000000
0.733394 0.000000 0.000000
0.746201 0.000000 0.000000
0.763725 0.000000 0.000000
0.774571 0.000000 0.000000
0.790932 0.000000 0.000000
0.806986 0.000000 0.000000
0.814216 0.000000 0.000000
0.827819 0.000000 0.000000
0.838358 0.000000 0.000000
0.851041 0.000000 0.000000
0.862745 0.000000 0.000000
0.870466 0.005515 0.000000
0.881250 0.024633 0.000000
0.894914 0.052022 0.000000
0.902696 0.071630 0.000000
0.911458 0.092341 0.000000
0.922794 0.109865 0.000000
0.928983 0.124632 0.000000
0.941666 0.138235 0.000000
0.950429 0.154596 0.000000
0.958762 0.167034 0.003493
0.968627 0.179228 0.007843
0.980637 0.195160 0.015931
0.986642 0.203493 0.019179
0.998162 0.216606 0.029535
1.000000 0.230454 0.039461
1.000000 0.247059 0.054902
0.000000 0.038971 0.003922
0.000000 0.041728 0.003922
0.006005 0.038971 0.003922
0.014522 0.042647 0.004841
0.026961 0.042647 0.003677
0.039890 0.046569 0.003677
0.052818 0.048406 0.002329
0.064093 0.049325 0.000000
0.085294 0.054167 0.000000
0.098897 0.051165 0.000000
0.116421 0.058334 0.000000
0.128615 0.056924 0.000000
0.151470 0.062255 0.000000
0.168995 0.062255 0.000000
0.193014 0.061398 0.000000
0.209988 0.060600 0.000000
0.232353 0.058579 0.000000
0.254718 0.058334 0.000000
0.283823 0.057475 0.000000
0.301470 0.050490 0.000000
0.330882 0.044117 0.000000
0.352328 0.035110 0.000000
0.375245 0.026348 0.000000
0.404596 0.017586 0.000000
0.430882 0.003677 0.000000
0.457170 0.000000 0.000000
0.486765 0.000000 0.000000
0.502145 0.000000 0.000000
0.529902 0.000000 0.000000
0.555025 0.000000 0.000000
0.572917 0.000000 0.000000
0.597917 0.000000 0.000000
0.615687 0.000000 0.000000
0.637133 0.000000 0.000000
0.654902 0.000000 0.000000
0.672181 0.000000 0.000000
0.693872 0.000000 0.000000
0.716115 0.000000 0.000000
0.732598 0.000000 0.000000
0.742525 0.000000 0.000000
0.762255 0.000000 0.000000
0.778615 0.000000 0.000000
0.787867 0.000000 0.000000
0.800613 0.000000 0.000000
0.816912 0.000000 0.000000
0.824142 0.000000 0.000000
0.838358 0.000000 0.000000
0.847364 0.000000 0.000000
0.857108 0.007353 0.000000
0.868566 0.022672 0.000000
0.880147 0.046078 0.000000
0.890012 0.069791 0.000000
0.899510 0.087255 0.000000
0.911458 0.101348 0.000000
0.919118 0.118628 0.000000
0.928799 0.132475 0.000000
0.944853 0.152941 0.000000
0.950429 0.161949 0.000000
0.959191 0.173284 0.002329
0.967524 0.186642 0.006740
0.980392 0.200000 0.015686
0.985478 0.206250 0.019608
0.998162 0.225368 0.029535
1.000000 0.237133 0.036704
1.000000 0.254657 0.054902
0.000000 0.052328 0.004596
0.000000 0.052083 0.007843
0.005760 0.052328 0.007843
0.014522 0.055085 0.004596
0.023284 0.056004 0.000920
0.035968 0.056250 0.003922
0.050245 0.056924 0.000674
0.066360 0.062684 0.000674
0.077941 0.064093 0.000000
0.095650 0.068015 0.000000
0.111826 0.068015 0.000000
0.130698 0.071936 0.000000
0.154657 0.071936 0.000000
0.169669 0.071936 0.000000
0.188297 0.071936 0.000000
0.210539 0.075184 0.000000
0.233027 0.071936 0.000000
0.258640 0.078370 0.000000
0.281005 0.067157 0.000000
0.304044 0.062990 0.000000
0.332353 0.060172 0.000000
0.355944 0.049694 0.000000
0.382230 0.047794 0.000000
0.406986 0.039032 0.000000
0.429105 0.028493 0.000000
0.457170 0.017586 0.000000
0.479534 0.005576 0.000000
0.505821 -0.000613 0.000000
0.528186 0.000000 0.000000
0.551225 0.000000 0.000000
0.573468 0.000000 0.000000
0.594914 0.000000 0.000000
0.617647 0.000000 0.000000
0.637133 0.000000 0.000000
0.654657 0.000000 0.000000
0.673652 0.000000 0.000000
0.695343 0.000000 0.000000
0.711826 0.000000 0.000000
0.728677 0.000000 0.000000
0.742953 0.000000 0.000000
0.759008 0.000000 0.000000
0.774080 0.000000 0.000000
0.784988 0.000000 0.000000
0.800980 0.000000 0.000000
0.814216 0.000000 0.000000
0.822427 0.000000 0.000000
0.837500 0.003064 0.000000
0.847794 0.008089 0.000000
0.859804 0.028860 0.000000
0.870466 0.051531 0.000000
0.881250 0.070404 0.000000
0.883701 0.080944 0.000000
0.898713 0.100796 0.000000
0.909191 0.113480 0.000000
0.920221 0.131985 0.000000
0.932475 0.142340 0.000000
0.938419 0.158701 0.000000
0.947181 0.168137 0.000000
0.955943 0.182476 0.002329
0.964705 0.189584 0.000674
0.977819 0.202267 0.009191
0.982904 0.214277 0.013113
0.994914 0.226960 0.020956
1.000000 0.236398 0.034130
1.000000 0.249755 0.038664
0.000000 0.068260 0.007843
0.000000 0.065257 0.007843
0.003922 0.068260 0.007598
0.010601 0.071018 0.007843
0.021692 0.068260 0.007843
0.032047 0.073100 0.007169
0.044730 0.073774 0.003922
0.057415 0.073774 0.003922
0.079779 0.079535 0.002329
0.094976 0.085111 0.000000
0.110662 0.083946 0.000000
0.130024 0.086213 0.000000
0.151470 0.087868 0.000000
0.172917 0.087868 0.000000
0.194363 0.089951 0.000000
0.213480 0.087439 0.000000
0.234927 0.086520 0.000000
0.262561 0.087868 0.000000
0.282598 0.081618 0.000000
0.307292 0.079840 0.000000
0.328554 0.077696 0.000000
0.359559 0.073774 0.000000
0.382230 0.069240 0.000000
0.406924 0.060478 0.000000
0.433211 0.050858 0.000000
0.453799 0.042954 0.000000
0.483088 0.031863 0.000000
0.505821 0.020772 0.000000
0.528186 0.010416 0.000000
0.554473 0.001654 0.000000
0.571323 0.000000 0.000000
0.594240 0.000000 0.000000
0.615687 0.000000 0.000000
0.638420 0.000000 0.000000
0.654657 0.000000 0.000000
0.676103 0.000000 0.000000
0.695343 0.000000 0.000000
0.713481 0.000000 0.000000
0.726716 0.000000 0.000000
0.746201 0.000000 0.000000
0.759682 0.000000 0.000000
0.774939 0.000000 0.000000
0.790932 0.000000 0.000000
0.800613 0.000000 0.000000
0.814216 0.004780 0.000000
0.825674 0.010662 0.000000
0.837500 0.028921 0.000000
0.851041 0.045711 0.000000
0.859804 0.064584 0.000000
0.870466 0.079166 0.000000
0.881250 0.095098 0.000000
0.890012 0.104963 0.000000
0.900367 0.118382 0.000000
0.909865 0.130331 0.000000
0.920221 0.147916 0.000000
0.934804 0.163419 0.000000
0.941666 0.170711 0.000000
0.948836 0.180882 0.000000
0.956863 0.192156 0.000000
0.967953 0.206495 0.005577
0.978309 0.215196 0.008088
0.987806 0.226287 0.018015
0.995833 0.236642 0.025613
1.000000 0.250735 0.037378
1.000000 0.264338 0.050980
0.000000 0.082047 0.007843
0.000000 0.083456 0.010356
-0.000674 0.078861 0.009681
0.008088 0.083456 0.010356
0.015441 0.083456 0.011520
0.025613 0.086704 0.009681
0.040809 0.084866 0.008762
0.053493 0.087377 0.003922
0.070098 0.092219 0.003922
0.091054 0.095220 0.000000
0.107476 0.096630 0.000000
0.130024 0.098897 0.000000
0.147549 0.100552 0.000000
0.166667 0.100552 0.000000
0.191850 0.100552 0.000000
0.215809 0.100552 0.000000
0.233333 0.100552 0.000000
0.258640 0.099142 0.000000
0.279350 0.096630 0.000000
0.307292 0.097365 0.000000
0.330882 0.092525 0.000000
0.354841 0.086581 0.000000
0.382230 0.086765 0.000000
0.409498 0.080515 0.000000
0.430882 0.075674 0.000000
0.457170 0.070282 0.000000
0.485601 0.062071 0.000000
0.507047 0.053309 0.000000
0.529902 0.047365 0.000000
0.549938 0.032966 0.000000
0.570404 0.021691 0.000000
0.594240 0.012929 0.000000
0.615135 0.005024 0.000000
0.637500 0.002513 0.000000
0.658456 0.000000 0.000000
0.674387 0.000000 0.000000
0.695833 0.000000 0.000000
0.715196 0.000000 0.000000
0.727635 0.000000 0.000000
0.749571 0.000000 0.000000
0.758763 0.002513 0.000000
0.774816 0.005024 0.000000
0.787622 0.013358 0.000000
0.804228 0.024633 0.000000
0.811703 0.034620 0.000000
0.823161 0.047120 0.000000
0.837500 0.063235 0.000000
0.847120 0.078186 0.000000
0.858824 0.088358 0.000000
0.868566 0.099019 0.000000
0.877328 0.109804 0.000000
0.891238 0.122487 0.000000
0.901286 0.137684 0.000000
0.906679 0.145343 0.000000
0.916299 0.156618 0.000000
0.928983 0.170711 0.000000
0.941176 0.180882 0.000000
0.949019 0.192156 0.000000
0.957598 0.200919 0.000000
0.967953 0.213603 0.000000
0.976716 0.224878 0.010356
0.987991 0.232292 0.012929
0.995649 0.245650 0.021691
1.000000 0.255086 0.030454
1.000000 0.273101 0.049571
0.000000 0.097059 0.007843
0.000000 0.097059 0.010846
0.000000 0.093628 0.006250
0.000000 0.093628 0.007843
0.004167 0.097304 0.007843
0.017524 0.097549 0.007843
0.031127 0.100981 0.009681
0.046140 0.100981 0.003922
0.062745 0.101471 0.003922
0.080208 0.101899 0.000000
0.104657 0.106741 0.000000
0.122181 0.112745 0.000000
0.144363 0.116667 0.000000
0.165257 0.113420 0.000000
0.187623 0.116667 0.000000
0.215319 0.118566 0.000000
0.232843 0.116667 0.000000
0.258640 0.112806 0.000000
0.284069 0.113235 0.000000
0.307292 0.112745 0.000000
0.333089 0.112255 0.000000
0.356250 0.108824 0.000000
0.382230 0.101471 0.000000
0.410417 0.102880 0.000000
0.430882 0.098039 0.000000
0.457721 0.093199 0.000000
0.483456 0.088358 0.000000
0.502390 0.077451 0.000000
0.526471 0.074755 0.000000
0.551348 0.070220 0.000000
0.572917 0.064093 0.000000
0.594240 0.055331 0.000000
0.613725 0.046569 0.000000
0.636642 0.041237 0.000000
0.654289 0.032966 0.000000
0.676103 0.032047 0.000000
0.691911 0.028922 0.000000
0.711152 0.028432 0.000000
0.732720 0.032475 0.000000
0.745650 0.036765 0.000000
0.759804 0.039706 0.000000
0.774939 0.048529 0.000000
0.787622 0.056250 0.000000
0.803737 0.061397 0.000000
0.812990 0.073775 0.000000
0.823897 0.081251 0.000000
0.834436 0.091789 0.000000
0.847120 0.100613 0.000000
0.855882 0.109804 0.000000
0.868566 0.124019 0.000000
0.877328 0.130147 0.000000
0.890012 0.144240 0.000000
0.898774 0.152696 0.000000
0.909804 0.161949 0.000000
0.918873 0.174143 0.000000
0.928983 0.182905 0.000000
0.937745 0.192156 0.000000
0.949020 0.206863 0.000000
0.955760 0.213603 0.000000
0.964032 0.222365 0.000000
0.969608 0.231127 0.000736
0.985478 0.237622 0.006741
0.992892 0.252574 0.017770
1.000000 0.264339 0.030454
1.000000 0.277941 0.047059
0.000000 0.111091 0.008272
0.000000 0.114154 0.012255
0.000000 0.110662 0.008272
0.000000 0.107904 0.011765
0.000000 0.110662 0.011765
0.008088 0.113909 0.011091
0.023529 0.115747 0.011336
0.039461 0.116667 0.007843
0.057414 0.114583 0.004412
0.074939 0.118076 0.003493
0.092892 0.119853 0.000429
0.119669 0.127757 0.000000
0.138970 0.129534 0.000000
0.160907 0.130025 0.000000
0.182598 0.130270 0.000000
0.209559 0.135784 0.000000
0.229412 0.127758 0.000000
0.258640 0.130699 0.000000
0.284498 0.130270 0.000000
0.309436 0.130270 0.000000
0.333578 0.126348 0.000000
0.359437 0.126348 0.000000
0.382230 0.122243 0.000000
0.406986 0.120895 0.000000
0.434804 0.118505 0.000000
0.457170 0.111642 0.000000
0.483088 0.110723 0.000000
0.501041 0.103248 0.000000
0.528186 0.099326 0.000000
0.550551 0.098897 0.000000
0.572794 0.091360 0.000000
0.593811 0.086520 0.000000
0.611765 0.081679 0.000000
0.637133 0.077267 0.000000
0.654657 0.072427 0.000000
0.676471 0.072304 0.000000
0.693627 0.072304 0.000000
0.711152 0.072304 0.000000
0.728248 0.072304 0.000000
0.741728 0.076348 0.000000
0.760846 0.081189 0.000000
0.771017 0.086029 0.000000
0.787010 0.090871 0.000000
0.796691 0.095711 0.000000
0.809865 0.100551 0.000000
0.816115 0.107169 0.000000
0.830515 0.114154 0.000000
0.842831 0.122549 0.000000
0.855883 0.130699 0.000000
0.866544 0.141912 0.000000
0.873835 0.146385 0.000000
0.889400 0.164767 0.000000
0.894853 0.166299 0.000000
0.905270 0.176716 0.000000
0.916299 0.187317 0.000000
0.925491 0.196508 0.000000
0.934252 0.205270 0.000000
0.946507 0.217524 0.000000
0.955270 0.220466 0.000000
0.964032 0.235050 0.000000
0.972610 0.243382 -0.000184
0.985478 0.252573 0.005086
0.995895 0.263419 0.018995
1.000000 0.273591 0.025184
1.000000 0.286275 0.042708
0.000000 0.126838 0.007843
0.000000 0.128186 0.009191
0.000000 0.128186 0.012255
0.000000 0.125429 0.011765
0.000000 0.124265 0.011765
-0.000674 0.126838 0.011091
0.010662 0.130760 0.010172
0.028370 0.130699 0.007843
0.048162 0.132108 0.007843
0.066606 0.132537 0.003922
0.088971 0.136029 0.003922
0.108762 0.138296 0.000000
0.136274 0.145711 0.000000
0.156067 0.147794 0.000000
0.179780 0.147549 0.000000
0.206066 0.151716 0.000000
0.231005 0.150368 0.000000
0.250857 0.147855 0.000000
0.280514 0.148652 0.000000
0.307292 0.147794 0.000000
0.333578 0.145220 0.000000
0.355944 0.143872 0.000000
0.382230 0.142524 0.000000
0.406986 0.138419 0.000000
0.430882 0.136029 0.000000
0.455821 0.130086 0.000000
0.479534 0.133089 0.000000
0.501899 0.128186 0.000000
0.523407 0.123407 0.000000
0.552328 0.123468 0.000000
0.570220 0.117647 0.000000
0.590012 0.112806 0.000000
0.613726 0.109926 0.000000
0.636091 0.104473 0.000000
0.654657 0.103554 0.000000
0.676103 0.106556 0.000000
0.689339 0.103431 0.000000
0.708579 0.103431 0.000000
0.727329 0.106005 0.000000
0.740931 0.106557 0.000000
0.755882 0.111397 0.000000
0.772058 0.113848 0.000000
0.781128 0.115196 0.000000
0.796384 0.121691 0.000000
0.809069 0.129534 0.000000
0.819975 0.131679 0.000000
0.830515 0.139093 0.000000
0.840564 0.142646 0.000000
0.854534 0.151348 0.000000
0.865196 0.162010 0.000000
0.874877 0.166299 0.000000
0.884743 0.171323 0.000000
0.893505 0.182475 0.000000
0.903615 0.192892 0.000000
0.914950 0.200000 0.000000
0.925061 0.210110 0.000000
0.932966 0.217524 0.000000
0.942585 0.226287 0.000000
0.953921 0.235050 0.000000
0.960110 0.240564 0.000000
0.971446 0.251225 0.000000
0.981556 0.259988 -0.000184
0.992892 0.270098 0.008578
1.001655 0.280515 0.018995
1.000000 0.291422 0.031250
0.000000 0.151287 0.009498
0.000000 0.149632 0.006495
0.000000 0.150061 0.012194
0.000000 0.148468 0.010601
0.000000 0.145956 0.011765
0.000000 0.145711 0.011091
-0.000674 0.147365 0.010172
0.013112 0.149632 0.010356
0.034866 0.149632 0.007843
0.057844 0.153554 0.006189
0.080208 0.152635 0.001348
0.104228 0.155208 0.001655
0.125674 0.157475 0.000000
0.157231 0.165318 0.000000
0.177513 0.164154 0.000000
0.202144 0.167341 0.000000
0.225490 0.169240 0.000000
0.256311 0.169240 0.000000
0.278738 0.166973 0.000000
0.305515 0.169730 0.000000
0.329657 0.165318 0.000000
0.357598 0.165318 0.000000
0.382230 0.161397 0.000000
0.409253 0.159865 0.000000
0.430882 0.157475 0.000000
0.455515 0.152451 0.000000
0.479534 0.155454 0.000000
0.501899 0.150613 0.000000
0.524204 0.145711 0.000000
0.545773 0.144057 0.000000
0.572794 0.141667 0.000000
0.596508 0.141360 0.000000
0.615687 0.136213 0.000000
0.635478 0.133334 0.000000
0.658456 0.137745 0.000000
0.672978 0.132292 0.000000
0.693627 0.134498 0.000000
0.708517 0.132292 0.000000
0.723468 0.131005 0.000000
0.740625 0.136213 0.000000
0.755882 0.140931 0.000000
0.769485 0.142525 0.000000
0.784743 0.145098 0.000000
0.796384 0.146017 0.000000
0.809069 0.154596 0.000000
0.821875 0.159743 0.000000
0.830515 0.161397 0.000000
0.843198 0.171508 0.000000
0.850674 0.174142 0.000000
0.860356 0.178983 0.000000
0.876225 0.187745 0.000000
0.882169 0.191115 0.000000
0.894853 0.199081 0.000000
0.903615 0.207844 0.000000
0.914645 0.217218 0.000000
0.925061 0.225368 0.000000
0.933823 0.232475 0.000000
0.941728 0.240380 0.000000
0.955270 0.250000 0.000000
0.965012 0.256495 0.000000
0.972794 0.265257 0.000000
0.985478 0.274019 -0.001103
0.994240 0.282782 0.007659
1.000735 0.294547 0.019424
1.000000 0.304228 0.035294
0.000000 0.163971 0.008578
0.000000 0.167156 0.011030
0.000000 0.163971 0.008578
0.000000 0.164399 0.008578
0.000000 0.163235 0.011765
0.000000 0.163235 0.011765
0.000000 0.161643 0.008578
-0.000674 0.162562 0.007843
0.016176 0.167156 0.007843
0.045159 0.167156 0.003922
0.070098 0.171078 0.005760
0.090625 0.171078 0.001655
0.116912 0.175000 0.000000
0.139277 0.171997 0.000000
0.174755 0.182843 0.000000
0.198223 0.186029 0.000000
0.222304 0.183579 0.000000
0.250796 0.186764 0.000000
0.276226 0.189093 0.000000
0.300183 0.186764 0.000000
0.326471 0.186764 0.000000
0.351593 0.182415 0.000000
0.382230 0.182108 0.000000
0.410171 0.180576 0.000000
0.432353 0.179657 0.000000
0.453064 0.175000 0.000000
0.475613 0.171078 0.000000
0.501348 0.169792 0.000000
0.525981 0.170343 0.000000
0.546630 0.166421 0.000000
0.569117 0.162622 0.000000
0.592095 0.162500 0.000000
0.615687 0.159313 0.000000
0.637133 0.162806 0.000000
0.654657 0.158578 0.000000
0.676103 0.158578 0.000000
0.693627 0.160784 0.000000
0.711704 0.158578 0.000000
0.725490 0.158946 0.000000
0.738358 0.162500 0.000000
0.752696 0.163235 0.000000
0.766299 0.164889 0.000000
0.779779 0.166421 0.000000
0.796384 0.174265 0.000000
0.803186 0.172305 0.000000
0.817831 0.179963 0.000000
0.829657 0.181986 0.000000
0.843198 0.186826 0.000000
0.851960 0.191667 0.000000
0.862745 0.198529 0.000000
0.872304 0.205269 0.000000
0.882721 0.210846 0.000000
0.891667 0.218873 0.000000
0.903615 0.223713 0.000000
0.913112 0.233823 0.000000
0.921875 0.237745 0.000000
0.933823 0.249509 0.000000
0.942585 0.254841 0.000000
0.951348 0.260416 0.000000
0.960110 0.269179 0.000000
0.969607 0.277696 0.000000
0.981556 0.285540 0.000000
0.992157 0.296568 0.003922
1.000000 0.300307 0.010662
1.000000 0.316176 0.031373
0.000000 0.184498 0.007843
0.000000 0.184682 0.007843
0.000000 0.180943 0.007843
0.000000 0.184682 0.009007
0.000000 0.180943 0.008027
0.000000 0.180760 0.012439
0.000000 0.180760 0.011765
0.000000 0.180943 0.008027
0.000000 0.184682 0.007843
0.024448 0.188603 0.007843
0.054657 0.188603 0.003922
0.083211 0.190686 0.006006
0.104228 0.185600 0.000000
0.133517 0.192525 0.000000
0.159988 0.197365 0.000000
0.186274 0.196446 0.000000
0.216667 0.200551 0.000000
0.250367 0.204290 0.000000
0.269240 0.204473 0.000000
0.299265 0.208211 0.000000
0.328247 0.206985 0.000000
0.348101 0.204290 0.000000
0.378309 0.204290 0.000000
0.404412 0.204106 0.000000
0.426961 0.196629 0.000000
0.453248 0.196629 0.000000
0.479166 0.192341 0.000000
0.501899 0.188786 0.000000
0.522243 0.188786 0.000000
0.544485 0.185661 0.000000
0.572978 0.184865 0.000000
0.594240 0.188603 0.000000
0.615687 0.184865 0.000000
0.639829 0.187561 0.000000
0.658273 0.184682 0.000000
0.672181 0.180943 0.000000
0.693444 0.184682 0.000000
0.707231 0.180943 0.000000
0.724571 0.184682 0.000000
