Color/Fuji/Fuji Astia 100 Generic 65x.cube
TITLE "Fuji Astia 100 Generic"
LUT_3D_SIZE 9
DOMAIN_MIN 0.000000 0.000000 0.000000
DOMAIN_MAX 1.000000 1.000000 1.000000
0.000000 0.000000 0.000000
0.100981 0.000000 0.000000
0.209804 0.000000 0.000000
0.360294 0.000000 0.000000
0.501961 0.000000 0.000000
0.642157 0.000000 0.000000
0.774510 0.000000 0.000000
0.898529 0.000000 0.000000
1.000000 0.000000 0.000000
0.038726 0.101471 0.003922
0.100981 0.100981 0.000000
0.209804 0.100981 0.000000
0.365196 0.097549 0.000000
0.505883 0.097059 0.000000
0.642157 0.093628 0.000000
0.774510 0.093628 0.000000
0.898529 0.096568 0.000000
1.000000 0.093138 0.000000
0.079411 0.217647 0.023529
0.122059 0.217647 0.023529
0.214706 0.217647 0.019608
0.372549 0.213725 0.016176
0.509804 0.213725 0.012745
0.646078 0.213725 0.007843
0.774510 0.209804 0.003922
0.898529 0.209804 0.003922
1.000000 0.209804 0.000000
0.012255 0.373529 0.053431
0.037745 0.373529 0.050980
0.209804 0.369608 0.046569
0.369608 0.369608 0.041667
0.509804 0.369608 0.035294
0.646078 0.367157 0.032353
0.774510 0.365686 0.023529
0.895098 0.365686 0.019608
1.000000 0.365686 0.015686
0.000000 0.513726 0.074510
0.005393 0.513725 0.074510
0.213725 0.513726 0.070588
0.365686 0.509804 0.066667
0.509804 0.509804 0.060784
0.642157 0.509804 0.054902
0.770588 0.509804 0.050980
0.890686 0.505883 0.045098
0.996078 0.505883 0.041177
0.000000 0.646078 0.082353
0.069118 0.646078 0.082353
0.215196 0.646078 0.082353
0.368137 0.646078 0.078431
0.505883 0.642157 0.074510
0.640686 0.642157 0.070588
0.766667 0.642157 0.066667
0.883333 0.642157 0.062745
0.988235 0.638235 0.058824
0.034314 0.770588 0.070588
0.072549 0.770588 0.070588
0.232353 0.770588 0.069608
0.374509 0.769607 0.066667
0.509804 0.769607 0.065687
0.642157 0.766667 0.061765
0.765686 0.766667 0.058824
0.875490 0.766667 0.054902
0.988235 0.765686 0.053921
0.116176 0.879412 0.018628
0.157353 0.875980 0.018628
0.276960 0.878921 0.018628
0.399019 0.878921 0.015196
0.524020 0.878921 0.015196
0.650000 0.875490 0.015196
0.766667 0.875490 0.015196
0.871568 0.875490 0.015196
0.992647 0.875000 0.015196
0.137255 1.000000 0.074510
0.199020 1.000000 0.074510
0.297059 1.000000 0.070588
0.412745 1.000000 0.066667
0.529411 1.000000 0.058824
0.648529 1.000000 0.050980
0.757843 1.000000 0.039216
0.863725 1.000000 0.026961
1.000000 1.000000 0.007843
0.000000 0.000000 0.097549
0.100981 0.000000 0.089706
0.209804 0.000000 0.085785
0.360294 0.000000 0.077941
0.501961 0.000000 0.071569
0.642157 0.000000 0.062255
0.774510 0.000000 0.057843
0.895098 0.000000 0.050000
1.000000 0.000000 0.042647
0.038726 0.100981 0.104902
0.100981 0.100981 0.100981
0.209804 0.097549 0.097059
0.361765 0.097549 0.089216
0.505883 0.097059 0.081373
0.642157 0.093628 0.073530
0.774510 0.093628 0.066177
0.898529 0.093138 0.058334
1.000000 0.089706 0.053922
0.079411 0.217647 0.112745
0.122059 0.217647 0.109314
0.217647 0.217647 0.105392
0.369608 0.213725 0.098529
0.509804 0.213725 0.093138
0.646078 0.213725 0.085785
0.774510 0.209804 0.077941
0.898529 0.209804 0.073530
1.000000 0.209804 0.066177
0.012255 0.373529 0.121079
0.037745 0.369608 0.117157
0.212745 0.369608 0.116667
0.369608 0.369608 0.109314
0.509804 0.369608 0.105392
0.646078 0.365686 0.097549
0.774510 0.365686 0.091177
0.895098 0.365686 0.085785
1.000000 0.365686 0.081373
0.000000 0.513726 0.125000
0.007353 0.513726 0.125000
0.213725 0.509804 0.121079
0.365686 0.509804 0.117157
0.509804 0.509804 0.111765
0.642157 0.509804 0.105392
0.770588 0.507843 0.101471
0.890686 0.505883 0.097549
0.996078 0.505883 0.092157
0.000000 0.646078 0.121079
0.071079 0.646078 0.121079
0.212745 0.646078 0.117647
0.365686 0.644608 0.117157
0.505883 0.642157 0.113235
0.640686 0.642157 0.109314
0.766667 0.642157 0.104412
0.883333 0.642157 0.100981
0.988235 0.638235 0.096078
0.034314 0.770588 0.105392
0.070098 0.770588 0.101471
0.230392 0.770588 0.098039
0.377451 0.769607 0.096569
0.509804 0.769607 0.094118
0.642157 0.766667 0.090196
0.765686 0.766667 0.088726
0.875490 0.766667 0.084804
0.988235 0.765686 0.081863
0.116667 0.878921 0.116176
0.160294 0.878921 0.112745
0.276960 0.878921 0.109314
0.400981 0.878921 0.104902
0.525490 0.878921 0.096569
0.650000 0.875490 0.085785
0.766667 0.875490 0.073530
0.871568 0.875490 0.061274
0.992647 0.875000 0.046079
0.137255 1.000000 0.144118
0.199020 1.000000 0.140686
0.297059 1.000000 0.140686
0.412745 1.000000 0.136765
0.529411 1.000000 0.132843
0.648529 1.000000 0.125000
0.757843 1.000000 0.121079
0.863725 1.000000 0.113235
1.000000 1.000000 0.104902
0.000000 0.000000 0.209804
0.100981 0.000000 0.205882
0.209804 0.000000 0.199020
0.360294 0.000000 0.194117
0.501961 0.000000 0.186274
0.642157 0.000000 0.178431
0.774510 0.000000 0.170588
0.895098 0.000000 0.166666
1.000000 0.000000 0.158823
0.038726 0.100981 0.217647
0.100981 0.100981 0.213725
0.209804 0.097549 0.209804
0.361765 0.097059 0.201961
0.505883 0.097059 0.194117
0.642157 0.093628 0.188235
0.774510 0.093138 0.182353
0.898039 0.093138 0.174510
1.000000 0.089706 0.170588
0.079411 0.217647 0.221568
0.122059 0.217647 0.221568
0.217647 0.214706 0.214706
0.369608 0.213725 0.209804
0.509804 0.213725 0.201961
0.646078 0.213725 0.194117
0.774510 0.209804 0.190196
0.898529 0.209804 0.182353
1.000000 0.209804 0.178431
0.012255 0.369608 0.229412
0.037745 0.369608 0.225490
0.212255 0.369608 0.221568
0.369608 0.369608 0.217647
0.509804 0.369608 0.209804
0.646078 0.365686 0.201961
0.774510 0.365686 0.198039
0.894608 0.365686 0.190196
1.000000 0.365686 0.186274
0.000000 0.513726 0.233333
0.009314 0.509804 0.233333
0.216667 0.509804 0.229412
0.365686 0.509804 0.224510
0.509804 0.509804 0.217647
0.642157 0.509804 0.210294
0.770588 0.505883 0.205882
0.890686 0.505883 0.198039
0.996078 0.505883 0.193137
0.000000 0.646078 0.241176
0.069118 0.646078 0.240196
0.213725 0.646078 0.237255
0.367157 0.644608 0.233333
0.505883 0.642157 0.226961
0.640686 0.642157 0.221568
0.766667 0.642157 0.213725
0.883333 0.640686 0.208824
0.988235 0.638235 0.201961
0.034314 0.770588 0.251961
0.070098 0.770588 0.249019
0.230392 0.769607 0.248039
0.377451 0.769607 0.244118
0.509804 0.766667 0.237255
0.642157 0.766667 0.233333
0.765686 0.766667 0.225490
0.875490 0.765686 0.220588
0.988235 0.765686 0.213725
0.116667 0.878921 0.264706
0.160784 0.878921 0.264706
0.276960 0.878921 0.261275
0.400981 0.878921 0.259804
0.525981 0.878921 0.253432
0.650000 0.875490 0.249019
0.766667 0.875490 0.244118
0.871568 0.875000 0.237255
0.992647 0.875000 0.229902
0.137255 1.000000 0.280392
0.195588 1.000000 0.280392
0.296078 1.000000 0.276470
0.412745 1.000000 0.272549
0.529411 1.000000 0.268627
0.646078 1.000000 0.264706
0.757843 1.000000 0.260784
0.863725 1.000000 0.252941
1.000000 1.000000 0.245098
0.000000 0.000000 0.361765
0.100981 0.000000 0.357843
0.209804 0.000000 0.350000
0.357843 0.000000 0.346078
0.501961 0.000000 0.338235
0.642157 0.000000 0.330392
0.773529 0.000000 0.325490
0.895098 0.000000 0.318628
1.000000 0.000000 0.314706
0.034804 0.100981 0.366666
0.100981 0.097549 0.365686
0.209804 0.097549 0.361765
0.361765 0.097059 0.353922
0.505883 0.093628 0.346079
0.642157 0.093628 0.340686
0.774510 0.093138 0.334314
0.895098 0.089706 0.326471
1.000000 0.089706 0.322549
0.079411 0.217647 0.373529
0.122059 0.217647 0.369608
0.213725 0.213725 0.365686
0.369608 0.213725 0.361765
0.509804 0.213725 0.353922
0.646078 0.209804 0.347549
0.774510 0.209804 0.342157
0.898529 0.209804 0.334314
1.000000 0.205882 0.330392
0.014706 0.369608 0.381373
0.038235 0.369608 0.377451
0.209804 0.369608 0.373529
0.369608 0.369608 0.369608
0.509804 0.367157 0.361765
0.644608 0.365686 0.357843
0.774510 0.365686 0.350000
0.894608 0.365686 0.346079
1.000000 0.361765 0.338235
0.000000 0.509804 0.385294
0.011274 0.509804 0.385294
0.213725 0.509804 0.381373
0.365686 0.509804 0.377451
0.509804 0.509804 0.369608
0.642157 0.507353 0.365686
0.770588 0.505883 0.357843
0.890686 0.505883 0.353922
0.996078 0.505883 0.348039
0.000000 0.646078 0.389216
0.069118 0.644608 0.389216
0.213725 0.644608 0.385294
0.367157 0.642157 0.381373
0.505883 0.642157 0.377451
0.640686 0.642157 0.373529
0.766667 0.641177 0.365686
0.883333 0.638235 0.361765
0.988235 0.638235 0.357843
0.035294 0.769607 0.397059
0.070098 0.769607 0.395588
0.230392 0.769607 0.393137
0.377451 0.768137 0.389216
0.509804 0.766667 0.385294
0.642157 0.766667 0.381373
0.762745 0.766667 0.373529
0.875490 0.765686 0.369608
0.988235 0.762745 0.365686
0.116667 0.878921 0.404902
0.161274 0.878921 0.400981
0.276960 0.878921 0.400981
0.400981 0.878921 0.397059
0.525981 0.875490 0.393137
0.650000 0.875490 0.389216
0.766667 0.875000 0.385294
0.871568 0.875000 0.381373
0.992647 0.875000 0.373530
0.137255 1.000000 0.412745
0.195588 1.000000 0.412745
0.296078 1.000000 0.408824
0.410294 1.000000 0.408824
0.529411 1.000000 0.404902
0.646078 1.000000 0.400980
0.757843 1.000000 0.397059
0.863725 1.000000 0.389216
1.000000 1.000000 0.385294
0.000000 0.000000 0.501961
0.101471 0.000000 0.494117
0.209804 0.000000 0.490197
0.357843 0.000000 0.482353
0.501961 0.000000 0.476471
0.642157 0.000000 0.470589
0.773529 0.000000 0.462745
0.895098 0.000000 0.458823
1.000000 0.000000 0.450981
0.038726 0.097549 0.505883
0.101471 0.097549 0.501961
0.209804 0.097059 0.498039
0.361765 0.097059 0.490197
0.505883 0.093628 0.486274
0.642157 0.093138 0.478431
0.774510 0.093138 0.473039
0.895098 0.089706 0.466666
1.000000 0.089216 0.462746
0.083334 0.214706 0.509804
0.125000 0.213725 0.509804
0.217647 0.213725 0.505883
0.369608 0.213725 0.498039
0.509804 0.213725 0.491177
0.646078 0.209804 0.486274
0.774510 0.209804 0.478432
0.898529 0.206863 0.474509
1.000000 0.205882 0.470588
0.016176 0.369608 0.517648
0.039215 0.369608 0.514216
0.209804 0.369608 0.511765
0.369608 0.369608 0.505883
0.509804 0.365686 0.501961
0.644608 0.365686 0.494118
0.774510 0.365686 0.490197
0.894608 0.361765 0.482353
1.000000 0.361765 0.478432
0.000000 0.509804 0.521568
0.009314 0.509804 0.521568
0.216667 0.509804 0.517648
0.365686 0.509804 0.513726
0.509804 0.509804 0.509804
0.642157 0.505883 0.501961
0.770588 0.505883 0.498039
0.890686 0.505883 0.490196
0.996078 0.505883 0.486274
0.000000 0.644608 0.525490
0.067647 0.642157 0.525490
0.213725 0.642157 0.522549
0.367647 0.642157 0.521078
0.507843 0.642157 0.513725
0.640686 0.642157 0.509804
0.766667 0.640686 0.505883
0.883333 0.638235 0.498040
0.988235 0.638235 0.494118
0.035294 0.769607 0.533334
0.070098 0.769607 0.529902
0.232353 0.768627 0.529411
0.377451 0.766667 0.525490
0.509804 0.766667 0.521568
0.642157 0.766667 0.517648
0.762745 0.765686 0.513726
0.875490 0.765686 0.508333
0.988235 0.762745 0.501961
0.116667 0.878921 0.537254
0.164216 0.878921 0.537254
0.276960 0.878921 0.535784
0.401471 0.875490 0.533334
0.525981 0.875490 0.529412
0.650000 0.875490 0.525490
0.766667 0.875000 0.521568
0.871568 0.875000 0.517648
0.992647 0.871568 0.509804
0.137255 1.000000 0.545098
0.195588 1.000000 0.545098
0.296078 1.000000 0.542157
0.410294 1.000000 0.541176
0.529411 1.000000 0.537254
0.646078 1.000000 0.533334
0.757843 1.000000 0.529411
0.863235 1.000000 0.525490
1.000000 1.000000 0.517648
0.000000 0.000000 0.630392
0.100981 0.000000 0.626470
0.209804 0.000000 0.622549
0.357843 0.000000 0.614706
0.501961 0.000000 0.606863
0.642157 0.000000 0.602941
0.773529 0.000000 0.595098
0.895098 0.000000 0.590686
1.000000 0.000000 0.583333
0.036765 0.097549 0.636765
0.100981 0.097549 0.634314
0.209804 0.097059 0.630392
0.361765 0.093628 0.622549
0.505883 0.093138 0.618627
0.642157 0.093138 0.610784
0.774510 0.091667 0.602941
0.895098 0.089706 0.599019
1.000000 0.089216 0.593627
0.083334 0.213725 0.642157
0.123039 0.213725 0.638235
0.213725 0.213725 0.634314
0.369608 0.213725 0.630392
0.509804 0.210785 0.622549
0.646078 0.209804 0.618627
0.774510 0.209804 0.610784
0.898529 0.205882 0.606863
1.000000 0.205882 0.599020
0.016176 0.369608 0.646078
0.041667 0.369608 0.646078
0.212745 0.369608 0.642157
0.369608 0.365686 0.638235
0.509804 0.365686 0.630392
0.644608 0.365686 0.626470
0.774510 0.365686 0.619608
0.894608 0.361765 0.614706
1.000000 0.361765 0.610784
0.000000 0.509804 0.653922
0.011274 0.509804 0.650000
0.216667 0.509804 0.648529
0.365686 0.509804 0.642647
0.509804 0.505883 0.638235
0.642157 0.505883 0.634314
0.770588 0.505883 0.626961
0.890686 0.505883 0.622549
0.996078 0.501961 0.618627
0.000000 0.642157 0.657843
0.067647 0.642157 0.654412
0.213725 0.642157 0.653922
0.369608 0.642157 0.650000
0.505883 0.642157 0.646078
0.640686 0.640686 0.640686
0.766667 0.638235 0.634314
0.883333 0.638235 0.630392
0.988235 0.638235 0.626470
0.035294 0.766667 0.661765
0.070098 0.766667 0.661765
0.232353 0.766667 0.657843
0.377451 0.766667 0.653922
0.509804 0.766667 0.650000
0.642157 0.765686 0.646078
0.762745 0.765686 0.642157
0.875490 0.762745 0.638235
0.988235 0.762745 0.634314
0.117157 0.875490 0.665686
0.164216 0.875490 0.665686
0.277941 0.875490 0.664216
0.401471 0.875490 0.661765
0.527941 0.875490 0.657843
0.650000 0.875000 0.653922
0.766667 0.875000 0.650000
0.871568 0.875000 0.646078
0.992647 0.871568 0.640686
0.133333 1.000000 0.672059
0.195588 1.000000 0.672059
0.296078 1.000000 0.669608
0.410294 1.000000 0.668137
0.529411 1.000000 0.665686
0.646078 1.000000 0.661765
0.757843 1.000000 0.657843
0.863235 1.000000 0.653922
1.000000 1.000000 0.646078
0.000000 0.000000 0.754902
0.100981 0.000000 0.750000
0.209804 0.000000 0.746079
0.357843 0.000000 0.739216
0.501961 0.000000 0.731373
0.642157 0.000000 0.726470
0.773529 0.000000 0.719608
0.895098 0.000000 0.714706
1.000000 0.000000 0.707843
0.038726 0.097059 0.758824
0.100981 0.097059 0.757843
0.209804 0.097059 0.754412
0.361765 0.093628 0.747059
0.505883 0.093138 0.739216
0.642157 0.090686 0.734314
0.774510 0.089706 0.727451
0.895098 0.089216 0.722549
1.000000 0.089216 0.715687
0.083334 0.213725 0.762745
0.125000 0.213725 0.762745
0.213725 0.213725 0.758824
0.369608 0.209804 0.750981
0.509804 0.209804 0.747059
0.646078 0.209804 0.739216
0.774510 0.209804 0.735294
0.898529 0.205882 0.729412
1.000000 0.205882 0.723530
0.016176 0.369608 0.770588
0.038235 0.369608 0.769607
0.212745 0.369608 0.765686
0.369608 0.365686 0.758824
0.509804 0.365686 0.754902
0.644608 0.365686 0.750981
0.774510 0.361765 0.743137
0.894608 0.361765 0.738235
1.000000 0.361765 0.732843
0.000000 0.509804 0.774510
0.011765 0.509804 0.774510
0.217647 0.509804 0.770588
0.365686 0.509804 0.766667
0.509804 0.505883 0.761764
0.642157 0.505883 0.754902
0.770588 0.505883 0.750981
0.890686 0.501961 0.746078
0.996078 0.501961 0.740196
0.000000 0.642157 0.778432
0.065196 0.642157 0.778432
0.213725 0.642157 0.774510
0.369608 0.642157 0.769607
0.507843 0.642157 0.766667
0.640686 0.638235 0.762745
0.766667 0.638235 0.758824
0.882843 0.638235 0.753922
0.988235 0.638235 0.747059
0.035294 0.766667 0.782353
0.071078 0.766667 0.782353
0.233333 0.766667 0.779412
0.377451 0.766667 0.777451
0.509804 0.766667 0.773529
0.642157 0.765686 0.769607
0.765686 0.762745 0.762745
0.875490 0.762745 0.758824
0.988235 0.762745 0.754902
0.117157 0.875490 0.786275
0.164706 0.875490 0.786275
0.277941 0.875490 0.785294
0.401471 0.875490 0.782353
0.527941 0.875000 0.778432
0.650000 0.875000 0.774510
0.766667 0.875000 0.770588
0.871568 0.871568 0.766667
0.992647 0.871568 0.761765
0.133333 1.000000 0.790196
0.195588 1.000000 0.790196
0.293137 1.000000 0.789215
0.410294 1.000000 0.786275
0.529411 1.000000 0.785294
0.646078 1.000000 0.781373
0.757843 1.000000 0.777451
0.863235 1.000000 0.773529
1.000000 1.000000 0.766667
0.000000 0.000000 0.863235
0.100981 0.000000 0.859314
0.209804 0.000000 0.852941
0.357843 0.000000 0.847549
0.501961 0.000000 0.840196
0.642157 0.000000 0.835784
0.770588 0.000000 0.828431
0.895098 0.000000 0.824019
1.000000 0.000000 0.816666
0.038235 0.097059 0.867647
0.101471 0.097059 0.867157
0.209804 0.093628 0.859804
0.361765 0.093628 0.855392
0.503922 0.093138 0.848039
0.642157 0.093138 0.843627
0.774510 0.089706 0.836274
0.895098 0.089216 0.831863
1.000000 0.089216 0.827451
0.083334 0.213725 0.871568
0.125980 0.213725 0.871078
0.217647 0.213725 0.867157
0.369608 0.209804 0.859804
0.509804 0.209804 0.855392
0.646078 0.209804 0.848039
0.774510 0.208824 0.843627
0.898529 0.205882 0.838726
1.000000 0.205882 0.832353
0.018627 0.369608 0.878921
0.041667 0.369608 0.874510
0.212745 0.365686 0.875000
0.369608 0.365686 0.867647
0.509804 0.365686 0.863235
0.644608 0.365686 0.855882
0.774510 0.361765 0.851470
0.894608 0.361765 0.847549
1.000000 0.361765 0.840196
0.000000 0.509804 0.882843
0.011764 0.509804 0.882843
0.217647 0.509804 0.878921
0.365686 0.505883 0.875000
0.509804 0.505883 0.871078
0.642157 0.505883 0.863725
0.770588 0.505883 0.859314
0.890686 0.501961 0.855392
0.996078 0.501961 0.848039
0.000000 0.642157 0.886765
0.065196 0.642157 0.886765
0.216667 0.642157 0.882843
0.369608 0.642157 0.879412
0.509804 0.640686 0.875000
0.642157 0.638235 0.871078
0.766667 0.638235 0.867647
0.882843 0.638235 0.859804
0.988235 0.636765 0.855882
0.036275 0.766667 0.890686
0.076470 0.766667 0.887255
0.233333 0.766667 0.886765
0.377451 0.766667 0.883333
0.510784 0.765686 0.879412
0.642157 0.765686 0.875490
0.765686 0.762745 0.871078
0.875490 0.762745 0.867157
0.988235 0.762745 0.863235
0.117157 0.875490 0.891176
0.165196 0.875490 0.891176
0.280392 0.875490 0.890686
0.401471 0.875000 0.887255
0.527941 0.875000 0.883333
0.650000 0.875000 0.879412
0.766667 0.871568 0.875490
0.871568 0.871568 0.871568
0.992647 0.871568 0.867647
0.133333 1.000000 0.895098
0.195588 1.000000 0.895098
0.293138 1.000000 0.894608
0.408824 1.000000 0.891176
0.529412 1.000000 0.890686
0.646078 1.000000 0.886765
0.754902 1.000000 0.882843
0.863235 1.000000 0.878921
1.000000 1.000000 0.871568
0.000000 0.000000 0.984314
0.101471 0.000000 0.980392
0.209804 0.000000 0.972549
0.357843 0.000000 0.968627
0.501961 0.000000 0.960784
0.642157 0.000000 0.956863
0.770588 0.000000 0.949020
0.895098 0.000000 0.945098
1.000000 0.000000 0.937255
0.034804 0.097059 0.988235
0.100981 0.097059 0.984314
0.209804 0.093628 0.980392
0.361765 0.093138 0.976471
0.505883 0.093138 0.968627
0.642157 0.089706 0.964706
0.773529 0.089216 0.956863
0.895098 0.089216 0.952941
1.000000 0.085785 0.948530
0.083333 0.213725 0.992157
0.125980 0.213725 0.992157
0.217647 0.213725 0.988235
0.369608 0.209804 0.980392
0.509804 0.209804 0.976471
0.646078 0.209804 0.968627
0.774510 0.205882 0.964706
0.898529 0.205882 0.963235
1.000000 0.205882 0.952941
0.020098 0.365686 1.000000
0.043138 0.365686 0.996078
0.212745 0.365686 0.994608
0.369608 0.365686 0.988235
0.509804 0.365686 0.984314
0.644608 0.361765 0.980392
0.774510 0.361765 0.972549
0.894608 0.361765 0.968627
1.000000 0.361765 0.964706
0.000000 0.509804 1.000000
0.017157 0.509804 1.000000
0.217647 0.505883 1.000000
0.365686 0.505883 0.996078
0.509804 0.505883 0.992157
0.642157 0.505883 0.988725
0.770588 0.501961 0.980392
0.890686 0.501961 0.976471
0.996078 0.501961 0.972549
0.000000 0.642157 1.000000
0.065196 0.642157 1.000000
0.216667 0.642157 1.000000
0.369608 0.640686 1.000000
0.509804 0.638235 1.000000
0.642157 0.638235 0.992157
0.766667 0.638235 0.988235
0.881863 0.638235 0.984314
0.988235 0.634314 0.980392
0.036275 0.766667 1.000000
0.079901 0.766667 1.000000
0.236275 0.766667 1.000000
0.377451 0.766667 1.000000
0.510784 0.765686 1.000000
0.642157 0.762745 0.996078
0.765686 0.762745 0.996078
0.875490 0.762745 0.992157
0.988235 0.761764 0.988235
0.117157 0.875490 1.000000
0.168137 0.875490 1.000000
0.277942 0.875000 1.000000
0.404902 0.875000 1.000000
0.529411 0.875000 1.000000
0.650000 0.875000 1.000000
0.766667 0.871568 1.000000
0.871568 0.871568 0.996078
0.992647 0.871078 0.992157
0.133333 1.000000 1.000000
0.195098 1.000000 1.000000
0.293137 1.000000 1.000000
0.408824 1.000000 1.000000
0.529411 1.000000 1.000000
0.646078 1.000000 1.000000
0.754902 1.000000 1.000000
0.863235 1.000000 1.000000
1.000000 1.000000 1.000000
