Color/Fuji/Fuji Superia 100 1 - 65x.cube
TITLE "Fuji Superia 100 1 -"
LUT_3D_SIZE 65
DOMAIN_MIN 0.000000 0.000000 0.000000
DOMAIN_MAX 1.000000 1.000000 1.000000
0.000000 0.000000 0.000000
0.000000 0.000000 0.000000
0.003922 0.000000 0.000000
0.003922 0.000000 0.000000
0.003922 0.000000 0.000000
0.008517 0.000000 0.000000
0.017279 0.003922 0.000000
0.024632 0.000000 0.000000
0.038236 0.003432 0.000000
0.051838 0.003922 0.000000
0.069363 0.005270 0.000000
0.082966 0.007843 0.000000
0.100490 0.011765 0.000000
0.121753 0.015686 0.000000
0.139461 0.018505 0.000000
0.159007 0.021630 0.000000
0.178431 0.023529 0.000000
0.199877 0.027451 0.000000
0.225245 0.035294 0.000000
0.244547 0.037071 0.000000
0.268137 0.043137 0.000000
0.289583 0.043137 0.000000
0.311642 0.047672 0.000000
0.336397 0.052512 0.000000
0.356372 0.054902 0.000000
0.378738 0.058272 0.000000
0.404657 0.066667 0.000000
0.422181 0.066667 0.000000
0.441422 0.070588 0.000000
0.461152 0.073713 0.000000
0.478799 0.074633 0.000000
0.500122 0.082353 0.000000
0.517648 0.086275 0.000000
0.539093 0.090196 0.000000
0.552818 0.090319 0.000000
0.570220 0.094118 0.000000
0.589461 0.099755 0.000000
0.606556 0.101961 0.000000
0.626716 0.109436 0.000000
0.644240 0.109804 0.000000
0.661765 0.113725 0.000000
0.676899 0.117647 0.000000
0.693505 0.121569 0.000000
0.706495 0.121875 0.000000
0.722794 0.129412 0.000000
0.733701 0.131556 0.000000
0.747304 0.133333 0.000000
0.760845 0.141115 0.000000
0.774510 0.138235 0.000000
0.788113 0.143076 0.000000
0.801716 0.147917 0.000000
0.815502 0.149204 0.000000
0.828922 0.153676 0.000000
0.846446 0.160784 0.000000
0.860049 0.164706 0.000000
0.873652 0.168198 0.000000
0.890686 0.172549 0.000000
0.904780 0.176471 0.000000
0.918382 0.182721 0.000000
0.935907 0.186887 0.000000
0.949265 0.188480 0.000000
0.963112 0.193321 0.000000
0.980638 0.200000 0.000000
0.998162 0.206005 0.000000
1.000000 0.211765 0.000000
0.000000 0.000000 0.000000
0.003003 0.003003 0.000000
0.000000 0.000000 0.000000
0.003922 -0.001838 0.000000
0.010600 0.003922 0.000000
0.012439 0.003922 0.000000
0.018872 0.005515 0.000000
0.026042 0.006434 0.000000
0.035724 0.004841 0.000000
0.052757 0.008762 0.000000
0.069363 0.013113 0.000000
0.083884 0.014951 0.000000
0.104411 0.022794 0.000000
0.118198 0.020711 0.000000
0.140564 0.025551 0.000000
0.160907 0.032292 0.000000
0.181373 0.035233 0.000000
0.200797 0.040135 0.000000
0.226103 0.044914 0.000000
0.248468 0.049755 0.000000
0.267831 0.051594 0.000000
0.290502 0.055821 0.000000
0.318872 0.060356 0.000000
0.337316 0.063664 0.000000
0.361765 0.067586 0.000000
0.379289 0.067586 0.000000
0.401103 0.071875 0.000000
0.421814 0.076348 0.000000
0.443628 0.079350 0.000000
0.464277 0.080269 0.000000
0.482598 0.087194 0.000000
0.501164 0.091115 0.000000
0.518566 0.092034 0.000000
0.536213 0.098039 0.000000
0.553615 0.098958 0.000000
0.570220 0.102880 0.000000
0.587745 0.107598 0.000000
0.606189 0.105086 0.000000
0.630270 0.111642 0.000000
0.647610 0.118566 0.000000
0.661765 0.123039 0.000000
0.678370 0.122488 0.000000
0.690503 0.126409 0.000000
0.706188 0.130331 0.000000
0.719792 0.134252 0.000000
0.734558 0.137255 0.000000
0.747304 0.138174 0.000000
0.757047 0.141237 0.000000
0.774510 0.146017 0.000000
0.791115 0.149939 0.000000
0.799816 0.148039 0.000000
0.816238 0.157597 0.000000
0.828922 0.160784 0.000000
0.846446 0.166360 0.000000
0.858394 0.163970 0.000000
0.880146 0.176042 0.000000
0.890686 0.177390 0.000000
0.903370 0.180392 0.000000
0.918382 0.186642 0.000000
0.935907 0.191483 0.000000
0.948591 0.192402 0.000000
0.966115 0.200245 0.000000
0.980638 0.200919 0.000000
0.998162 0.207843 0.000000
1.000000 0.215686 0.000000
0.000000 0.001838 0.000000
0.000000 0.001838 0.000000
0.001838 0.003922 0.000000
0.001838 0.003922 0.000000
0.007598 0.007598 0.000000
0.011765 0.009007 0.000000
0.017279 0.007353 0.000000
0.026042 0.007843 0.000000
0.042157 0.015196 0.000000
0.055760 0.017524 0.000000
0.069363 0.017524 0.000000
0.087316 0.024142 0.000000
0.100490 0.026716 0.000000
0.121937 0.033211 0.000000
0.141299 0.034314 0.000000
0.160907 0.041054 0.000000
0.182353 0.044975 0.000000
0.203799 0.052758 0.000000
0.226103 0.053676 0.000000
0.248529 0.058578 0.000000
0.272059 0.064583 0.000000
0.293199 0.068198 0.000000
0.318872 0.073652 0.000000
0.342157 0.074264 0.000000
0.359681 0.076348 0.000000
0.384743 0.081801 0.000000
0.401103 0.084191 0.000000
0.426103 0.088113 0.000000
0.443628 0.088113 0.000000
0.464277 0.092034 0.000000
0.482598 0.095956 0.000000
0.504044 0.099877 0.000000
0.517525 0.099877 0.000000
0.537010 0.101715 0.000000
0.554534 0.105637 0.000000
0.575184 0.111642 0.000000
0.589461 0.113358 0.000000
0.608395 0.119485 0.000000
0.626716 0.119485 0.000000
0.646078 0.125245 0.000000
0.661765 0.126961 0.000000
0.679289 0.131250 0.000000
0.691422 0.131862 0.000000
0.706495 0.133639 0.000000
0.722794 0.141176 0.000000
0.731556 0.143321 0.000000
0.747304 0.143014 0.000000
0.762683 0.146997 0.000000
0.777451 0.154779 0.000000
0.790196 0.154841 0.000000
0.801716 0.157598 0.000000
0.815502 0.160784 0.000000
0.828922 0.166544 0.000000
0.846630 0.170465 0.000000
0.860049 0.173039 0.000000
0.877573 0.179963 0.000000
0.885908 0.180882 0.000000
0.904780 0.183639 0.000000
0.922304 0.190073 0.000000
0.935907 0.193321 0.000000
0.947672 0.196323 0.000000
0.962438 0.201164 0.000000
0.980638 0.207843 0.000000
0.997243 0.213848 0.000000
1.000000 0.219608 0.000000
0.000000 0.006679 0.000000
0.000000 0.009681 0.005760
-0.000919 0.005760 0.000000
0.002758 0.006679 0.000000
0.007598 0.006679 0.000000
0.009191 0.008517 0.000000
0.017279 0.009436 0.000000
0.025796 0.014277 0.000000
0.042157 0.019118 0.000000
0.055760 0.018872 0.000000
0.070527 0.026287 0.000000
0.086887 0.030209 0.000000
0.104411 0.032966 0.000000
0.124694 0.043566 0.000000
0.142218 0.043076 0.000000
0.162929 0.052574 0.000000
0.181189 0.053738 0.000000
0.207659 0.061519 0.000000
0.226103 0.062439 0.000000
0.253371 0.069424 0.000000
0.273529 0.072120 0.000000
0.297120 0.078125 0.000000
0.319485 0.077880 0.000000
0.340319 0.081189 0.000000
0.361459 0.084804 0.000000
0.386581 0.092402 0.000000
0.405025 0.095711 0.000000
0.426103 0.096875 0.000000
0.443076 0.096324 0.000000
0.463910 0.099633 0.000000
0.482598 0.104718 0.000000
0.502880 0.105760 0.000000
0.518812 0.107843 0.000000
0.537929 0.112561 0.000000
0.556618 0.117524 0.000000
0.573346 0.116483 0.000000
0.591666 0.123162 0.000000
0.609192 0.124326 0.000000
0.630270 0.129044 0.000000
0.644240 0.128798 0.000000
0.661765 0.133640 0.000000
0.676532 0.135723 0.000000
0.692893 0.140563 0.000000
0.706495 0.143934 0.000000
0.718873 0.143934 0.000000
0.733701 0.150000 0.000000
0.747304 0.150613 0.000000
0.758150 0.155699 0.000000
0.776471 0.158640 0.000000
0.788113 0.158762 0.000000
0.801716 0.163603 0.000000
0.819240 0.168443 0.000000
0.830086 0.169362 0.000000
0.847549 0.175307 0.000000
0.860049 0.177880 0.000000
0.873652 0.179228 0.000000
0.888419 0.187071 0.000000
0.906128 0.188481 0.000000
0.919547 0.191728 0.000000
0.932659 0.195588 0.000000
0.949510 0.202758 0.000000
0.961519 0.205086 0.000000
0.981312 0.210601 0.000000
0.998162 0.215686 0.000000
1.000000 0.222365 0.000000
0.000000 0.007843 0.000000
0.000000 0.011520 0.000000
-0.001838 0.009681 0.000000
0.004841 0.011520 0.000000
0.003922 0.011520 0.000000
0.008517 0.015441 0.000000
0.017279 0.019363 0.000000
0.026042 0.019363 0.000000
0.042157 0.026716 0.000000
0.055760 0.027635 0.000000
0.073284 0.035049 0.000000
0.086887 0.037317 0.000000
0.108088 0.046079 0.000000
0.125613 0.054412 0.000000
0.143382 0.058334 0.000000
0.162929 0.060600 0.000000
0.185294 0.065442 0.000000
0.207659 0.070282 0.000000
0.235908 0.077941 0.000000
0.252390 0.079964 0.000000
0.275980 0.081127 0.000000
0.297120 0.086030 0.000000
0.319485 0.089951 0.000000
0.341851 0.091484 0.000000
0.364215 0.093873 0.000000
0.386887 0.100919 0.000000
0.408578 0.105392 0.000000
0.426103 0.105637 0.000000
0.449019 0.107352 0.000000
0.468750 0.113235 0.000000
0.486275 0.109681 0.000000
0.506679 0.120036 0.000000
0.521568 0.117402 0.000000
0.539093 0.121324 0.000000
0.552818 0.121569 0.000000
0.574142 0.125245 0.000000
0.595588 0.127206 0.000000
0.614154 0.133088 0.000000
0.630638 0.137010 0.000000
0.644240 0.133885 0.000000
0.664216 0.140931 0.000000
0.680576 0.144853 0.000000
0.693505 0.145098 0.000000
0.706495 0.149080 0.000000
0.722794 0.156373 0.000000
0.733701 0.154841 0.000000
0.747304 0.160294 0.000000
0.760845 0.164399 0.000000
0.774510 0.158824 0.000000
0.784436 0.162684 0.000000
0.801716 0.167524 0.000000
0.819302 0.172365 0.000000
0.832598 0.176960 0.000000
0.842770 0.178125 0.000000
0.856373 0.180392 0.000000
0.873652 0.187561 0.000000
0.894362 0.191912 0.000000
0.903370 0.195833 0.000000
0.918382 0.198162 0.000000
0.931556 0.199326 0.000000
0.949265 0.207598 0.000000
0.965624 0.211520 0.000000
0.982231 0.215441 0.000000
0.997243 0.218689 0.000000
1.000000 0.227206 0.000000
0.000000 0.017034 0.000000
0.000000 0.017034 -0.000245
0.000000 0.017034 0.000000
0.000000 0.019792 0.002758
0.003677 0.017034 0.000000
0.008517 0.020956 0.000000
0.014032 0.020956 0.000000
0.028554 0.027389 0.000000
0.042157 0.035479 0.000000
0.056434 0.037745 0.000000
0.072610 0.045833 0.000000
0.091483 0.051348 0.000000
0.112194 0.059437 0.000000
0.127206 0.064767 0.000000
0.144730 0.069118 0.000000
0.169424 0.073836 0.000000
0.192831 0.078800 0.000000
0.215502 0.086887 0.000000
0.233763 0.087807 0.000000
0.256985 0.091544 0.000000
0.279351 0.094240 0.000000
0.304963 0.098713 0.000000
0.323407 0.102635 0.000000
0.344914 0.106556 0.000000
0.366360 0.107230 0.000000
0.387132 0.110478 0.000000
0.409252 0.111520 0.000000
0.431311 0.118934 0.000000
0.449755 0.118321 0.000000
0.468873 0.125368 0.000000
0.487194 0.126715 0.000000
0.504718 0.126838 0.000000
0.522243 0.130086 0.000000
0.539767 0.130760 0.000000
0.557292 0.134007 0.000000
0.575613 0.135478 0.000000
0.594056 0.139645 0.000000
0.613787 0.139889 0.000000
0.631311 0.145772 0.000000
0.644914 0.146446 0.000000
0.661642 0.150368 0.000000
0.676716 0.150368 0.000000
0.690931 0.157537 0.000000
0.707536 0.158211 0.000000
0.720772 0.161458 0.000000
0.732231 0.161458 0.000000
0.744914 0.165380 0.000000
0.762193 0.166115 0.000000
0.774203 0.170282 0.000000
0.788787 0.175122 0.000000
0.799571 0.176471 0.000000
0.812929 0.174081 0.000000
0.828860 0.181066 0.000000
0.843199 0.184988 0.000000
0.860723 0.188909 0.000000
0.874326 0.189583 0.000000
0.887929 0.197426 0.000000
0.900796 0.197426 0.000000
0.915809 0.203002 0.000000
0.930086 0.205270 0.000000
0.943688 0.209865 0.000000
0.960539 0.213113 0.000000
0.978064 0.222365 0.000000
0.991667 0.223959 0.000000
1.000000 0.226225 0.000000
0.000000 0.029044 0.002329
0.000000 0.030637 0.000000
0.000000 0.032966 -0.000245
0.000000 0.035724 0.000000
0.000000 0.032966 0.000000
0.007843 0.037806 0.000000
0.013358 0.034559 0.000000
0.022120 0.034559 0.000000
0.044485 0.046569 0.000000
0.060846 0.054167 0.000000
0.073039 0.057598 0.000000
0.090809 0.066605 0.000000
0.112254 0.075367 0.000000
0.133701 0.080024 0.000000
0.152329 0.085539 0.000000
0.174264 0.089461 0.000000
0.195711 0.093382 0.000000
0.219424 0.099572 0.000000
0.239460 0.101225 0.000000
0.262378 0.105147 0.000000
0.281496 0.105147 0.000000
0.306557 0.112684 0.000000
0.327328 0.116912 0.000000
0.349755 0.119240 0.000000
0.369608 0.119240 0.000000
0.391054 0.123162 0.000000
0.412500 0.128676 0.000000
0.431311 0.128676 0.000000
0.451471 0.131005 0.000000
0.470588 0.132598 0.000000
0.490441 0.134926 0.000000
0.507966 0.139399 0.000000
0.525490 0.138848 0.000000
0.545895 0.145650 0.000000
0.564338 0.146569 0.000000
0.578861 0.148284 0.000000
0.601225 0.152329 0.000000
0.617035 0.153248 0.000000
0.634559 0.154534 0.000000
0.653125 0.160049 0.000000
0.667157 0.159927 0.000000
0.682414 0.161581 0.000000
0.700123 0.163970 0.000000
0.708824 0.165012 0.000000
0.724020 0.167525 0.000000
0.737622 0.170220 0.000000
0.751225 0.174877 0.000000
0.766361 0.178064 0.000000
0.779045 0.182598 0.000000
0.791728 0.181985 0.000000
0.807966 0.185907 0.000000
0.819240 0.185907 0.000000
0.832844 0.191421 0.000000
0.846446 0.193750 0.000000
0.863971 0.197671 0.000000
0.879902 0.203493 0.000000
0.894608 0.205515 0.000000
0.907108 0.207843 0.000000
0.919976 0.209436 0.000000
0.938235 0.216606 0.000000
0.951103 0.217524 0.000000
0.965441 0.223529 0.000000
0.982230 0.227206 0.000000
0.998162 0.232046 0.000000
1.000000 0.240809 0.000000
0.000000 0.044240 0.000000
0.000000 0.048161 0.000000
0.000000 0.047487 -0.000674
0.000000 0.047916 -0.000245
0.000000 0.051838 0.000000
0.003922 0.053922 0.000000
0.010846 0.052083 0.000000
0.022120 0.052083 0.000000
0.038236 0.056005 0.000000
0.055760 0.061765 0.000000
0.070772 0.073101 0.000000
0.090564 0.079289 0.000000
0.112928 0.088051 0.000000
0.133701 0.088971 0.000000
0.155147 0.099142 0.000000
0.178615 0.102573 0.000000
0.196630 0.107414 0.000000
0.218076 0.112254 0.000000
0.241789 0.113174 0.000000
0.264155 0.118015 0.000000
0.286336 0.122671 0.000000
0.307782 0.121568 0.000000
0.330637 0.128003 0.000000
0.354596 0.130514 0.000000
0.372059 0.134436 0.000000
0.393566 0.137806 0.000000
0.416421 0.142279 0.000000
0.433946 0.142279 0.000000
0.455392 0.146201 0.000000
0.471507 0.146201 0.000000
0.490441 0.147611 0.000000
0.510477 0.150122 0.000000
0.527451 0.153493 0.000000
0.546936 0.155454 0.000000
0.564461 0.157965 0.000000
0.585907 0.160172 0.000000
0.604228 0.164093 0.000000
0.620956 0.167340 0.000000
0.637071 0.165808 0.000000
0.657965 0.171140 0.000000
0.667096 0.170098 0.000000
0.684743 0.175062 0.000000
0.700736 0.178370 0.000000
0.714032 0.178983 0.000000
0.724020 0.178983 0.000000
0.736887 0.180392 0.000000
0.751225 0.185968 0.000000
0.767280 0.186826 0.000000
0.782905 0.192279 0.000000
0.792034 0.190748 0.000000
0.805637 0.190748 0.000000
0.820649 0.194669 0.000000
0.838541 0.201103 0.000000
0.847855 0.202513 0.000000
0.861397 0.205086 0.000000
0.878002 0.208946 0.000000
0.894608 0.214277 0.000000
0.909803 0.216789 0.000000
0.922304 0.218199 0.000000
0.935172 0.222120 0.000000
0.953186 0.228554 0.000000
0.968383 0.232475 0.000000
0.982476 0.233885 0.000000
0.998162 0.237807 0.000000
1.000000 0.248161 0.000000
0.000000 0.061765 0.000000
0.000000 0.065687 0.000000
0.000000 0.065687 0.000000
0.000000 0.065687 0.000000
0.000000 0.065687 0.000000
0.000000 0.069608 0.000000
0.007843 0.073039 0.000000
0.017280 0.069608 0.000000
0.031373 0.073530 0.000000
0.044914 0.070956 0.000000
0.069363 0.085295 0.000000
0.090319 0.091483 0.000000
0.112500 0.100981 0.000000
0.129963 0.101838 0.000000
0.152329 0.112745 0.000000
0.180025 0.120098 0.000000
0.200981 0.120098 0.000000
0.222916 0.124510 0.000000
0.245711 0.132353 0.000000
0.268076 0.134130 0.000000
0.293872 0.139705 0.000000
0.313113 0.140196 0.000000
0.328431 0.141299 0.000000
0.359436 0.148040 0.000000
0.375980 0.148040 0.000000
0.398897 0.151961 0.000000
0.416789 0.155883 0.000000
0.437867 0.153738 0.000000
0.455392 0.156373 0.000000
0.476838 0.160294 0.000000
0.494363 0.163726 0.000000
0.511887 0.164216 0.000000
0.529411 0.164216 0.000000
0.550367 0.167647 0.000000
0.568382 0.171569 0.000000
0.585907 0.175490 0.000000
0.603431 0.173775 0.000000
0.620956 0.178125 0.000000
0.642034 0.183456 0.000000
0.655454 0.179902 0.000000
0.669608 0.184804 0.000000
0.684743 0.185356 0.000000
0.697304 0.187745 0.000000
0.710417 0.191177 0.000000
0.724020 0.188971 0.000000
0.736335 0.189890 0.000000
0.752083 0.195098 0.000000
0.764829 0.195650 0.000000
0.780883 0.199020 0.000000
0.794056 0.199510 0.000000
0.805637 0.202329 0.000000
0.823161 0.207353 0.000000
0.832844 0.204657 0.000000
0.846936 0.211275 0.000000
0.863971 0.213848 0.000000
0.878002 0.218689 0.000000
0.891176 0.219118 0.000000
0.907291 0.223039 0.000000
0.923897 0.225858 0.000000
0.935907 0.226777 0.000000
0.949510 0.231127 0.000000
0.960845 0.235969 0.000000
0.980638 0.242647 0.000000
0.998162 0.246569 0.000000
1.000000 0.254412 0.000000
0.000000 0.083640 0.000000
0.000000 0.088052 0.000000
0.000000 0.087562 0.000000
0.000000 0.084805 0.000000
0.000000 0.087562 0.000000
0.000000 0.091054 0.000000
0.000000 0.092647 0.000000
0.006006 0.091054 0.000000
0.025613 0.088051 0.000000
0.043566 0.094976 0.000000
0.062439 0.096324 0.000000
0.088297 0.106495 0.000000
0.107598 0.109926 0.000000
0.129535 0.118689 0.000000
0.152329 0.123530 0.000000
0.178186 0.131863 0.000000
0.200981 0.134191 0.000000
0.223775 0.138542 0.000000
0.249633 0.146385 0.000000
0.274571 0.149878 0.000000
0.298284 0.152574 0.000000
0.317034 0.153799 0.000000
0.338909 0.157721 0.000000
0.360356 0.161642 0.000000
0.383823 0.167586 0.000000
0.399327 0.165564 0.000000
0.424264 0.169056 0.000000
0.438296 0.169485 0.000000
0.461520 0.171690 0.000000
0.483456 0.173407 0.000000
0.498284 0.176900 0.000000
0.514768 0.176287 0.000000
0.533334 0.180821 0.000000
0.554780 0.184743 0.000000
0.572304 0.181250 0.000000
0.589828 0.185172 0.000000
0.609069 0.190379 0.000000
0.624878 0.192586 0.000000
0.642402 0.189093 0.000000
0.656005 0.193137 0.000000
0.674571 0.197978 0.000000
0.687132 0.198897 0.000000
0.704228 0.200429 0.000000
0.714461 0.200858 0.000000
0.727512 0.201654 0.000000
0.735906 0.200858 0.000000
0.751225 0.204351 0.000000
0.764829 0.204412 0.000000
0.777880 0.207721 0.000000
0.793934 0.208701 0.000000
0.806740 0.212623 0.000000
0.823161 0.219424 0.000000
0.836336 0.216850 0.000000
0.850368 0.221691 0.000000
0.867463 0.223958 0.000000
0.881495 0.224387 0.000000
0.891605 0.228309 0.000000
0.908701 0.236703 0.000000
0.919976 0.232231 0.000000
0.936581 0.239645 0.000000
0.949326 0.243382 0.000000
0.967034 0.243995 0.000000
0.984130 0.253064 0.000000
0.998162 0.254412 0.000000
1.000000 0.262745 0.000000
0.000000 0.104657 0.000000
0.000000 0.105576 0.000000
0.000000 0.110416 0.000000
0.000000 0.107169 0.000000
0.000000 0.112255 0.000000
0.000000 0.113174 0.000000
0.000000 0.112500 0.000000
0.000000 0.115013 0.000000
0.009436 0.113848 0.000000
0.030393 0.112929 0.000000
0.057598 0.116421 0.000000
0.077390 0.117769 0.000000
0.104902 0.126103 0.000000
0.129780 0.132292 0.000000
0.150981 0.139706 0.000000
0.178615 0.148468 0.000000
0.200981 0.153309 0.000000
0.223406 0.155637 0.000000
0.249142 0.162990 0.000000
0.275919 0.167831 0.000000
0.302206 0.170098 0.000000
0.324571 0.171323 0.000000
0.346323 0.174510 0.000000
0.363848 0.175245 0.000000
0.382721 0.179167 0.000000
0.406189 0.179167 0.000000
0.425612 0.182108 0.000000
0.443076 0.185662 0.000000
0.460662 0.187010 0.000000
0.483885 0.190135 0.000000
0.498284 0.190931 0.000000
0.517157 0.190931 0.000000
0.536642 0.194853 0.000000
0.556128 0.194853 0.000000
0.576226 0.198774 0.000000
0.593750 0.202696 0.000000
0.606986 0.202696 0.000000
0.626226 0.202696 0.000000
0.642402 0.205270 0.000000
0.655208 0.205822 0.000000
0.673529 0.210662 0.000000
0.688664 0.210539 0.000000
0.698775 0.210539 0.000000
0.714032 0.214155 0.000000
0.726593 0.214461 0.000000
0.739399 0.214461 0.000000
0.752083 0.214461 0.000000
0.764829 0.215747 0.000000
0.781373 0.220956 0.000000
0.794608 0.222856 0.000000
0.808211 0.226348 0.000000
0.819424 0.224877 0.000000
0.835417 0.228799 0.000000
0.850368 0.230453 0.000000
0.863970 0.232721 0.000000
0.875428 0.234069 0.000000
0.890318 0.237132 0.000000
0.907353 0.240564 0.000000
0.920956 0.245466 0.000000
0.932659 0.244485 0.000000
0.948162 0.250980 0.000000
0.964522 0.252328 0.000000
0.981127 0.258824 0.000000
0.995466 0.261826 0.000000
1.000000 0.269240 0.000000
0.000000 0.135600 0.000000
0.000000 0.134865 0.000000
0.000000 0.140135 0.000000
0.000000 0.140625 0.000000
0.000000 0.141789 0.000000
0.000000 0.140135 0.000000
0.000000 0.142463 0.000000
0.000000 0.140135 0.000000
0.000000 0.141789 0.000000
0.016789 0.140564 0.000000
0.048836 0.139215 0.000000
0.076777 0.141789 0.000000
0.098223 0.140870 0.000000
0.129963 0.153554 0.000000
0.153982 0.156311 0.000000
0.178615 0.163419 0.000000
0.201961 0.169240 0.000000
0.228922 0.178615 0.000000
0.251287 0.178738 0.000000
0.278064 0.185416 0.000000
0.299510 0.184926 0.000000
0.329841 0.193811 0.000000
0.346936 0.192769 0.000000
0.370037 0.197427 0.000000
0.387561 0.196691 0.000000
0.409007 0.200062 0.000000
0.430454 0.200613 0.000000
0.447978 0.202880 0.000000
0.465441 0.202818 0.000000
0.486948 0.204534 0.000000
0.506127 0.206189 0.000000
0.525919 0.210723 0.000000
0.543138 0.210110 0.000000
0.560355 0.212377 0.000000
0.583946 0.217831 0.000000
0.597671 0.216299 0.000000
0.615196 0.220220 0.000000
0.632721 0.217586 0.000000
0.645037 0.220220 0.000000
0.662194 0.220772 0.000000
0.678248 0.224142 0.000000
0.693444 0.224142 0.000000
0.706311 0.225796 0.000000
0.718260 0.225796 0.000000
0.730637 0.225796 0.000000
0.745588 0.229841 0.000000
0.756005 0.229718 0.000000
0.772610 0.235846 0.000000
0.782353 0.230698 0.000000
0.795956 0.231618 0.000000
0.813480 0.237561 0.000000
0.823345 0.237561 0.000000
0.839951 0.241483 0.000000
0.852635 0.241483 0.000000
0.867586 0.243750 0.000000
0.883149 0.248897 0.000000
0.896876 0.249326 0.000000
0.912623 0.255515 0.000000
0.926226 0.257169 0.000000
0.941483 0.257169 0.000000
0.953431 0.263358 0.000000
0.970956 0.266176 0.000000
0.984559 0.268934 0.000000
0.999816 0.274939 0.000000
1.000000 0.280698 0.000000
0.000000 0.158578 0.000000
0.000000 0.162500 0.000000
0.000000 0.161152 0.000000
0.000000 0.159313 0.000000
0.000000 0.162500 0.000000
0.000000 0.162500 0.000000
0.000000 0.160907 0.000000
0.000000 0.161826 0.000000
0.000000 0.162500 0.000000
-0.004657 0.162500 0.000000
0.032966 0.165074 0.000000
0.063174 0.163235 0.000000
0.092647 0.166421 0.000000
0.112010 0.163235 0.000000
0.149143 0.174265 0.000000
0.179780 0.178921 0.000000
0.201961 0.182598 0.000000
0.227267 0.190625 0.000000
0.252696 0.194607 0.000000
0.275919 0.198529 0.000000
0.302206 0.201961 0.000000
0.324142 0.205637 0.000000
0.350858 0.210294 0.000000
0.374877 0.213480 0.000000
0.396324 0.214215 0.000000
0.413848 0.214215 0.000000
0.432108 0.214583 0.000000
0.452267 0.220772 0.000000
0.472059 0.223039 0.000000
0.491790 0.222058 0.000000
0.509436 0.222181 0.000000
0.528615 0.223836 0.000000
0.549019 0.224755 0.000000
0.569730 0.229902 0.000000
0.584069 0.229902 0.000000
0.601593 0.233823 0.000000
0.619117 0.236030 0.000000
0.637194 0.238297 0.000000
0.649877 0.234191 0.000000
0.667035 0.237745 0.000000
0.678186 0.238481 0.000000
0.690258 0.236949 0.000000
0.704411 0.237623 0.000000
0.721875 0.241666 0.000000
0.731863 0.239705 0.000000
0.748285 0.243444 0.000000
0.759068 0.241544 0.000000
0.775796 0.245588 0.000000
0.785294 0.245588 0.000000
0.797978 0.246324 0.000000
0.813480 0.249509 0.000000
0.827083 0.250796 0.000000
0.840687 0.250981 0.000000
0.854289 0.251900 0.000000
0.869240 0.258089 0.000000
0.881924 0.258089 0.000000
0.901715 0.265196 0.000000
0.909436 0.263420 0.000000
0.926226 0.264339 0.000000
0.940502 0.269853 0.000000
0.957108 0.273775 0.000000
0.969791 0.271752 0.000000
0.985661 0.280882 0.000000
0.999081 0.281618 0.000000
1.000000 0.292647 0.000000
0.000000 0.180760 0.000000
0.000000 0.183946 0.000000
0.000000 0.184865 0.000000
0.000000 0.184865 0.000000
0.000000 0.184865 0.000000
0.000000 0.184865 0.000000
0.000000 0.184865 0.000000
0.000000 0.187378 0.000000
0.000000 0.192034 0.000000
0.000000 0.188358 0.000000
0.002696 0.188603 0.000000
0.050000 0.188603 0.000000
0.086887 0.184865 0.000000
0.110355 0.184865 0.000000
0.141483 0.189706 0.000000
0.166666 0.188603 0.000000
0.203738 0.199386 0.000000
0.227082 0.207967 0.000000
0.249816 0.208394 0.000000
0.275919 0.217647 0.000000
0.302206 0.222488 0.000000
0.324571 0.219976 0.000000
0.350858 0.227819 0.000000
0.371691 0.227819 0.000000
0.393137 0.228002 0.000000
0.414767 0.235110 0.000000
0.436213 0.235662 0.000000
0.455024 0.236949 0.000000
0.477390 0.235845 0.000000
0.496630 0.236643 0.000000
0.518076 0.243505 0.000000
0.535600 0.242647 0.000000
0.556863 0.249204 0.000000
0.574387 0.247427 0.000000
0.595528 0.251042 0.000000
0.604902 0.246814 0.000000
0.623039 0.251164 0.000000
0.640564 0.251348 0.000000
0.654167 0.254718 0.000000
