Color/Fuji/Fuji Provia 400F 65x.cube
TITLE "Fuji Provia 400F"
LUT_3D_SIZE 9
DOMAIN_MIN 0.000000 0.000000 0.000000
DOMAIN_MAX 1.000000 1.000000 1.000000
0.000000 0.000000 0.000000
0.042647 0.000000 0.000000
0.139215 0.000000 0.000000
0.283334 0.010294 0.000000
0.435295 0.025490 0.000000
0.571569 0.047059 0.000000
0.699019 0.066667 0.000000
0.804902 0.082353 0.000000
0.909804 0.098039 0.000000
0.030883 0.065687 0.023529
0.073530 0.058334 0.011765
0.174020 0.058334 0.003432
0.310295 0.062255 0.000000
0.448529 0.058334 0.000000
0.571569 0.043137 0.000000
0.688726 0.058824 0.000000
0.796568 0.074510 0.000000
0.894118 0.086275 0.000000
0.101961 0.205882 0.108823
0.136765 0.201961 0.097059
0.225490 0.194117 0.069608
0.356863 0.178431 0.026471
0.479412 0.151961 0.000000
0.595098 0.123040 0.000000
0.696079 0.091177 0.000000
0.788725 0.062745 0.000000
0.882353 0.070588 0.000000
0.114706 0.372059 0.197059
0.174510 0.372059 0.185784
0.284314 0.369608 0.166666
0.411274 0.361765 0.139706
0.527941 0.338235 0.104902
0.639215 0.296078 0.059804
0.728921 0.223529 0.015686
0.800490 0.133333 0.000000
0.872059 0.058824 0.000000
0.207844 0.521568 0.298040
0.256373 0.521568 0.292157
0.350000 0.523529 0.276470
0.455392 0.521568 0.254902
0.568628 0.513726 0.225490
0.681863 0.494117 0.194608
0.775490 0.459804 0.160784
0.853431 0.375490 0.121079
0.903922 0.196078 0.037255
0.323039 0.657843 0.393627
0.353922 0.657843 0.389706
0.416177 0.660294 0.381863
0.505883 0.661765 0.366176
0.611274 0.660294 0.346569
0.712745 0.652451 0.324510
0.804902 0.633334 0.300980
0.890686 0.592156 0.273529
0.968627 0.503922 0.230392
0.416666 0.769607 0.487255
0.439705 0.770588 0.484314
0.490197 0.773529 0.479411
0.566666 0.774510 0.467647
0.653922 0.777451 0.451960
0.744117 0.774510 0.436275
0.829412 0.766667 0.417647
0.914705 0.750490 0.398039
1.000000 0.703922 0.370588
0.514706 0.875490 0.576961
0.530392 0.878921 0.573039
0.572059 0.879412 0.569117
0.630392 0.885294 0.561274
0.700490 0.886765 0.549510
0.777941 0.887255 0.537745
0.856372 0.886765 0.522549
0.941666 0.878921 0.510294
1.000000 0.855882 0.491176
0.611765 0.996078 0.670588
0.623529 0.996078 0.670588
0.650980 0.996078 0.666667
0.694118 1.000000 0.660294
0.750981 1.000000 0.654902
0.817157 1.000000 0.647059
0.891177 1.000000 0.639216
0.973039 1.000000 0.627451
1.000000 1.000000 0.615686
0.000000 0.000000 0.019118
0.030883 0.000000 0.003922
0.132353 0.000000 0.000000
0.279412 0.003922 0.000000
0.427451 0.015686 0.000000
0.562255 0.031373 0.000000
0.683334 0.050980 0.000000
0.785784 0.063726 0.000000
0.882353 0.074510 0.000000
0.026961 0.073530 0.081373
0.066177 0.065687 0.065687
0.174020 0.062255 0.038726
0.306373 0.062255 0.008823
0.439215 0.058334 0.000000
0.559804 0.038726 0.000000
0.673039 0.039706 0.000000
0.773039 0.054902 0.000000
0.870588 0.062745 0.000000
0.091176 0.213725 0.159313
0.129412 0.209804 0.151471
0.221078 0.201961 0.124019
0.349019 0.186274 0.085294
0.470098 0.156863 0.041666
0.583333 0.119118 0.007353
0.680392 0.081373 0.000000
0.769117 0.047059 0.000000
0.862745 0.055392 0.000000
0.099020 0.373529 0.252941
0.161275 0.372059 0.244118
0.272549 0.369608 0.225000
0.400000 0.361765 0.194117
0.517648 0.340686 0.159314
0.627451 0.296078 0.116667
0.717157 0.224510 0.063236
0.787745 0.125981 0.013235
0.858824 0.047059 0.000000
0.196078 0.517648 0.342647
0.246568 0.521568 0.334804
0.341176 0.521568 0.321569
0.447549 0.521568 0.299510
0.560785 0.513726 0.274019
0.670098 0.494118 0.242647
0.764215 0.455882 0.210294
0.843627 0.375980 0.164215
0.896079 0.198039 0.083823
0.311275 0.653922 0.432353
0.342647 0.653922 0.428431
0.408334 0.656373 0.420588
0.498039 0.657843 0.404902
0.603431 0.656373 0.385294
0.703431 0.648529 0.363725
0.795098 0.630392 0.340196
0.882843 0.591176 0.311765
0.962255 0.503922 0.261765
0.408824 0.765686 0.518137
0.431863 0.766667 0.514706
0.482353 0.769607 0.508333
0.560294 0.770588 0.495098
0.647058 0.773529 0.481863
0.735784 0.770588 0.463726
0.822059 0.765686 0.447549
0.910294 0.747059 0.425490
0.996078 0.703922 0.397549
0.510294 0.875000 0.597059
0.526470 0.875490 0.596078
0.568137 0.878431 0.589706
0.626470 0.879412 0.580882
0.696078 0.883333 0.571078
0.770588 0.883333 0.559804
0.851961 0.883333 0.546078
0.934804 0.875490 0.530392
1.000000 0.851961 0.513726
0.607843 0.992157 0.690196
0.619608 0.992157 0.689706
0.647059 0.996078 0.685785
0.688726 0.999019 0.681863
0.745098 1.000000 0.674020
0.813235 1.000000 0.666177
0.887255 1.000000 0.657353
0.966176 1.000000 0.647059
1.000000 1.000000 0.634804
0.000000 0.000000 0.069608
0.019608 0.000000 0.050000
0.123529 0.000000 0.027451
0.267647 0.000000 0.010784
0.408824 0.006863 0.000000
0.544117 0.015686 0.000000
0.660785 0.031373 0.000000
0.762745 0.044608 0.000000
0.859804 0.054902 0.000000
0.015686 0.076961 0.155392
0.053922 0.065687 0.143137
0.159313 0.061765 0.116176
0.291667 0.058334 0.080882
0.423530 0.050490 0.042647
0.542647 0.030883 0.011275
0.650000 0.023529 0.000000
0.750981 0.035294 0.000000
0.848039 0.043627 0.000000
0.074510 0.216667 0.241176
0.117157 0.212745 0.229412
0.205882 0.205882 0.205882
0.337255 0.190686 0.169608
0.454902 0.159804 0.126471
0.566176 0.116667 0.077941
0.663725 0.072549 0.036275
0.745588 0.027451 0.010784
0.840196 0.036275 0.010784
0.067647 0.369608 0.330882
0.139215 0.369608 0.323039
0.256373 0.369608 0.303431
0.384804 0.364216 0.275980
0.501470 0.342647 0.241176
0.611765 0.300000 0.198530
0.701470 0.229902 0.148039
0.769117 0.122059 0.085784
0.839216 0.028431 0.032843
0.169608 0.513726 0.416667
0.225000 0.517648 0.410784
0.322549 0.517648 0.397059
0.428431 0.517157 0.377451
0.544118 0.509804 0.352941
0.653922 0.490687 0.321569
0.748039 0.455882 0.288235
0.829902 0.383334 0.237745
0.884314 0.205882 0.150000
0.294118 0.647059 0.497059
0.326471 0.648529 0.492647
0.392647 0.650000 0.482843
0.482353 0.652451 0.467157
0.587745 0.650000 0.447549
0.689216 0.644608 0.424019
0.782353 0.626470 0.400490
0.869608 0.590686 0.369117
0.950490 0.506373 0.319608
0.397058 0.759804 0.568627
0.417647 0.761764 0.565686
0.470588 0.762745 0.560784
0.548530 0.766667 0.546569
0.634314 0.767647 0.532353
0.724020 0.766667 0.517157
0.809804 0.759804 0.498039
0.898529 0.743137 0.476471
0.988235 0.700000 0.447059
0.499019 0.867647 0.642647
0.517647 0.868628 0.642647
0.556373 0.871568 0.635784
0.614706 0.875000 0.626961
0.684314 0.876471 0.617647
0.758824 0.878921 0.604902
0.840196 0.878921 0.591667
0.925980 0.871078 0.575981
1.000000 0.848039 0.556373
0.600000 0.988235 0.729412
0.611275 0.988235 0.728431
0.635294 0.992157 0.724510
0.680882 0.992157 0.720589
0.735294 0.996078 0.712746
0.801471 1.000000 0.704902
0.875490 1.000000 0.694118
0.957353 1.000000 0.682353
1.000000 1.000000 0.666667
0.000000 0.000000 0.159314
0.007353 0.000000 0.139706
0.105392 0.000000 0.116176
0.248039 0.000000 0.086275
0.388235 0.000000 0.061275
0.520588 0.003922 0.038725
0.636275 0.014216 0.025980
0.737745 0.023529 0.018137
0.836765 0.032843 0.018137
0.007353 0.081373 0.251471
0.035784 0.069608 0.236275
0.146569 0.061765 0.209314
0.276470 0.054412 0.174510
0.403922 0.042647 0.135784
0.521569 0.023039 0.100000
0.624510 0.007843 0.064706
0.725980 0.015686 0.052941
0.825000 0.024019 0.045588
0.054902 0.221568 0.337255
0.099019 0.217647 0.325981
0.187255 0.209804 0.299510
0.321569 0.198039 0.264706
0.439215 0.167647 0.225000
0.548039 0.118137 0.171569
0.641667 0.067647 0.126961
0.723040 0.014216 0.083334
0.819608 0.019608 0.073039
0.038235 0.369608 0.419118
0.114216 0.369608 0.411765
0.236765 0.369608 0.393137
0.365686 0.365686 0.365686
0.482843 0.348529 0.330882
0.596078 0.310294 0.288235
0.685785 0.241667 0.233824
0.753431 0.125981 0.167647
0.819608 0.022059 0.102941
0.145098 0.513726 0.494608
0.205392 0.513726 0.489706
0.303921 0.516177 0.475000
0.412255 0.513726 0.455392
0.527451 0.509804 0.427941
0.638235 0.494118 0.399020
0.732353 0.459804 0.363725
0.815686 0.393627 0.316177
0.872549 0.221569 0.227941
0.277451 0.642157 0.564706
0.309804 0.644608 0.560784
0.373530 0.646078 0.552941
0.466667 0.647549 0.537255
0.572059 0.646078 0.517647
0.673529 0.642157 0.494118
0.765686 0.626470 0.471079
0.854412 0.591176 0.440196
0.936274 0.510294 0.389706
0.379902 0.753922 0.634804
0.402941 0.754902 0.630883
0.454902 0.757843 0.623039
0.532843 0.758824 0.611274
0.618627 0.761764 0.598529
0.707353 0.761764 0.582353
0.794118 0.754902 0.564215
0.882843 0.739216 0.540686
0.973530 0.697059 0.509314
0.486765 0.861275 0.700980
0.502451 0.863235 0.700980
0.541666 0.863725 0.694118
0.599019 0.867647 0.685294
0.669118 0.871078 0.675490
0.743137 0.871568 0.661765
0.825000 0.871568 0.649510
0.910784 0.865196 0.630392
1.000000 0.844117 0.606863
0.588235 0.981863 0.778922
0.600000 0.984314 0.776471
0.626470 0.984314 0.772549
0.669118 0.988235 0.767157
0.723529 0.992157 0.759314
0.789706 0.996078 0.751471
0.862255 1.000000 0.739706
0.945588 1.000000 0.727941
1.000000 0.996078 0.709804
0.000000 0.000000 0.256863
0.000000 0.000000 0.237255
0.086275 0.000000 0.213726
0.226471 0.000000 0.178431
0.362745 0.000000 0.150981
0.495098 0.000000 0.129902
0.611765 0.003922 0.111765
0.714216 0.007843 0.099510
0.815686 0.017647 0.088235
0.000000 0.091177 0.353922
0.026471 0.079412 0.336764
0.131862 0.069608 0.307843
0.263726 0.057844 0.268137
0.385784 0.038726 0.228922
0.503431 0.021569 0.189706
0.604902 0.003432 0.148039
0.704902 0.003922 0.130882
0.803922 0.011765 0.119608
0.046078 0.233333 0.430392
0.081863 0.229412 0.418137
0.175490 0.225490 0.393137
0.307843 0.211765 0.357843
0.427451 0.185294 0.318628
0.536274 0.131862 0.265196
0.624510 0.067647 0.213726
0.706372 0.014216 0.165686
0.798039 0.007843 0.147059
0.022549 0.373529 0.502451
0.092647 0.378431 0.494608
0.222058 0.377451 0.477941
0.350000 0.373529 0.451471
0.470588 0.357843 0.420098
0.583333 0.325000 0.377941
0.674019 0.259804 0.326961
0.741666 0.141667 0.256863
0.803922 0.020588 0.184804
0.121568 0.513726 0.574510
0.187745 0.515686 0.568628
0.288235 0.517648 0.555882
0.396569 0.517648 0.537254
0.511764 0.509804 0.511764
0.622549 0.498039 0.482353
0.715687 0.467647 0.448039
0.800490 0.405392 0.401960
0.864706 0.247059 0.315686
0.259804 0.638235 0.639215
0.291177 0.640686 0.638725
0.357353 0.642157 0.626961
0.450980 0.644608 0.612745
0.556372 0.644608 0.593627
0.655882 0.638235 0.572059
0.747549 0.626470 0.547549
0.837255 0.594608 0.514216
0.921569 0.518138 0.463726
0.365686 0.747059 0.700980
0.388725 0.750000 0.700000
0.440196 0.750981 0.693137
0.517157 0.754902 0.680392
0.602941 0.757843 0.665686
0.691667 0.757843 0.648529
0.778432 0.750981 0.629412
0.867157 0.735294 0.606373
0.960784 0.697059 0.571568
0.475000 0.855882 0.759314
0.491176 0.855882 0.759314
0.528922 0.859314 0.752451
0.587255 0.863235 0.743627
0.655392 0.863725 0.733823
0.730882 0.867647 0.720098
0.811765 0.867647 0.704412
0.898529 0.863235 0.686765
0.996078 0.840196 0.661275
0.576471 0.976471 0.829412
0.588235 0.978432 0.827451
0.615686 0.980392 0.823529
0.657353 0.984314 0.817647
0.711765 0.988235 0.809804
0.777941 0.992157 0.800490
0.850980 0.996078 0.790196
0.933823 1.000000 0.776471
1.000000 0.996078 0.756863
0.000000 0.000000 0.351961
0.000000 0.000000 0.330882
0.076470 0.000000 0.303431
0.216667 0.000000 0.272059
0.341176 0.000000 0.232843
0.473529 0.000000 0.209314
0.588725 0.000000 0.192647
0.690686 0.000000 0.177941
0.792157 0.007843 0.166176
0.000000 0.112745 0.451961
0.026471 0.104902 0.433824
0.124019 0.096569 0.405392
0.259313 0.078921 0.364705
0.375980 0.051961 0.324020
0.489216 0.023039 0.279412
0.585294 0.003922 0.237255
0.679902 0.000000 0.209314
0.780392 0.003922 0.197549
0.046079 0.252941 0.523530
0.080882 0.252941 0.511765
0.161274 0.249019 0.486765
0.299020 0.237745 0.454412
0.415686 0.210785 0.415687
0.525980 0.160294 0.365196
0.611765 0.083334 0.306372
0.690686 0.014706 0.254902
0.776471 0.000000 0.221078
0.006863 0.385294 0.588235
0.076961 0.385294 0.580392
0.210784 0.385294 0.563235
0.338235 0.385294 0.537255
0.457353 0.373529 0.507843
0.571569 0.346079 0.470588
0.662255 0.288726 0.421078
0.732353 0.176471 0.350980
0.789215 0.024510 0.266667
0.105882 0.517648 0.652451
0.175980 0.521568 0.646568
0.274510 0.521568 0.634804
0.380883 0.521568 0.615196
0.498039 0.517648 0.591666
0.607353 0.505883 0.560785
0.702941 0.478431 0.528921
0.788725 0.424510 0.483333
0.856863 0.280392 0.399510
0.246078 0.638235 0.708824
0.279412 0.640686 0.707353
0.345588 0.642157 0.697059
0.439216 0.644608 0.682843
0.544608 0.646078 0.663726
0.642157 0.642157 0.642157
0.734314 0.629412 0.617647
0.824019 0.600000 0.584314
0.911274 0.529902 0.533824
0.354902 0.746079 0.763235
0.378432 0.747059 0.762255
0.431373 0.750000 0.754412
0.509314 0.753922 0.742647
0.591176 0.754902 0.727941
0.676961 0.754902 0.710784
0.765686 0.750981 0.691667
0.854902 0.738235 0.668138
0.949020 0.700000 0.630883
0.467157 0.851961 0.817647
0.482843 0.851961 0.813726
0.521079 0.855392 0.809804
0.575490 0.859314 0.801961
0.644117 0.860294 0.790196
0.719118 0.863725 0.776961
0.797549 0.863725 0.761765
0.883333 0.859804 0.743137
0.984314 0.840196 0.715687
0.568627 0.972549 0.879902
0.580392 0.972549 0.878431
0.606863 0.976471 0.875980
0.647059 0.980392 0.869608
0.701961 0.984314 0.862255
0.766176 0.988235 0.852451
0.840196 0.992157 0.840686
0.922059 0.996078 0.827451
1.000000 0.992157 0.805392
0.000000 0.000000 0.448039
0.000000 0.000000 0.421078
0.072549 0.000000 0.394117
0.208824 0.000000 0.360294
0.331372 0.000000 0.326470
0.452451 0.000000 0.289706
0.565686 0.000000 0.270588
0.667157 0.000000 0.255392
0.768627 0.000000 0.240196
0.000000 0.144118 0.549510
0.031373 0.140196 0.529902
0.124019 0.133333 0.500490
0.259313 0.117647 0.463235
0.374020 0.086765 0.419117
0.483333 0.035784 0.368628
0.573530 0.007353 0.322549
0.659314 0.000000 0.282353
0.760784 0.000000 0.267157
0.050000 0.278431 0.611765
0.083824 0.278431 0.600000
0.153922 0.276470 0.576471
0.293137 0.268627 0.545098
0.411764 0.246079 0.505882
0.520588 0.199020 0.458333
0.607843 0.121568 0.398039
0.678921 0.025980 0.334804
0.756863 0.000000 0.286275
0.000000 0.400980 0.666176
0.070589 0.400981 0.658334
0.205882 0.403431 0.640687
0.330392 0.400980 0.619117
0.449510 0.393137 0.587745
0.563725 0.369608 0.551961
0.654412 0.324020 0.506863
0.728431 0.221079 0.440686
0.780392 0.041176 0.340686
0.111765 0.529411 0.722549
0.168137 0.529411 0.716667
0.266667 0.533334 0.704902
0.373039 0.533334 0.689216
0.490197 0.529411 0.663725
0.595098 0.522059 0.634314
0.691176 0.496078 0.602941
0.778922 0.447549 0.559804
0.852941 0.323530 0.483333
0.240686 0.642157 0.775000
0.272059 0.644608 0.771078
0.337745 0.646078 0.763235
0.431372 0.648529 0.747549
0.532843 0.650000 0.727941
0.630392 0.646078 0.708333
0.722549 0.636765 0.683824
0.812255 0.610784 0.652941
0.901961 0.545588 0.602451
0.350981 0.747059 0.824510
0.374510 0.747059 0.821569
0.427451 0.750000 0.813726
0.501471 0.753922 0.801961
0.583333 0.754902 0.789215
0.665686 0.754902 0.773039
0.753922 0.753922 0.753922
0.840686 0.739216 0.727451
0.937255 0.707843 0.692157
0.463235 0.851470 0.872059
0.478921 0.851470 0.871568
0.513236 0.851961 0.867157
0.567647 0.855882 0.857843
0.633824 0.859804 0.848039
0.707353 0.863235 0.835294
0.785784 0.863235 0.820098
0.871568 0.859314 0.800981
0.972549 0.840196 0.770098
0.564706 0.968627 0.933333
0.575981 0.971078 0.930392
0.600000 0.972549 0.927451
0.639216 0.976471 0.922549
0.692157 0.980392 0.914706
0.754412 0.984314 0.906862
0.828432 0.992157 0.895098
0.910294 0.996078 0.879412
1.000000 0.992157 0.859804
0.000000 0.003922 0.542156
0.000000 0.000000 0.510294
0.080392 0.000000 0.478921
0.212745 0.000000 0.443627
0.329412 0.000000 0.408333
0.444608 0.000000 0.369117
0.546569 0.000000 0.337745
0.647549 0.000000 0.321569
0.752451 0.000000 0.302451
0.002942 0.187745 0.639216
0.050490 0.187745 0.619608
0.140196 0.183824 0.592647
0.264706 0.168137 0.554902
0.376470 0.140686 0.515197
0.481372 0.087745 0.460785
0.569608 0.019118 0.403922
0.647549 0.000000 0.353431
0.741176 0.000000 0.328922
0.023529 0.309314 0.689706
0.052451 0.309314 0.677941
0.150000 0.311765 0.655882
0.291177 0.307843 0.628431
0.411764 0.289706 0.594118
0.525981 0.254412 0.550000
0.611764 0.183824 0.493137
0.675000 0.060294 0.418628
0.741176 0.000000 0.348530
0.024510 0.424510 0.737745
0.095588 0.425000 0.728922
0.204411 0.428431 0.713726
0.326471 0.426470 0.693137
0.447549 0.420588 0.663725
0.555882 0.400981 0.630392
0.649020 0.365196 0.592647
0.729902 0.281373 0.532353
0.778922 0.086274 0.425000
0.131372 0.545098 0.788725
0.174020 0.545098 0.784804
0.263726 0.550000 0.775000
0.369118 0.549019 0.756863
0.486274 0.549019 0.733823
0.587255 0.541177 0.708333
0.683334 0.521078 0.676961
0.771078 0.475980 0.637255
0.849020 0.375000 0.569118
0.242157 0.650000 0.837255
0.275490 0.652451 0.835784
0.337745 0.653922 0.825490
0.429902 0.658823 0.811275
0.529412 0.660294 0.794118
0.622549 0.656863 0.774510
0.712255 0.648529 0.750981
0.801961 0.626470 0.720588
0.891667 0.571569 0.674019
0.354902 0.750000 0.883824
0.374510 0.750981 0.882843
0.427451 0.753922 0.873040
0.497549 0.757843 0.864216
0.575490 0.758824 0.851470
0.657353 0.761765 0.835784
0.742647 0.757843 0.816176
0.828922 0.747059 0.793137
0.925490 0.715687 0.758333
0.463235 0.851470 0.930392
0.478431 0.851470 0.929902
0.510294 0.851961 0.925980
0.563235 0.855882 0.918137
0.625980 0.859804 0.906862
0.697059 0.863235 0.895098
0.777451 0.863725 0.879412
0.859804 0.859804 0.859804
0.960784 0.844117 0.832353
0.564706 0.964706 0.988725
0.572549 0.964706 0.984804
0.596078 0.968627 0.984314
0.635294 0.972549 0.976961
0.686275 0.976471 0.972549
0.746569 0.981372 0.961274
0.816666 0.988235 0.952941
0.898529 0.992647 0.937745
1.000000 0.996078 0.918137
0.000000 0.054902 0.643137
0.003922 0.039216 0.603922
0.107843 0.031373 0.569608
0.228432 0.017157 0.533333
0.337255 0.003922 0.492157
0.446078 0.000000 0.449510
0.538235 0.000000 0.406863
0.631863 0.000000 0.380392
0.733333 0.000000 0.364706
0.007843 0.242647 0.725000
0.054412 0.246079 0.705392
0.143137 0.246079 0.677941
0.271569 0.235784 0.646569
0.389706 0.210785 0.607353
0.493137 0.163726 0.558824
0.576960 0.083824 0.500000
0.647058 0.003922 0.434804
0.725490 0.000000 0.388235
0.027451 0.348040 0.763726
0.047549 0.350980 0.755882
0.157843 0.351961 0.733333
0.295098 0.350980 0.710294
0.415686 0.340196 0.679411
0.526961 0.315686 0.640687
0.616667 0.259805 0.593137
0.685784 0.149019 0.520098
0.740196 0.002942 0.427451
0.055883 0.455882 0.810294
0.101471 0.457353 0.802451
0.208334 0.461275 0.787745
0.326471 0.461275 0.768627
0.447549 0.455882 0.743627
0.556862 0.441667 0.712255
0.650491 0.412745 0.675981
0.732353 0.351961 0.627941
0.794608 0.186275 0.531863
0.143137 0.566666 0.856863
0.183823 0.566666 0.852941
0.267647 0.568628 0.843137
0.373529 0.572549 0.826961
0.482353 0.572549 0.805883
0.583333 0.566666 0.782353
0.677451 0.552941 0.754902
0.765196 0.517157 0.719117
0.849020 0.433334 0.658824
0.253922 0.664216 0.903431
0.281373 0.665686 0.899510
0.345588 0.668137 0.891667
0.433824 0.672059 0.879902
0.525000 0.673529 0.862255
0.614706 0.673529 0.844608
0.704412 0.668628 0.824019
0.792647 0.648529 0.797058
0.883824 0.602941 0.754412
0.366667 0.758824 0.946079
0.388726 0.761764 0.942647
0.429412 0.764705 0.938235
0.497549 0.765686 0.930392
0.571568 0.769607 0.916667
0.649510 0.770588 0.902941
0.731373 0.769607 0.886275
0.820098 0.761764 0.863725
0.914706 0.735294 0.832353
0.471078 0.855392 0.996078
0.482843 0.855392 0.992647
0.510784 0.855882 0.988725
0.561274 0.859804 0.984314
0.622059 0.863725 0.973039
0.691667 0.867157 0.964706
0.766177 0.867647 0.949510
0.848039 0.867157 0.933333
0.949020 0.851961 0.906372
0.568627 0.960784 1.000000
0.580392 0.960784 1.000000
0.600000 0.960784 1.000000
0.637745 0.964706 1.000000
0.684314 0.968627 1.000000
0.742647 0.976471 1.000000
0.808823 0.980392 1.000000
0.886765 0.988235 1.000000
1.000000 0.996078 0.996078
