Color/Fuji/Fuji Provia 100 Generic 65x.cube
TITLE "Fuji Provia 100 Generic"
LUT_3D_SIZE 5
DOMAIN_MIN 0.000000 0.000000 0.000000
DOMAIN_MAX 1.000000 1.000000 1.000000
0.000000 0.000000 0.000000
0.229412 0.000000 0.000000
0.596078 0.000000 0.000000
0.916666 0.000000 0.000000
1.000000 0.000000 0.000000
0.049020 0.213725 0.011765
0.205882 0.213725 0.011765
0.570588 0.217647 0.011765
0.882353 0.221568 0.014706
1.000000 0.224510 0.015686
0.000000 0.529411 0.039216
0.085294 0.533334 0.039216
0.517648 0.533334 0.039216
0.829412 0.537254 0.039216
1.000000 0.541176 0.039216
0.000000 0.794118 0.027451
0.016667 0.797059 0.027451
0.480393 0.798039 0.027451
0.774510 0.800981 0.027451
0.992157 0.801961 0.027451
0.000000 0.996078 0.000000
0.164706 0.996078 0.000000
0.501961 1.000000 0.000000
0.738235 1.000000 0.000000
0.972549 1.000000 0.000000
0.000000 0.000000 0.216667
0.237255 0.000000 0.216667
0.602941 0.000000 0.217647
0.923530 0.000000 0.217647
1.000000 0.000000 0.220588
0.056863 0.212745 0.213725
0.213725 0.213725 0.213725
0.576470 0.217647 0.213725
0.892157 0.221568 0.213725
1.000000 0.224510 0.216667
0.000000 0.529411 0.201961
0.103921 0.533334 0.201961
0.521568 0.533334 0.201961
0.835294 0.537254 0.204902
1.000000 0.541176 0.204902
0.000000 0.794118 0.193137
0.033334 0.797058 0.193137
0.486274 0.798039 0.193137
0.781373 0.800981 0.194117
0.996078 0.801961 0.194117
0.000000 0.996078 0.208824
0.185294 0.996078 0.208824
0.508824 1.000000 0.209804
0.743137 1.000000 0.209804
0.976471 1.000000 0.209804
0.000000 0.000000 0.545098
0.245098 0.000000 0.545098
0.611765 0.000000 0.545098
0.932353 0.000000 0.545098
1.000000 0.000000 0.547059
0.067647 0.212745 0.541176
0.225490 0.213725 0.541176
0.586275 0.217647 0.541176
0.900000 0.221568 0.541176
1.000000 0.221568 0.541176
0.000000 0.529411 0.533334
0.129412 0.533334 0.533334
0.533334 0.533334 0.533334
0.845098 0.537254 0.533334
1.000000 0.541176 0.537254
0.000000 0.794118 0.529411
0.078431 0.797058 0.529411
0.500000 0.798039 0.529411
0.790196 0.800981 0.529411
1.000000 0.801961 0.529411
0.019608 0.996078 0.533334
0.220588 0.996078 0.533334
0.521568 1.000000 0.533334
0.753922 1.000000 0.533334
0.984314 1.000000 0.533334
0.003922 0.000000 0.817647
0.256863 0.000000 0.817647
0.621568 0.000000 0.817647
0.943137 0.000000 0.820588
1.000000 0.000000 0.820588
0.076471 0.210784 0.813726
0.237255 0.213725 0.813726
0.596079 0.217647 0.813726
0.907843 0.221568 0.814706
1.000000 0.221568 0.816667
0.000000 0.529411 0.805883
0.150981 0.532353 0.805883
0.545098 0.533334 0.805883
0.852941 0.537254 0.805883
1.000000 0.541176 0.808823
0.000000 0.794118 0.798039
0.118628 0.797058 0.798039
0.511764 0.798039 0.798039
0.800981 0.800981 0.800981
1.000000 0.801961 0.800981
0.039216 0.996078 0.797058
0.248039 0.996078 0.797058
0.533334 1.000000 0.797058
0.762745 1.000000 0.797058
0.996078 1.000000 0.797058
0.003922 0.000000 1.000000
0.264706 0.000000 1.000000
0.627451 0.000000 1.000000
0.947059 0.000000 1.000000
1.000000 0.000000 1.000000
0.087255 0.209804 1.000000
0.245098 0.213725 1.000000
0.599020 0.217647 1.000000
0.915686 0.220588 1.000000
1.000000 0.221568 1.000000
0.000000 0.529411 1.000000
0.168627 0.529412 1.000000
0.552941 0.533334 1.000000
0.860785 0.537254 1.000000
1.000000 0.537254 1.000000
0.000000 0.794118 1.000000
0.141177 0.794118 1.000000
0.521568 0.797058 1.000000
0.808823 0.800981 1.000000
1.000000 0.801961 1.000000
0.054902 0.996078 1.000000
0.268627 0.996078 1.000000
0.545098 1.000000 1.000000
0.770588 1.000000 1.000000
1.000000 1.000000 1.000000
