Color/Fuji/Fuji Superia HG 1600 65x.cube
TITLE "Fuji Superia HG 1600"
LUT_3D_SIZE 5
DOMAIN_MIN 0.000000 0.000000 0.000000
DOMAIN_MAX 1.000000 1.000000 1.000000
0.000000 0.000000 0.000000
0.269608 0.011765 0.000000
0.490197 0.047059 0.000000
0.730392 0.094118 0.000000
0.929412 0.133333 0.003922
0.176471 0.257844 0.152941
0.296078 0.257844 0.155883
0.505883 0.252941 0.156863
0.717648 0.200980 0.149020
0.886275 0.105882 0.112745
0.278431 0.490197 0.252941
0.375491 0.494118 0.252941
0.580392 0.498039 0.252941
0.783333 0.475490 0.248039
0.947059 0.350981 0.219608
0.408824 0.706863 0.377451
0.486274 0.714706 0.381373
0.658824 0.728431 0.378432
0.836274 0.734314 0.373530
1.000000 0.707843 0.346078
0.537255 0.921569 0.549020
0.587255 0.929412 0.549020
0.707843 0.941176 0.549020
0.868628 0.956863 0.549020
1.000000 0.968627 0.525490
0.000000 0.019608 0.183334
0.191176 0.000000 0.187255
0.415686 0.010784 0.191176
0.657843 0.050980 0.187255
0.871568 0.095098 0.159804
0.141176 0.261765 0.260784
0.264706 0.261765 0.261765
0.482353 0.257844 0.265686
0.691176 0.208824 0.257844
0.847059 0.082353 0.230392
0.237255 0.490197 0.346079
0.342157 0.496078 0.348040
0.552941 0.501961 0.350000
0.755882 0.477451 0.346078
0.921569 0.354902 0.320588
0.375490 0.702941 0.457843
0.455882 0.707843 0.458824
0.630392 0.722549 0.458824
0.809804 0.727451 0.457843
1.000000 0.702941 0.438236
0.514706 0.921569 0.600000
0.567647 0.925490 0.602942
0.688236 0.937255 0.602942
0.851961 0.952941 0.602941
1.000000 0.964706 0.588235
0.000000 0.043137 0.319608
0.171569 0.037255 0.327451
0.366667 0.000000 0.331372
0.607843 0.019608 0.331372
0.819608 0.062745 0.311765
0.105882 0.272549 0.408824
0.207843 0.273529 0.412745
0.439215 0.268627 0.419608
0.648039 0.220588 0.416667
0.786274 0.043137 0.396079
0.143137 0.494117 0.498039
0.277451 0.498039 0.500000
0.505883 0.505883 0.505883
0.706863 0.485294 0.505883
0.874510 0.366667 0.494117
0.314706 0.695098 0.590196
0.403922 0.700000 0.591176
0.583333 0.714706 0.595098
0.762745 0.719608 0.595098
0.957843 0.696079 0.587255
0.478431 0.921569 0.692157
0.532353 0.925490 0.692157
0.656863 0.937255 0.694118
0.820588 0.952941 0.696079
1.000000 0.964706 0.690196
0.000000 0.075490 0.495098
0.122549 0.082353 0.505882
0.345098 0.062745 0.512745
0.538235 0.000000 0.511765
0.745098 0.019608 0.507843
0.044117 0.300000 0.572549
0.132353 0.301961 0.577451
0.392156 0.300000 0.585294
0.604902 0.252941 0.589215
0.728431 0.029412 0.576471
0.011765 0.505883 0.640196
0.202941 0.512745 0.644118
0.458823 0.521568 0.650000
0.665686 0.509804 0.653922
0.839216 0.405882 0.650000
0.251960 0.695098 0.710784
0.352941 0.700000 0.711765
0.540196 0.714706 0.715687
0.722549 0.722549 0.722549
0.921569 0.700000 0.722549
0.430393 0.925490 0.797058
0.485295 0.929412 0.797058
0.613725 0.941176 0.800981
0.781373 0.956863 0.804902
1.000000 0.968627 0.804902
0.000000 0.145098 0.643137
0.097059 0.149020 0.654902
0.327451 0.145098 0.662745
0.526471 0.077451 0.666667
0.686275 0.000000 0.666667
0.004902 0.355882 0.709804
0.044117 0.362745 0.716667
0.360784 0.367647 0.725490
0.581373 0.334314 0.732353
0.733333 0.182353 0.729412
0.000000 0.535294 0.772549
0.123529 0.543137 0.776471
0.413725 0.558823 0.784314
0.628432 0.554902 0.792157
0.813725 0.486274 0.796078
0.154902 0.706863 0.843137
0.289216 0.711765 0.844118
0.490197 0.726471 0.851961
0.675490 0.735294 0.859804
0.879412 0.722549 0.866667
0.349020 0.929412 0.941176
0.410784 0.933333 0.945098
0.547059 0.949020 0.952941
0.719608 0.965686 0.965686
1.000000 0.992157 0.992157
