Color/Fuji/Fuji Velvia 100 Generic 65x.cube
TITLE "Fuji Velvia 100 Generic"
LUT_3D_SIZE 65
DOMAIN_MIN 0.000000 0.000000 0.000000
DOMAIN_MAX 1.000000 1.000000 1.000000
0.000000 0.000000 0.000000
0.004841 0.000000 0.000000
0.015441 0.000000 0.000000
0.026287 0.000000 0.000000
0.035049 0.000000 0.000000
0.047733 0.000000 0.000000
0.060417 0.000000 0.000000
0.073101 0.000000 0.000000
0.085295 0.000000 0.000000
0.098468 0.000000 0.000000
0.111152 0.000000 0.000000
0.119914 0.000000 0.000000
0.132598 0.000000 0.000000
0.145466 0.000000 0.000000
0.161887 0.000000 0.000000
0.176593 0.000000 0.000000
0.191176 0.000000 0.000000
0.207720 0.000000 0.000000
0.230025 0.000000 0.000000
0.250613 0.000000 0.000000
0.272059 0.000000 0.000000
0.297120 0.000000 0.000000
0.319485 0.000000 0.000000
0.341851 0.000000 0.000000
0.364216 0.000000 0.000000
0.386581 0.000000 0.000000
0.408578 0.000000 0.000000
0.431311 0.000000 0.000000
0.453677 0.000000 0.000000
0.479963 0.000000 0.000000
0.506250 0.000000 0.000000
0.532537 0.000000 0.000000
0.554902 0.000000 0.000000
0.581189 0.000000 0.000000
0.607475 0.000000 0.000000
0.629841 0.000000 0.000000
0.654412 0.000000 0.000000
0.678493 0.000000 0.000000
0.700858 0.000000 0.000000
0.723223 0.000000 0.000000
0.748039 0.000000 0.000000
0.769485 0.000000 0.000000
0.790932 0.000000 0.000000
0.816299 0.000000 0.000000
0.837745 0.000000 0.000000
0.859191 0.000000 0.000000
0.880637 0.000000 0.000000
0.902084 0.000000 0.000000
0.923530 0.000000 0.000000
0.944975 0.000000 0.000000
0.965318 0.000000 0.000000
0.983946 0.000000 0.000000
1.000000 0.000000 0.000000
1.000000 0.000000 0.000000
1.000000 0.000000 0.000000
1.000000 0.000000 0.000000
1.000000 0.000000 0.000000
1.000000 0.000000 0.000000
1.000000 0.000000 0.000000
1.000000 0.000000 0.000000
1.000000 0.000000 0.000000
1.000000 0.000000 0.000000
1.000000 0.000000 0.000000
1.000000 0.000000 0.000000
1.000000 0.000000 0.000000
0.000000 0.004841 0.000000
0.004841 0.004841 0.000000
0.011765 0.004841 0.000000
0.021446 0.004841 0.000000
0.033886 0.004841 0.000000
0.043811 0.004841 0.000000
0.052573 0.004841 0.000000
0.065258 0.004841 0.000000
0.077941 0.004841 0.000000
0.090135 0.004841 0.000000
0.103309 0.004841 0.000000
0.115992 0.004841 0.000000
0.130943 0.004841 0.000000
0.140624 0.004841 0.000000
0.155147 0.004841 0.000000
0.170649 0.004841 0.000000
0.189277 0.004841 0.000000
0.203799 0.004841 0.000000
0.225245 0.003922 0.000000
0.246691 0.005699 0.000000
0.268137 0.004841 0.000000
0.293199 0.004841 0.000000
0.314645 0.004841 0.000000
0.337929 0.004841 0.000000
0.357843 0.002390 0.000000
0.382660 0.003922 0.000000
0.404657 0.000919 0.000000
0.426103 0.000919 0.000000
0.449755 0.000919 0.000000
0.476041 0.000919 0.000000
0.502329 0.000919 0.000000
0.527696 0.000919 0.000000
0.550981 0.000919 0.000000
0.577267 0.000000 0.000000
0.599755 0.000000 0.000000
0.625919 0.000000 0.000000
0.651287 0.000000 0.000000
0.671937 0.000000 0.000000
0.696936 0.000000 0.000000
0.719301 0.000000 0.000000
0.741667 0.000000 0.000000
0.767034 0.002390 0.000000
0.787010 -0.002390 0.000000
0.808762 0.000000 0.000000
0.834130 0.000000 0.000000
0.856495 0.000000 0.000000
0.878860 0.000000 0.000000
0.898162 0.000000 0.000000
0.919669 0.000000 0.000000
0.939032 0.000000 0.000000
0.958578 0.000000 0.000000
0.980024 0.000000 0.000000
0.996813 0.000000 0.000000
1.000000 0.000000 0.000000
1.000000 0.000000 0.000000
1.000000 0.000000 0.000000
1.000000 0.000000 0.000000
1.000000 0.000000 0.000000
1.000000 0.000000 0.000000
1.000000 0.000000 0.000000
1.000000 0.000000 0.000000
1.000000 0.000000 0.000000
1.000000 0.000000 0.000000
1.000000 0.000000 0.000000
1.000000 0.000000 0.000000
0.000000 0.013603 0.000000
0.004841 0.013603 0.000000
0.011765 0.013603 0.000000
0.018444 0.013603 0.000000
0.027206 0.013603 0.000000
0.039890 0.013603 0.000000
0.052573 0.013603 0.000000
0.065931 0.013603 0.000000
0.077451 0.013603 0.000000
0.090625 0.013603 0.000000
0.103309 0.013603 0.000000
0.112071 0.013603 0.000000
0.124755 0.013603 0.000000
0.137623 0.013603 0.000000
0.153309 0.011765 0.000000
0.168750 0.011765 0.000000
0.186274 0.009681 0.000000
0.203799 0.009681 0.000000
0.225245 0.009681 0.000000
0.244547 0.009681 0.000000
0.266912 0.009681 0.000000
0.289583 0.009681 0.000000
0.314951 0.008456 0.000000
0.336397 0.009681 0.000000
0.357843 0.009681 0.000000
0.379289 0.009681 0.000000
0.401103 0.007843 0.000000
0.426103 0.007843 0.000000
0.449755 0.007843 0.000000
0.474204 0.007843 0.000000
0.498407 0.005760 0.000000
0.524694 0.005760 0.000000
0.550980 0.005760 0.000000
0.574387 0.005760 0.000000
0.599632 0.005760 0.000000
0.624081 0.005760 0.000000
0.648284 0.003922 0.000000
0.672733 0.003922 0.000000
0.693383 0.003922 0.000000
0.718750 0.003922 0.000000
0.739828 0.003922 0.000000
0.764032 0.003922 0.000000
0.786397 0.002452 0.000000
0.806924 0.005454 0.000000
0.829289 0.001838 0.000000
0.851348 0.001838 0.000000
0.872794 0.001838 0.000000
0.894302 0.003922 0.000000
0.916666 0.001838 0.000000
0.937132 0.001838 0.000000
0.958578 0.001838 0.000000
0.979841 0.001838 0.000000
0.994975 0.000000 0.000000
1.000000 0.000000 0.000000
1.000000 0.000000 0.000000
1.000000 0.000000 0.000000
1.000000 0.000000 0.000000
1.000000 0.000000 0.000000
1.000000 0.000000 0.000000
1.000000 0.000000 0.000000
1.000000 0.000000 0.000000
1.000000 0.000000 0.000000
1.000000 0.000000 0.000000
1.000000 0.000000 0.000000
1.000000 0.000000 0.000000
0.002758 0.022365 0.000000
0.007843 0.022365 0.000000
0.014522 0.022365 0.000000
0.018444 0.022365 0.000000
0.027206 0.022365 0.000000
0.036642 0.022365 0.000000
0.047488 0.022365 0.000000
0.061091 0.022365 0.000000
0.074020 0.022365 0.000000
0.087133 0.022365 0.000000
0.099387 0.022365 0.000000
0.112071 0.022365 0.000000
0.124019 0.022365 0.000000
0.137623 0.022182 0.000000
0.154044 0.018444 0.000000
0.168750 0.018444 0.000000
0.183517 0.018444 0.000000
0.199877 0.018444 0.000000
0.222182 0.018444 0.000000
0.241790 0.018444 0.000000
0.266912 0.018444 0.000000
0.289583 0.018444 0.000000
0.311642 0.018444 0.000000
0.336397 0.018444 0.000000
0.357843 0.015686 0.000000
0.379902 0.015686 0.000000
0.401103 0.014522 0.000000
0.423468 0.014522 0.000000
0.446997 0.014522 0.000000
0.472120 0.014522 0.000000
0.498407 0.011765 0.000000
0.524694 0.013481 0.000000
0.550980 0.010601 0.000000
0.574510 0.010601 0.000000
0.599632 0.010601 0.000000
0.625122 0.010601 0.000000
0.648284 0.010601 0.000000
0.670650 0.010601 0.000000
0.694179 0.010601 0.000000
0.715380 0.007843 0.000000
0.740196 0.010601 0.000000
0.761642 0.010601 0.000000
0.783089 0.007291 0.000000
0.808456 0.010294 0.000000
0.829902 0.006679 0.000000
0.851348 0.006679 0.000000
0.872794 0.006679 0.000000
0.891545 0.006679 0.000000
0.915686 0.006679 0.000000
0.937132 0.006679 0.000000
0.957475 0.003922 0.000000
0.976103 0.003922 0.000000
0.996078 0.003922 0.000000
1.000000 0.003922 0.000000
1.000000 0.003922 0.000000
1.000000 0.003922 0.000000
1.000000 0.003922 0.000000
1.000000 0.003922 0.000000
1.000000 0.003922 0.000000
1.000000 0.003922 0.000000
1.000000 0.003922 0.000000
1.000000 0.003922 0.000000
1.000000 0.003922 0.000000
1.000000 0.003922 0.000000
1.000000 0.003922 0.000000
0.003922 0.035049 0.000000
0.008762 0.034804 0.000000
0.013603 0.034804 0.000000
0.018444 0.031128 0.000000
0.027206 0.031128 0.000000
0.035968 0.031128 0.000000
0.048652 0.031128 0.000000
0.061336 0.031128 0.000000
0.074020 0.031128 0.000000
0.086704 0.031128 0.000000
0.099387 0.031128 0.000000
0.106740 0.031128 0.000000
0.120343 0.031128 0.000000
0.137439 0.031128 0.000000
0.151226 0.030025 0.000000
0.165073 0.027206 0.000000
0.182353 0.027206 0.000000
0.199877 0.027206 0.000000
0.218505 0.027206 0.000000
0.242770 0.027206 0.000000
0.266912 0.027206 0.000000
0.289277 0.027206 0.000000
0.311642 0.027206 0.000000
0.334007 0.027206 0.000000
0.356373 0.024754 0.000000
0.378738 0.023284 0.000000
0.397426 0.023284 0.000000
0.423468 0.023284 0.000000
0.447549 0.023284 0.000000
0.472120 0.023284 0.000000
0.498407 0.019363 0.000000
0.524694 0.019363 0.000000
0.549019 0.019363 0.000000
0.573346 0.019363 0.000000
0.599632 0.019363 0.000000
0.621998 0.019363 0.000000
0.646568 0.015686 0.000000
0.670650 0.016728 0.000000
0.693015 0.015441 0.000000
0.715380 0.015441 0.000000
0.740196 0.015441 0.000000
0.761642 0.015441 0.000000
0.783089 0.015441 0.000000
0.808456 0.011765 0.000000
0.829902 0.011765 0.000000
0.851348 0.011520 0.000000
0.872794 0.011520 0.000000
0.894241 0.015381 0.000000
0.915686 0.011520 0.000000
0.937132 0.011520 0.000000
0.953799 0.011520 0.000000
0.976103 0.011520 0.000000
0.992892 0.011520 0.000000
1.000000 0.007843 0.000000
1.000000 0.007843 0.000000
1.000000 0.007843 0.000000
1.000000 0.007843 0.000000
1.000000 0.007843 0.000000
1.000000 0.007843 0.000000
1.000000 0.007843 0.000000
1.000000 0.007598 0.000000
1.000000 0.007598 0.000000
1.000000 0.007843 0.000000
1.000000 0.007843 0.000000
1.000000 0.007598 0.000000
0.007843 0.044485 0.000000
0.012684 0.044485 0.000000
0.017524 0.043811 0.000000
0.022365 0.043811 0.000000
0.024203 0.043811 0.000000
0.035968 0.043811 0.000000
0.044730 0.043811 0.000000
0.057415 0.043811 0.000000
0.070098 0.043811 0.000000
0.082537 0.043811 0.000000
0.095466 0.043811 0.000000
0.109742 0.043811 0.000000
0.123346 0.040564 0.000000
0.133701 0.040564 0.000000
0.151226 0.039461 0.000000
0.164828 0.039890 0.000000
0.182353 0.039890 0.000000
0.199877 0.039890 0.000000
0.221324 0.039890 0.000000
0.242770 0.039890 0.000000
0.266912 0.036642 0.000000
0.289277 0.036642 0.000000
0.311642 0.036642 0.000000
0.334007 0.035110 0.000000
0.356372 0.035968 0.000000
0.378738 0.035968 0.000000
0.400735 0.032047 0.000000
0.423468 0.032047 0.000000
0.445833 0.032047 0.000000
0.472120 0.032047 0.000000
0.498407 0.028799 0.000000
0.523652 0.028125 0.000000
0.547058 0.028125 0.000000
0.573346 0.028125 0.000000
0.599632 0.028125 0.000000
0.621998 0.028125 0.000000
0.647610 0.028125 0.000000
0.668015 0.024203 0.000000
0.693015 0.024203 0.000000
0.715380 0.024203 0.000000
0.737745 0.024203 0.000000
0.760110 0.024203 0.000000
0.785724 0.024203 0.000000
0.804841 0.020282 0.000000
0.827206 0.020282 0.000000
0.849571 0.020282 0.000000
0.871936 0.020282 0.000000
0.894241 0.020282 0.000000
0.912745 0.020282 0.000000
0.933211 0.020282 0.000000
0.954657 0.016360 0.000000
0.975920 0.016360 0.000000
0.992892 0.016360 0.000000
1.000000 0.016360 0.000000
1.000000 0.016360 0.000000
1.000000 0.016360 0.000000
1.000000 0.016360 0.000000
1.000000 0.016360 0.000000
1.000000 0.016360 0.000000
1.000000 0.015686 0.000000
1.000000 0.012439 0.000000
1.000000 0.012439 0.000000
1.000000 0.012439 0.000000
1.000000 0.012439 0.000000
1.000000 0.012439 0.000000
0.009436 0.056495 0.000000
0.012684 0.056495 0.000000
0.017279 0.056495 0.000000
0.023529 0.056495 0.000000
0.031128 0.056495 0.000000
0.037561 0.056495 0.000000
0.046323 0.056495 0.000000
0.057415 0.056495 0.000000
0.069608 0.056495 0.000000
0.082782 0.054167 0.000000
0.095466 0.054167 0.000000
0.104228 0.054167 0.000000
0.116912 0.054167 0.000000
0.133701 0.052573 0.000000
0.150123 0.052573 0.000000
0.164828 0.052573 0.000000
0.179412 0.052573 0.000000
0.199877 0.052573 0.000000
0.221324 0.050245 0.000000
0.242770 0.048468 0.000000
0.266912 0.048652 0.000000
0.289277 0.048652 0.000000
0.311642 0.048652 0.000000
0.334007 0.048652 0.000000
0.353922 0.048652 0.000000
0.378738 0.042954 0.000000
0.400735 0.044730 0.000000
0.423468 0.044730 0.000000
0.445833 0.044730 0.000000
0.472120 0.042402 0.000000
0.498407 0.040809 0.000000
0.523652 0.040809 0.000000
0.547059 0.040809 0.000000
0.573346 0.038480 0.000000
0.595833 0.038480 0.000000
0.621998 0.036887 0.000000
0.644363 0.036887 0.000000
0.668015 0.036887 0.000000
0.693015 0.036887 0.000000
0.713787 0.032966 0.000000
0.737745 0.032966 0.000000
0.760110 0.032966 0.000000
0.782476 0.032966 0.000000
0.803248 0.032966 0.000000
0.827206 0.030637 0.000000
0.847426 0.029044 0.000000
0.868872 0.029044 0.000000
0.890380 0.029044 0.000000
0.912745 0.029044 0.000000
0.933211 0.029044 0.000000
0.954657 0.026716 0.000000
0.972181 0.025122 0.000000
0.992892 0.025122 0.000000
1.000000 0.025122 0.000000
1.000000 0.025122 0.000000
1.000000 0.025122 0.000000
1.000000 0.025122 0.000000
1.000000 0.025122 0.000000
1.000000 0.025122 0.000000
1.000000 0.019546 0.000000
1.000000 0.021201 0.000000
1.000000 0.021201 0.000000
1.000000 0.021201 0.000000
1.000000 0.021201 0.000000
1.000000 0.021201 0.000000
0.011765 0.069179 0.000000
0.018199 0.069179 0.000000
0.021446 0.069179 0.000000
0.026287 0.069179 0.000000
0.035049 0.069179 0.000000
0.039890 0.067769 0.000000
0.048652 0.067769 0.000000
0.057415 0.067769 0.000000
0.066177 0.067769 0.000000
0.076776 0.067769 0.000000
0.091544 0.065258 0.000000
0.104228 0.065258 0.000000
0.116912 0.065258 0.000000
0.133517 0.065258 0.000000
0.147304 0.065258 0.000000
0.162316 0.065748 0.000000
0.178431 0.063848 0.000000
0.199877 0.063848 0.000000
0.221324 0.061336 0.000000
0.242770 0.061336 0.000000
0.266912 0.061336 0.000000
0.289277 0.061336 0.000000
0.311642 0.061336 0.000000
0.331495 0.062316 0.000000
0.353922 0.059926 0.000000
0.375368 0.057415 0.000000
0.400735 0.059559 0.000000
0.423468 0.056005 0.000000
0.445833 0.056005 0.000000
0.472120 0.056005 0.000000
0.498407 0.053493 0.000000
0.520772 0.054963 0.000000
0.547059 0.052083 0.000000
0.573346 0.052083 0.000000
0.595833 0.049571 0.000000
0.621998 0.049571 0.000000
0.644363 0.049571 0.000000
0.668015 0.048161 0.000000
0.689461 0.048161 0.000000
0.714829 0.045650 0.000000
0.735232 0.045650 0.000000
0.760110 0.045650 0.000000
0.782476 0.045650 0.000000
0.804535 0.041728 0.000000
0.825980 0.041728 0.000000
0.847426 0.041728 0.000000
0.868872 0.041728 0.000000
0.890380 0.044179 0.000000
0.911765 0.040318 0.000000
0.933211 0.037807 0.000000
0.953554 0.037807 0.000000
0.972181 0.037807 0.000000
0.992892 0.037807 0.000000
1.000000 0.036397 0.000000
1.000000 0.033824 0.000000
1.000000 0.033885 0.000000
1.000000 0.033885 0.000000
1.000000 0.033885 0.000000
1.000000 0.033885 0.000000
1.000000 0.033885 0.000000
1.000000 0.032475 0.000000
1.000000 0.032475 0.000000
1.000000 0.032475 0.000000
1.000000 0.032475 0.000000
1.000000 0.029964 0.000000
0.015686 0.081373 0.000000
0.023039 0.081373 0.000000
0.026961 0.081373 0.000000
0.030209 0.081373 0.000000
0.034804 0.081373 0.000000
0.043811 0.081373 0.000000
0.052084 0.077941 0.000000
0.060845 0.077941 0.000000
0.070098 0.077941 0.000000
0.078860 0.077941 0.000000
0.088971 0.077941 0.000000
0.102573 0.077941 0.000000
0.116176 0.077941 0.000000
0.129780 0.077941 0.000000
0.147304 0.077451 0.000000
0.162806 0.077451 0.000000
0.178431 0.077451 0.000000
0.200306 0.074020 0.000000
0.221324 0.074020 0.000000
0.242770 0.074020 0.000000
0.266912 0.074020 0.000000
0.289277 0.073530 0.000000
0.311642 0.073530 0.000000
0.332476 0.073530 0.000000
0.353922 0.070098 0.000000
0.375368 0.070098 0.000000
0.400735 0.069608 0.000000
0.423468 0.069608 0.000000
0.445833 0.069608 0.000000
0.472120 0.066177 0.000000
0.498407 0.069485 0.000000
0.520772 0.065687 0.000000
0.547059 0.062255 0.000000
0.573346 0.062255 0.000000
0.595833 0.062255 0.000000
0.621201 0.062255 0.000000
0.644363 0.061765 0.000000
0.666728 0.061765 0.000000
0.689461 0.058211 0.000000
0.714829 0.058334 0.000000
0.736274 0.058334 0.000000
0.756679 0.057844 0.000000
0.782476 0.057844 0.000000
0.804535 0.054412 0.000000
0.825980 0.054412 0.000000
0.847426 0.054412 0.000000
0.868872 0.053922 0.000000
0.890319 0.053922 0.000000
0.911765 0.050490 0.000000
0.933211 0.050490 0.000000
0.950122 0.050490 0.000000
0.972181 0.050490 0.000000
0.989706 0.050000 0.000000
1.000000 0.046569 0.000000
1.000000 0.046569 0.000000
1.000000 0.046569 0.000000
1.000000 0.046569 0.000000
1.000000 0.046079 0.000000
1.000000 0.047672 0.000000
1.000000 0.046079 0.000000
1.000000 0.042647 0.000000
1.000000 0.042647 0.000000
1.000000 0.042647 0.000000
1.000000 0.042647 0.000000
1.000000 0.042647 0.000000
0.019608 0.091054 0.000000
0.024448 0.091054 0.000000
0.027880 0.091054 0.000000
0.031802 0.091054 0.000000
0.039399 0.090625 0.000000
0.047733 0.090625 0.000000
0.056495 0.090625 0.000000
0.061765 0.090625 0.000000
0.070528 0.090625 0.000000
0.078860 0.090625 0.000000
0.087623 0.090625 0.000000
0.100306 0.090625 0.000000
0.112990 0.090625 0.000000
0.129780 0.090870 0.000000
0.146201 0.087133 0.000000
0.160907 0.085111 0.000000
0.178431 0.086704 0.000000
0.199877 0.086704 0.000000
0.221324 0.086704 0.000000
0.244547 0.086704 0.000000
0.266912 0.083211 0.000000
0.289583 0.083211 0.000000
0.311642 0.082598 0.000000
0.334007 0.082782 0.000000
0.356372 0.082782 0.000000
0.378738 0.082782 0.000000
0.400735 0.079289 0.000000
0.423468 0.078860 0.000000
0.445833 0.078860 0.000000
0.472120 0.078860 0.000000
0.498407 0.075368 0.000000
0.523652 0.075368 0.000000
0.547059 0.074939 0.000000
0.573346 0.074939 0.000000
0.595833 0.074939 0.000000
0.621201 0.074939 0.000000
0.644363 0.071446 0.000000
0.666728 0.071017 0.000000
0.689461 0.071017 0.000000
0.711458 0.071017 0.000000
0.736274 0.071017 0.000000
0.757720 0.067525 0.000000
0.779167 0.067525 0.000000
0.804535 0.067096 0.000000
0.825980 0.067096 0.000000
0.847426 0.067096 0.000000
0.871507 0.063603 0.000000
0.890319 0.063174 0.000000
0.911765 0.063174 0.000000
0.931189 0.063174 0.000000
0.950735 0.063174 0.000000
0.972181 0.063174 0.000000
0.989706 0.059682 0.000000
1.000000 0.059253 0.000000
1.000000 0.059253 0.000000
1.000000 0.059253 0.000000
1.000000 0.059253 0.000000
1.000000 0.055760 0.000000
1.000000 0.055760 0.000000
1.000000 0.055760 0.000000
1.000000 0.055331 0.000000
1.000000 0.055331 0.000000
1.000000 0.055331 0.000000
1.000000 0.055331 0.000000
1.000000 0.055331 0.000000
0.023529 0.103309 0.000000
0.028799 0.103309 0.000000
0.032721 0.103309 0.000000
0.036642 0.103309 0.000000
0.040564 0.103309 0.000000
0.052328 0.103309 0.000000
0.057843 0.103309 0.000000
0.065258 0.103309 0.000000
0.074020 0.103309 0.000000
0.080208 0.100735 0.000000
0.088971 0.100735 0.000000
0.100306 0.100735 0.000000
0.112990 0.100735 0.000000
0.129780 0.099387 0.000000
0.146201 0.099387 0.000000
0.160907 0.099387 0.000000
0.178431 0.099387 0.000000
0.199877 0.099387 0.000000
0.221324 0.096814 0.000000
0.244547 0.095037 0.000000
0.266912 0.095466 0.000000
0.289583 0.095466 0.000000
0.311642 0.095466 0.000000
0.334007 0.095466 0.000000
0.356372 0.095466 0.000000
0.378738 0.092892 0.000000
0.400735 0.091544 0.000000
0.423468 0.091544 0.000000
0.444976 0.091544 0.000000
0.472120 0.091544 0.000000
0.498407 0.087623 0.000000
0.525000 0.087623 0.000000
0.547059 0.087623 0.000000
0.573346 0.087623 0.000000
0.595833 0.085049 0.000000
0.621201 0.083701 0.000000
0.644363 0.083701 0.000000
0.666728 0.083701 0.000000
0.689461 0.083701 0.000000
0.711458 0.081127 0.000000
0.736274 0.079779 0.000000
0.757720 0.079779 0.000000
0.779167 0.079779 0.000000
0.804535 0.079779 0.000000
0.825980 0.077206 0.000000
0.845649 0.077206 0.000000
0.868015 0.075858 0.000000
0.890319 0.075858 0.000000
0.911765 0.075858 0.000000
0.931189 0.075858 0.000000
0.950735 0.073284 0.000000
0.974571 0.073284 0.000000
0.988358 0.071936 0.000000
1.000000 0.071936 0.000000
1.000000 0.071936 0.000000
1.000000 0.069363 0.000000
1.000000 0.069363 0.000000
1.000000 0.068015 0.000000
1.000000 0.068015 0.000000
1.000000 0.068015 0.000000
1.000000 0.068015 0.000000
1.000000 0.068015 0.000000
1.000000 0.068015 0.000000
1.000000 0.068015 0.000000
1.000000 0.065441 0.000000
0.027451 0.115992 0.000000
0.032292 0.115992 0.000000
0.037132 0.115992 0.000000
0.041483 0.115992 0.000000
0.045404 0.115992 0.000000
0.053921 0.115992 0.000000
0.060417 0.114338 0.000000
0.069179 0.114338 0.000000
0.076286 0.114338 0.000000
0.082782 0.114338 0.000000
0.091544 0.114338 0.000000
0.102573 0.114338 0.000000
0.112990 0.114338 0.000000
0.127512 0.112071 0.000000
0.143382 0.112071 0.000000
0.160907 0.112071 0.000000
0.178431 0.112071 0.000000
0.199877 0.110416 0.000000
0.223591 0.110416 0.000000
0.244547 0.110416 0.000000
0.268137 0.108149 0.000000
0.289583 0.108149 0.000000
0.311642 0.108149 0.000000
0.334007 0.108149 0.000000
0.356372 0.106495 0.000000
0.378738 0.106495 0.000000
0.403003 0.104228 0.000000
0.423468 0.104228 0.000000
0.447549 0.104228 0.000000
0.472120 0.102573 0.000000
0.498407 0.100306 0.000000
0.524694 0.100306 0.000000
0.547059 0.100306 0.000000
0.573346 0.098652 0.000000
0.595833 0.098652 0.000000
0.621201 0.096385 0.000000
0.644363 0.096385 0.000000
0.666728 0.096385 0.000000
0.690748 0.096385 0.000000
0.711458 0.094730 0.000000
0.736274 0.094730 0.000000
0.757720 0.092463 0.000000
0.779167 0.092463 0.000000
0.800919 0.094424 0.000000
0.823285 0.090809 0.000000
0.845649 0.090809 0.000000
0.868015 0.090809 0.000000
0.890319 0.088542 0.000000
0.908823 0.088542 0.000000
0.929289 0.088910 0.000000
0.950735 0.086887 0.000000
0.968259 0.086887 0.000000
0.988970 0.084620 0.000000
1.000000 0.084620 0.000000
1.000000 0.082966 0.000000
1.000000 0.082966 0.000000
1.000000 0.082966 0.000000
1.000000 0.080698 0.000000
1.000000 0.080637 0.000000
1.000000 0.080698 0.000000
1.000000 0.080698 0.000000
1.000000 0.079044 0.000000
1.000000 0.079044 0.000000
1.000000 0.079044 0.000000
1.000000 0.079044 0.000000
0.034559 0.131862 0.003922
0.036213 0.131862 0.003187
0.041054 0.131862 0.003187
0.045895 0.131862 0.003187
0.050245 0.131862 0.003187
0.055576 0.131862 0.003187
0.064338 0.128677 0.000000
0.069179 0.128677 0.000000
0.077941 0.128677 0.000000
0.085968 0.128677 0.000000
0.092892 0.130515 0.000000
0.104228 0.127941 0.000000
0.116176 0.127941 0.000000
0.125858 0.127941 0.000000
0.140195 0.127941 0.000000
0.157720 0.127941 0.000000
0.178431 0.127941 0.000000
0.199877 0.124755 0.000000
0.222182 0.127084 0.000000
0.244547 0.124019 0.000000
0.268137 0.124019 0.000000
0.289583 0.124019 0.000000
0.311642 0.124019 0.000000
0.334007 0.120834 0.000000
0.356372 0.120834 0.000000
0.378738 0.120098 0.000000
0.401103 0.120098 0.000000
0.423468 0.120098 0.000000
0.447549 0.120098 0.000000
0.472120 0.116912 0.000000
0.498407 0.116176 0.000000
0.524694 0.116176 0.000000
0.547059 0.116176 0.000000
0.573346 0.112990 0.000000
0.595833 0.112990 0.000000
0.621201 0.112254 0.000000
0.644363 0.112254 0.000000
0.666728 0.112254 0.000000
0.689093 0.112254 0.000000
0.711458 0.109069 0.000000
0.736274 0.108333 0.000000
0.757720 0.108333 0.000000
0.779167 0.108333 0.000000
0.800919 0.108333 0.000000
0.823285 0.105147 0.000000
0.845649 0.105147 0.000000
0.868015 0.104411 0.000000
0.886459 0.104411 0.000000
0.905637 0.104411 0.000000
0.929289 0.104411 0.000000
0.950735 0.101226 0.000000
0.968259 0.100490 0.000000
0.988970 0.100490 0.000000
1.000000 0.100490 0.000000
1.000000 0.097304 0.000000
1.000000 0.097304 0.000000
1.000000 0.100000 0.000000
1.000000 0.096568 0.000000
1.000000 0.096568 0.000000
1.000000 0.096568 0.000000
1.000000 0.096568 0.000000
1.000000 0.096568 0.000000
1.000000 0.096568 0.000000
1.000000 0.096568 0.000000
1.000000 0.093383 0.000000
0.039216 0.145466 0.003922
0.044056 0.145466 0.003922
0.048897 0.145466 0.003922
0.053738 0.145466 0.003922
0.058579 0.145466 0.003922
0.063419 0.145466 0.003922
0.068260 0.145466 0.003922
0.070772 0.145466 0.003922
0.081863 0.145466 0.003922
0.086888 0.145282 0.003922
0.095650 0.145282 0.003922
0.108149 0.145282 0.003922
0.120098 0.141544 0.003922
0.129596 0.141544 0.003922
0.138542 0.141544 0.000184
0.156985 0.141544 0.000184
0.178431 0.141544 0.000184
0.199816 0.141544 0.000184
0.222182 0.141360 0.000184
0.244547 0.137623 0.000184
0.268137 0.137623 0.000184
0.289583 0.137623 0.000184
0.311642 0.137623 0.000184
0.334007 0.136091 0.000000
0.356372 0.137439 0.000000
0.378738 0.137439 0.000000
0.401103 0.133701 0.000000
0.423468 0.133701 0.000000
0.449755 0.133701 0.000000
0.472120 0.133517 0.000000
0.498407 0.129780 0.000000
0.524694 0.129780 0.000000
0.547059 0.129780 0.000000
0.573346 0.129780 0.000000
0.595833 0.129596 0.000000
0.621201 0.125858 0.000000
0.644363 0.125858 0.000000
0.666728 0.125858 0.000000
0.689093 0.125858 0.000000
