Color/Fuji/Fuji Velvia 100 Generic 65x.cube
TITLE "Fuji Velvia 100 Generic"
LUT_3D_SIZE 9
DOMAIN_MIN 0.000000 0.000000 0.000000
DOMAIN_MAX 1.000000 1.000000 1.000000
0.000000 0.000000 0.000000
0.085295 0.000000 0.000000
0.191176 0.000000 0.000000
0.364216 0.000000 0.000000
0.554902 0.000000 0.000000
0.748039 0.000000 0.000000
0.923530 0.000000 0.000000
1.000000 0.000000 0.000000
1.000000 0.000000 0.000000
0.015686 0.081373 0.000000
0.070098 0.077941 0.000000
0.178431 0.077451 0.000000
0.353922 0.070098 0.000000
0.547059 0.062255 0.000000
0.736274 0.058334 0.000000
0.911765 0.050490 0.000000
1.000000 0.046569 0.000000
1.000000 0.042647 0.000000
0.044117 0.200981 0.003922
0.082843 0.198039 0.003922
0.175490 0.197059 0.003922
0.352451 0.190196 0.003922
0.547059 0.186274 0.003922
0.732353 0.178431 0.000000
0.903922 0.174510 0.000000
1.000000 0.169608 0.000000
1.000000 0.165686 0.000000
0.000000 0.379902 0.007843
0.000000 0.377451 0.007843
0.103431 0.373039 0.007843
0.325000 0.369608 0.007843
0.531373 0.364216 0.003922
0.711765 0.360294 0.003922
0.884314 0.356372 0.003922
1.000000 0.350000 0.003922
1.000000 0.348529 0.003922
0.000000 0.570588 0.007843
0.000000 0.570589 0.007843
0.000000 0.568628 0.007843
0.260784 0.564705 0.007843
0.494117 0.558824 0.007843
0.680882 0.554902 0.007843
0.852941 0.550981 0.007843
0.994607 0.547059 0.003922
1.000000 0.543138 0.003922
0.000000 0.745588 0.007843
0.000000 0.744117 0.007843
0.000000 0.741667 0.007843
0.158334 0.740196 0.007843
0.445098 0.736274 0.006373
0.646078 0.732353 0.007843
0.817647 0.728431 0.006373
0.956373 0.724510 0.003922
1.000000 0.720588 0.003922
0.000000 0.899020 0.000000
0.000000 0.896079 0.000000
0.000000 0.896079 0.000000
0.034804 0.892157 0.000000
0.398039 0.891177 0.000000
0.610784 0.888236 0.000000
0.781373 0.884314 0.000000
0.914215 0.880392 0.000000
1.000000 0.876471 0.000000
0.000000 1.000000 0.000000
0.000000 1.000000 0.000000
0.000000 1.000000 0.000000
0.074510 1.000000 0.000000
0.406863 1.000000 0.000000
0.608333 1.000000 0.000000
0.762254 0.996568 0.000000
0.879412 0.992647 0.000000
0.972549 0.992647 0.000000
0.003922 1.000000 0.000000
0.046569 1.000000 0.000000
0.204902 1.000000 0.000000
0.389216 1.000000 0.000000
0.545098 1.000000 0.000000
0.689216 1.000000 0.000000
0.808823 1.000000 0.000000
0.898529 1.000000 0.000000
0.984314 1.000000 0.000000
0.000000 0.000000 0.077941
0.089216 0.000000 0.077941
0.194117 0.000000 0.077451
0.365686 0.000000 0.074020
0.558824 0.000000 0.073530
0.749510 0.000000 0.070098
0.924510 0.000000 0.066177
1.000000 0.000000 0.065687
1.000000 0.000000 0.062255
0.015686 0.073530 0.070098
0.070098 0.070098 0.070098
0.182353 0.066177 0.070098
0.356372 0.062255 0.066177
0.550980 0.054412 0.066177
0.737745 0.050490 0.062255
0.912745 0.042647 0.061765
1.000000 0.038726 0.058334
1.000000 0.034804 0.057844
0.050980 0.194117 0.069608
0.089706 0.194117 0.069608
0.178431 0.190196 0.066177
0.353922 0.186274 0.066177
0.547059 0.179412 0.062255
0.732353 0.174510 0.061765
0.904902 0.166666 0.058334
1.000000 0.162745 0.057353
1.000000 0.158823 0.054412
0.000000 0.373529 0.058334
0.002941 0.372059 0.058334
0.111274 0.369118 0.058334
0.328921 0.365686 0.054412
0.532843 0.360294 0.054412
0.715687 0.356372 0.051960
0.885294 0.350000 0.050490
1.000000 0.345098 0.048039
1.000000 0.342157 0.046569
0.000000 0.566666 0.043137
0.000000 0.566666 0.043137
0.000000 0.564705 0.042647
0.266667 0.560785 0.042647
0.496078 0.555392 0.042647
0.684804 0.550980 0.040686
0.854902 0.547059 0.038726
0.996568 0.543137 0.036765
1.000000 0.539215 0.036765
0.000000 0.741667 0.025490
0.000000 0.740196 0.025490
0.000000 0.740196 0.025490
0.170098 0.736274 0.025490
0.449020 0.732353 0.026961
0.647549 0.728431 0.025490
0.817647 0.724510 0.023529
0.960294 0.720588 0.023529
1.000000 0.718137 0.023039
0.000000 0.896079 0.000000
0.000000 0.896079 0.000000
0.000000 0.892157 0.000000
0.047549 0.889706 0.000000
0.402941 0.888236 0.000000
0.614706 0.884314 0.000000
0.782353 0.880392 0.002942
0.914215 0.876471 0.002451
1.000000 0.875490 0.002451
0.000000 1.000000 0.000000
0.000000 1.000000 0.000000
0.000000 1.000000 0.000000
0.073039 1.000000 0.000000
0.410784 1.000000 0.000000
0.608333 0.996568 0.000000
0.766667 0.992647 0.000000
0.882843 0.989706 0.000000
0.972549 0.988725 0.000000
0.003922 1.000000 0.000000
0.046569 1.000000 0.000000
0.208824 1.000000 0.000000
0.391666 1.000000 0.000000
0.549019 1.000000 0.000000
0.689216 1.000000 0.000000
0.808823 1.000000 0.000000
0.899019 1.000000 0.000000
0.984314 1.000000 0.000000
0.000000 0.000000 0.194117
0.089706 0.000000 0.194117
0.195098 0.000000 0.193137
0.369608 0.000000 0.190196
0.558824 0.000000 0.189216
0.749510 0.000000 0.186274
0.927451 0.000000 0.182353
1.000000 0.000000 0.182353
1.000000 0.000000 0.181373
0.019118 0.062255 0.189216
0.077451 0.062255 0.186274
0.186274 0.058334 0.186274
0.360294 0.053922 0.185784
0.550980 0.046569 0.182353
0.740196 0.038726 0.181373
0.915686 0.034804 0.178431
1.000000 0.027451 0.176961
1.000000 0.026961 0.174510
0.057844 0.186274 0.182353
0.093137 0.182353 0.182353
0.182353 0.182353 0.182353
0.357843 0.175000 0.178431
0.550980 0.170588 0.178431
0.734804 0.165686 0.174510
0.907843 0.158823 0.174510
1.000000 0.154902 0.170588
1.000000 0.150980 0.170588
0.002941 0.365196 0.170588
0.008334 0.364216 0.170588
0.123039 0.361275 0.167156
0.334314 0.357353 0.166666
0.536764 0.352451 0.166666
0.719608 0.346079 0.162745
0.888236 0.341667 0.162745
1.000000 0.336764 0.159313
1.000000 0.333824 0.158823
0.000000 0.558824 0.145098
0.000000 0.556863 0.145098
0.000000 0.555882 0.145098
0.278431 0.551961 0.143137
0.501961 0.547059 0.143137
0.689216 0.543138 0.141176
0.857843 0.538235 0.141176
0.998529 0.534804 0.139215
1.000000 0.531373 0.139215
0.000000 0.733823 0.106372
0.000000 0.732353 0.106372
0.000000 0.730882 0.106372
0.188236 0.728431 0.106372
0.458333 0.724510 0.106372
0.653922 0.720588 0.106372
0.824019 0.716667 0.106373
0.964216 0.712745 0.106373
1.000000 0.708824 0.106372
0.000000 0.888236 0.027451
0.000000 0.885294 0.027451
0.000000 0.884314 0.027451
0.093628 0.881373 0.027451
0.414706 0.880392 0.024510
0.622549 0.876471 0.024510
0.789215 0.872549 0.024510
0.920098 0.868628 0.028431
1.000000 0.865686 0.032353
0.000000 0.996568 0.046568
0.000000 0.996568 0.046568
0.000000 0.996568 0.046568
0.110294 0.992647 0.042647
0.423530 0.992647 0.041176
0.617647 0.988725 0.037255
0.773529 0.984804 0.034804
0.887255 0.982353 0.030882
0.980392 0.980882 0.030392
0.007843 1.000000 0.094118
0.050490 1.000000 0.094118
0.216667 1.000000 0.091177
0.395588 1.000000 0.091177
0.549019 1.000000 0.090196
0.691667 1.000000 0.087255
0.812745 1.000000 0.085294
0.902451 1.000000 0.082353
0.984314 1.000000 0.082353
0.000000 0.000000 0.368137
0.093138 0.000000 0.368137
0.199020 0.000000 0.365686
0.372059 0.000000 0.364216
0.562745 0.000000 0.361765
0.753432 0.000000 0.360294
0.928431 0.000000 0.357843
1.000000 0.000000 0.356372
1.000000 0.000000 0.353922
0.019608 0.047549 0.361765
0.085294 0.046569 0.361765
0.190196 0.042647 0.360294
0.364216 0.038726 0.357843
0.554902 0.030883 0.356372
0.743137 0.026961 0.353922
0.916666 0.022059 0.352451
1.000000 0.016667 0.350000
1.000000 0.015196 0.348529
0.058824 0.170588 0.356372
0.093137 0.170588 0.356372
0.190196 0.166666 0.356372
0.364216 0.162745 0.353922
0.554902 0.155392 0.352451
0.737745 0.150980 0.350000
0.911765 0.143628 0.348529
1.000000 0.139215 0.346079
1.000000 0.135294 0.344608
0.008334 0.352451 0.346078
0.023530 0.350000 0.346078
0.139705 0.348529 0.346078
0.344608 0.344608 0.344608
0.543138 0.338235 0.342157
0.723530 0.334314 0.340686
0.892157 0.328921 0.338235
1.000000 0.324510 0.336764
1.000000 0.321079 0.336764
0.000000 0.547059 0.330882
0.000000 0.545098 0.330882
0.000000 0.543138 0.330392
0.294118 0.539215 0.328921
0.509804 0.535294 0.326961
0.695098 0.529902 0.325000
0.864706 0.525490 0.325000
1.000000 0.521568 0.322549
1.000000 0.519608 0.321079
0.000000 0.722059 0.315686
0.000000 0.720588 0.313235
0.000000 0.719608 0.313235
0.218627 0.716667 0.313235
0.469608 0.712745 0.311765
0.661765 0.708824 0.309314
0.829412 0.704902 0.309314
0.969117 0.700980 0.307843
1.000000 0.697059 0.305392
0.000000 0.876471 0.299019
0.000000 0.875490 0.299019
0.000000 0.872549 0.297549
0.125000 0.870098 0.297549
0.431863 0.868628 0.297549
0.631863 0.864706 0.295098
0.798039 0.860785 0.293627
0.925980 0.856863 0.293628
1.000000 0.854412 0.292157
0.000000 0.988725 0.293628
0.000000 0.986765 0.293628
0.000000 0.984804 0.293628
0.156863 0.982843 0.292157
0.441667 0.980882 0.289706
0.628921 0.976961 0.289706
0.782353 0.973039 0.289706
0.895098 0.973039 0.288235
0.987745 0.969117 0.285784
0.015686 1.000000 0.313235
0.058334 1.000000 0.313235
0.224510 1.000000 0.309314
0.400981 1.000000 0.309314
0.552941 1.000000 0.309314
0.693137 1.000000 0.306373
0.813726 1.000000 0.305392
0.906372 1.000000 0.305392
0.988235 1.000000 0.305392
0.000000 0.000000 0.558824
0.097059 0.000000 0.556863
0.201961 0.000000 0.556863
0.373529 0.000000 0.554902
0.566666 0.000000 0.552941
0.757353 0.000000 0.550980
0.932353 0.000000 0.549019
1.000000 0.000000 0.547059
1.000000 0.000000 0.545098
0.023039 0.030883 0.551471
0.093138 0.030883 0.550980
0.198039 0.026961 0.550980
0.368137 0.023039 0.549019
0.558824 0.019118 0.547059
0.745588 0.013235 0.545098
0.920588 0.011275 0.543138
1.000000 0.007353 0.541177
1.000000 0.003922 0.539215
0.061765 0.154902 0.547059
0.097549 0.153922 0.547059
0.198039 0.150980 0.545098
0.369608 0.146079 0.543138
0.558824 0.139215 0.541176
0.742647 0.135294 0.539215
0.914706 0.128432 0.537254
1.000000 0.123529 0.535294
1.000000 0.119608 0.535294
0.023529 0.336764 0.537254
0.039216 0.336765 0.537254
0.159313 0.332843 0.535294
0.353922 0.328921 0.533334
0.549019 0.323039 0.533334
0.728431 0.318628 0.531373
0.898529 0.313235 0.529411
1.000000 0.309314 0.527451
1.000000 0.305392 0.525490
0.000000 0.531373 0.525490
0.000000 0.531373 0.523529
0.000000 0.529411 0.523529
0.309804 0.525490 0.521568
0.521568 0.521568 0.521568
0.702451 0.515686 0.519608
0.868628 0.511764 0.517648
1.000000 0.507844 0.515686
1.000000 0.503922 0.513726
0.000000 0.708824 0.511764
0.000000 0.708333 0.511764
0.000000 0.704902 0.510294
0.246078 0.700980 0.509804
0.482843 0.697059 0.507844
0.673529 0.693137 0.506373
0.837255 0.689216 0.505883
0.975981 0.685294 0.503922
1.000000 0.684804 0.502451
0.000000 0.860785 0.500000
0.000000 0.860785 0.500000
0.000000 0.860785 0.500000
0.168627 0.856863 0.498039
0.449019 0.852941 0.498039
0.643628 0.850980 0.496078
0.805883 0.847059 0.495098
0.933823 0.845098 0.494117
1.000000 0.841177 0.492157
0.000000 0.973039 0.494118
0.000000 0.973039 0.494118
0.000000 0.973039 0.494118
0.207353 0.969117 0.492157
0.461275 0.969117 0.492157
0.642647 0.965196 0.492157
0.792157 0.961274 0.490196
0.906372 0.959804 0.488235
0.995588 0.957353 0.488235
0.023529 1.000000 0.501961
0.062255 1.000000 0.501961
0.236275 1.000000 0.501961
0.404902 1.000000 0.500000
0.558824 1.000000 0.500000
0.697059 1.000000 0.498039
0.817647 1.000000 0.496078
0.910294 1.000000 0.496079
0.992157 1.000000 0.496078
0.000000 0.000000 0.732353
0.100981 0.000000 0.729902
0.205882 0.000000 0.729902
0.377451 0.000000 0.728431
0.570589 0.000000 0.725981
0.759804 0.000000 0.724510
0.935294 0.000000 0.721078
1.000000 0.000000 0.720588
1.000000 0.000000 0.718137
0.027451 0.019118 0.724510
0.097549 0.015686 0.724510
0.201961 0.015196 0.724510
0.372059 0.011275 0.722059
0.562745 0.007843 0.720588
0.749510 0.003922 0.716667
0.923530 0.003922 0.716667
1.000000 0.000000 0.714216
1.000000 0.000000 0.712745
0.065686 0.139215 0.720588
0.101471 0.139215 0.719118
0.205882 0.135294 0.718137
0.374510 0.131862 0.716667
0.562745 0.123529 0.714216
0.745588 0.119608 0.712745
0.917647 0.111764 0.710294
1.000000 0.107843 0.708824
1.000000 0.103921 0.708824
0.027451 0.322549 0.708824
0.050000 0.321078 0.708824
0.178922 0.318628 0.708824
0.361765 0.313235 0.707843
0.554902 0.309314 0.704902
0.733823 0.303921 0.703922
0.902451 0.297549 0.700980
1.000000 0.293627 0.700980
1.000000 0.289706 0.698530
0.000000 0.517648 0.697059
0.000000 0.517648 0.697059
0.019608 0.514216 0.697059
0.325490 0.511764 0.696569
0.529411 0.506373 0.693137
0.708824 0.501961 0.693137
0.876471 0.498039 0.690686
1.000000 0.494118 0.689216
1.000000 0.490196 0.688726
0.000000 0.694608 0.685294
0.000000 0.693137 0.685294
0.000000 0.693137 0.685294
0.272549 0.689216 0.685294
0.496078 0.685294 0.681372
0.681372 0.681372 0.681372
0.845098 0.677451 0.678922
0.980882 0.673529 0.677451
1.000000 0.669608 0.677451
0.000000 0.849020 0.675000
0.000000 0.849020 0.674019
0.000000 0.847549 0.673529
0.208823 0.845098 0.673529
0.464706 0.841177 0.673529
0.654412 0.837255 0.670098
0.813726 0.833334 0.669608
0.941666 0.831863 0.669608
1.000000 0.829412 0.667157
0.000000 0.961274 0.669608
0.000000 0.961274 0.669608
0.000000 0.961274 0.669608
0.247059 0.957353 0.667157
0.476961 0.956373 0.666667
0.654412 0.953431 0.665686
0.801961 0.949510 0.665686
0.914215 0.945588 0.663236
1.000000 0.945588 0.663236
0.031373 1.000000 0.671079
0.068137 1.000000 0.671079
0.245098 1.000000 0.669608
0.412745 1.000000 0.669608
0.564705 1.000000 0.669608
0.700980 1.000000 0.667157
0.821569 1.000000 0.665686
0.910784 1.000000 0.665686
0.996078 1.000000 0.665686
0.000000 0.000000 0.888236
0.102451 0.000000 0.884314
0.209804 0.000000 0.884314
0.381373 0.000000 0.884314
0.570588 0.000000 0.880392
0.761274 0.000000 0.876471
0.939216 0.000000 0.876471
1.000000 0.000000 0.872549
1.000000 0.000000 0.872549
0.034804 0.007843 0.880392
0.104902 0.007843 0.880392
0.205882 0.007353 0.877451
0.373529 0.003922 0.876471
0.562745 0.003432 0.873039
0.751961 0.000000 0.872549
0.927451 0.000000 0.869118
1.000000 0.000000 0.868628
1.000000 0.000000 0.868628
0.066667 0.125490 0.872549
0.105392 0.123529 0.872549
0.213725 0.121568 0.872549
0.379902 0.115686 0.871568
0.566666 0.110784 0.868628
0.749510 0.103921 0.867647
0.920588 0.098039 0.864706
1.000000 0.092157 0.864706
1.000000 0.088235 0.860785
0.038235 0.309314 0.864706
0.061765 0.308334 0.864706
0.194607 0.305392 0.862255
0.369608 0.301470 0.860785
0.560785 0.295098 0.860785
0.740196 0.289706 0.856863
0.906372 0.285784 0.856863
1.000000 0.280883 0.852941
1.000000 0.277941 0.852941
0.000000 0.505883 0.852941
0.000000 0.503922 0.851961
0.056863 0.501961 0.849020
0.336764 0.497549 0.849020
0.537254 0.494117 0.849020
0.716667 0.490687 0.845098
0.880392 0.484314 0.845098
1.000000 0.480393 0.843137
1.000000 0.476471 0.841177
0.000000 0.681863 0.839706
0.000000 0.681372 0.839706
0.005393 0.681372 0.837255
0.290687 0.677451 0.837255
0.505883 0.673529 0.837255
0.689216 0.669608 0.833334
0.852451 0.665686 0.833334
0.987745 0.661765 0.832353
1.000000 0.657843 0.829412
0.000000 0.837255 0.828432
0.000000 0.837255 0.828432
0.000000 0.836274 0.825490
0.241177 0.833334 0.825490
0.480393 0.829412 0.825490
0.665686 0.825490 0.824509
0.821569 0.821569 0.821569
0.949510 0.820588 0.821569
1.000000 0.817647 0.821569
0.000000 0.949510 0.821569
0.000000 0.949510 0.821569
0.000000 0.949510 0.821078
0.277451 0.945588 0.817647
0.492647 0.945098 0.817647
0.665686 0.941666 0.817647
0.809804 0.937745 0.817157
0.922059 0.934313 0.813726
1.000000 0.933823 0.813726
0.039216 1.000000 0.817647
0.071568 1.000000 0.817647
0.252941 1.000000 0.817647
0.416667 1.000000 0.817647
0.568628 1.000000 0.817647
0.704902 1.000000 0.816667
0.824510 1.000000 0.813726
0.914215 1.000000 0.813726
1.000000 1.000000 0.813726
0.003432 0.000000 1.000000
0.105392 0.000000 1.000000
0.210785 0.000000 1.000000
0.383823 0.000000 0.996568
0.574510 0.000000 0.996568
0.765196 0.000000 0.996078
0.940196 0.000000 0.992647
1.000000 0.000000 0.992647
1.000000 0.000000 0.992647
0.039216 0.003922 0.996568
0.108824 0.003432 0.996568
0.210295 0.003432 0.993137
0.377451 0.000000 0.992647
0.566666 0.000000 0.992647
0.753431 0.000000 0.988725
0.928431 0.000000 0.988725
1.000000 0.000000 0.984804
1.000000 0.000000 0.984804
0.070588 0.114216 0.989706
0.107843 0.111764 0.989706
0.217647 0.110784 0.988725
0.383823 0.103921 0.988725
0.570588 0.099020 0.984804
0.750491 0.092157 0.984804
0.923530 0.087255 0.981372
1.000000 0.082844 0.980882
1.000000 0.076470 0.980882
0.046569 0.297549 0.980882
0.082353 0.297549 0.980882
0.202451 0.293628 0.978432
0.375980 0.289706 0.976961
0.564215 0.285784 0.976961
0.741667 0.279412 0.973039
0.906372 0.274019 0.973039
1.000000 0.270098 0.971078
1.000000 0.266176 0.969117
0.000000 0.496079 0.969117
0.000000 0.492647 0.967647
0.093137 0.492157 0.965196
0.346569 0.488235 0.965196
0.543137 0.484314 0.963725
0.720588 0.479902 0.961274
0.884314 0.474509 0.961274
1.000000 0.470589 0.957843
1.000000 0.468628 0.957353
0.000000 0.673529 0.953431
0.000000 0.673529 0.953431
0.016667 0.668138 0.953431
0.306372 0.667157 0.953431
0.513726 0.663236 0.949510
0.694608 0.659314 0.949510
0.856863 0.655392 0.949510
0.991667 0.651471 0.945588
1.000000 0.650000 0.945588
0.000000 0.829412 0.941666
0.000000 0.829412 0.941666
0.000000 0.825490 0.941666
0.264216 0.825490 0.941176
0.491177 0.821569 0.937745
0.674019 0.817647 0.937745
0.829412 0.813726 0.937255
0.953431 0.809804 0.933823
1.000000 0.809804 0.933823
0.000000 0.941666 0.933823
0.000000 0.941666 0.933823
0.016667 0.941666 0.930392
0.298530 0.937745 0.929902
0.504412 0.934313 0.929902
0.673529 0.933823 0.929902
0.817647 0.929902 0.926470
0.925980 0.925980 0.925980
1.000000 0.925980 0.925980
0.043137 1.000000 0.925980
0.077941 1.000000 0.925980
0.260784 1.000000 0.925980
0.420588 1.000000 0.925980
0.570588 1.000000 0.925980
0.708824 1.000000 0.922549
0.828432 1.000000 0.922059
0.918137 1.000000 0.922059
1.000000 1.000000 0.922059
0.000000 0.000000 1.000000
0.108824 0.000000 1.000000
0.213725 0.000000 1.000000
0.385294 0.000000 1.000000
0.574510 0.000000 1.000000
0.765196 0.000000 1.000000
0.943137 0.000000 1.000000
1.000000 0.000000 1.000000
1.000000 0.000000 1.000000
0.042647 0.003432 1.000000
0.108824 0.003432 1.000000
0.209804 0.000000 1.000000
0.377451 0.000000 1.000000
0.566666 0.000000 1.000000
0.755882 0.000000 1.000000
0.931373 0.000000 1.000000
1.000000 0.000000 1.000000
1.000000 0.000000 1.000000
0.073529 0.106863 1.000000
0.109314 0.103921 1.000000
0.221568 0.102941 1.000000
0.385294 0.096078 1.000000
0.572549 0.091177 1.000000
0.753432 0.084314 1.000000
0.924510 0.079412 1.000000
1.000000 0.072549 1.000000
1.000000 0.068627 1.000000
0.056863 0.291177 1.000000
0.092647 0.289706 1.000000
0.210295 0.287255 1.000000
0.379902 0.283334 1.000000
0.568628 0.277941 1.000000
0.744117 0.274019 1.000000
0.911765 0.269117 1.000000
1.000000 0.262255 1.000000
1.000000 0.258333 1.000000
0.000000 0.488235 1.000000
0.007843 0.488236 1.000000
0.109803 0.484314 1.000000
0.352451 0.482353 1.000000
0.547059 0.476471 1.000000
0.724510 0.472549 1.000000
0.888236 0.468628 1.000000
1.000000 0.464706 1.000000
1.000000 0.460784 1.000000
0.000000 0.665686 1.000000
0.000000 0.665686 1.000000
0.037255 0.663235 1.000000
0.318138 0.661765 1.000000
0.522059 0.657843 1.000000
0.700980 0.653922 1.000000
0.860785 0.647549 1.000000
0.996078 0.647058 1.000000
1.000000 0.642157 1.000000
0.000000 0.821569 1.000000
0.000000 0.821569 1.000000
0.000000 0.821569 1.000000
0.276471 0.817647 1.000000
0.496078 0.813726 1.000000
0.677451 0.809804 1.000000
0.833334 0.805883 1.000000
0.956863 0.805393 1.000000
1.000000 0.801961 1.000000
0.000000 0.934313 1.000000
0.000000 0.934313 1.000000
0.026961 0.933823 1.000000
0.313725 0.933823 1.000000
0.510294 0.929902 1.000000
0.677942 0.925980 1.000000
0.821569 0.922059 1.000000
0.929902 0.922059 1.000000
1.000000 0.918137 1.000000
0.047059 1.000000 1.000000
0.078431 1.000000 1.000000
0.264706 1.000000 1.000000
0.424510 1.000000 1.000000
0.572549 1.000000 1.000000
0.708824 1.000000 1.000000
0.828432 1.000000 1.000000
0.918137 1.000000 1.000000
1.000000 1.000000 1.000000
