Color/Fuji/Fuji 400H 1 - 65x.cube
TITLE "Fuji 400H 1 -"
LUT_3D_SIZE 5
DOMAIN_MIN 0.000000 0.000000 0.000000
DOMAIN_MAX 1.000000 1.000000 1.000000
0.000000 0.000000 0.000000
0.233333 0.012745 0.003922
0.619607 0.000000 0.000000
0.860785 0.000000 0.000000
1.000000 0.239216 0.058824
0.000000 0.243138 0.000981
0.190196 0.252941 0.000000
0.611765 0.249999 0.000000
0.846079 0.267647 0.000000
1.000000 0.357843 0.002942
0.000000 0.527451 0.060785
0.005882 0.518628 0.092157
0.513726 0.527451 0.000000
0.787255 0.531373 0.000000
0.978432 0.545098 0.000000
0.000000 0.708823 0.238235
0.230392 0.703922 0.249020
0.481372 0.698039 0.247059
0.715687 0.707843 0.198039
0.945098 0.739216 0.145098
0.415686 0.929412 0.498039
0.462745 0.926471 0.506862
0.574510 0.925490 0.537255
0.729412 0.940196 0.528431
0.941176 0.960784 0.513726
0.000981 0.023529 0.245098
0.259804 0.007843 0.255883
0.637255 0.000000 0.249019
0.850980 0.170588 0.301961
1.000000 0.304902 0.323529
0.000000 0.275490 0.267647
0.270588 0.287255 0.275490
0.627451 0.294118 0.282353
0.836274 0.320588 0.283334
0.999019 0.393137 0.309804
0.000000 0.556863 0.302941
0.239215 0.543137 0.301961
0.543137 0.539216 0.284314
0.788235 0.536274 0.237255
0.972549 0.552941 0.250980
0.192157 0.719608 0.357843
0.312745 0.712745 0.366666
0.501961 0.700980 0.368627
0.719608 0.711765 0.338235
0.945098 0.741176 0.307843
0.419608 0.929412 0.536274
0.466667 0.929412 0.541176
0.575490 0.926470 0.567647
0.727451 0.937255 0.563725
0.944118 0.960784 0.551961
0.058824 0.064706 0.549019
0.326471 0.070588 0.558823
0.643138 0.082353 0.580392
0.848039 0.082353 0.545098
1.000000 0.309804 0.556863
0.089216 0.275490 0.552941
0.354902 0.304902 0.564705
0.634314 0.334314 0.581373
0.832353 0.337255 0.556863
0.994117 0.432353 0.572549
0.074510 0.566666 0.568627
0.343137 0.569608 0.573530
0.603921 0.576470 0.582353
0.788235 0.575490 0.575490
0.968627 0.588236 0.574510
0.373529 0.745098 0.581373
0.453922 0.741176 0.585294
0.559804 0.722549 0.567647
0.731373 0.724510 0.556863
0.952941 0.741176 0.528431
0.409804 0.941176 0.621568
0.455882 0.937255 0.623529
0.574510 0.935294 0.637255
0.728431 0.941176 0.649020
0.949020 0.964706 0.639216
0.382353 0.172549 0.753922
0.486275 0.184314 0.753922
0.673529 0.244118 0.757843
0.836274 0.319608 0.765686
0.992157 0.346078 0.750981
0.396078 0.331373 0.746078
0.486275 0.339215 0.746079
0.665686 0.383333 0.758824
0.823529 0.434314 0.764706
0.987255 0.437255 0.752941
0.273529 0.507844 0.720588
0.400980 0.517648 0.728431
0.623530 0.560785 0.744117
0.798039 0.602941 0.762745
0.983334 0.591176 0.755882
0.351961 0.740196 0.747059
0.431373 0.746079 0.750981
0.588236 0.747059 0.752941
0.777451 0.761764 0.769607
0.973530 0.762745 0.765686
0.418627 0.960784 0.777451
0.470588 0.959804 0.779412
0.597058 0.956863 0.778431
0.739216 0.952941 0.770588
0.968627 0.972549 0.773529
0.635294 0.435294 0.945098
0.666667 0.444117 0.945098
0.754902 0.476471 0.945098
0.871568 0.526471 0.941176
1.000000 0.549020 0.949020
0.623529 0.503921 0.945098
0.658824 0.508824 0.945098
0.743137 0.532353 0.941176
0.870589 0.574510 0.944118
1.000000 0.587255 0.948039
0.566666 0.609804 0.945098
0.610784 0.615687 0.943137
0.713726 0.629412 0.945098
0.851961 0.655882 0.945098
1.000000 0.674509 0.950981
0.440196 0.743137 0.946079
0.485294 0.745098 0.948040
0.595098 0.735294 0.949020
0.809804 0.766667 0.952941
1.000000 0.800981 0.957843
0.356863 0.972549 0.968627
0.410784 0.972549 0.968627
0.550980 0.974510 0.970588
0.750981 0.976471 0.972549
1.000000 0.984314 0.980392
