Color/Fuji/Fuji 160C 1 - 65x.cube
TITLE "Fuji 160C 1 -"
LUT_3D_SIZE 65
DOMAIN_MIN 0.000000 0.000000 0.000000
DOMAIN_MAX 1.000000 1.000000 1.000000
0.000000 0.000000 0.000000
0.012684 0.000000 0.000000
0.027206 0.001838 0.000000
0.038052 0.000000 0.000000
0.050490 0.000000 0.000000
0.063419 0.003922 0.000000
0.077696 0.007843 0.003922
0.091299 0.006434 0.000000
0.108824 0.007843 0.003432
0.126348 0.007843 0.000429
0.149142 0.007843 0.003922
0.171508 0.003922 0.003922
0.193872 0.000000 0.003922
0.219976 0.000000 0.003922
0.241422 0.000000 0.006740
0.266912 0.000000 0.005944
0.288235 0.000000 0.004902
0.313542 0.000000 0.003922
0.338971 0.000000 0.006985
0.360049 0.000000 0.005699
0.384559 0.000000 0.007843
0.403309 0.000000 0.004228
0.428676 0.000000 0.004535
0.450123 0.000000 0.003922
0.471569 0.000000 0.003922
0.492464 0.000000 0.003922
0.514461 0.000000 0.003922
0.535906 0.000000 0.002635
0.555147 0.000000 0.001716
0.574878 0.000000 0.000000
0.592402 0.000000 0.000000
0.612807 0.000000 0.000000
0.631373 0.000000 0.000000
0.648897 0.000000 0.000000
0.662622 0.000000 0.000000
0.679228 0.000000 0.000000
0.697549 0.000000 0.000000
0.712439 0.000000 0.000000
0.732598 0.000000 0.000000
0.745650 0.000000 0.000000
0.762255 0.000000 0.000000
0.774939 0.000000 0.000000
0.790932 0.000000 0.000000
0.800613 0.000000 0.000000
0.816912 0.000000 0.003922
0.827819 0.000000 0.002145
0.838358 0.000000 0.003922
0.851041 0.000000 0.007782
0.860785 0.000000 0.008823
0.872488 0.000000 0.009743
0.885172 0.000000 0.014583
0.894118 0.003738 0.015686
0.907353 0.038970 0.020343
0.920956 0.071630 0.025184
0.931985 0.095343 0.030025
0.944240 0.116789 0.034865
0.953431 0.134313 0.039216
0.963603 0.154350 0.043137
0.974878 0.169363 0.049387
0.986887 0.186887 0.057476
0.996323 0.200245 0.062745
1.000000 0.214093 0.066667
1.000000 0.229535 0.074510
1.000000 0.245221 0.084437
1.000000 0.262745 0.094118
0.000000 0.009681 0.000000
0.011765 0.012684 0.003003
0.021446 0.012684 0.000000
0.034130 0.010846 0.000000
0.053493 0.019363 0.003003
0.064093 0.016605 0.003003
0.077696 0.018198 0.004596
0.091299 0.016605 0.000000
0.108824 0.014093 -0.002513
0.126777 0.016605 0.004412
0.149142 0.016605 0.004351
0.173774 0.012684 0.003922
0.197794 0.009498 0.003922
0.215502 0.000919 0.003187
0.242525 0.000000 0.005025
0.268811 0.000000 0.004841
0.291177 0.000000 0.006863
0.310601 0.000000 0.007843
0.335907 0.000000 0.007843
0.361275 0.000000 0.008701
0.383333 0.000000 0.006618
0.403309 0.000000 0.001226
0.429289 0.000000 0.007843
0.450123 0.000000 0.003922
0.471569 0.000000 0.006924
0.493015 0.000000 0.000552
0.514461 0.000000 0.003003
0.532904 0.000000 -0.000368
0.553432 0.000000 0.000000
0.571876 0.000000 0.000000
0.592402 0.000000 0.000000
0.612929 0.000000 0.000000
0.626409 0.000000 0.000000
0.646017 0.000000 0.000000
0.662500 0.000000 0.000000
0.679228 0.000000 0.000000
0.696630 0.000000 0.000000
0.709436 0.000000 0.000000
0.729596 0.000000 0.000000
0.745282 0.000000 0.000000
0.762806 0.000000 0.000000
0.776410 0.000000 0.000000
0.790932 0.000000 0.000000
0.800306 0.000000 0.000000
0.812990 0.000000 0.000000
0.825674 0.000000 0.003003
0.838358 0.000000 0.003922
0.847182 0.000000 0.003064
0.860723 0.000000 0.004841
0.875490 0.000000 0.012745
0.885172 0.000000 0.011765
0.897671 0.024633 0.015502
0.906617 0.054840 0.016421
0.919302 0.084314 0.024264
0.926409 0.102451 0.024448
0.944240 0.125551 0.037439
0.953431 0.143075 0.039216
0.965196 0.159682 0.043627
0.974878 0.177206 0.049387
0.986643 0.188481 0.057231
0.996323 0.204412 0.062745
1.000000 0.221017 0.069669
1.000000 0.232537 0.071507
1.000000 0.249142 0.081434
1.000000 0.266667 0.090196
0.000000 0.023284 0.001838
0.005760 0.023284 0.000000
0.019362 0.023284 0.001838
0.032966 0.025367 0.000000
0.048652 0.029044 0.003677
0.063419 0.028615 0.003248
0.077941 0.027206 0.000000
0.091299 0.025367 0.000000
0.112745 0.029289 0.005515
0.130699 0.029289 0.003922
0.151716 0.025367 0.002084
0.173774 0.023713 0.002267
0.193872 0.017524 0.002084
0.219976 0.013420 0.003922
0.243260 0.006495 0.003922
0.266789 -0.000184 0.003922
0.288235 0.000000 0.004902
0.313542 0.000000 0.006005
0.335907 0.000000 0.004780
0.358272 0.000000 0.003922
0.381863 0.000000 0.006005
0.406924 0.000000 0.003922
0.430515 0.000000 0.003922
0.451961 0.000000 0.003922
0.471569 0.000000 0.003922
0.494547 0.000000 0.002084
0.514461 0.000000 0.000000
0.535906 0.000000 0.004474
0.553432 0.000000 0.000000
0.570956 0.000000 0.000000
0.592402 0.000000 0.000000
0.612807 0.000000 0.000000
0.627451 0.000000 0.000000
0.644976 0.000000 0.000000
0.662500 0.000000 0.000000
0.681066 0.000000 0.000000
0.693627 0.000000 0.000000
0.712439 0.000000 0.000000
0.728677 0.000000 0.000000
0.747487 0.000000 0.000000
0.757966 0.000000 0.000000
0.774939 0.000000 0.000000
0.787622 0.000000 0.000000
0.800306 0.000000 0.000000
0.812990 0.000000 0.000000
0.825674 0.000000 0.000000
0.834436 0.000000 0.000000
0.847182 0.000000 0.005760
0.863725 0.000000 0.007843
0.874387 0.000000 0.009743
0.884069 0.013113 0.012745
0.893934 0.040257 0.011765
0.908455 0.072550 0.019608
0.919302 0.095343 0.023529
0.930637 0.115441 0.028677
0.944240 0.134314 0.034865
0.950000 0.150000 0.034436
0.964031 0.165441 0.042464
0.974878 0.182966 0.049387
0.986887 0.196568 0.054228
0.996323 0.208333 0.059069
1.000000 0.223775 0.067831
1.000000 0.237378 0.074755
1.000000 0.250980 0.082598
1.000000 0.268505 0.090196
0.000000 0.036888 0.002758
0.008762 0.039890 0.003922
0.016605 0.034130 0.001838
0.030209 0.036888 0.002758
0.046569 0.036888 0.002758
0.060172 0.038725 0.000674
0.073774 0.038052 0.000000
0.091054 0.038052 0.000000
0.113419 0.038052 0.000000
0.133027 0.036888 0.002758
0.150307 0.034130 0.001164
0.172672 0.031863 0.001164
0.194607 0.027022 -0.000429
0.222733 0.024939 0.006496
0.242525 0.017340 0.003922
0.267647 0.010601 0.003922
0.287071 0.002574 0.003922
0.314706 0.000000 0.005086
0.335907 0.000000 0.003922
0.363174 0.000000 0.003922
0.384559 0.000000 0.003922
0.408088 0.000000 0.003922
0.429289 0.000000 0.003922
0.450123 0.000000 0.005148
0.471569 0.000000 -0.000306
0.496385 0.000000 0.004535
0.517218 0.000000 0.000000
0.533272 0.000000 0.000000
0.553432 0.000000 0.000000
0.570956 0.000000 0.000000
0.592402 0.000000 0.000000
0.609926 0.000000 0.000000
0.626655 0.000000 0.000000
0.644976 0.000000 0.000000
0.662500 0.000000 0.000000
0.676103 0.000000 0.000000
0.696385 0.000000 0.000000
0.711152 0.000000 0.000000
0.728677 0.000000 0.000000
0.742279 0.000000 0.000000
0.759804 0.000000 0.000000
0.770649 0.000000 0.000000
0.787010 0.000000 0.000000
0.803063 0.000000 0.000000
0.810294 0.000000 0.000000
0.823897 0.000000 0.000000
0.834436 0.000000 0.000000
0.848284 0.000000 0.003922
0.862745 0.000000 0.006863
0.870466 0.008272 0.007843
0.881250 0.028493 0.007843
0.898836 0.063603 0.016666
0.904596 0.083395 0.019608
0.919302 0.104105 0.018505
0.930637 0.124203 0.026103
0.941483 0.139154 0.027451
0.950674 0.160111 0.036458
0.962193 0.170282 0.040625
0.972120 0.185049 0.046630
0.983640 0.199326 0.050980
0.996323 0.215012 0.059069
1.000000 0.225858 0.062316
1.000000 0.240135 0.073346
1.000000 0.253983 0.078431
1.000000 0.273346 0.090196
0.000000 0.046814 0.003922
0.008762 0.049571 0.006680
0.015686 0.046814 0.003922
0.031128 0.047733 0.004841
0.042647 0.046569 0.003677
0.056250 0.050490 0.003677
0.073774 0.050735 0.000245
0.087623 0.050735 0.000000
0.112255 0.054412 0.003432
0.130270 0.046814 0.000000
0.155392 0.046814 0.000000
0.173162 0.042892 0.000000
0.197794 0.043382 0.003922
0.223653 0.038542 0.003922
0.242525 0.033702 0.002819
0.268811 0.023284 0.003922
0.291177 0.017157 0.003922
0.313542 0.007414 0.003677
0.338971 0.000000 0.003922
0.356373 0.000000 0.003922
0.380883 0.000000 0.000245
0.403309 0.000000 0.000306
0.428676 0.000000 -0.003064
0.450123 0.000000 0.000000
0.470098 0.000000 0.000000
0.492464 0.000000 0.000000
0.518137 0.000000 0.000000
0.534620 0.000000 0.000000
0.553432 0.000000 0.000000
0.574081 0.000000 0.000000
0.588603 0.000000 0.000000
0.609926 0.000000 0.000000
0.623774 0.000000 0.000000
0.644976 0.000000 0.000000
0.658701 0.000000 0.000000
0.676103 0.000000 0.000000
0.693872 0.000000 0.000000
0.712439 0.000000 0.000000
0.728677 0.000000 0.000000
0.742279 0.000000 0.000000
0.758333 0.000000 0.000000
0.774694 0.000000 0.000000
0.783946 0.000000 0.000000
0.796691 0.000000 0.000000
0.812990 0.000000 0.000000
0.820220 0.000000 0.000000
0.838113 0.000000 0.000000
0.850980 0.000000 0.007538
0.857108 0.007353 0.001226
0.866789 0.024571 0.005821
0.880392 0.050000 0.006985
0.893995 0.077389 0.011765
0.906617 0.099019 0.016421
0.915625 0.113113 0.017586
0.928064 0.130637 0.022426
0.936642 0.147917 0.027267
0.953187 0.168627 0.038971
0.962193 0.175368 0.039216
0.973284 0.192647 0.045466
0.982966 0.206250 0.049877
0.999755 0.219607 0.058824
1.000000 0.232291 0.066422
1.000000 0.243383 0.070588
1.000000 0.260661 0.076838
1.000000 0.278186 0.090196
0.000000 0.060172 0.003922
0.008762 0.059927 0.004596
0.016850 0.060172 0.003922
0.028370 0.062929 0.006679
0.035049 0.060172 0.003922
0.052328 0.060846 0.003922
0.066605 0.060846 0.003922
0.089890 0.064767 0.000674
0.108824 0.068015 0.000490
0.130944 0.064767 0.000000
0.152390 0.064093 0.000000
0.176103 0.060846 0.000000
0.204902 0.060172 0.000000
0.220833 0.053002 0.000000
0.243199 0.048407 0.000000
0.267463 0.044363 0.003248
0.291850 0.037316 0.002942
0.317463 0.032721 0.003248
0.335723 0.020098 0.000000
0.362194 0.008762 0.001777
0.384559 -0.000674 0.000000
0.406924 -0.002942 0.000000
0.428615 0.000000 -0.000061
0.450123 0.000000 0.000000
0.471569 0.000000 0.000000
0.492464 0.000000 0.000000
0.511213 0.000000 0.000000
0.533272 0.000000 0.000000
0.550184 0.000000 0.000000
0.574081 0.000000 0.000000
0.592954 0.000000 0.000000
0.606679 0.000000 0.000000
0.627451 0.000000 0.000000
0.644976 0.000000 0.000000
0.658579 0.000000 0.000000
0.676900 0.000000 0.000000
0.695343 0.000000 0.000000
0.709191 0.000000 0.000000
0.728677 0.000000 0.000000
0.739032 0.000000 0.000000
0.755085 0.000000 0.000000
0.770160 0.000000 0.000000
0.783701 0.000000 0.000000
0.797058 0.000000 0.000000
0.809742 0.000000 0.000000
0.818504 0.000000 0.000000
0.834436 0.000000 0.000000
0.847794 0.004779 0.000674
0.856556 0.022671 0.004228
0.870466 0.051531 0.005821
0.881250 0.071079 0.007843
0.890687 0.088787 0.004779
0.902635 0.109375 0.012439
0.915380 0.126226 0.017341
0.928064 0.141850 0.023529
0.940318 0.157353 0.027022
0.950184 0.170956 0.032047
0.958946 0.183823 0.035968
0.970037 0.198162 0.042219
0.980393 0.209192 0.050306
0.993076 0.222549 0.056250
1.000000 0.234559 0.059498
1.000000 0.247243 0.069424
1.000000 0.259926 0.077267
1.000000 0.273284 0.080453
0.000000 0.076103 0.006250
0.000245 0.073100 0.003248
0.012010 0.075858 0.006005
0.023529 0.077696 0.007843
0.035540 0.077696 0.006250
0.051654 0.080943 0.007169
0.065931 0.077696 0.003922
0.080944 0.077696 0.003922
0.107230 0.087377 0.003922
0.131863 0.086704 0.005086
0.151471 0.083946 0.000000
0.175429 0.081618 0.000000
0.201716 0.078431 0.000000
0.227819 0.073590 0.000000
0.250858 0.070343 0.000000
0.270711 0.065931 0.000000
0.295098 0.059069 0.000000
0.319792 0.058088 0.000000
0.340564 0.044731 0.000000
0.362745 0.036520 0.000000
0.384559 0.025613 0.000000
0.406924 0.014522 0.000000
0.430270 0.004780 0.000000
0.450123 0.000000 0.000000
0.471569 0.000000 0.000000
0.491422 0.000000 0.000000
0.514461 0.000000 0.000000
0.533578 0.000000 0.000000
0.554044 0.000000 0.000000
0.570956 0.000000 0.000000
0.588480 0.000000 0.000000
0.608885 0.000000 0.000000
0.623530 0.000000 0.000000
0.646263 0.000000 0.000000
0.664706 0.000000 0.000000
0.676103 0.000000 0.000000
0.697672 0.000000 0.000000
0.711152 0.000000 0.000000
0.725122 0.000000 0.000000
0.742279 0.000000 0.000000
0.755760 0.000000 0.000000
0.771017 0.000000 0.000000
0.787010 0.000000 0.000000
0.795098 0.000000 0.000000
0.810294 0.000000 0.000000
0.821752 0.006434 0.000000
0.837500 0.017157 0.000000
0.848714 0.037930 0.000000
0.859804 0.061642 0.003922
0.870160 0.079166 0.003922
0.886398 0.099019 0.009068
0.890012 0.112623 0.007843
0.903432 0.129412 0.012500
0.915380 0.142096 0.015686
0.928064 0.159681 0.022181
0.942647 0.173285 0.029351
0.948407 0.186397 0.031863
0.962193 0.199081 0.039216
0.970956 0.209436 0.043137
0.985294 0.223774 0.050306
0.993995 0.233456 0.055147
1.000000 0.248223 0.062316
1.000000 0.260662 0.068750
1.000000 0.274265 0.077512
1.000000 0.287868 0.090196
0.000000 0.093811 0.006434
0.000000 0.092218 0.007843
0.002574 0.090625 0.007843
0.012010 0.095220 0.007843
0.023284 0.093811 0.006434
0.043811 0.095220 0.007169
0.059498 0.095220 0.006250
0.077022 0.095220 0.003922
0.101900 0.095711 0.003922
0.124264 0.103063 0.000000
0.149203 0.100552 0.002574
0.175429 0.101409 0.000000
0.199204 0.099142 0.000000
0.221569 0.091299 0.000000
0.249265 0.090196 0.000000
0.270221 0.085356 0.000000
0.292157 0.079105 0.000000
0.317463 0.075612 0.000000
0.337316 0.067769 0.000000
0.362194 0.064584 0.000000
0.384559 0.055821 0.000000
0.405821 0.044546 0.000000
0.428676 0.036888 0.000000
0.450123 0.029106 0.000000
0.470098 0.015441 0.000000
0.492464 0.006679 0.000000
0.514461 0.000000 0.000000
0.531985 0.000000 0.000000
0.553432 0.000000 0.000000
0.570956 0.000000 0.000000
0.588480 0.000000 0.000000
0.606005 0.000000 0.000000
0.622978 0.000000 0.000000
0.643934 0.000000 0.000000
0.662500 0.000000 0.000000
0.680024 0.000000 0.000000
0.695833 0.000000 0.000000
0.712562 0.000000 0.000000
0.728677 0.000000 0.000000
0.745650 0.000000 0.000000
0.755882 0.000000 0.000000
0.771017 0.000000 0.000000
0.784498 0.000000 0.000000
0.800306 0.010049 0.000000
0.807782 0.016422 0.000000
0.821752 0.033946 0.000000
0.833578 0.053983 0.000000
0.847120 0.070404 0.000000
0.858824 0.085416 0.000000
0.867953 0.100919 0.001900
0.879841 0.116544 0.003922
0.891421 0.131556 0.009068
0.908395 0.148713 0.014277
0.915380 0.154841 0.014828
0.924142 0.168382 0.019669
0.936826 0.182476 0.023529
0.949510 0.195160 0.029351
0.960785 0.207844 0.035294
0.970956 0.218934 0.041544
0.982231 0.231801 0.047059
0.994915 0.244485 0.057415
1.000000 0.257169 0.059988
1.000000 0.267340 0.066238
1.000000 0.279105 0.073591
1.000000 0.296630 0.088787
0.000000 0.108824 0.003922
0.000000 0.111826 0.004412
0.000000 0.108824 0.002329
-0.000674 0.108824 0.003922
0.012255 0.108824 0.003922
0.029779 0.112745 0.007169
0.054167 0.112745 0.009681
0.070772 0.112745 0.003922
0.089706 0.112745 0.000490
0.109069 0.106740 0.000000
0.145220 0.120588 0.000000
0.169240 0.120098 0.000000
0.194607 0.120834 0.000000
0.220159 0.112928 0.000000
0.245343 0.112255 0.000000
0.270711 0.111642 0.000000
0.291667 0.100981 0.000000
0.317463 0.097059 0.000000
0.339829 0.092280 0.000000
0.362194 0.088725 0.000000
0.384559 0.082108 0.000000
0.407230 0.077267 0.000000
0.425858 0.068506 0.000000
0.450123 0.063174 0.000000
0.470098 0.054412 0.000000
0.493015 0.049142 0.000000
0.514461 0.039951 0.000000
0.529841 0.027635 0.000000
0.550000 0.015441 0.000000
0.570956 0.010294 0.000000
0.588480 0.003432 0.000000
0.606005 0.000000 0.000000
0.623530 0.000000 0.000000
0.641054 0.000000 0.000000
0.658701 0.000000 0.000000
0.679228 0.000000 0.000000
0.693627 0.000000 0.000000
0.711152 0.000000 0.000000
0.728799 0.000000 0.000000
0.741728 0.003432 0.000000
0.755882 0.013725 0.000000
0.767585 0.019546 0.000000
0.783701 0.032230 0.000000
0.796384 0.045221 0.000000
0.809069 0.059314 0.000000
0.819975 0.071629 0.000000
0.833946 0.087377 0.000000
0.843260 0.096691 0.000000
0.855882 0.113236 0.000000
0.868566 0.122487 0.000000
0.876715 0.134069 0.002819
0.893750 0.147856 0.008149
0.902696 0.160539 0.008578
0.911948 0.169792 0.012255
0.926716 0.184559 0.018260
0.936826 0.195159 0.023590
0.942647 0.204412 0.027451
0.960784 0.222549 0.035294
0.970956 0.229289 0.038113
0.979718 0.238052 0.043137
0.992402 0.250736 0.051225
0.997242 0.260662 0.053800
1.000000 0.274264 0.064829
1.000000 0.284437 0.073162
1.000000 0.301471 0.086275
0.000000 0.130270 0.003922
0.000000 0.130270 0.003922
0.000000 0.130270 0.003922
0.000000 0.130270 0.003922
0.000000 0.130270 0.003922
0.016176 0.130025 0.003248
0.038787 0.135355 0.003922
0.061581 0.130270 0.003493
0.080944 0.127268 0.000490
0.106740 0.133762 0.000000
0.133027 0.130699 0.000000
0.165074 0.139951 0.000000
0.189951 0.138542 0.000000
0.216237 0.138542 0.000000
0.238603 0.134620 0.000000
0.268382 0.134191 0.000000
0.288235 0.124265 0.000000
0.310111 0.119424 0.000000
0.339400 0.115012 0.000000
0.360846 0.114583 0.000000
0.384559 0.107169 0.000000
0.403309 0.099633 0.000000
0.425183 0.095221 0.000000
0.450123 0.090380 0.000000
0.473591 0.091054 0.000000
0.489093 0.080147 0.000000
0.510539 0.075429 0.000000
0.528063 0.067096 0.000000
0.549510 0.060969 0.000000
0.573652 0.060111 0.000000
0.588051 0.049081 0.000000
0.605576 0.044853 0.000000
0.623101 0.037439 0.000000
0.641054 0.034987 0.000000
0.658579 0.033946 0.000000
0.676103 0.033946 0.000000
0.693627 0.035662 0.000000
0.708517 0.037868 0.000000
0.724755 0.044914 0.000000
0.737806 0.049204 0.000000
0.755453 0.059559 0.000000
0.769056 0.066851 0.000000
0.782660 0.075612 0.000000
0.792770 0.084375 0.000000
0.805944 0.092708 0.000000
0.814339 0.101470 0.000000
0.829657 0.110233 0.000000
0.838971 0.118627 0.000000
0.851409 0.130699 0.000000
0.866544 0.140441 0.000000
0.877328 0.150307 0.000000
0.893321 0.168688 0.007231
0.898774 0.174142 0.007414
0.913113 0.184559 0.009498
0.924142 0.199081 0.015257
0.933334 0.208272 0.022672
0.946078 0.217034 0.024019
0.958272 0.234192 0.032353
0.967034 0.236152 0.031373
0.979718 0.250736 0.042463
0.988296 0.259314 0.046691
1.000000 0.272181 0.054902
1.000000 0.286520 0.066483
1.000000 0.293627 0.075735
1.000000 0.309804 0.081924
0.000000 0.147794 0.000000
0.000000 0.149142 0.000000
0.000000 0.152206 0.004412
0.000000 0.146385 0.002574
0.000000 0.147794 0.002574
-0.001348 0.151042 0.003248
0.020343 0.151716 0.002574
0.046569 0.152880 0.000000
0.071691 0.151716 0.000000
0.097059 0.150797 0.000000
0.124265 0.153064 0.000000
0.150245 0.153983 0.000000
0.185172 0.158211 0.000000
0.210969 0.159559 0.000000
0.234436 0.156740 0.000000
0.262868 0.159559 0.000000
0.286888 0.152696 0.000000
0.312194 0.147855 0.000000
0.335416 0.144363 0.000000
0.360417 0.137377 0.000000
0.384559 0.130760 0.000000
0.403309 0.128186 0.000000
0.428676 0.125000 0.000000
0.446201 0.116238 0.000000
0.467647 0.113848 0.000000
0.491115 0.106556 0.000000
0.510539 0.105638 0.000000
0.528002 0.100796 0.000000
0.544730 0.093382 0.000000
0.568811 0.093444 0.000000
0.584559 0.087623 0.000000
0.602083 0.082782 0.000000
0.621568 0.081863 0.000000
0.641054 0.079902 0.000000
0.658579 0.079902 0.000000
0.676103 0.079902 0.000000
0.689339 0.079902 0.000000
0.705944 0.081250 0.000000
0.723407 0.083823 0.000000
0.737010 0.088297 0.000000
0.751961 0.095711 0.000000
0.768137 0.099510 0.000000
0.779167 0.103431 0.000000
0.792463 0.113848 0.000000
0.805147 0.121691 0.000000
0.816054 0.127758 0.000000
0.826593 0.135171 0.000000
0.837990 0.143933 0.000000
0.851593 0.152696 0.000000
0.865196 0.161458 0.000000
0.875981 0.170221 0.000000
0.886091 0.178983 0.000000
0.898162 0.190318 0.002574
0.911765 0.200429 0.008149
0.922795 0.211764 0.010417
0.932904 0.224019 0.013113
0.945588 0.229780 0.018750
0.954350 0.237990 0.023529
0.965687 0.250736 0.032353
0.975797 0.259497 0.037193
0.986029 0.270833 0.044608
0.997242 0.279595 0.050796
1.000000 0.292280 0.059559
1.000000 0.301042 0.066973
1.000000 0.314951 0.078309
0.000000 0.174816 0.000000
0.000000 0.171814 0.000000
0.000000 0.177512 0.000000
0.000000 0.175919 0.000000
0.000000 0.171753 0.000000
0.000000 0.173162 0.000000
-0.001348 0.173162 0.000000
0.025123 0.175674 0.000000
0.060172 0.173162 0.000000
0.089645 0.175429 0.000000
0.114583 0.174509 0.000000
0.145711 0.177083 0.000000
0.171998 0.173897 0.000000
0.212133 0.187009 0.000000
0.233517 0.182108 0.000000
0.260968 0.179106 0.000000
0.284314 0.176409 0.000000
0.311275 0.177083 0.000000
0.335049 0.170650 0.000000
0.356495 0.166299 0.000000
0.382292 0.157046 0.000000
0.404657 0.152206 0.000000
0.425367 0.145711 0.000000
0.448468 0.142525 0.000000
0.467647 0.137683 0.000000
0.488542 0.136213 0.000000
0.510539 0.132292 0.000000
0.528063 0.129351 0.000000
0.545527 0.124449 0.000000
0.565380 0.119669 0.000000
0.588358 0.120404 0.000000
0.606005 0.117831 0.000000
0.623530 0.112684 0.000000
0.641054 0.112071 0.000000
0.662377 0.116483 0.000000
0.676103 0.112684 0.000000
0.693627 0.117157 0.000000
0.708885 0.116606 0.000000
0.719547 0.118872 0.000000
0.734436 0.122794 0.000000
0.750490 0.126715 0.000000
0.765563 0.130760 0.000000
0.779167 0.135600 0.000000
0.792463 0.140441 0.000000
0.802880 0.147978 0.000000
0.817831 0.154044 0.000000
0.826593 0.160539 0.000000
0.845404 0.171508 0.000000
0.850674 0.174142 0.000000
0.860356 0.180882 0.000000
0.877880 0.191666 0.000000
0.886091 0.196691 0.000000
0.898774 0.206925 -0.001532
0.909191 0.217953 0.003922
0.922794 0.226716 0.007843
0.932904 0.237133 0.011765
0.943934 0.244240 0.013909
0.955760 0.256924 0.024938
0.967034 0.265686 0.029780
0.977452 0.277083 0.036274
0.988480 0.281188 0.043382
1.000000 0.295895 0.052144
1.000000 0.304657 0.058640
1.000000 0.314154 0.068750
1.000000 0.327757 0.080086
0.000000 0.194607 0.000000
0.000000 0.194607 0.000000
0.000000 0.194607 0.000000
0.000000 0.191422 0.000000
0.000000 0.190932 0.000000
0.000000 0.190686 0.000000
0.000000 0.189094 0.000000
0.000491 0.190013 0.000000
0.038971 0.193872 0.000000
0.076532 0.193872 0.000000
0.106740 0.196445 0.000000
0.133027 0.194607 0.000000
0.163235 0.194607 0.000000
0.186520 0.194607 0.000000
0.227573 0.202451 0.000000
0.253861 0.205637 0.000000
0.280147 0.199510 0.000000
0.305698 0.197855 0.000000
0.331128 0.196936 0.000000
0.353309 0.192096 0.000000
0.377451 0.186029 0.000000
0.399387 0.178492 0.000000
0.422181 0.176839 0.000000
0.446201 0.166421 0.000000
0.467647 0.163971 0.000000
0.485172 0.159130 0.000000
0.506617 0.154657 0.000000
0.524878 0.151470 0.000000
0.545588 0.152451 0.000000
0.566237 0.146814 0.000000
0.584682 0.146814 0.000000
0.603125 0.140747 0.000000
0.620343 0.142892 0.000000
0.641054 0.142892 0.000000
0.659192 0.142892 0.000000
0.672916 0.142892 0.000000
0.691912 0.148285 0.000000
0.707782 0.147366 0.000000
0.721201 0.146814 0.000000
0.734436 0.150735 0.000000
0.748775 0.154657 0.000000
0.761642 0.153860 0.000000
0.775123 0.158578 0.000000
0.792463 0.163542 0.000000
0.799265 0.168382 0.000000
0.813909 0.178186 0.000000
0.825735 0.181250 0.000000
0.839277 0.186826 0.000000
0.848774 0.194607 0.000000
0.862745 0.202451 0.000000
0.873039 0.209191 0.000000
0.886643 0.218505 0.000000
0.895589 0.223530 0.000000
0.906005 0.230024 -0.001532
0.920221 0.241054 0.004657
0.929718 0.249509 0.007843
0.948285 0.261765 0.015686
0.952574 0.267340 0.017831
0.965441 0.279289 0.022671
0.975797 0.284804 0.031373
0.985293 0.293627 0.039951
1.000000 0.305147 0.045037
1.000000 0.316176 0.054902
1.000000 0.323836 0.062561
1.000000 0.339705 0.078431
0.000000 0.215870 0.000000
0.000000 0.216054 0.000000
0.000000 0.212316 0.000000
0.000000 0.216054 0.000000
0.000000 0.212316 0.000000
0.000000 0.212807 0.000000
0.000000 0.212133 0.000000
0.000000 0.212316 0.000000
0.003432 0.215564 0.000000
0.056250 0.216054 0.000000
0.095037 0.216054 0.000000
0.122610 0.218137 0.000000
0.150551 0.209131 0.000000
0.180760 0.212133 0.000000
0.211887 0.216054 0.000000
0.237255 0.216054 0.000000
0.281005 0.226837 0.000000
0.301592 0.223897 0.000000
0.324142 0.216421 0.000000
0.350245 0.214460 0.000000
0.372794 0.212316 0.000000
0.395159 0.204779 0.000000
0.421262 0.203861 0.000000
0.443628 0.195098 0.000000
0.459988 0.186519 0.000000
0.488358 0.181679 0.000000
0.506617 0.180943 0.000000
0.525429 0.177022 0.000000
0.545588 0.174817 0.000000
0.563909 0.173898 0.000000
0.584559 0.173100 0.000000
0.604964 0.172059 0.000000
0.625307 0.172917 0.000000
0.643749 0.169178 0.000000
0.658394 0.172793 0.000000
0.672181 0.169178 0.000000
0.687990 0.172917 0.000000
0.703309 0.171814 0.000000
0.720650 0.172917 0.000000
