Color/Fuji/Fuji FP-100c 1 -- 65x.cube
TITLE "Fuji FP-100c 1 --"
LUT_3D_SIZE 9
DOMAIN_MIN 0.000000 0.000000 0.000000
DOMAIN_MAX 1.000000 1.000000 1.000000
0.000000 0.000000 0.000000
0.050000 0.003922 0.003432
0.174510 0.004902 0.000000
0.332843 0.000000 0.000000
0.519608 0.000000 0.000000
0.708824 0.000000 0.000000
0.846078 0.000000 0.000000
0.957353 0.000000 0.000000
1.000000 0.149020 0.039216
0.000000 0.054412 0.003922
0.062255 0.066177 0.000000
0.198039 0.070098 0.000000
0.361275 0.047059 0.000000
0.539215 0.000000 0.000000
0.725490 0.000000 0.000000
0.855392 0.000000 0.000000
0.961274 0.050490 0.000000
1.000000 0.207353 0.043137
0.000000 0.199020 0.000000
0.007843 0.197059 0.000000
0.194117 0.220588 0.000000
0.398039 0.224510 0.000000
0.609804 0.224510 0.000000
0.757843 0.218137 0.000000
0.869608 0.219608 0.000000
0.961764 0.248530 0.000000
1.000000 0.318627 0.056863
0.000000 0.346078 0.000000
0.000000 0.356373 0.003432
0.157843 0.364706 0.000000
0.379902 0.393137 0.000000
0.601961 0.395098 0.000000
0.769117 0.403432 0.000000
0.884314 0.404902 0.000000
0.967156 0.412745 0.016176
1.000000 0.451961 0.095588
0.000000 0.492157 0.009804
0.000000 0.494608 0.015686
0.143137 0.489216 0.016667
0.338725 0.505882 0.000000
0.543137 0.523529 0.000000
0.726961 0.527941 0.000000
0.862745 0.535294 0.000000
0.969117 0.558824 0.062255
1.000000 0.580392 0.158824
0.000000 0.599020 0.036765
0.000000 0.609314 0.048529
0.143628 0.599020 0.054902
0.333334 0.600490 0.004412
0.501961 0.616667 0.000000
0.677451 0.634314 0.000000
0.825490 0.637745 0.000000
0.941666 0.657843 0.000000
1.000000 0.689216 0.134314
0.000000 0.717647 0.101961
0.000000 0.720588 0.104902
0.225490 0.712745 0.104902
0.383334 0.706373 0.107843
0.513726 0.714707 0.016667
0.654902 0.731373 0.000000
0.791176 0.741176 0.000000
0.911765 0.748529 0.000000
1.000000 0.775490 0.000000
0.256863 0.835784 0.227941
0.303431 0.836274 0.228922
0.380883 0.832353 0.228922
0.483823 0.827941 0.235784
0.582843 0.826471 0.215196
0.688236 0.839706 0.170098
0.797549 0.851470 0.060294
0.906862 0.867157 0.000000
1.000000 0.875490 0.000000
0.576471 0.960784 0.490196
0.592157 0.960784 0.494118
0.623529 0.960784 0.495098
0.676961 0.960784 0.505882
0.741176 0.956863 0.517647
0.799019 0.962255 0.501961
0.870588 0.968627 0.477451
0.945588 0.976961 0.443137
1.000000 0.988235 0.388235
0.011275 0.000000 0.058334
0.080882 0.000000 0.076961
0.158823 0.003432 0.072549
0.338235 0.000000 0.070098
0.519608 0.000000 0.083334
0.697549 0.000000 0.085294
0.829412 0.000000 0.084314
0.942156 0.000000 0.089216
1.000000 0.121569 0.113235
0.000000 0.058334 0.073530
0.069608 0.077451 0.085295
0.208824 0.081373 0.088235
0.364216 0.072059 0.089216
0.547059 0.023039 0.089216
0.716667 0.000000 0.089216
0.841667 0.000000 0.089706
0.950491 0.070588 0.094118
1.000000 0.195588 0.117157
0.000000 0.225981 0.114216
0.026961 0.220588 0.103921
0.213235 0.232843 0.077941
0.418137 0.240686 0.093137
0.608333 0.239706 0.105392
0.747549 0.225000 0.100490
0.860785 0.226471 0.098529
0.960294 0.254902 0.104412
1.000000 0.318627 0.132843
0.000000 0.366666 0.110294
0.000000 0.377451 0.116667
0.186274 0.377451 0.108333
0.400490 0.404902 0.028431
0.611274 0.404412 0.004902
0.772059 0.410294 0.097059
0.879412 0.408824 0.118137
0.966176 0.412745 0.127451
1.000000 0.448039 0.162745
0.000000 0.509804 0.118628
0.000000 0.512255 0.123039
0.166666 0.500000 0.124510
0.356372 0.514706 0.077941
0.556863 0.533334 0.000000
0.730882 0.529411 0.000000
0.864706 0.540196 0.021569
0.967647 0.563235 0.169117
1.000000 0.582353 0.213235
0.000000 0.612745 0.128432
0.000000 0.618627 0.136275
0.167157 0.611274 0.136765
0.352451 0.610784 0.120589
0.512255 0.623039 0.027451
0.683824 0.640686 0.000000
0.828432 0.641177 0.000000
0.942647 0.658824 0.000000
1.000000 0.691667 0.213726
0.000000 0.722059 0.163235
0.009804 0.727451 0.170098
0.237255 0.720588 0.166177
0.390196 0.709314 0.167647
0.519608 0.720098 0.125000
0.655882 0.731863 0.004902
0.793627 0.744117 0.000000
0.911765 0.748039 0.000000
1.000000 0.777942 0.000000
0.257353 0.836765 0.259804
0.307353 0.839706 0.264216
0.384314 0.836275 0.266667
0.484314 0.831373 0.267157
0.586765 0.828431 0.255882
0.688726 0.838235 0.213236
0.798529 0.851470 0.144608
0.906862 0.866667 0.000000
1.000000 0.875000 0.000000
0.573039 0.964706 0.501961
0.592157 0.960784 0.505882
0.623039 0.961274 0.513236
0.674510 0.958333 0.518628
0.741667 0.956863 0.531373
0.800000 0.961274 0.518137
0.867647 0.968627 0.496569
0.942647 0.976961 0.459314
1.000000 0.984804 0.407843
0.000000 0.000000 0.205882
0.085785 0.000000 0.225490
0.259804 0.000000 0.249019
0.311275 0.022549 0.209314
0.500000 0.000000 0.221568
0.690196 0.000000 0.200490
0.824510 0.000000 0.208824
0.937745 0.000000 0.209804
1.000000 0.124510 0.217647
0.000000 0.065687 0.205882
0.070588 0.074510 0.229902
0.264706 0.054902 0.257353
0.329902 0.127941 0.233824
0.544118 0.054902 0.232843
0.710784 0.000490 0.218137
0.833824 0.028432 0.216176
0.941666 0.094118 0.213235
1.000000 0.202941 0.225980
0.000000 0.211764 0.239215
0.061765 0.228432 0.248529
0.244118 0.263726 0.271569
0.433824 0.263726 0.267647
0.608823 0.252941 0.256863
0.743137 0.239215 0.240196
0.852941 0.239215 0.230392
0.952451 0.260294 0.225981
1.000000 0.318627 0.241176
0.000000 0.404902 0.284314
0.000000 0.424510 0.291667
0.231373 0.419608 0.273039
0.441667 0.432353 0.248039
0.636275 0.427941 0.253432
0.772549 0.424020 0.270098
0.871078 0.412255 0.256373
0.959804 0.416667 0.251961
1.000000 0.452941 0.272059
0.000000 0.549019 0.268627
0.000000 0.553432 0.268137
0.205882 0.538235 0.264706
0.395588 0.535294 0.252451
0.580392 0.550000 0.205882
0.745588 0.545098 0.193627
0.869608 0.554902 0.255883
0.961274 0.570098 0.299510
1.000000 0.583333 0.311765
0.000000 0.639706 0.256863
0.000000 0.644608 0.265196
0.210294 0.636765 0.263235
0.388235 0.621078 0.259314
0.533334 0.635784 0.224020
0.694118 0.650980 0.165686
0.835784 0.652451 0.111274
0.941666 0.668137 0.225000
1.000000 0.702451 0.344117
0.000000 0.737255 0.271568
0.069608 0.738726 0.274020
0.257844 0.733333 0.272549
0.406863 0.723530 0.270588
0.531372 0.724510 0.250000
0.662745 0.736274 0.204902
0.796079 0.749020 0.125490
0.915686 0.753432 0.000000
1.000000 0.781373 0.215687
0.257843 0.844117 0.334313
0.307843 0.844117 0.340686
0.385294 0.843627 0.338235
0.484804 0.836274 0.336765
0.589706 0.830883 0.332843
0.691667 0.840686 0.302941
0.797549 0.851961 0.254902
0.906862 0.865196 0.176961
1.000000 0.877941 0.000000
0.565686 0.964706 0.533333
0.585294 0.961765 0.538235
0.615686 0.960784 0.541176
0.670098 0.960784 0.549020
0.735294 0.959804 0.559804
0.797549 0.960784 0.551961
0.863726 0.968627 0.529412
0.938235 0.976961 0.500980
1.000000 0.988235 0.453921
0.000000 0.000000 0.357843
0.041667 0.000000 0.376961
0.279902 0.000000 0.424510
0.511765 0.000000 0.450490
0.534313 0.000000 0.373529
0.642647 0.085784 0.375000
0.803432 0.000000 0.360784
0.929902 0.000000 0.332353
1.000000 0.000000 0.324020
0.000000 0.073530 0.360294
0.061274 0.072549 0.383823
0.282844 0.023529 0.425000
0.519608 0.000000 0.455392
0.548039 0.127451 0.391176
0.667157 0.149020 0.385294
0.815686 0.052451 0.363725
0.937745 0.000000 0.328431
1.000000 0.173039 0.343137
0.000000 0.204902 0.348529
0.015196 0.222058 0.370098
0.263726 0.245588 0.428431
0.535784 0.247549 0.477451
0.564215 0.300490 0.421568
0.717157 0.261765 0.403431
0.845588 0.215196 0.360784
0.940686 0.263726 0.356863
1.000000 0.313726 0.361764
0.000000 0.378922 0.408824
0.051961 0.405882 0.429902
0.289706 0.435785 0.451471
0.501471 0.479412 0.479412
0.641177 0.453921 0.450000
0.758333 0.433333 0.425490
0.858824 0.422059 0.402451
0.945588 0.420588 0.383823
1.000000 0.451961 0.389216
0.000000 0.576961 0.464216
0.052451 0.589216 0.472059
0.312745 0.588726 0.467647
0.462745 0.576961 0.444608
0.620098 0.580883 0.419118
0.766176 0.578431 0.423529
0.871078 0.585294 0.447059
0.949020 0.574510 0.429412
1.000000 0.586275 0.428431
0.120588 0.673529 0.450490
0.238726 0.681372 0.459804
0.285294 0.678431 0.428922
0.438725 0.662745 0.420588
0.568628 0.656373 0.401471
0.715196 0.668137 0.366666
0.846078 0.669608 0.358333
0.940196 0.683824 0.418137
1.000000 0.720588 0.494118
0.019608 0.760784 0.411765
0.163725 0.762255 0.414706
0.299019 0.754902 0.410784
0.433333 0.747059 0.405882
0.554902 0.732353 0.394117
0.674019 0.745098 0.364706
0.802941 0.758333 0.324510
0.919118 0.761274 0.280392
1.000000 0.791176 0.398039
0.258333 0.851961 0.434804
0.310784 0.855883 0.440686
0.386275 0.851961 0.438235
0.485294 0.845098 0.435784
0.594117 0.837745 0.430392
0.691177 0.842647 0.411275
0.795588 0.851961 0.379412
0.902941 0.867647 0.333333
1.000000 0.879412 0.253432
0.549020 0.964706 0.582843
0.570098 0.966176 0.588235
0.604412 0.964706 0.590686
0.658824 0.964706 0.594608
0.723529 0.960784 0.598529
0.793627 0.960784 0.603922
0.861275 0.968627 0.588235
0.937745 0.980392 0.562745
1.000000 0.986765 0.522549
0.000000 0.000000 0.509804
0.038725 0.000000 0.525000
0.284314 0.000000 0.557843
0.555392 0.000000 0.612255
0.752941 0.000000 0.631373
0.728921 0.000000 0.527941
0.771568 0.186274 0.511765
0.893137 0.187255 0.513235
1.000000 0.196078 0.509804
0.000000 0.066177 0.506373
0.080392 0.059314 0.526961
0.291177 0.003432 0.557843
0.560784 0.000000 0.617647
0.752941 0.000000 0.635294
0.733333 0.110784 0.537254
0.774019 0.250490 0.521568
0.898529 0.228921 0.515687
1.000000 0.237255 0.509804
0.000000 0.204902 0.507843
0.075490 0.225490 0.532843
0.289216 0.228432 0.563725
0.543627 0.209804 0.615196
0.748039 0.203922 0.638235
0.733823 0.300980 0.552451
0.794118 0.345098 0.539215
0.912745 0.311765 0.520588
1.000000 0.305882 0.502942
0.000000 0.344118 0.494608
0.017647 0.365686 0.512745
0.242647 0.389216 0.526471
0.493627 0.431372 0.592647
0.715687 0.452451 0.633333
0.723039 0.479412 0.576470
0.827451 0.448529 0.552941
0.930392 0.406373 0.511274
1.000000 0.423039 0.498039
0.056862 0.531373 0.556863
0.199020 0.545098 0.568628
0.350981 0.560785 0.579412
0.516667 0.590686 0.600000
0.670589 0.631373 0.627451
0.762745 0.606863 0.599019
0.851961 0.585294 0.569608
0.931863 0.570098 0.542647
1.000000 0.574510 0.529412
0.169118 0.695588 0.606373
0.273039 0.705392 0.614706
0.390196 0.703921 0.610294
0.522549 0.707353 0.606373
0.623530 0.693627 0.584313
0.738725 0.697549 0.561275
0.851961 0.700000 0.568628
0.933333 0.712745 0.596569
1.000000 0.717157 0.587745
0.304902 0.779412 0.592157
0.351471 0.782353 0.593137
0.427451 0.781373 0.590196
0.482843 0.775980 0.562745
0.588235 0.762745 0.546078
0.690687 0.756863 0.526961
0.811765 0.772549 0.500981
0.920588 0.775000 0.490687
1.000000 0.805883 0.568628
0.391667 0.865196 0.594117
0.402451 0.867647 0.588236
0.405392 0.867157 0.562745
0.491177 0.860785 0.552941
0.594608 0.851470 0.547059
0.692647 0.844117 0.532843
0.793137 0.856863 0.510784
0.900980 0.873039 0.480393
1.000000 0.886275 0.447549
0.517648 0.970588 0.645098
0.539216 0.972549 0.649020
0.576471 0.968627 0.649020
0.635784 0.968627 0.652941
0.705882 0.964706 0.654902
0.783824 0.963235 0.662745
0.852941 0.969607 0.652941
0.930392 0.980392 0.636765
1.000000 0.988235 0.601961
0.000000 0.000000 0.642157
0.143627 0.000000 0.650490
0.325000 0.000000 0.673529
0.545588 0.000000 0.711275
0.773039 0.000000 0.750981
0.893137 0.000000 0.750490
0.868137 0.000000 0.660294
0.900000 0.258824 0.637255
0.964706 0.383333 0.659314
0.025000 0.051961 0.638235
0.172549 0.036275 0.655882
0.338235 0.000000 0.678431
0.547059 0.000000 0.711275
0.767647 0.000000 0.750981
0.891667 0.000000 0.750981
0.868627 0.150490 0.664706
0.898529 0.308824 0.642157
0.968627 0.406373 0.661765
0.037255 0.209314 0.640686
0.169117 0.209804 0.653922
0.330392 0.204412 0.673530
0.534313 0.187255 0.706373
0.748530 0.147549 0.744608
0.879902 0.196569 0.750490
0.863235 0.325000 0.671569
0.891667 0.407843 0.653922
0.974020 0.449020 0.666667
0.000000 0.325000 0.595098
0.000000 0.341667 0.622059
0.287255 0.370098 0.651471
0.495098 0.387745 0.683824
0.707843 0.407843 0.728921
0.853921 0.443627 0.748039
0.843627 0.483333 0.678922
0.876961 0.516667 0.667157
0.985294 0.508334 0.666667
0.003922 0.476961 0.615686
0.139216 0.486765 0.623039
0.286764 0.500490 0.629412
0.437746 0.523039 0.641667
0.647058 0.576961 0.701470
0.814706 0.613726 0.740196
0.818627 0.620588 0.693627
0.899020 0.590686 0.671078
0.998039 0.559804 0.643627
0.265686 0.640686 0.664216
0.326471 0.648529 0.671569
0.419118 0.659314 0.678922
0.536764 0.678431 0.690196
0.660784 0.703431 0.707353
0.777941 0.746569 0.738725
0.844118 0.723530 0.711765
0.917647 0.703431 0.683333
0.996078 0.700980 0.665686
0.351961 0.799019 0.729412
0.392157 0.801961 0.729412
0.461275 0.801961 0.728431
0.551961 0.799509 0.721569
0.651471 0.798039 0.713726
0.731863 0.790196 0.693137
0.822059 0.795588 0.675000
0.915196 0.801961 0.681863
0.992157 0.829412 0.724020
0.428922 0.878921 0.720098
0.455392 0.878921 0.720588
0.503921 0.877941 0.718137
0.568137 0.875980 0.708824
0.626960 0.872059 0.685784
0.704902 0.863235 0.665686
0.796568 0.863725 0.652451
0.899019 0.879412 0.632843
0.997549 0.891667 0.634804
0.572549 0.975000 0.766176
0.582843 0.972549 0.766176
0.607843 0.974020 0.760784
0.626470 0.972549 0.740196
0.678921 0.972549 0.726961
0.762255 0.968627 0.726961
0.848039 0.970098 0.730882
0.922059 0.980392 0.715196
1.000000 0.988235 0.691667
0.229412 0.000000 0.766667
0.290196 0.000000 0.772059
0.409804 0.000000 0.781373
0.568137 0.000000 0.798529
0.745098 0.000000 0.824510
0.917157 0.000000 0.852451
0.994118 0.000000 0.848039
0.970098 0.156373 0.770588
1.000000 0.387255 0.762745
0.225490 0.024510 0.757843
0.298039 0.005882 0.770588
0.410784 0.000000 0.777942
0.569118 0.000000 0.799510
0.743628 0.000000 0.822549
0.915686 0.000000 0.854902
0.990686 0.000000 0.845588
0.966667 0.237745 0.771078
0.995588 0.422059 0.765196
0.217647 0.196078 0.755883
0.280392 0.193627 0.762745
0.397059 0.184314 0.772549
0.556863 0.164215 0.793628
0.732353 0.131372 0.821569
0.900000 0.117157 0.848529
0.980392 0.236274 0.847059
0.956373 0.369608 0.773039
0.986274 0.490196 0.770588
0.063235 0.320098 0.726471
0.218627 0.342157 0.740686
0.352451 0.345098 0.753922
0.519608 0.353922 0.774510
0.693627 0.367157 0.800490
0.863725 0.399020 0.839216
0.952941 0.449510 0.840196
0.936764 0.504902 0.775980
0.968627 0.576471 0.775000
0.000000 0.435294 0.677451
0.000000 0.446078 0.690196
0.222548 0.455882 0.707843
0.430882 0.482843 0.743137
0.639215 0.526471 0.779412
0.813726 0.569608 0.820588
0.919608 0.609804 0.834314
0.915196 0.626471 0.780392
0.949020 0.659804 0.780393
0.131373 0.582843 0.712255
0.208824 0.590196 0.721079
0.311764 0.597059 0.722058
0.431863 0.608333 0.726471
0.561275 0.626470 0.734314
0.753431 0.692157 0.793137
0.885785 0.737745 0.832353
0.890196 0.732353 0.790196
0.967647 0.716177 0.781373
0.366667 0.736274 0.755882
0.402941 0.742156 0.761764
0.466667 0.747059 0.766667
0.553431 0.755882 0.770588
0.655882 0.772549 0.782353
0.758333 0.801961 0.801961
0.854902 0.844118 0.833334
0.907353 0.818137 0.805883
0.984314 0.809804 0.786275
0.475000 0.891176 0.837255
0.495098 0.892157 0.837745
0.536765 0.892647 0.836275
0.597549 0.894118 0.832353
0.668628 0.892157 0.824510
0.746569 0.891176 0.813726
0.812745 0.883333 0.790196
0.898529 0.891176 0.777451
0.988235 0.902941 0.794118
0.580392 0.976471 0.860785
0.592157 0.979902 0.860785
0.613725 0.978432 0.857843
0.653431 0.978922 0.852941
0.700980 0.977451 0.841176
0.753922 0.980392 0.821569
0.828432 0.976471 0.808823
0.910784 0.980882 0.804902
1.000000 0.992157 0.790196
0.412745 0.000000 0.875000
0.444117 0.000000 0.875490
0.524019 0.000000 0.882843
0.634314 0.000000 0.890686
0.764706 0.000000 0.903922
0.898529 0.000000 0.919608
1.000000 0.000000 0.941176
1.000000 0.000000 0.930392
1.000000 0.325490 0.879902
0.401471 0.026471 0.867647
0.447549 0.014215 0.878431
0.524019 0.000000 0.881863
0.630883 0.000000 0.891176
0.760784 0.000000 0.902451
0.893627 0.000000 0.916176
1.000000 0.000000 0.938725
1.000000 0.086765 0.930392
1.000000 0.371569 0.879412
0.391177 0.207353 0.866667
0.431863 0.204902 0.871568
0.508333 0.194117 0.875490
0.619608 0.172549 0.885294
0.749510 0.141176 0.898529
0.884313 0.118137 0.917157
1.000000 0.146078 0.934804
1.000000 0.309314 0.926470
1.000000 0.452941 0.875000
0.322059 0.336274 0.848039
0.378432 0.346569 0.856863
0.464706 0.344118 0.861275
0.583333 0.346079 0.875000
0.717647 0.348039 0.886765
0.858333 0.367647 0.910784
0.980882 0.408823 0.929412
1.000000 0.475980 0.925980
1.000000 0.557353 0.871568
0.024020 0.438726 0.822549
0.159314 0.441177 0.828431
0.325490 0.451470 0.836274
0.505392 0.476961 0.851960
0.662745 0.494608 0.871078
0.810784 0.523039 0.892647
0.937745 0.567647 0.915196
1.000000 0.615196 0.919608
0.996568 0.654902 0.873039
0.000000 0.559804 0.794118
0.010784 0.564706 0.800980
0.185784 0.563725 0.795588
0.350000 0.571078 0.807843
0.542647 0.587255 0.836274
0.746569 0.645588 0.867157
0.891667 0.693627 0.903431
0.975490 0.734804 0.916666
0.980392 0.751471 0.878921
0.243627 0.701961 0.822549
0.283333 0.704902 0.825000
0.351471 0.707843 0.825000
0.441176 0.707353 0.823529
0.545588 0.714707 0.824019
0.654902 0.721078 0.825000
0.828922 0.786765 0.876961
0.945588 0.838235 0.915196
0.961274 0.837745 0.888236
0.467157 0.839706 0.859314
0.485785 0.842647 0.859314
0.524510 0.843627 0.863235
0.584804 0.847549 0.863235
0.659314 0.857843 0.869118
0.744117 0.871568 0.876471
0.833334 0.894608 0.891667
0.925980 0.929902 0.922059
0.980392 0.910784 0.898529
0.599510 0.983824 0.941666
0.610784 0.983824 0.944608
0.631373 0.984314 0.941666
0.671078 0.984314 0.941666
0.717647 0.984314 0.938235
0.773039 0.983334 0.932843
0.836275 0.984314 0.918627
0.899019 0.984314 0.898529
1.000000 0.996078 0.890686
0.623529 0.156863 0.984314
0.643137 0.149510 0.984804
0.682353 0.118627 0.985294
0.751471 0.042157 0.988235
0.837255 0.000000 0.994117
0.930882 0.000000 1.000000
1.000000 0.000000 1.000000
1.000000 0.000000 1.000000
1.000000 0.274510 1.000000
0.615686 0.211275 0.980392
0.639216 0.215196 0.984314
0.677941 0.195588 0.983824
0.747549 0.160294 0.988235
0.829903 0.096569 0.992157
0.924510 0.000000 0.997549
1.000000 0.000000 1.000000
1.000000 0.000000 1.000000
1.000000 0.328432 1.000000
0.609804 0.328431 0.979412
0.630883 0.326471 0.980392
0.669608 0.317647 0.980392
0.738725 0.299020 0.984314
0.819608 0.276470 0.988235
0.915196 0.250000 0.996078
1.000000 0.228431 1.000000
1.000000 0.229412 1.000000
1.000000 0.425490 1.000000
0.570098 0.436275 0.972549
0.600000 0.445588 0.976471
0.643627 0.440196 0.976471
0.712255 0.432353 0.980392
0.798039 0.422059 0.984314
0.890686 0.416667 0.989706
0.983823 0.413725 0.994607
1.000000 0.434804 1.000000
1.000000 0.542157 1.000000
0.503922 0.549019 0.966666
0.533333 0.554902 0.968627
0.583333 0.550980 0.966666
0.661275 0.549019 0.972549
0.754902 0.549019 0.976471
0.856373 0.553432 0.984314
0.953922 0.562745 0.992157
1.000000 0.588235 1.000000
1.000000 0.649019 0.996078
0.396078 0.650000 0.947549
0.429412 0.655882 0.951471
0.470588 0.646078 0.956863
0.543627 0.634314 0.960784
0.683333 0.654412 0.969117
0.801471 0.665686 0.976471
0.913235 0.685294 0.986765
1.000000 0.712745 0.992157
1.000000 0.755882 0.993627
0.444118 0.767647 0.950000
0.461274 0.771568 0.952941
0.485294 0.770588 0.951961
0.528431 0.763725 0.947550
0.592157 0.759804 0.952941
0.703431 0.748039 0.964706
0.852941 0.783333 0.977451
0.969117 0.817647 0.992157
1.000000 0.845098 0.992157
0.553431 0.882843 0.968627
0.557843 0.879411 0.965196
0.580882 0.882843 0.968627
0.612255 0.882843 0.966176
0.657843 0.877941 0.967156
0.715687 0.882843 0.969117
0.777942 0.875490 0.968627
0.913725 0.898039 0.984314
1.000000 0.929412 0.995588
0.650980 0.968627 0.984314
0.654902 0.964706 0.980392
0.670588 0.968627 0.984314
0.698039 0.970098 0.984314
0.737255 0.972549 0.986274
0.781863 0.974020 0.985784
0.841177 0.977451 0.988235
0.914215 0.988235 0.992157
1.000000 1.000000 1.000000
