Color/Fuji/Fuji Sensia 100 65x.cube
TITLE "Fuji Sensia 100"
LUT_3D_SIZE 9
DOMAIN_MIN 0.000000 0.000000 0.000000
DOMAIN_MAX 1.000000 1.000000 1.000000
0.000000 0.000000 0.000000
0.101471 0.000000 0.000000
0.202941 0.000000 0.000000
0.308333 0.000000 0.000000
0.435295 0.000000 0.000000
0.591176 0.000000 0.000000
0.735294 0.000000 0.000000
0.839706 0.000000 0.000000
0.905882 0.000000 0.000000
0.089706 0.159804 0.054412
0.148530 0.155883 0.042647
0.249509 0.151961 0.030883
0.358823 0.148040 0.015686
0.485784 0.142157 0.007353
0.645588 0.136275 0.000000
0.786275 0.131372 0.000000
0.894117 0.128432 0.000000
0.960784 0.128432 0.026961
0.129412 0.280392 0.128432
0.175000 0.280392 0.121079
0.273529 0.276470 0.112745
0.385784 0.272549 0.097059
0.516667 0.268627 0.082353
0.676471 0.260784 0.057844
0.820588 0.256863 0.046078
0.922059 0.253922 0.061765
0.991177 0.256863 0.107843
0.164706 0.426961 0.186765
0.214706 0.426961 0.182843
0.303431 0.424510 0.175000
0.419118 0.420588 0.163235
0.559314 0.416667 0.145098
0.723039 0.412745 0.125490
0.863235 0.408824 0.117647
0.963725 0.407353 0.131863
1.000000 0.408824 0.175000
0.184314 0.605882 0.250980
0.238726 0.605882 0.247059
0.335294 0.603921 0.239216
0.457843 0.601961 0.225490
0.609804 0.598040 0.203922
0.777451 0.592156 0.180882
0.916667 0.590196 0.170588
1.000000 0.590196 0.190686
1.000000 0.592156 0.249020
0.225000 0.755882 0.286275
0.274020 0.754412 0.282353
0.369118 0.751961 0.273040
0.504412 0.750490 0.262745
0.664216 0.744117 0.238726
0.827941 0.740196 0.219608
0.960294 0.736274 0.215686
1.000000 0.736274 0.239706
1.000000 0.736274 0.303431
0.300000 0.851961 0.281373
0.345588 0.851961 0.278431
0.438236 0.848039 0.269608
0.570589 0.845098 0.254902
0.722549 0.839216 0.233333
0.878432 0.836274 0.218627
1.000000 0.832353 0.219608
1.000000 0.832353 0.254902
1.000000 0.833334 0.326470
0.393137 0.922059 0.218628
0.435295 0.922059 0.214706
0.517158 0.918137 0.202941
0.640686 0.917647 0.183334
0.788726 0.910294 0.159804
0.939216 0.906372 0.147549
1.000000 0.902451 0.163726
1.000000 0.902451 0.215686
1.000000 0.906372 0.313726
0.301961 0.980392 0.156863
0.360294 0.980392 0.145588
0.472549 0.976471 0.117647
0.624510 0.972549 0.050000
0.805883 0.964706 0.000000
0.993627 0.956863 0.000000
1.000000 0.952941 0.000000
1.000000 0.949020 0.000000
1.000000 0.952941 0.109804
0.000000 0.000000 0.081863
0.093628 0.000000 0.061765
0.190196 0.000000 0.046569
0.292647 0.000000 0.030883
0.419608 0.000000 0.015196
0.571569 0.000000 0.003922
0.707843 0.000000 0.000000
0.804412 0.000000 0.003922
0.870588 0.000000 0.034804
0.074020 0.140196 0.148040
0.136765 0.136275 0.136275
0.233333 0.132353 0.124510
0.339215 0.128922 0.108824
0.466666 0.124510 0.089216
0.624020 0.116667 0.064216
0.762745 0.112745 0.050000
0.863235 0.112745 0.065687
0.929412 0.112745 0.108824
0.124510 0.269608 0.195588
0.168137 0.268627 0.190686
0.261765 0.265686 0.178922
0.373529 0.261765 0.164216
0.505883 0.256863 0.144608
0.664706 0.252941 0.121079
0.803922 0.246079 0.109314
0.901961 0.245098 0.124019
0.968627 0.249019 0.167157
0.156863 0.420588 0.249019
0.203432 0.420588 0.245098
0.295588 0.419118 0.234314
0.411274 0.416667 0.219118
0.551471 0.412745 0.198039
0.711765 0.405882 0.175000
0.850490 0.403431 0.166666
0.948039 0.400981 0.180392
1.000000 0.404902 0.229412
0.170588 0.603921 0.303431
0.226961 0.603921 0.299510
0.324020 0.601961 0.291667
0.450490 0.600000 0.277451
0.605882 0.596078 0.256373
0.767647 0.590686 0.232843
0.902451 0.588236 0.225000
0.996568 0.586765 0.245098
1.000000 0.590196 0.299510
0.205882 0.755882 0.340196
0.259804 0.755882 0.336765
0.360294 0.751961 0.328922
0.496569 0.750490 0.313236
0.656863 0.746569 0.293628
0.818627 0.740196 0.274020
0.948039 0.736274 0.270098
1.000000 0.736274 0.294118
1.000000 0.738725 0.351961
0.283334 0.852941 0.339706
0.329902 0.851961 0.335784
0.426471 0.851961 0.327941
0.558823 0.848039 0.313236
0.714706 0.844118 0.293628
0.869608 0.840196 0.276961
0.990686 0.836275 0.277941
1.000000 0.833334 0.309804
1.000000 0.836275 0.375981
0.380882 0.925000 0.280392
0.420588 0.922059 0.276470
0.505882 0.922059 0.265686
0.632353 0.918137 0.252941
0.779412 0.914215 0.233823
0.925000 0.910294 0.222549
1.000000 0.906372 0.233824
1.000000 0.906372 0.277941
1.000000 0.906372 0.367647
0.340686 0.980392 0.149020
0.391177 0.980392 0.141176
0.496078 0.976471 0.110294
0.643628 0.972549 0.037255
0.821569 0.964706 0.000000
1.000000 0.956863 0.000000
1.000000 0.952941 0.000000
1.000000 0.952941 0.000000
1.000000 0.956863 0.191667
0.000000 0.000000 0.171568
0.093138 0.000000 0.148039
0.183334 0.000000 0.132353
0.287255 0.000000 0.114215
0.411764 0.000000 0.093137
0.563725 0.000000 0.067157
0.692157 0.000000 0.056863
0.784804 0.000000 0.070098
0.847059 0.000000 0.112745
0.065687 0.124510 0.222549
0.128432 0.120589 0.210785
0.222058 0.116667 0.198529
0.327451 0.112745 0.182843
0.455392 0.108824 0.160784
0.610294 0.100981 0.135784
0.741666 0.097059 0.124019
0.835784 0.093628 0.139705
0.901961 0.097059 0.182353
0.121569 0.256863 0.269608
0.164216 0.256863 0.264706
0.253922 0.252941 0.252941
0.362255 0.249019 0.237255
0.497059 0.245098 0.217647
0.650000 0.238236 0.194117
0.782353 0.233333 0.186274
0.875000 0.233333 0.198039
0.941176 0.233333 0.241176
0.150490 0.412255 0.326961
0.195588 0.411274 0.323039
0.287745 0.408824 0.311275
0.400981 0.404902 0.299510
0.543628 0.400981 0.277941
0.699510 0.396569 0.256373
0.828922 0.392647 0.248529
0.920588 0.392647 0.264216
0.984314 0.393137 0.307353
0.151961 0.600000 0.386274
0.209804 0.598530 0.385294
0.312746 0.598040 0.374510
0.440196 0.594117 0.361765
0.594117 0.590196 0.342157
0.751961 0.586275 0.322549
0.880392 0.582353 0.317647
0.971078 0.582353 0.334804
1.000000 0.586275 0.381373
0.180392 0.755882 0.427941
0.238726 0.755882 0.425490
0.345588 0.752941 0.417647
0.484804 0.750490 0.402941
0.645098 0.746569 0.383333
0.800490 0.740196 0.366666
0.925000 0.738725 0.365196
1.000000 0.736274 0.386765
1.000000 0.738725 0.438726
0.255883 0.855883 0.436275
0.306372 0.855883 0.433333
0.407843 0.852941 0.425490
0.545588 0.851961 0.410784
0.699020 0.845098 0.393137
0.847059 0.840196 0.379412
0.963725 0.840196 0.382353
1.000000 0.837255 0.410294
1.000000 0.840196 0.470588
0.349510 0.929902 0.401471
0.392157 0.928922 0.397549
0.481863 0.925980 0.389706
0.609314 0.922059 0.377941
0.757353 0.918137 0.360294
0.898529 0.914215 0.350490
1.000000 0.910294 0.358333
1.000000 0.910294 0.394117
1.000000 0.914215 0.472549
0.385294 0.980392 0.177451
0.427941 0.980392 0.173530
0.516667 0.976471 0.162745
0.651471 0.975490 0.146079
0.810784 0.968627 0.119608
0.971569 0.964706 0.098040
1.000000 0.960784 0.125490
1.000000 0.960784 0.193627
1.000000 0.964706 0.338235
0.000000 0.000000 0.253431
0.089706 0.000000 0.229902
0.179412 0.000000 0.216667
0.283334 0.000000 0.198529
0.407844 0.000000 0.178922
0.553432 0.000000 0.155392
0.675490 0.000000 0.146079
0.761274 0.000000 0.159804
0.823529 0.000000 0.198529
0.057843 0.100981 0.300000
0.120588 0.097059 0.291177
0.209804 0.094118 0.276470
0.315686 0.090196 0.261275
0.442647 0.082843 0.241176
0.589216 0.077451 0.218627
0.712745 0.073530 0.209804
0.801471 0.069608 0.224020
0.866177 0.071078 0.260784
0.121569 0.238726 0.354412
0.160294 0.237255 0.350490
0.242647 0.234804 0.338725
0.350490 0.230883 0.323039
0.482353 0.225490 0.303431
0.630882 0.219118 0.283824
0.753922 0.215196 0.275980
0.840196 0.213725 0.288235
0.905882 0.213725 0.323039
0.143627 0.397059 0.416667
0.186765 0.397059 0.412745
0.276470 0.393137 0.404902
0.389216 0.389216 0.389216
0.529411 0.385294 0.370098
0.677451 0.381373 0.350980
0.799510 0.377451 0.346078
0.886765 0.377451 0.360294
0.949020 0.377451 0.395588
0.135294 0.590196 0.486765
0.195588 0.590196 0.482843
0.300000 0.588236 0.475000
0.428431 0.586275 0.463236
0.582353 0.582353 0.444118
0.730392 0.578431 0.427941
0.849020 0.574510 0.425000
0.933823 0.574510 0.441667
0.996078 0.575980 0.477451
0.148039 0.754412 0.542157
0.213725 0.754412 0.538235
0.326471 0.751961 0.530392
0.469118 0.748039 0.518628
0.627451 0.744117 0.500490
0.774510 0.740196 0.487255
0.889706 0.736274 0.487255
0.972059 0.736274 0.504412
1.000000 0.736274 0.545098
0.219117 0.859804 0.565686
0.275000 0.859804 0.561765
0.384314 0.855883 0.554902
0.523529 0.852941 0.542157
0.675490 0.848039 0.526471
0.814216 0.844118 0.518628
0.921078 0.844118 0.519608
1.000000 0.841177 0.542647
1.000000 0.841177 0.585294
0.310294 0.933823 0.550000
0.356863 0.933823 0.546078
0.450980 0.931863 0.540196
0.581863 0.929902 0.526471
0.725491 0.925980 0.514216
0.859314 0.922059 0.506373
0.962255 0.918137 0.514706
1.000000 0.918137 0.542157
1.000000 0.918137 0.600490
0.312745 0.988235 0.399510
0.361764 0.988235 0.395588
0.465687 0.988235 0.387745
0.604902 0.984314 0.373529
0.766176 0.980392 0.354412
0.920588 0.972549 0.341667
1.000000 0.972549 0.352451
1.000000 0.968627 0.396078
1.000000 0.972549 0.502941
0.000000 0.000000 0.347059
0.085785 0.000000 0.325491
0.175490 0.000000 0.311765
0.276961 0.000000 0.296079
0.400000 0.000000 0.276470
0.540196 0.000000 0.254902
0.654902 0.000000 0.249020
0.735784 0.000000 0.258823
0.798039 0.000000 0.286274
0.046569 0.071569 0.389706
0.112745 0.067647 0.379902
0.196569 0.063726 0.369118
0.299020 0.057844 0.353922
0.423530 0.051961 0.334804
0.563725 0.044118 0.311765
0.677941 0.040196 0.305392
0.761274 0.038236 0.315196
0.825000 0.036275 0.338725
0.125490 0.213725 0.450981
0.160294 0.211765 0.446078
0.233333 0.207843 0.436275
0.338235 0.203922 0.422549
0.466666 0.198039 0.404902
0.606863 0.191176 0.383333
0.718628 0.186274 0.375490
0.801471 0.183334 0.385294
0.863725 0.184314 0.408824
0.132353 0.373529 0.524020
0.178431 0.373529 0.520098
0.268627 0.369608 0.512255
0.377451 0.365686 0.498530
0.514216 0.361765 0.478922
0.650980 0.354412 0.461275
0.762255 0.350490 0.453922
0.844118 0.350000 0.461765
0.909804 0.350000 0.482843
0.129412 0.574510 0.605882
0.187255 0.574510 0.602451
0.289216 0.571569 0.596078
0.416667 0.568628 0.582353
0.564705 0.564705 0.564705
0.701470 0.560785 0.547059
0.812745 0.556863 0.543138
0.894608 0.556863 0.550980
0.960784 0.556863 0.570588
0.127941 0.748039 0.674509
0.194608 0.748039 0.672059
0.311765 0.748039 0.664216
0.454412 0.744117 0.650980
0.607843 0.740196 0.632843
0.743627 0.736274 0.619117
0.849020 0.732353 0.615196
0.929902 0.732353 0.623039
0.996078 0.732353 0.642647
0.186275 0.860785 0.709804
0.251470 0.859804 0.706863
0.363725 0.859804 0.700000
0.504412 0.855883 0.686275
0.650000 0.851961 0.670589
0.777451 0.848039 0.658824
0.878431 0.844118 0.657843
0.959314 0.844117 0.666667
1.000000 0.844118 0.689216
0.273039 0.941666 0.711274
0.323039 0.937745 0.709804
0.423039 0.937745 0.701960
0.553922 0.933823 0.689706
0.690196 0.929902 0.674509
0.812745 0.925980 0.666667
0.909804 0.925980 0.667157
0.988725 0.922059 0.682353
1.000000 0.922059 0.711765
0.225490 1.000000 0.605882
0.289216 1.000000 0.601961
0.407843 0.996078 0.595098
0.557843 0.992157 0.582353
0.715687 0.988235 0.566666
0.859804 0.984314 0.558824
0.967647 0.981373 0.566666
1.000000 0.980392 0.594608
1.000000 0.982353 0.662745
0.000000 0.000000 0.456373
0.085785 0.000000 0.436765
0.171568 0.000000 0.423529
0.275490 0.000000 0.408334
0.396079 0.000000 0.385784
0.526961 0.000000 0.366176
0.630883 0.000000 0.355882
0.708824 0.000000 0.359804
0.772549 0.000000 0.374020
0.034804 0.026961 0.491177
0.100981 0.025000 0.483333
0.178431 0.021078 0.471569
0.279412 0.017157 0.454902
0.401960 0.011275 0.432353
0.530392 0.007353 0.408824
0.635294 0.005883 0.397549
0.714216 0.003432 0.398039
0.778431 0.003432 0.408824
0.122059 0.169118 0.557353
0.150980 0.165196 0.551471
0.225490 0.162745 0.541667
0.326471 0.157353 0.525000
0.450000 0.149510 0.502451
0.576961 0.143137 0.481372
0.678431 0.137745 0.467157
0.757353 0.133823 0.467157
0.822549 0.132843 0.475000
0.143627 0.335294 0.631373
0.189216 0.334314 0.627451
0.271079 0.331372 0.616667
0.375980 0.327451 0.600000
0.504412 0.321569 0.580883
0.627451 0.315686 0.557843
0.728431 0.311765 0.545098
0.805392 0.307843 0.545098
0.871568 0.307843 0.550000
0.160294 0.547059 0.717157
0.209314 0.545588 0.713235
0.303921 0.543137 0.703431
0.422549 0.539706 0.688726
0.558824 0.535294 0.666176
0.681863 0.531373 0.646568
0.781373 0.527451 0.634804
0.859804 0.525981 0.632843
0.925980 0.525981 0.638725
0.170098 0.736274 0.791176
0.224510 0.736274 0.787255
0.328922 0.736274 0.777941
0.465196 0.732353 0.761274
0.603431 0.728431 0.740196
0.724510 0.724510 0.724510
0.820588 0.720588 0.712745
0.902451 0.720588 0.711275
0.968627 0.716667 0.716667
0.225980 0.859804 0.833824
0.280392 0.859314 0.829902
0.381863 0.855883 0.819608
0.511765 0.852941 0.804412
0.640196 0.849020 0.786765
0.755392 0.845098 0.771078
0.848039 0.844118 0.763235
0.929412 0.841177 0.759314
0.996078 0.840196 0.766176
0.291667 0.941666 0.852451
0.338235 0.941666 0.848529
0.429902 0.941666 0.838235
0.550000 0.937745 0.825000
0.673039 0.933823 0.808824
0.782353 0.929902 0.795098
0.875000 0.929902 0.787255
0.953431 0.925980 0.786275
1.000000 0.925980 0.797549
0.166176 1.000000 0.812255
0.242647 1.000000 0.808334
0.370588 1.000000 0.799019
0.518628 1.000000 0.784804
0.666667 1.000000 0.767647
0.797549 0.996078 0.755882
0.902941 0.992157 0.751961
0.988725 0.992157 0.758824
1.000000 0.988235 0.783333
0.000000 0.003922 0.569608
0.098529 0.000000 0.546078
0.183334 0.000000 0.531373
0.284804 0.000000 0.513235
0.400000 0.000000 0.489216
0.519118 0.000000 0.467157
0.612745 0.000000 0.451960
0.686765 0.000000 0.448039
0.752941 0.000000 0.448039
0.043627 0.003922 0.582353
0.104902 0.002942 0.573530
0.182353 0.000000 0.557843
0.279412 0.000000 0.538235
0.396079 0.000000 0.516177
0.512745 0.000000 0.488236
0.604902 0.000000 0.475000
0.681863 0.000000 0.467647
0.745098 0.000000 0.467647
0.124510 0.102941 0.634314
0.163236 0.099020 0.627451
0.236275 0.095098 0.612745
0.329412 0.087255 0.592157
0.442157 0.079412 0.567647
0.553432 0.071569 0.544118
0.643137 0.065686 0.528431
0.716177 0.059804 0.517647
0.779412 0.057843 0.516667
0.195588 0.280883 0.704412
0.229412 0.278431 0.697549
0.299510 0.274510 0.685785
0.394117 0.269118 0.666176
0.506373 0.262745 0.642647
0.613235 0.257353 0.619117
0.700490 0.253432 0.604902
0.773039 0.249510 0.595588
0.836765 0.245588 0.593137
0.246078 0.500981 0.786274
0.282843 0.499020 0.780393
0.354902 0.497059 0.770588
0.453922 0.493138 0.751961
0.570588 0.488235 0.728431
0.673529 0.483333 0.708823
0.759804 0.480393 0.694118
0.833824 0.477451 0.686275
0.898039 0.476471 0.684314
0.281863 0.713235 0.861275
0.319608 0.713235 0.857353
0.397549 0.712745 0.848529
0.507843 0.708823 0.832353
0.620098 0.704902 0.810294
0.720588 0.700980 0.793627
0.806373 0.697549 0.778922
0.880392 0.697059 0.771078
0.945588 0.693627 0.770098
0.340196 0.849020 0.910784
0.375000 0.849020 0.906862
0.451961 0.848039 0.895098
0.553431 0.844118 0.879412
0.657843 0.840196 0.863726
0.751961 0.837255 0.848039
0.836274 0.836274 0.836274
0.910294 0.832353 0.828432
0.976471 0.832353 0.824510
0.394118 0.941666 0.938235
0.425000 0.941666 0.934314
0.494118 0.937745 0.924020
0.587745 0.937745 0.910784
0.685294 0.933823 0.895098
0.775490 0.929902 0.879902
0.856373 0.929902 0.871078
0.930392 0.925980 0.863725
0.996078 0.925980 0.863235
0.289216 1.000000 0.950000
0.335784 1.000000 0.946078
0.426471 1.000000 0.934313
0.546078 1.000000 0.918627
0.666667 1.000000 0.901961
0.775490 1.000000 0.883333
0.871568 1.000000 0.871568
0.953431 0.996078 0.864706
1.000000 0.996078 0.871568
0.019608 0.003922 0.651470
0.137255 0.000000 0.624509
0.219118 0.000000 0.608333
0.314706 0.000000 0.586274
0.422059 0.000000 0.561274
0.523530 0.000000 0.537745
0.608824 0.000000 0.522059
0.675000 0.000000 0.513726
0.737255 0.000000 0.506372
0.094118 0.003922 0.655392
0.152451 0.000000 0.643627
0.226961 0.000000 0.627941
0.318628 0.000000 0.604412
0.422059 0.000000 0.580392
0.520588 0.000000 0.557353
0.600981 0.000000 0.543627
0.671078 0.000000 0.529902
0.733333 0.000000 0.525000
0.160294 0.014216 0.665687
0.193627 0.010784 0.657843
0.256863 0.006863 0.642157
0.341176 0.003922 0.622549
0.436275 0.002451 0.597058
0.529901 0.000000 0.573039
0.607353 0.000000 0.558824
0.673530 0.000000 0.545098
0.732843 0.000000 0.537745
0.261765 0.194608 0.731863
0.288725 0.191176 0.724020
0.345098 0.187255 0.712255
0.423039 0.182843 0.692647
0.514216 0.175000 0.669118
0.600000 0.167157 0.649510
0.673529 0.159804 0.633824
0.736274 0.155392 0.622059
0.794608 0.151471 0.614216
0.347549 0.428921 0.811765
0.371078 0.426471 0.806373
0.425000 0.423039 0.796079
0.502941 0.419118 0.777941
0.592156 0.414706 0.758823
0.674019 0.409804 0.741177
0.744117 0.403431 0.727451
0.806373 0.399510 0.715687
0.864706 0.397549 0.708333
0.410294 0.670588 0.895588
0.433824 0.667157 0.891667
0.487745 0.666667 0.883824
0.565196 0.662745 0.868137
0.650981 0.658824 0.850980
0.730882 0.654902 0.835784
0.800981 0.650981 0.821569
0.864706 0.650981 0.810784
0.925490 0.647059 0.805392
0.471568 0.829412 0.950000
0.492157 0.829412 0.946079
0.545098 0.828922 0.938235
0.614706 0.825490 0.926471
0.692647 0.824510 0.914215
0.763235 0.820098 0.899020
0.833334 0.817157 0.887255
0.898529 0.816666 0.878921
0.957843 0.813236 0.871568
0.522549 0.933823 0.984804
0.541666 0.933823 0.984314
0.584314 0.929902 0.976961
0.646569 0.929902 0.965196
0.716177 0.925980 0.953431
0.788725 0.925980 0.941666
0.855883 0.922059 0.929902
0.922059 0.922059 0.922059
0.984314 0.918137 0.914215
0.472059 1.000000 1.000000
0.495588 1.000000 1.000000
0.549020 1.000000 1.000000
0.622549 1.000000 0.994117
0.704412 1.000000 0.980882
0.785784 1.000000 0.967647
0.863725 1.000000 0.953431
0.933823 1.000000 0.945098
1.000000 1.000000 0.937745
0.086275 0.003922 0.701961
0.203432 0.003922 0.674510
0.277451 0.000000 0.654902
0.363235 0.000000 0.635294
0.452941 0.000000 0.611765
0.538725 0.000000 0.592157
0.608824 0.000000 0.576471
0.671078 0.000000 0.564706
0.729412 0.000000 0.556863
0.175981 0.003922 0.698039
0.226961 0.000000 0.686275
0.293137 0.000000 0.667647
0.373529 0.000000 0.648529
0.460294 0.000000 0.627451
0.538725 0.000000 0.607843
0.607843 0.000000 0.592157
0.667157 0.000000 0.580392
0.725490 0.000000 0.572549
0.238236 0.000000 0.694118
0.265686 0.000000 0.690196
0.323529 0.000000 0.674510
0.393627 0.000000 0.656373
0.471569 0.000000 0.637255
0.548039 0.000000 0.619608
0.608823 0.000000 0.603922
0.667157 0.000000 0.592157
0.721569 0.000000 0.584314
0.318628 0.050490 0.717647
0.338235 0.049020 0.712255
0.381373 0.042647 0.700490
0.440196 0.034804 0.684804
0.508824 0.026961 0.665196
0.572549 0.020588 0.645588
0.630882 0.012745 0.629902
0.685294 0.008824 0.620098
0.735784 0.006373 0.606373
0.439215 0.307843 0.801961
0.456373 0.305883 0.798039
0.491177 0.301961 0.790196
0.545588 0.298039 0.774510
0.605882 0.290196 0.758823
0.666667 0.282353 0.743137
0.720588 0.274510 0.729412
0.771078 0.266667 0.715686
0.821568 0.262745 0.705882
0.530882 0.580882 0.895588
0.546078 0.578431 0.891667
0.575490 0.576961 0.882353
0.627451 0.573039 0.871079
0.685784 0.566667 0.860294
0.740196 0.562745 0.848529
0.794608 0.554902 0.834314
0.848529 0.550980 0.822549
0.895588 0.543137 0.813235
0.597059 0.790196 0.968627
0.612254 0.790196 0.965686
0.640196 0.787255 0.960784
0.683334 0.786275 0.950000
0.734314 0.782353 0.941176
0.789706 0.778432 0.930392
0.841177 0.775490 0.918627
0.894608 0.771568 0.906862
0.945098 0.770588 0.899020
0.654902 0.914215 1.000000
0.663235 0.914215 1.000000
0.686765 0.910784 1.000000
0.724510 0.910784 0.996568
0.770588 0.910294 0.988725
0.821078 0.906372 0.979412
0.871569 0.902941 0.969117
0.922059 0.902451 0.961274
0.972549 0.899019 0.953431
0.662745 1.000000 1.000000
0.674020 1.000000 1.000000
0.697059 1.000000 1.000000
0.733333 1.000000 1.000000
0.780392 1.000000 1.000000
0.832843 1.000000 1.000000
0.883333 1.000000 1.000000
0.937745 1.000000 1.000000
1.000000 1.000000 1.000000
