Color/Fuji/Fuji Sensia 100 65x.cube
TITLE "Fuji Sensia 100"
LUT_3D_SIZE 65
DOMAIN_MIN 0.000000 0.000000 0.000000
DOMAIN_MAX 1.000000 1.000000 1.000000
0.000000 0.000000 0.000000
0.009681 0.000000 0.000000
0.023284 0.000000 0.000000
0.036888 0.000000 0.000000
0.050490 0.000000 0.000000
0.063419 0.000000 0.000000
0.076103 0.000000 0.000000
0.088787 0.000000 0.000000
0.101471 0.000000 0.000000
0.114583 0.000000 0.000000
0.128186 0.000000 0.000000
0.139522 0.000000 0.000000
0.152206 0.000000 0.000000
0.165074 0.000000 0.000000
0.178677 0.000000 0.000000
0.192279 0.000000 0.000000
0.202941 0.000000 0.000000
0.215625 0.000000 0.000000
0.229167 0.000000 0.000000
0.240993 0.000000 0.000000
0.253676 0.000000 0.000000
0.266361 0.000000 0.000000
0.279657 0.000000 0.000000
0.295650 0.000000 0.000000
0.308333 0.000000 0.000000
0.321017 0.000000 0.000000
0.337623 0.000000 0.000000
0.351593 0.000000 0.000000
0.366912 0.000000 0.000000
0.382721 0.000000 0.000000
0.400245 0.000000 0.000000
0.417769 0.000000 0.000000
0.435295 0.000000 0.000000
0.452819 0.000000 0.000000
0.470343 0.000000 0.000000
0.491789 0.000000 0.000000
0.511029 0.000000 0.000000
0.530760 0.000000 0.000000
0.552206 0.000000 0.000000
0.573652 0.000000 0.000000
0.591176 0.000000 0.000000
0.611091 0.000000 0.000000
0.630147 0.000000 0.000000
0.647672 0.000000 0.000000
0.665196 0.000000 0.000000
0.684865 0.000000 0.000000
0.704166 0.000000 0.000000
0.717770 0.000000 0.000000
0.735294 0.000000 0.000000
0.750919 0.000000 0.000000
0.763603 0.000000 0.000000
0.780024 0.000000 0.000000
0.789706 0.000000 0.000000
0.803309 0.000000 0.000000
0.816912 0.000000 0.000000
0.830515 0.000000 0.000000
0.839706 0.000000 0.000000
0.848468 0.000000 0.000000
0.857231 0.000000 0.000000
0.865993 0.000000 0.000000
0.874755 0.000000 0.000000
0.883517 0.000000 0.000000
0.892280 0.000000 0.000000
0.901042 0.000000 0.000000
0.905882 0.000000 0.000000
0.004841 0.022365 0.000919
0.022365 0.022365 0.000000
0.039890 0.022365 0.000000
0.053493 0.022365 0.000000
0.067096 0.022365 0.000000
0.080024 0.022365 0.000000
0.092708 0.022365 0.000000
0.105393 0.021446 0.000000
0.118076 0.021446 0.000000
0.131189 0.021446 0.000000
0.144791 0.021446 0.000000
0.156127 0.021446 0.000000
0.168812 0.021446 0.000000
0.181679 0.018443 0.000000
0.195282 0.018443 0.000000
0.208885 0.018443 0.000000
0.219546 0.018443 0.000000
0.232230 0.018443 0.000000
0.245772 0.017524 0.000000
0.257598 0.017524 0.000000
0.270282 0.018443 0.000000
0.282966 0.018443 0.000000
0.296262 0.018443 0.000000
0.312255 0.016911 0.000000
0.324939 0.017524 0.000000
0.340992 0.017524 0.000000
0.354595 0.014522 0.000000
0.368199 0.013236 0.000000
0.385723 0.013603 0.000000
0.400123 0.013603 0.000000
0.416850 0.013603 0.000000
0.434375 0.013603 0.000000
0.451900 0.013603 0.000000
0.469424 0.013603 0.000000
0.490748 0.013603 0.000000
0.508394 0.009681 0.000000
0.529841 0.009681 0.000000
0.550000 0.009681 0.000000
0.568811 0.009681 0.000000
0.590257 0.009681 0.000000
0.609253 0.009681 0.000000
0.629228 0.009681 0.000000
0.650062 0.006373 0.000000
0.668199 0.008762 0.000000
0.685723 0.008762 0.000000
0.703247 0.005760 0.000000
0.720772 0.005760 0.000000
0.738297 0.004902 0.000000
0.751838 0.008762 0.000000
0.769424 0.008762 0.000000
0.783027 0.008762 0.000000
0.796814 0.008762 0.000000
0.810233 0.005760 0.000000
0.823836 0.005760 0.000000
0.834866 0.005760 0.000000
0.847548 0.005760 0.000000
0.857230 0.005760 0.000000
0.865993 0.005760 0.000000
0.877758 0.005760 0.000000
0.886519 0.005760 0.000000
0.895282 0.008762 0.000000
0.904044 0.008762 0.000000
0.912807 0.005760 0.000000
0.918565 0.008762 0.000000
0.926409 0.008762 0.000000
0.013603 0.048652 0.005760
0.031128 0.046813 0.003922
0.046813 0.046813 0.003922
0.060417 0.046813 0.003922
0.074020 0.046813 0.003922
0.088787 0.044730 0.001838
0.099142 0.044730 0.001838
0.112745 0.044730 -0.000674
0.126348 0.044730 0.000000
0.138113 0.042892 0.000000
0.152206 0.042892 0.000000
0.165318 0.042892 0.000000
0.173652 0.042892 0.000000
0.190257 0.042892 0.000000
0.202941 0.042892 0.000000
0.215809 0.040809 0.000000
0.229412 0.040809 0.000000
0.237072 0.040809 0.000000
0.253676 0.038970 0.000000
0.266360 0.038970 0.000000
0.279902 0.038970 0.000000
0.293505 0.038970 0.000000
0.303186 0.040809 0.000000
0.318628 0.038970 0.000000
0.334314 0.038970 0.000000
0.347917 0.038970 0.000000
0.362990 0.035049 0.000000
0.376961 0.035049 0.000000
0.392647 0.035049 0.000000
0.408088 0.035049 0.000000
0.423774 0.032966 0.000000
0.441299 0.032966 0.000000
0.458823 0.031127 0.000000
0.478186 0.031127 0.000000
0.495711 0.031127 0.000000
0.517157 0.029044 0.000000
0.534559 0.027206 0.000000
0.556127 0.027206 0.000000
0.579289 0.027206 0.000000
0.597181 0.027206 0.000000
0.616544 0.027206 0.000000
0.638542 0.024816 0.000000
0.655515 0.023284 0.000000
0.675123 0.023284 0.000000
0.692647 0.023284 0.000000
0.712316 0.023284 0.000000
0.729534 0.023284 0.000000
0.745221 0.023284 0.000000
0.760662 0.023284 0.000000
0.776287 0.023284 0.000000
0.791789 0.023284 0.000000
0.807475 0.019546 0.000000
0.817157 0.019362 0.000000
0.830944 0.019362 0.000000
0.843628 0.019362 0.000000
0.857966 0.021446 0.000000
0.865073 0.019362 0.000000
0.873407 0.019362 0.000000
0.887010 0.023775 0.000000
0.895282 0.023284 0.000000
0.904045 0.023284 0.000000
0.912806 0.023284 0.000000
0.919731 0.023284 0.000000
0.926410 0.023284 0.000000
0.935171 0.023284 0.000000
0.029044 0.068260 0.010601
0.042893 0.068260 0.007843
0.055576 0.068260 0.007843
0.064339 0.067096 0.006679
0.077941 0.067096 0.006679
0.087623 0.064339 0.003922
0.101225 0.064339 0.003922
0.114828 0.064339 0.003922
0.127758 0.064339 0.003922
0.144363 0.064339 0.003922
0.157046 0.064339 0.002758
0.166973 0.064339 0.002758
0.178492 0.064339 0.002758
0.195098 0.060417 0.000000
0.207782 0.060417 0.000000
0.220465 0.060417 0.000000
0.233333 0.060417 0.000000
0.241911 0.060417 0.000000
0.258517 0.060417 0.000000
0.271201 0.060417 0.000000
0.283885 0.060417 0.000000
0.297426 0.060417 0.000000
0.307108 0.060417 0.000000
0.323468 0.060417 0.000000
0.338541 0.056495 0.000000
0.351838 0.056495 0.000000
0.365441 0.056495 0.000000
0.381801 0.057966 0.000000
0.396569 0.052574 0.000000
0.414093 0.052574 0.000000
0.430454 0.052574 0.000000
0.445220 0.052574 0.000000
0.465502 0.052574 0.000000
0.483027 0.052574 0.000000
0.500552 0.048652 0.000000
0.521998 0.048652 0.000000
0.540686 0.048652 0.000000
0.560968 0.047488 0.000000
0.583211 0.044731 0.000000
0.603861 0.044731 0.000000
0.620098 0.044731 0.000000
0.642831 0.044731 0.000000
0.660355 0.040257 0.000000
0.679044 0.040809 0.000000
0.699326 0.040809 0.000000
0.716851 0.040809 0.000000
0.734375 0.040809 0.000000
0.749143 0.040809 0.000000
0.768444 0.040809 0.000000
0.780270 0.040809 0.000000
0.797794 0.040809 0.000000
0.811397 0.038052 0.000000
0.821079 0.036888 0.000000
0.834682 0.036888 0.000000
0.848284 0.036888 0.000000
0.861887 0.036888 0.000000
0.867647 0.036888 0.000000
0.882598 0.036888 0.000000
0.891361 0.036888 0.000000
0.900123 0.041299 0.000000
0.908884 0.040809 0.000000
0.917647 0.040809 0.000000
0.926410 0.040809 0.000000
0.932414 0.040809 0.000000
0.940012 0.040809 0.000000
0.038971 0.085785 0.015441
0.055332 0.085785 0.011765
0.064339 0.085785 0.011765
0.073101 0.085785 0.012684
0.081863 0.085785 0.011520
0.091544 0.085785 0.011520
0.105147 0.085540 0.007843
0.118750 0.081863 0.007843
0.132353 0.081863 0.007843
0.149203 0.081863 0.007598
0.158211 0.081863 0.007598
0.169240 0.081863 0.003922
0.182843 0.081863 0.003922
0.199939 0.081863 0.003922
0.212622 0.084437 0.003922
0.225307 0.081618 0.005577
0.234314 0.077941 0.003677
0.246753 0.077941 0.003677
0.263359 0.077941 0.000000
0.276041 0.077941 0.000000
0.288725 0.077941 0.000000
0.301410 0.077941 0.000000
0.311029 0.077941 0.000000
0.328309 0.077941 0.000000
0.343383 0.077941 0.000000
0.355760 0.074020 0.000000
0.369362 0.074020 0.000000
0.386642 0.074020 0.000000
0.400490 0.074020 0.000000
0.418566 0.070098 0.000000
0.435294 0.070098 0.000000
0.449142 0.070098 0.000000
0.470343 0.070098 0.000000
0.487867 0.070098 0.000000
0.505392 0.070098 0.000000
0.526838 0.066177 0.000000
0.544608 0.066177 0.000000
0.564767 0.066177 0.000000
0.587255 0.066177 0.000000
0.608701 0.062255 0.000000
0.624020 0.062255 0.000000
0.647671 0.062255 0.000000
0.664829 0.062255 0.000000
0.686643 0.065625 0.000000
0.704167 0.058334 0.000000
0.721691 0.058334 0.000000
0.739215 0.058334 0.000000
0.753064 0.058334 0.000000
0.773284 0.058334 0.000000
0.784191 0.058334 0.000000
0.802574 0.058334 0.000000
0.815318 0.058334 0.000000
0.831862 0.058089 0.000000
0.838603 0.058089 0.000000
0.852206 0.058089 0.000000
0.865993 0.058334 0.000000
0.875000 0.054412 0.000000
0.887438 0.058089 0.000000
0.896201 0.058334 0.000000
0.904963 0.058334 0.000000
0.913726 0.058334 0.000000
0.922487 0.058334 0.000000
0.931250 0.058334 0.000000
0.936336 0.058334 0.000000
0.944853 0.058334 0.003677
0.052328 0.107230 0.024203
0.064338 0.103309 0.020282
0.073100 0.103309 0.020282
0.081863 0.103309 0.020282
0.090626 0.103309 0.019608
0.099387 0.103309 0.016360
0.111397 0.103309 0.016360
0.120833 0.103309 0.015686
0.136765 0.103309 0.012439
0.150123 0.103309 0.012439
0.163480 0.103309 0.012439
0.174816 0.097794 0.011765
0.184252 0.099387 0.011765
0.200858 0.099387 0.008517
0.213542 0.099387 0.008517
0.227574 0.099387 0.007843
0.241176 0.099387 0.007843
0.254779 0.099387 0.004596
0.264461 0.099387 0.004596
0.278064 0.095466 0.003922
0.291667 0.095466 0.003922
0.305269 0.095466 0.003922
0.318934 0.095466 0.003983
0.332476 0.095466 0.000674
0.344301 0.095466 0.000674
0.356985 0.095466 0.000000
0.373958 0.091544 0.000000
0.390808 0.091544 0.000000
0.405086 0.091544 0.000000
0.421936 0.091544 0.000000
0.439461 0.091544 0.000000
0.456985 0.091544 0.000000
0.474510 0.087623 0.000000
0.492035 0.087623 0.000000
0.510234 0.087623 0.000000
0.531005 0.087623 0.000000
0.549203 0.087623 0.000000
0.572611 0.083701 0.000000
0.588174 0.083701 0.000000
0.609497 0.083701 0.000000
0.631863 0.083701 0.000000
0.648590 0.079779 0.000000
0.672672 0.079779 0.000000
0.687194 0.079779 0.000000
0.708333 0.079779 0.000000
0.725858 0.079779 0.000000
0.743382 0.076532 0.000000
0.761519 0.076532 0.000000
0.775184 0.075858 0.000000
0.792034 0.075858 0.000000
0.803492 0.075858 0.000000
0.823161 0.075858 0.000000
0.832782 0.075858 0.000000
0.845465 0.075858 0.000000
0.860049 0.075858 0.000000
0.870159 0.075858 0.000000
0.879595 0.075858 0.000000
0.891605 0.075858 0.000000
0.900368 0.075858 0.000000
0.912377 0.075858 0.000000
0.918566 0.075858 0.000000
0.926164 0.075858 0.000000
0.935417 0.075858 0.002084
0.944179 0.075858 0.003922
0.949694 0.075858 0.004596
0.064338 0.124755 0.032966
0.074693 0.124755 0.029044
0.081863 0.120588 0.029044
0.090626 0.120833 0.029044
0.099388 0.120833 0.025122
0.108149 0.120833 0.025122
0.116912 0.120833 0.025122
0.125674 0.120833 0.021201
0.138357 0.120833 0.021201
0.154963 0.120833 0.021201
0.163480 0.120833 0.019853
0.176409 0.120833 0.017279
0.190686 0.115319 0.017279
0.205699 0.116912 0.015686
0.217892 0.116912 0.013358
0.231495 0.116912 0.013358
0.242157 0.116912 0.010417
0.252513 0.116912 0.011765
0.269118 0.116912 0.009436
0.281985 0.116912 0.009436
0.295588 0.112990 0.006740
0.309191 0.112990 0.007843
0.318872 0.112990 0.005515
0.336458 0.112990 0.005515
0.350000 0.112990 0.003922
0.361826 0.112990 0.003922
0.377206 0.114216 0.003922
0.394730 0.109068 0.004228
0.409927 0.109068 0.001593
0.425858 0.109068 0.001593
0.444852 0.109068 0.000000
0.458579 0.109068 0.000000
0.478432 0.107108 0.000000
0.495956 0.105147 0.000000
0.517279 0.105147 0.000000
0.534926 0.105147 0.000000
0.554044 0.105147 0.000000
0.576532 0.105147 0.000000
0.593015 0.099264 0.000000
0.613419 0.101225 0.000000
0.635907 0.101225 0.000000
0.653432 0.098836 0.000000
0.676593 0.097304 0.000000
0.691115 0.097304 0.000000
0.712255 0.097304 0.000000
0.729779 0.097304 0.000000
0.747304 0.097304 0.000000
0.766361 0.097304 0.000000
0.780025 0.097304 0.000000
0.795956 0.097304 0.000000
0.808334 0.093382 0.000000
0.827083 0.093382 0.000000
0.836765 0.093382 0.000000
0.850307 0.093382 0.000000
0.863971 0.093382 0.000000
0.874081 0.093382 0.000000
0.884436 0.093382 0.000000
0.895527 0.093382 0.000000
0.904289 0.093382 0.000000
0.914645 0.093382 0.000000
0.923407 0.093382 0.001593
0.930576 0.093382 0.001164
0.939338 0.093382 0.003922
0.948101 0.094976 0.005515
0.954534 0.097304 0.011765
0.077022 0.142279 0.041728
0.085784 0.142279 0.041728
0.095220 0.140441 0.040318
0.099388 0.138357 0.037807
0.108150 0.138357 0.037807
0.116912 0.138357 0.033885
0.125674 0.138357 0.033885
0.134436 0.138357 0.033885
0.143199 0.138357 0.029964
0.157292 0.138357 0.029964
0.167402 0.138357 0.028615
0.181250 0.138357 0.026042
0.194607 0.138357 0.026042
0.208027 0.134436 0.022120
0.223223 0.134436 0.022120
0.233395 0.134436 0.022120
0.244669 0.134436 0.019179
0.257353 0.134436 0.018199
0.271446 0.134436 0.018199
0.284130 0.134436 0.015686
0.299510 0.130331 0.014277
0.313113 0.130514 0.014277
0.322794 0.130514 0.011765
0.341299 0.130514 0.010356
0.353983 0.130514 0.010356
0.366666 0.130514 0.006985
0.381127 0.130514 0.007843
0.399877 0.126593 0.006434
0.412255 0.126593 0.006434
0.429780 0.126593 0.003922
0.445895 0.126593 0.003922
0.463419 0.126593 0.003922
0.480393 0.127145 0.002513
0.499878 0.122671 0.002513
0.521201 0.122671 -0.001287
0.538848 0.122671 0.000000
0.558885 0.122671 0.000000
0.580454 0.122671 0.000000
0.597855 0.119118 0.000000
0.617340 0.118750 0.000000
0.640748 0.118750 0.000000
0.658149 0.118750 0.000000
0.680515 0.114828 0.000000
0.695037 0.114828 0.000000
0.716177 0.114828 0.000000
0.733701 0.114828 0.000000
0.751225 0.114828 0.000000
0.771201 0.114828 0.000000
0.782353 0.114828 0.000000
0.799877 0.112316 0.000000
0.813174 0.110906 0.000000
0.829596 0.110906 0.000000
0.840687 0.110906 0.000000
0.855147 0.110906 0.000000
0.867892 0.110906 0.000000
0.876593 0.110906 0.000000
0.889278 0.110906 0.000000
0.899448 0.110906 0.000000
0.908211 0.110906 0.000000
0.920221 0.110906 0.003248
0.925735 0.110906 0.003922
0.934497 0.110906 0.006434
0.943260 0.110906 0.010356
0.952022 0.114828 0.013358
0.959375 0.114828 0.018199
0.089706 0.159804 0.054412
0.094546 0.158885 0.053922
0.103308 0.155883 0.050490
0.108150 0.155883 0.050490
0.116912 0.155883 0.050490
0.125000 0.155883 0.046569
0.130514 0.155883 0.048407
0.139276 0.155883 0.042647
0.148530 0.155883 0.042647
0.157721 0.155883 0.038726
0.173407 0.155883 0.038726
0.182659 0.155883 0.039890
0.195343 0.152451 0.034804
0.208211 0.151961 0.034804
0.221814 0.151961 0.034314
0.235417 0.151961 0.030883
0.249509 0.151961 0.030883
0.262622 0.151961 0.026532
0.272304 0.151961 0.026961
0.285907 0.148530 0.023039
0.299510 0.148040 0.023039
0.312929 0.148039 0.023039
0.326715 0.148040 0.019118
0.340319 0.148040 0.019118
0.358823 0.148040 0.015686
0.371446 0.148040 0.015196
0.385049 0.147671 0.015196
0.404718 0.144118 0.011765
0.416177 0.144118 0.011275
0.433701 0.144118 0.011275
0.450736 0.144118 0.007843
0.468260 0.144118 0.010232
0.485784 0.142157 0.007353
0.503799 0.140196 0.003922
0.525122 0.140196 0.003922
0.539645 0.140196 0.003922
0.563725 0.140196 0.003432
0.581741 0.140196 0.003432
0.602696 0.136642 0.000000
0.621262 0.136275 0.000000
0.645588 0.136275 0.000000
0.662071 0.133885 0.000000
0.681128 0.132353 0.000000
0.698958 0.132353 0.000000
0.720098 0.132353 0.000000
0.737622 0.132353 0.000000
0.755147 0.132353 0.000000
0.772180 0.128922 0.000000
0.786275 0.131372 0.000000
0.805331 0.128432 0.000000
0.817402 0.128432 0.000000
0.830699 0.128432 0.000000
0.844608 0.128432 0.000000
0.859987 0.128432 0.000000
0.869240 0.128432 0.000000
0.881434 0.128432 0.000000
0.894117 0.128432 0.000000
0.900858 0.128432 0.003432
0.912132 0.128432 0.003922
0.920895 0.128432 0.003922
0.929657 0.128432 0.011275
0.938419 0.128432 0.009007
0.947182 0.128432 0.015196
0.956373 0.128003 0.022120
0.960784 0.128432 0.026961
0.098897 0.172978 0.067096
0.107230 0.172978 0.063603
0.112071 0.172978 0.063174
0.118076 0.172978 0.063174
0.125675 0.172978 0.063174
0.130515 0.169485 0.059253
0.139277 0.169485 0.059253
0.148039 0.169485 0.053248
0.156801 0.169485 0.055331
0.165135 0.169485 0.051409
0.174326 0.169485 0.051409
0.188848 0.167218 0.051409
0.202451 0.169056 0.047488
0.212133 0.169056 0.043995
0.225061 0.169056 0.043566
0.239338 0.165564 0.043566
0.252941 0.165564 0.040074
0.266544 0.165564 0.039645
0.275797 0.165564 0.036152
0.288481 0.163787 0.035723
0.301164 0.165135 0.035723
0.313848 0.165135 0.028615
0.330637 0.161642 0.031802
0.343137 0.161642 0.027880
0.361765 0.161642 0.021936
0.375368 0.161642 0.023958
0.388970 0.161213 0.023958
0.406495 0.161213 0.020037
0.418321 0.161213 0.020037
0.437623 0.157721 0.020037
0.451654 0.157721 0.016115
0.469179 0.156679 0.015073
0.490197 0.157292 0.012194
0.507721 0.157292 0.012194
0.529044 0.153799 0.011765
0.546691 0.153799 0.008272
0.564644 0.153799 0.008272
0.588297 0.151164 0.007843
0.607108 0.153370 0.004351
0.625061 0.149878 0.003922
0.647549 0.149878 0.003922
0.667524 0.147488 0.003922
0.688358 0.149449 0.003922
0.706495 0.149449 0.000429
0.724020 0.145956 0.000429
0.741544 0.145956 0.000429
0.759068 0.145956 0.000429
0.776961 0.145527 0.000429
0.789644 0.145527 -0.000552
0.807721 0.145527 0.000000
0.818933 0.145527 0.000429
0.835110 0.145527 0.000429
0.848223 0.142034 0.000429
0.862133 0.142034 0.000429
0.875735 0.142034 0.003922
0.882353 0.142034 0.003922
0.895037 0.142034 0.004351
0.907291 0.142034 0.007843
0.916054 0.142034 0.008272
0.924816 0.142034 0.008272
0.933578 0.142034 0.016115
0.942340 0.145527 0.020037
0.951103 0.145527 0.022120
0.959865 0.145527 0.030882
0.964706 0.145527 0.039645
0.111152 0.187010 0.077206
0.115992 0.187010 0.075858
0.120833 0.185662 0.075858
0.126838 0.185662 0.075858
0.134437 0.185662 0.069608
0.139277 0.185662 0.071936
0.148039 0.185662 0.069363
0.155454 0.185662 0.068015
0.164216 0.183088 0.068015
0.170404 0.183088 0.064093
0.179167 0.183088 0.061520
0.190502 0.183088 0.060172
0.200613 0.183088 0.060172
0.216054 0.183088 0.056250
0.229902 0.181740 0.056250
0.241238 0.181740 0.053676
0.253922 0.181740 0.050735
0.266606 0.179167 0.052328
0.280637 0.179167 0.048407
0.293750 0.179167 0.048407
0.307353 0.179167 0.045833
0.320956 0.179167 0.044485
0.335294 0.177819 0.040564
0.348162 0.177819 0.040564
0.360662 0.177819 0.036642
0.379289 0.175245 0.034069
0.392892 0.175245 0.032721
0.406495 0.175245 0.032782
0.424020 0.173039 0.028799
0.441544 0.173897 0.028799
0.456495 0.171323 0.024877
0.474019 0.171323 0.023835
0.491544 0.171323 0.020956
0.511642 0.168443 0.018076
0.529167 0.169975 0.017034
0.547488 0.170527 0.015686
0.569853 0.167402 0.013113
0.589584 0.167402 0.013113
0.608456 0.167402 0.009191
0.629105 0.166054 0.009191
0.650000 0.163480 0.007720
0.668873 0.163480 0.007843
0.688971 0.163480 0.007843
0.707843 0.163480 0.005270
0.727941 0.162132 0.003922
0.745466 0.162132 0.006066
0.762990 0.159559 0.002207
0.777941 0.159559 0.003922
0.794118 0.159559 0.003922
0.811642 0.159559 0.003922
0.825245 0.159559 0.003922
0.836459 0.159559 0.005270
0.853064 0.158211 0.005270
0.866054 0.158211 0.005270
0.877083 0.158211 0.007843
0.889338 0.158211 0.009191
0.898529 0.158211 0.008333
0.908639 0.155637 0.013113
0.917402 0.158211 0.018015
0.928738 0.158211 0.017034
0.937500 0.158211 0.021201
0.946262 0.159559 0.028799
0.955025 0.159559 0.034804
0.958211 0.159559 0.039644
0.968627 0.159559 0.049755
0.117647 0.200613 0.088542
0.123836 0.200613 0.084620
0.127328 0.200613 0.084620
0.131679 0.200613 0.084620
0.139276 0.200613 0.084620
0.147365 0.200613 0.080698
0.152880 0.200613 0.080698
0.159130 0.200613 0.080698
0.168137 0.200613 0.076777
0.175245 0.200613 0.078615
0.184007 0.198345 0.072855
0.194424 0.198345 0.072855
0.205453 0.198345 0.071201
0.222059 0.196691 0.068934
0.232476 0.196691 0.067279
0.243260 0.196691 0.065012
0.256189 0.196691 0.065012
0.268872 0.196691 0.059498
0.283211 0.196691 0.061091
0.295895 0.194424 0.057169
0.311275 0.194424 0.057169
0.324877 0.192769 0.057169
0.340135 0.192769 0.053247
0.352819 0.192769 0.053983
0.365686 0.192769 0.049326
0.383211 0.192769 0.044302
0.398713 0.190502 0.047304
0.410416 0.188848 0.041483
0.428003 0.188848 0.041483
0.443811 0.188848 0.036704
0.459069 0.186581 0.039706
0.476593 0.186581 0.033640
0.496385 0.184926 0.029718
0.513909 0.184926 0.029718
0.533088 0.184926 0.025796
0.551410 0.184926 0.024999
0.574326 0.184926 0.021875
0.591850 0.182292 0.021875
0.613297 0.182659 0.017953
0.634743 0.181005 0.015686
0.653922 0.181005 0.014032
0.673713 0.178738 0.014032
0.692893 0.178738 0.011765
0.712684 0.177083 0.010110
0.730208 0.177083 0.010110
0.749510 0.177083 0.010110
0.765257 0.177083 0.010110
0.780515 0.174816 0.010110
0.798039 0.173162 0.010110
0.813909 0.173162 0.010110
0.829167 0.173162 0.010110
0.842769 0.173162 0.010110
0.857904 0.173162 0.010110
0.868321 0.173162 0.009498
0.879351 0.173162 0.014338
0.893260 0.173162 0.014032
0.902451 0.173162 0.017953
0.911213 0.173162 0.019362
0.922243 0.173162 0.024204
0.931004 0.173162 0.025796
0.939767 0.173162 0.033640
0.948529 0.173162 0.039828
0.957291 0.173162 0.043566
0.963787 0.173162 0.052329
0.970894 0.173162 0.061091
0.117647 0.218137 0.094118
0.122488 0.218137 0.093383
0.129412 0.218137 0.093383
0.133333 0.218137 0.093383
0.140931 0.218137 0.093383
0.145772 0.218137 0.089461
0.154534 0.218137 0.089461
0.159375 0.218137 0.089461
0.168137 0.218137 0.085540
0.176900 0.214951 0.085540
0.185662 0.214215 0.081618
0.196691 0.214215 0.081618
0.210294 0.214215 0.078431
0.223713 0.214215 0.077696
0.233579 0.214215 0.074510
0.247181 0.214215 0.073775
0.260784 0.214215 0.073775
0.274387 0.214215 0.069914
0.284069 0.213358 0.069853
0.297672 0.210294 0.068076
0.311275 0.210294 0.065932
0.324448 0.210294 0.065932
0.338480 0.210294 0.062010
0.357659 0.210294 0.058824
0.369608 0.210294 0.058089
0.383027 0.210294 0.054718
0.399999 0.206372 0.054167
0.414338 0.206372 0.052879
0.431127 0.206372 0.050245
0.445466 0.206372 0.047120
0.462990 0.206251 0.046324
0.480515 0.202451 0.042402
0.501225 0.202451 0.040442
0.518750 0.202451 0.038481
0.537010 0.202451 0.034559
0.555331 0.202451 0.033763
0.579167 0.202451 0.030638
0.596140 0.198529 0.028003
0.618137 0.198529 0.026716
0.639584 0.198529 0.022794
0.657843 0.198529 0.022794
0.678554 0.194607 0.020405
0.696078 0.194607 0.018873
0.717525 0.194607 0.015686
0.735049 0.194607 0.015686
0.752574 0.194607 0.014951
0.770098 0.194607 0.014951
0.787622 0.190686 0.014951
0.801961 0.190686 0.014951
0.818750 0.190686 0.014951
0.833456 0.190686 0.014951
0.846691 0.190686 0.014951
0.862746 0.190686 0.018873
0.872243 0.190686 0.018873
0.883579 0.190686 0.018873
0.897181 0.190686 0.022794
0.906372 0.190686 0.023285
0.918321 0.190686 0.028125
0.927084 0.190686 0.032966
0.935846 0.190686 0.037807
0.944608 0.190686 0.045588
0.953371 0.190686 0.047487
0.962133 0.190686 0.057353
0.967708 0.190686 0.061091
0.975736 0.190686 0.069853
0.117647 0.231741 0.102145
0.125490 0.231741 0.102145
0.129412 0.231741 0.102145
0.136091 0.231741 0.102145
0.140931 0.231741 0.101961
0.145772 0.231741 0.098223
0.154534 0.231741 0.098223
0.159375 0.231741 0.095710
0.168137 0.231741 0.094302
0.176900 0.231741 0.094302
0.185846 0.231741 0.090380
0.198529 0.229473 0.090380
0.211213 0.231557 0.087193
0.227635 0.231557 0.086459
0.236581 0.231557 0.086459
0.249265 0.227819 0.082537
0.261949 0.227819 0.082537
0.278308 0.227819 0.082537
0.287317 0.227819 0.078615
0.300000 0.227819 0.078615
0.316422 0.227635 0.074694
0.332720 0.227635 0.074694
0.342585 0.223897 0.070343
0.359927 0.223897 0.070772
0.371262 0.223897 0.064583
0.391054 0.223897 0.066851
0.404657 0.223897 0.062929
0.417156 0.223713 0.062929
0.435785 0.223713 0.059008
0.449571 0.219976 0.059008
0.467096 0.219976 0.055086
0.484620 0.219976 0.054044
0.502144 0.218015 0.051164
0.523407 0.219792 0.047243
0.544730 0.219792 0.043444
0.562377 0.216054 0.042524
0.580086 0.216054 0.039400
0.603983 0.216054 0.036765
0.622794 0.212500 0.035478
