Color/Fuji/Fuji FP-100c Cool 1 -- 65x.cube
TITLE "Fuji FP-100c Cool 1 --"
LUT_3D_SIZE 5
DOMAIN_MIN 0.000000 0.000000 0.000000
DOMAIN_MAX 1.000000 1.000000 1.000000
0.000000 0.000000 0.000000
0.162745 0.008823 0.000981
0.525490 0.000000 0.000000
0.838235 0.000000 0.000000
1.000000 0.129412 0.000000
0.000000 0.187255 0.000000
0.174510 0.209804 0.000000
0.609804 0.216667 0.000000
0.861765 0.210784 0.000000
1.000000 0.311765 0.000000
0.000000 0.490196 0.000000
0.000000 0.487255 0.000000
0.515686 0.521568 0.000000
0.846078 0.535294 0.000000
1.000000 0.584314 0.011765
0.000000 0.721569 0.000000
0.000000 0.716667 0.000000
0.432353 0.718627 0.000000
0.751961 0.748039 0.000000
1.000000 0.783333 0.000000
0.415686 0.976471 0.419608
0.490196 0.976471 0.427451
0.649020 0.972549 0.450980
0.815686 0.980392 0.379412
1.000000 0.992157 0.149020
0.000000 0.000000 0.209804
0.255883 0.000000 0.255883
0.506863 0.000000 0.219608
0.816667 0.000000 0.197059
1.000000 0.090196 0.197059
0.000000 0.203922 0.239215
0.231373 0.258823 0.270588
0.606863 0.243137 0.249019
0.844117 0.225490 0.214706
1.000000 0.310784 0.210784
0.000000 0.548039 0.262745
0.065686 0.536274 0.243137
0.554902 0.549019 0.171569
0.851961 0.554902 0.214706
1.000000 0.584314 0.260784
0.000000 0.741176 0.227451
0.000000 0.737255 0.226471
0.452941 0.727451 0.194118
0.759804 0.755882 0.000000
1.000000 0.789215 0.000000
0.400981 0.980392 0.474510
0.478431 0.976471 0.482353
0.641177 0.972549 0.498039
0.809804 0.978432 0.449020
1.000000 0.992157 0.285295
0.000000 0.000000 0.519608
0.291177 0.000000 0.565686
0.752941 0.000000 0.635294
0.763725 0.174510 0.507843
1.000000 0.172549 0.503922
0.000000 0.196078 0.511765
0.284314 0.218627 0.565686
0.740196 0.195098 0.638235
0.780393 0.341176 0.534314
1.000000 0.288235 0.492157
0.000000 0.527451 0.550980
0.319608 0.559804 0.571569
0.643138 0.631373 0.619607
0.832353 0.584314 0.553922
1.000000 0.570588 0.503922
0.154902 0.787255 0.580392
0.337255 0.789215 0.575490
0.515686 0.770588 0.518628
0.778432 0.780392 0.461765
1.000000 0.809804 0.521568
0.352942 0.984314 0.615687
0.431373 0.984314 0.610785
0.611765 0.978432 0.617647
0.800981 0.980392 0.607843
1.000000 0.992157 0.509804
0.237255 0.000000 0.777451
0.417647 0.000000 0.792157
0.745098 0.000000 0.835294
0.989216 0.000000 0.855883
0.993137 0.375491 0.766667
0.214706 0.188236 0.763725
0.399020 0.172549 0.780392
0.728431 0.111765 0.829412
0.972549 0.216666 0.854902
0.980392 0.482353 0.771568
0.000000 0.433333 0.677451
0.186275 0.454902 0.707843
0.616667 0.524510 0.783333
0.907843 0.605882 0.841177
0.939215 0.659804 0.780393
0.260784 0.740196 0.752942
0.385294 0.753922 0.762745
0.601961 0.780392 0.780392
0.832353 0.855883 0.836274
0.976471 0.817647 0.779412
0.486275 0.988235 0.859804
0.531372 0.988235 0.854902
0.645098 0.985294 0.840196
0.781373 0.984314 0.798039
0.999019 0.996078 0.765686
0.623529 0.180392 0.996078
0.675490 0.143137 0.996078
0.821568 0.000000 1.000000
1.000000 0.000000 1.000000
1.000000 0.207843 1.000000
0.605882 0.347059 0.991177
0.661765 0.334314 0.992157
0.803921 0.288235 0.999019
0.994118 0.210784 1.000000
1.000000 0.392157 1.000000
0.488236 0.562745 0.976471
0.563725 0.564705 0.976471
0.731372 0.558824 0.986274
0.933333 0.559804 0.998039
1.000000 0.641177 1.000000
0.381373 0.782353 0.957843
0.433333 0.782353 0.960784
0.553922 0.774510 0.960784
0.829412 0.795098 0.981372
1.000000 0.852941 0.993137
0.588235 0.972549 0.984314
0.615686 0.972549 0.985294
0.696079 0.976471 0.988235
0.820588 0.981372 0.989216
1.000000 1.000000 1.000000
