Color/Fuji/Fuji Superia X-Tra 800 65x.cube
TITLE "Fuji Superia X-Tra 800"
LUT_3D_SIZE 65
DOMAIN_MIN 0.000000 0.000000 0.000000
DOMAIN_MAX 1.000000 1.000000 1.000000
0.000000 0.000000 0.000000
0.014522 0.000000 0.000000
0.035049 0.000000 0.000000
0.052574 0.000000 0.000000
0.070098 0.000000 0.000000
0.083701 0.000000 0.000000
0.101225 0.000000 0.000000
0.114828 0.000000 0.000000
0.132353 0.000000 0.000000
0.145956 0.000000 0.000000
0.162132 0.000000 0.000000
0.174816 0.000000 0.000000
0.190686 0.000000 0.000000
0.204290 0.000000 0.000000
0.221814 0.000000 0.000000
0.239338 0.000000 0.000000
0.252941 0.000000 0.000000
0.266606 0.000000 0.000000
0.284069 0.000000 0.000000
0.297672 0.000000 0.000000
0.311275 0.000000 0.000000
0.325184 0.000000 0.000000
0.338480 0.000000 0.000000
0.354473 0.000000 0.000000
0.367157 0.000000 0.000000
0.379841 0.000000 0.000000
0.392892 0.000000 0.000000
0.406495 0.000000 0.000000
0.417892 0.000000 0.000000
0.430576 0.000000 0.000000
0.443382 0.000000 0.000000
0.459866 0.000000 0.000000
0.472549 0.000000 0.000000
0.488113 0.000000 0.000000
0.501716 0.000000 0.000000
0.518444 0.000000 0.003922
0.532843 0.000000 0.003922
0.547733 0.000000 0.003922
0.563971 0.000000 0.003922
0.577574 0.000000 0.007843
0.595098 0.000000 0.007843
0.608701 0.000000 0.007843
0.622916 0.000000 0.011765
0.639522 0.000000 0.011765
0.652206 0.000000 0.015686
0.664890 0.000000 0.017831
0.680637 0.000000 0.019608
0.694179 0.000000 0.023529
0.703922 0.000000 0.027451
0.715625 0.000000 0.033272
0.728309 0.000000 0.038113
0.740992 0.000000 0.042953
0.750491 0.000000 0.047794
0.762439 0.000000 0.056557
0.773775 0.000000 0.061397
0.783885 0.000000 0.066667
0.793137 0.000000 0.075000
0.805331 0.000000 0.082353
0.816422 0.000000 0.088603
0.826777 0.000000 0.097365
0.839461 0.000000 0.102206
0.849387 0.000000 0.110968
0.860907 0.000000 0.115809
0.873591 0.000000 0.124571
0.886275 0.000000 0.129412
0.000919 0.021446 0.000919
0.026286 0.017524 0.000000
0.043811 0.012684 0.000000
0.064339 0.013603 0.000000
0.075183 0.013603 0.000000
0.092463 0.012929 0.000000
0.109068 0.009681 0.000000
0.121078 0.009681 0.000000
0.140196 0.009681 0.000000
0.154289 0.008762 0.000000
0.166973 0.008762 0.000000
0.179657 0.005760 0.000000
0.195527 0.005760 0.000000
0.212868 0.004841 0.000000
0.226654 0.004841 0.000000
0.243260 0.004841 0.000000
0.254841 0.004841 0.000000
0.274387 0.004841 0.000000
0.287991 0.000919 0.000000
0.300735 0.000919 0.000000
0.313419 0.000919 0.000000
0.332720 0.000919 0.000000
0.342402 0.000919 0.000000
0.355392 0.000919 0.000000
0.368076 0.000000 0.000000
0.380760 0.000000 0.000000
0.397365 0.000000 0.000000
0.410416 0.000000 0.000000
0.424020 0.000000 0.000000
0.434498 0.000000 0.000000
0.447304 0.000000 0.000000
0.460907 0.000000 0.000000
0.473468 0.000000 0.000000
0.489154 0.000000 0.000000
0.505637 0.000000 0.000000
0.519240 0.000000 0.000000
0.536764 0.000000 0.000000
0.550368 0.000000 0.000000
0.564338 0.000000 0.006557
0.581495 0.000000 0.003922
0.595098 0.000000 0.003922
0.612622 0.000000 0.003922
0.626226 0.000000 0.010232
0.639829 0.000000 0.007843
0.653431 0.000000 0.012071
0.667034 0.000000 0.011765
0.680637 0.000000 0.017830
0.694179 0.000000 0.019608
0.706862 0.000000 0.023590
0.716545 0.000000 0.028431
0.731127 0.000000 0.030270
0.740992 0.000000 0.038112
0.753676 0.000000 0.042953
0.762439 0.000000 0.051715
0.775123 0.000000 0.056557
0.783885 0.000000 0.062316
0.796568 0.000000 0.070159
0.806741 0.000000 0.075919
0.818015 0.000000 0.082353
0.830025 0.000000 0.092524
0.839461 0.000000 0.097365
0.852144 0.000000 0.103125
0.862991 0.000000 0.111887
0.873591 0.000000 0.117647
0.886275 0.000000 0.125490
0.011519 0.038970 0.003922
0.031128 0.035049 0.000000
0.050735 0.035049 0.000000
0.068260 0.035049 0.000000
0.080025 0.031127 0.000000
0.095466 0.031127 0.000000
0.113235 0.027206 0.000000
0.126593 0.027206 0.000000
0.144118 0.027206 0.000000
0.159130 0.023284 0.000000
0.171323 0.023284 0.000000
0.184497 0.023284 0.000000
0.197182 0.021446 0.000000
0.213971 0.019362 0.000000
0.231495 0.017524 0.000000
0.247181 0.017524 0.000000
0.259681 0.015441 0.000000
0.276225 0.013603 0.000000
0.292892 0.013603 0.000000
0.305515 0.013664 0.000000
0.318260 0.011519 0.000000
0.336642 0.009681 0.000000
0.346323 0.009681 0.000000
0.359927 0.005760 0.000000
0.372917 0.005760 0.000000
0.385600 0.002390 0.000000
0.400368 0.001838 0.000000
0.413052 0.001838 0.000000
0.423652 -0.000368 0.000000
0.436336 0.000000 0.000000
0.451103 0.000000 0.000000
0.463787 0.000000 0.000000
0.478432 0.000000 0.000000
0.492035 0.000000 0.000000
0.505637 0.000000 0.000000
0.519240 0.000000 0.000000
0.536764 0.000000 0.000000
0.549571 0.000000 0.000000
0.567892 0.000000 0.000000
0.581495 0.000000 0.003922
0.595098 0.000000 0.003922
0.612622 0.000000 0.003922
0.626226 0.000000 0.003922
0.639829 0.000000 0.007843
0.653431 0.000000 0.009069
0.667034 0.000000 0.011765
0.681495 0.000000 0.011765
0.696018 0.000000 0.015747
0.706863 0.000000 0.018750
0.719547 0.000000 0.023529
0.731127 0.000000 0.027451
0.740992 0.000000 0.035110
0.753676 0.000000 0.039951
0.764093 0.000000 0.046875
0.775123 0.000000 0.053554
0.787377 0.000000 0.058824
0.796568 0.000000 0.067157
0.806741 0.000000 0.074081
0.818015 0.000000 0.080760
0.830025 0.000000 0.089522
0.839461 0.000000 0.098039
0.852144 0.000000 0.103125
0.862991 0.000000 0.111887
0.876593 0.000000 0.116728
0.886275 0.000000 0.125490
0.025123 0.056495 0.003922
0.039890 0.058333 0.003922
0.054657 0.052574 0.004841
0.071017 0.052574 0.002758
0.085785 0.048897 0.002758
0.099387 0.048652 0.002758
0.112990 0.044731 0.002758
0.130759 0.044731 0.000000
0.144118 0.044731 0.000000
0.157721 0.040809 0.000000
0.176654 0.040809 0.000000
0.189338 0.038542 0.000000
0.202451 0.036888 0.000000
0.216054 0.034130 0.000000
0.233579 0.032966 0.000000
0.247181 0.032966 0.000000
0.264706 0.030209 0.000000
0.278308 0.029044 0.000000
0.291912 0.026287 0.000000
0.310417 0.025123 0.000000
0.323039 0.025123 0.000000
0.336642 0.022365 0.000000
0.350245 0.018444 0.000000
0.363848 0.019669 0.000000
0.377451 0.014522 0.000000
0.391054 0.011152 0.000000
0.400735 0.010601 0.000000
0.414338 0.010601 0.000000
0.428493 0.006679 0.000000
0.441544 0.006679 0.000000
0.451225 0.003922 0.000000
0.464828 0.005638 0.000000
0.478432 0.002758 0.000000
0.491912 0.000000 0.000000
0.509559 0.000000 0.000000
0.525123 0.000000 0.000000
0.536764 0.000000 0.000000
0.551654 0.000000 0.000000
0.567892 0.000000 0.000000
0.581495 0.000000 0.003922
0.597549 0.000000 0.003922
0.612622 0.000000 0.003922
0.626226 0.000000 0.003922
0.639829 0.000000 0.007843
0.653431 0.000000 0.007843
0.668811 0.000000 0.011765
0.681495 0.000000 0.011765
0.694241 0.000000 0.015686
0.706862 0.000000 0.019608
0.719547 0.000000 0.023529
0.732230 0.000000 0.027451
0.740992 0.000000 0.031373
0.753676 0.000000 0.039951
0.764093 0.000000 0.047059
0.775123 0.000000 0.053554
0.787377 0.000000 0.058395
0.796568 0.000000 0.067157
0.806741 0.000000 0.074510
0.818015 0.000000 0.080760
0.830025 0.000000 0.089522
0.839706 0.000000 0.094363
0.852144 0.000000 0.103125
0.862991 0.000000 0.109804
0.876593 0.000000 0.116728
0.886275 0.000000 0.122733
0.035049 0.074020 0.007598
0.048652 0.073101 0.003922
0.062255 0.070098 0.003922
0.072182 0.070098 0.003922
0.089706 0.066422 0.003922
0.106312 0.066177 0.003922
0.116912 0.064583 0.003922
0.130514 0.062255 0.003922
0.148285 0.062255 0.003922
0.161642 0.058334 0.003922
0.175245 0.058334 0.003677
0.188848 0.056066 0.003677
0.202451 0.054412 0.003677
0.219976 0.054228 0.000000
0.237255 0.050490 0.000000
0.251103 0.050490 0.000000
0.264706 0.046569 0.000000
0.282230 0.046569 0.000000
0.295834 0.042647 0.000000
0.309436 0.042647 0.000000
0.323039 0.039951 0.000000
0.340625 0.038726 0.000000
0.353554 0.034804 0.000000
0.369915 0.033273 0.000000
0.378922 0.027206 0.000000
0.391605 0.023284 0.000000
0.407966 0.023039 0.000000
0.420649 0.019363 0.000000
0.429657 0.020833 0.000000
0.442341 0.015441 0.000000
0.458700 0.011520 0.000000
0.471385 0.011520 0.000000
0.484069 0.009558 0.000000
0.495956 0.007598 0.000000
0.509436 0.003922 0.000000
0.523162 0.000000 0.000000
0.538970 0.000000 0.000000
0.554290 0.000000 0.000000
0.567892 0.000000 0.000000
0.581495 0.000000 0.000552
0.601226 0.000000 0.003922
0.612622 0.000000 0.003922
0.626838 0.000000 0.003922
0.639829 0.000000 0.007843
0.656128 0.000000 0.007843
0.668811 0.000000 0.011765
0.681495 0.000000 0.011765
0.694241 0.000000 0.015686
0.710539 0.000000 0.019608
0.719547 0.000000 0.023529
0.732230 0.000000 0.027451
0.744730 0.000000 0.031373
0.753676 0.000000 0.039951
0.764093 0.000000 0.044792
0.775123 0.000000 0.050980
0.787377 0.000000 0.058395
0.796568 0.000000 0.063481
0.809252 0.000000 0.071997
0.818015 0.000000 0.080760
0.830025 0.000000 0.086275
0.839706 0.000000 0.094363
0.852144 0.000000 0.103125
0.862991 0.000000 0.107966
0.876593 0.000000 0.116728
0.886275 0.000000 0.121569
0.047733 0.091544 0.011765
0.060417 0.090870 0.008517
0.069179 0.087623 0.008517
0.077942 0.087623 0.008517
0.090626 0.083701 0.008517
0.106556 0.083701 0.007843
0.120833 0.079779 0.007843
0.134436 0.079779 0.007843
0.148530 0.079779 0.007843
0.165809 0.075858 0.004596
0.179167 0.075858 0.004596
0.192769 0.073591 0.004596
0.206372 0.071936 0.001410
0.220650 0.071752 0.003922
0.237500 0.068015 0.003922
0.255025 0.065993 0.003922
0.268627 0.064093 0.003922
0.279045 0.064093 0.000674
0.299755 0.060172 0.000674
0.313358 0.060172 -0.001103
0.326961 0.056250 0.000000
0.340870 0.056250 0.000000
0.354166 0.052328 0.000000
0.366912 0.048407 0.000000
0.382843 0.044485 0.000000
0.392279 0.041115 0.000000
0.408211 0.040196 0.000000
0.420895 0.036642 0.000674
0.430331 0.032721 0.000674
0.443015 0.032047 0.000674
0.458947 0.024877 0.003922
0.472671 0.024203 0.003922
0.486274 0.018995 0.003922
0.499878 0.014155 0.003922
0.513481 0.009314 0.003922
0.527083 0.008395 0.003922
0.539645 0.008517 0.003922
0.558211 0.004596 0.003922
0.571814 0.001043 0.003922
0.585417 0.000674 0.003922
0.599020 0.000000 0.003922
0.610906 0.000000 0.003922
0.626838 0.000000 0.003922
0.643443 0.000000 0.004228
0.656128 0.000000 0.007843
0.668811 0.000000 0.009988
0.681495 0.000000 0.011765
0.694241 0.000000 0.015686
0.707843 0.000000 0.019608
0.719547 0.000000 0.021507
0.732230 0.000000 0.026348
0.744730 0.000000 0.031373
0.753676 0.000000 0.039216
0.766360 0.000000 0.044792
0.775123 0.000000 0.050980
0.784558 0.000000 0.058395
0.796568 0.000000 0.066667
0.809252 0.000000 0.071997
0.818015 0.000000 0.080760
0.830699 0.000000 0.085601
0.839706 0.000000 0.094363
0.852144 0.000000 0.101961
0.864829 0.000000 0.107966
0.876593 0.000000 0.116728
0.886275 0.000000 0.121569
0.056495 0.109068 0.015686
0.069179 0.105147 0.015686
0.077941 0.105147 0.013358
0.086703 0.102390 0.013358
0.095465 0.101225 0.013358
0.107230 0.101225 0.013358
0.120833 0.097304 0.011765
0.138357 0.097304 0.011765
0.151961 0.097304 0.011765
0.165564 0.093382 0.009436
0.179167 0.093382 0.009436
0.192095 0.091115 0.009436
0.210294 0.089461 0.009436
0.223897 0.089277 0.007843
0.241422 0.085539 0.007843
0.255025 0.083517 0.007843
0.267279 0.081618 0.005515
0.286152 0.081618 0.001655
0.299755 0.077696 0.003922
0.313174 0.075919 0.003922
0.330882 0.073774 0.003922
0.344485 0.070160 0.003922
0.359069 0.068260 0.003922
0.371691 0.065931 0.003922
0.385294 0.062010 0.003922
0.398897 0.058640 0.003922
0.408578 0.057721 0.003922
0.422181 0.054167 0.003922
0.435785 0.050245 0.003922
0.446262 0.046323 0.003922
0.459069 0.042402 0.005515
0.472671 0.038480 0.005515
0.485907 0.034559 0.005515
0.498591 0.030637 0.007843
0.517402 0.026716 0.007843
0.531802 0.021201 0.007843
0.544608 0.017157 0.007843
0.558211 0.012316 0.007843
0.575736 0.009804 0.007843
0.588787 0.008885 0.007843
0.603064 0.005515 0.007843
0.616544 0.003922 0.007843
0.630147 0.001593 0.007843
0.645036 0.000000 0.007843
0.657721 0.000000 0.007843
0.670956 0.000000 0.009436
0.684559 0.000000 0.011765
0.694241 0.000000 0.015686
0.707843 0.000000 0.019608
0.719547 0.000000 0.021507
0.732230 0.000000 0.026348
0.744730 0.000000 0.031373
0.753676 0.000000 0.039216
0.766360 0.000000 0.044792
0.775123 0.000000 0.050980
0.787806 0.000000 0.058395
0.796568 0.000000 0.066667
0.809252 0.000000 0.071997
0.818015 0.000000 0.080760
0.830699 0.000000 0.085601
0.839706 0.000000 0.094363
0.852144 0.000000 0.103554
0.864829 0.000000 0.107966
0.876593 0.000000 0.116728
0.887868 0.000000 0.121569
0.069179 0.124081 0.022120
0.077942 0.122671 0.022120
0.086703 0.122671 0.022120
0.095465 0.120160 0.022120
0.104227 0.118750 0.022120
0.111152 0.118750 0.021446
0.124755 0.114828 0.018199
0.138357 0.114828 0.018199
0.152451 0.114828 0.018199
0.169056 0.110906 0.015686
0.181740 0.110906 0.016850
0.196936 0.108640 0.014277
0.210294 0.106985 0.014277
0.226409 0.106802 0.011765
0.241422 0.103063 0.011765
0.256924 0.101042 0.012255
0.272549 0.099142 0.010356
0.284804 0.099142 0.010356
0.302819 0.095220 0.007843
0.318015 0.093444 0.007843
0.330882 0.091299 0.007843
0.343382 0.087684 0.007843
0.358088 0.086765 0.009742
0.371691 0.083456 0.006434
0.385294 0.079534 0.006434
0.398039 0.076164 0.006434
0.412133 0.075245 0.007843
0.422181 0.071691 0.007843
0.435785 0.067769 0.007843
0.449387 0.063848 0.010356
0.462868 0.059926 0.010356
0.475552 0.056005 0.010356
0.490748 0.052083 0.010356
0.503799 0.048161 0.011765
0.517402 0.044240 0.011765
0.531005 0.039522 0.011765
0.544608 0.034682 0.014277
0.562133 0.028554 0.014277
0.575736 0.021078 0.011765
0.589338 0.020159 0.014277
0.602941 0.014277 0.014277
0.618076 0.010356 0.014277
0.634069 0.007046 0.014277
0.643750 0.003922 0.011765
0.657353 0.002513 0.011765
0.670956 0.000000 0.014277
0.684559 0.000000 0.014277
0.698100 0.000000 0.015686
0.707843 0.000000 0.019608
0.722059 0.000000 0.021507
0.732230 0.000000 0.026042
0.744730 0.000000 0.031373
0.753676 0.000000 0.039951
0.766360 0.000000 0.044792
0.775123 0.000000 0.053554
0.787806 0.000000 0.058395
0.796568 0.000000 0.069179
0.809252 0.000000 0.071997
0.818015 0.000000 0.080760
0.830699 0.000000 0.084866
0.839706 0.000000 0.094363
0.852144 0.000000 0.103125
0.864829 0.000000 0.107966
0.876593 0.000000 0.116728
0.890196 0.000000 0.124081
0.077941 0.140196 0.034314
0.086703 0.140196 0.030883
0.095465 0.136765 0.030883
0.104228 0.136275 0.030883
0.109559 0.136275 0.030883
0.118321 0.135601 0.026961
0.130514 0.132353 0.026961
0.143199 0.132353 0.026961
0.155883 0.128922 0.023529
0.169485 0.128432 0.023039
0.183088 0.128432 0.023039
0.196691 0.126164 0.023039
0.214460 0.124510 0.019608
0.227819 0.124327 0.019118
0.247671 0.120588 0.019118
0.258946 0.118566 0.019118
0.272549 0.116667 0.015686
0.290073 0.116667 0.015196
0.303677 0.112745 0.015196
0.317280 0.110968 0.015196
0.332108 0.108824 0.015196
0.348407 0.105208 0.011765
0.361397 0.104289 0.011765
0.374081 0.100981 0.013665
0.386765 0.097059 0.010294
0.399448 0.093689 0.011765
0.415564 0.092770 0.011765
0.424816 0.089216 0.015196
0.437500 0.085294 0.015196
0.450184 0.081373 0.015196
0.466298 0.077451 0.019118
0.476593 0.073530 0.015686
0.490197 0.069608 0.019118
0.503799 0.065687 0.019118
0.517524 0.057966 0.019118
0.534130 0.053922 0.019118
0.548529 0.050000 0.019118
0.562133 0.043444 0.020405
0.579657 0.038603 0.019118
0.592708 0.033763 0.016238
0.608824 0.028921 0.019608
0.620465 0.024081 0.019608
0.634069 0.019240 0.019731
0.650797 0.014890 0.019118
0.663481 0.010049 0.019118
0.672733 0.003922 0.019118
0.685417 0.003432 0.019608
0.698100 0.000000 0.019608
0.707843 0.000000 0.023039
0.721446 0.000000 0.023529
0.732230 0.000000 0.027451
0.744730 0.000000 0.035110
0.757107 0.000000 0.039951
0.766360 0.000000 0.044792
0.775123 0.000000 0.053554
0.787806 0.000000 0.058334
0.797059 0.000000 0.067157
0.809252 0.000000 0.074510
0.818015 0.000000 0.080760
0.830699 0.000000 0.086275
0.839706 0.000000 0.094363
0.852144 0.000000 0.103125
0.864829 0.000000 0.107966
0.876593 0.000000 0.116728
0.890196 0.000000 0.125490
0.090625 0.153799 0.043566
0.095466 0.153799 0.043566
0.104228 0.153799 0.043566
0.112561 0.153370 0.040074
0.117831 0.149878 0.040074
0.126593 0.149878 0.039645
0.135355 0.148285 0.039645
0.144118 0.145956 0.033640
0.159804 0.145956 0.035723
0.172978 0.145527 0.031802
0.185662 0.142034 0.031802
0.200613 0.142034 0.031802
0.211458 0.141605 0.031802
0.231741 0.138113 0.027880
0.244669 0.137684 0.027880
0.260846 0.134191 0.025858
0.276470 0.131250 0.023958
0.286642 0.130270 0.023958
0.303248 0.129841 0.023958
0.321201 0.126348 0.018689
0.334804 0.125919 0.020037
0.348407 0.122427 0.020037
0.362009 0.118505 0.020037
0.375613 0.118076 0.020037
0.389216 0.112132 0.020037
0.402819 0.110662 0.020037
0.416054 0.106740 0.020037
0.426103 0.102819 0.021324
0.439706 0.102390 0.023958
0.453309 0.095772 0.023958
0.462990 0.094853 0.024387
0.479473 0.090625 0.023958
0.494117 0.086704 0.023958
0.507721 0.082782 0.026838
0.521324 0.078860 0.027880
0.534926 0.070649 0.027880
0.547242 0.065809 0.029595
0.566054 0.063174 0.025674
0.579657 0.055760 0.027880
0.593260 0.047365 0.027880
0.605822 0.042524 0.026838
0.621997 0.039645 0.027880
0.637991 0.028922 0.025000
0.651286 0.023958 0.027880
0.663971 0.020037 0.027880
0.673161 0.016115 0.030024
0.685845 0.009131 0.031802
0.698162 0.004351 0.027941
0.711765 0.003922 0.028309
0.723468 -0.001471 0.027880
0.732230 0.000000 0.031802
0.744914 0.000000 0.035540
0.754412 0.000000 0.039645
0.766360 0.000000 0.048713
0.775123 0.000000 0.053554
0.787806 0.000000 0.062316
0.797058 0.000000 0.067157
0.809252 0.000000 0.075919
0.818015 0.000000 0.082353
0.830699 0.000000 0.089522
0.839706 0.000000 0.098468
0.852144 0.000000 0.103125
0.864829 0.000000 0.111887
0.876593 0.000000 0.116728
0.890196 0.000000 0.125490
0.099387 0.171323 0.056250
0.104228 0.170404 0.056679
0.112990 0.167402 0.053676
0.117831 0.167402 0.050919
0.126594 0.167402 0.052328
0.134007 0.166728 0.053002
0.142769 0.163480 0.048162
0.151532 0.163480 0.048407
0.163726 0.160049 0.048407
0.174326 0.159559 0.044485
0.187010 0.159559 0.044485
0.199694 0.158211 0.040564
0.218137 0.155637 0.040564
0.231741 0.155453 0.037990
0.248162 0.151716 0.036642
0.262868 0.149694 0.036642
0.276470 0.147794 0.036642
0.293995 0.147794 0.030208
0.308088 0.143872 0.032721
0.321201 0.142095 0.032721
0.333456 0.139951 0.032721
0.348714 0.136335 0.032721
0.362009 0.135416 0.033456
0.375429 0.132108 0.028615
0.390686 0.128186 0.028799
0.403370 0.124816 0.028799
0.416054 0.123897 0.030147
0.428738 0.120343 0.032721
0.438848 0.116421 0.032721
0.453309 0.115073 0.035846
0.466790 0.108578 0.036642
0.480821 0.104657 0.036642
0.494118 0.100735 0.036642
0.506189 0.096814 0.036642
0.521446 0.092892 0.036642
0.534926 0.088174 0.037438
0.552451 0.081127 0.040564
0.566054 0.077206 0.040564
0.580024 0.069731 0.037990
0.596630 0.064890 0.040564
0.610784 0.057598 0.040564
0.624387 0.051286 0.040564
0.637991 0.046446 0.040564
0.651593 0.041606 0.036642
0.665318 0.032843 0.037990
0.678799 0.026654 0.040564
0.689338 0.019240 0.040564
0.702022 0.013113 0.040564
0.711765 0.009191 0.040564
0.725368 0.005270 0.040564
0.733579 0.003922 0.040564
0.744914 -0.002390 0.040564
0.754412 0.000000 0.044485
0.766360 0.000000 0.048713
0.775123 0.000000 0.057476
0.787806 0.000000 0.062316
0.797059 0.000000 0.067157
0.809252 0.000000 0.075919
0.820343 0.000000 0.084682
0.830699 0.000000 0.089522
0.843382 0.000000 0.098284
0.852144 0.000000 0.103125
0.864829 0.000000 0.111887
0.877512 0.000000 0.120650
0.890196 0.000000 0.125490
0.108149 0.184926 0.065012
0.115992 0.184926 0.065012
0.121752 0.184926 0.065012
0.126593 0.184926 0.065012
0.135356 0.182659 0.061091
0.140196 0.181005 0.061091
0.148958 0.181005 0.061091
0.157720 0.178493 0.059436
0.166482 0.177083 0.057169
0.176900 0.177083 0.059008
0.187010 0.174816 0.053247
0.204534 0.173162 0.053247
0.217218 0.173162 0.051593
0.235662 0.169240 0.049326
0.249265 0.169240 0.050490
0.262868 0.167218 0.045404
0.280392 0.165318 0.045404
0.293995 0.165318 0.045404
0.307598 0.161397 0.041483
0.321201 0.159620 0.041483
0.338725 0.157475 0.041483
0.352328 0.155208 0.041483
0.365319 0.152941 0.041483
0.378003 0.149632 0.041483
0.390686 0.145711 0.041483
0.403370 0.142340 0.039828
0.418321 0.141422 0.041483
0.428738 0.137867 0.041483
0.441422 0.133946 0.043750
0.454105 0.130024 0.045404
0.466912 0.126103 0.047671
0.480515 0.122181 0.047671
0.494117 0.118260 0.047671
0.511642 0.114338 0.047671
0.525245 0.110416 0.049326
0.538848 0.105699 0.049326
0.552451 0.098652 0.049326
0.569976 0.094730 0.048958
0.583579 0.087255 0.049326
0.597181 0.082414 0.049326
0.610784 0.075122 0.049326
0.625919 0.068811 0.049326
0.641912 0.063971 0.049326
0.651593 0.055515 0.049326
0.665196 0.050368 0.049326
0.678799 0.041605 0.049326
0.692402 0.037561 0.049326
0.702084 0.028002 0.051593
0.716974 0.020895 0.051593
0.727390 0.014032 0.051593
0.736152 0.010110 0.051593
0.747182 0.006189 0.053247
0.757598 0.005454 0.053247
0.766360 0.000000 0.052635
0.777696 0.000000 0.057476
0.787806 0.000000 0.062745
0.797059 0.000000 0.071078
0.809252 0.000000 0.075919
0.820343 0.000000 0.084682
0.830699 0.000000 0.090196
0.843382 0.000000 0.098284
0.853309 0.000000 0.105882
0.864829 0.000000 0.111887
0.877512 0.000000 0.120650
0.890196 0.000000 0.125490
0.113725 0.202451 0.073775
0.121752 0.202451 0.073775
0.128677 0.202451 0.070588
0.132169 0.199693 0.071017
0.140196 0.198529 0.069853
0.145772 0.198529 0.069853
0.154534 0.198529 0.069853
0.163297 0.196017 0.067341
0.172059 0.194607 0.065932
0.180821 0.194607 0.065932
0.190931 0.196445 0.064583
0.204534 0.190686 0.062010
0.222058 0.190686 0.062010
0.235662 0.186764 0.058089
0.252083 0.186764 0.058089
0.267953 0.186764 0.059253
0.280392 0.182843 0.054167
0.294057 0.182843 0.054167
0.310662 0.178921 0.054167
0.325123 0.180331 0.053431
0.338725 0.175000 0.050245
0.351899 0.171385 0.050245
0.365931 0.173652 0.050245
0.379535 0.167156 0.050245
0.393137 0.164706 0.050245
0.406740 0.163235 0.050245
0.416421 0.159313 0.050245
0.430024 0.155392 0.051532
0.443628 0.151470 0.054167
0.457231 0.148346 0.054167
0.470711 0.143627 0.058089
0.486581 0.139705 0.058089
0.498039 0.135784 0.058089
0.511642 0.131862 0.058089
0.524632 0.127329 0.058089
0.538848 0.123224 0.058089
0.557843 0.118382 0.059804
0.569976 0.112254 0.062010
0.587500 0.108333 0.057721
0.603737 0.103126 0.058089
0.616422 0.095098 0.058089
0.628309 0.088725 0.058089
0.641789 0.081495 0.058089
0.655515 0.076654 0.058089
0.671079 0.067892 0.058089
0.683762 0.061274 0.058089
0.696446 0.054289 0.058089
0.709130 0.045527 0.062010
0.718628 0.036765 0.062010
0.730576 0.028738 0.062010
0.740073 0.023162 0.062010
0.748836 0.015134 0.062010
0.760785 0.007843 0.062010
0.770282 0.003922 0.062010
0.779044 0.004535 0.064584
0.787806 0.000000 0.065932
0.800490 0.000000 0.067892
0.809252 0.000000 0.075919
0.820343 0.000000 0.084682
0.830699 0.000000 0.090196
0.843382 0.000000 0.098284
0.853309 0.000000 0.105882
0.864829 0.000000 0.111887
0.877512 0.000000 0.120650
0.890196 0.000000 0.125490
0.117647 0.216054 0.078615
0.122488 0.216054 0.078615
0.125674 0.216054 0.078615
0.136091 0.215870 0.078431
0.140931 0.215870 0.078431
0.149694 0.212133 0.074694
0.156863 0.212133 0.074694
0.163297 0.212133 0.074694
0.172059 0.208701 0.074510
0.181005 0.208211 0.070772
0.194853 0.208211 0.070772
0.208640 0.205944 0.070588
0.225980 0.208027 0.066851
0.239584 0.204290 0.066667
0.252267 0.203187 0.066667
0.270711 0.200368 0.062929
0.284314 0.200368 0.062929
0.294240 0.200184 0.062929
0.310846 0.196446 0.062745
0.329044 0.196262 0.059008
0.342647 0.192525 0.059008
0.356250 0.188603 0.059008
0.369853 0.188419 0.059008
0.383456 0.184682 0.059008
0.397059 0.180760 0.059008
0.410662 0.177390 0.059008
0.420343 0.176471 0.059375
0.433946 0.172917 0.062929
0.447549 0.168995 0.062929
0.461152 0.165869 0.062929
0.470833 0.161152 0.066851
0.483578 0.157231 0.066851
0.501961 0.153309 0.066851
0.515564 0.149388 0.066851
0.525552 0.145588 0.066851
0.542156 0.140747 0.070772
0.560294 0.135907 0.070772
0.573897 0.131066 0.070772
0.584129 0.125858 0.070772
