Color/Fuji/Fuji Velvia 50 65x.cube
TITLE "Fuji Velvia 50"
LUT_3D_SIZE 5
DOMAIN_MIN 0.000000 0.000000 0.000000
DOMAIN_MAX 1.000000 1.000000 1.000000
0.000000 0.000000 0.000000
0.157843 0.000000 0.000000
0.454902 0.000000 0.000000
0.727451 0.000000 0.000000
0.988235 0.000000 0.000000
0.031373 0.194117 0.015686
0.170588 0.170588 0.015686
0.462746 0.122549 0.014706
0.731373 0.063726 0.007843
0.992157 0.006863 0.000000
0.000000 0.501961 0.062745
0.101961 0.486274 0.062745
0.450981 0.454902 0.058824
0.731373 0.416667 0.047059
1.000000 0.364706 0.019608
0.000000 0.782353 0.089216
0.008824 0.774510 0.093137
0.427451 0.750981 0.097059
0.715687 0.719608 0.090196
0.996078 0.677451 0.050980
0.000000 1.000000 0.156863
0.026471 1.000000 0.152941
0.400000 1.000000 0.147059
0.696079 1.000000 0.117647
0.980392 0.984314 0.000000
0.000000 0.000000 0.089216
0.153922 0.000000 0.092157
0.458823 0.000000 0.088235
0.735294 0.000000 0.069608
0.999019 0.000000 0.034314
0.034314 0.190196 0.166666
0.169608 0.166666 0.166666
0.466666 0.118628 0.166666
0.739216 0.059804 0.146079
1.000000 0.002942 0.092157
0.000000 0.505883 0.231373
0.094118 0.490197 0.233333
0.454902 0.458823 0.233333
0.735294 0.415687 0.220588
1.000000 0.366667 0.172549
0.000000 0.786275 0.288235
0.001961 0.775490 0.288235
0.428431 0.751961 0.288235
0.719608 0.722549 0.280392
1.000000 0.680392 0.238235
0.000000 1.000000 0.328431
0.029412 1.000000 0.328431
0.401960 1.000000 0.324510
0.700000 1.000000 0.311765
0.984314 0.988235 0.249019
0.000000 0.000000 0.325491
0.147059 0.000000 0.329411
0.462746 0.000000 0.331372
0.739216 0.000000 0.321569
1.000000 0.000000 0.290196
0.030392 0.181373 0.389216
0.162745 0.158823 0.393137
0.466666 0.106863 0.397059
0.743137 0.046078 0.393137
1.000000 0.000000 0.372549
0.000000 0.505883 0.450981
0.075490 0.490197 0.452941
0.456863 0.454902 0.454902
0.739216 0.415687 0.454902
1.000000 0.362745 0.439215
0.000000 0.790196 0.509804
0.000000 0.778432 0.512745
0.427451 0.754902 0.516667
0.723530 0.723530 0.513726
1.000000 0.681372 0.498039
0.000000 1.000000 0.554902
0.022549 1.000000 0.554902
0.403922 1.000000 0.554902
0.703922 1.000000 0.550980
0.992157 0.992157 0.523529
0.000000 0.000000 0.531373
0.127451 0.000000 0.539216
0.458823 0.000000 0.546079
0.743137 0.000000 0.546079
1.000000 0.000000 0.535294
0.021569 0.153922 0.600980
0.141176 0.131372 0.605883
0.462745 0.073530 0.611765
0.747059 0.014706 0.612745
1.000000 0.000000 0.605883
0.000000 0.501961 0.657843
0.059803 0.486274 0.660785
0.450980 0.448039 0.665686
0.743137 0.404902 0.668628
1.000000 0.350000 0.664706
0.000000 0.790196 0.711765
0.000000 0.782353 0.715687
0.416667 0.754902 0.719608
0.723530 0.723530 0.723530
1.000000 0.680392 0.719608
0.000000 1.000000 0.766667
0.000000 1.000000 0.769607
0.392156 1.000000 0.770588
0.707843 1.000000 0.773529
0.996078 1.000000 0.762745
0.000000 0.000000 0.725490
0.092157 0.000000 0.733333
0.443137 0.000000 0.741176
0.742156 0.000000 0.745098
1.000000 0.000000 0.745098
0.007843 0.099020 0.795098
0.096078 0.080392 0.800000
0.447059 0.018627 0.805882
0.745098 0.000000 0.814706
1.000000 0.000000 0.814706
0.000000 0.488235 0.856863
0.016667 0.465686 0.860785
0.433334 0.427451 0.868627
0.739216 0.376471 0.874510
1.000000 0.317647 0.878431
0.000000 0.790196 0.921569
0.000000 0.778432 0.925490
0.377451 0.750981 0.930392
0.715687 0.711765 0.937255
1.000000 0.664706 0.942157
0.000000 1.000000 0.984314
0.000000 1.000000 0.988235
0.309804 1.000000 0.992157
0.681372 1.000000 0.996078
1.000000 1.000000 1.000000
