Color/Fuji/Fuji Astia 100 Generic 65x.cube
TITLE "Fuji Astia 100 Generic"
LUT_3D_SIZE 5
DOMAIN_MIN 0.000000 0.000000 0.000000
DOMAIN_MAX 1.000000 1.000000 1.000000
0.000000 0.000000 0.000000
0.209804 0.000000 0.000000
0.501961 0.000000 0.000000
0.774510 0.000000 0.000000
1.000000 0.000000 0.000000
0.079411 0.217647 0.023529
0.214706 0.217647 0.019608
0.509804 0.213725 0.012745
0.774510 0.209804 0.003922
1.000000 0.209804 0.000000
0.000000 0.513726 0.074510
0.213725 0.513726 0.070588
0.509804 0.509804 0.060784
0.770588 0.509804 0.050980
0.996078 0.505883 0.041177
0.034314 0.770588 0.070588
0.232353 0.770588 0.069608
0.509804 0.769607 0.065687
0.765686 0.766667 0.058824
0.988235 0.765686 0.053921
0.137255 1.000000 0.074510
0.297059 1.000000 0.070588
0.529411 1.000000 0.058824
0.757843 1.000000 0.039216
1.000000 1.000000 0.007843
0.000000 0.000000 0.209804
0.209804 0.000000 0.199020
0.501961 0.000000 0.186274
0.774510 0.000000 0.170588
1.000000 0.000000 0.158823
0.079411 0.217647 0.221568
0.217647 0.214706 0.214706
0.509804 0.213725 0.201961
0.774510 0.209804 0.190196
1.000000 0.209804 0.178431
0.000000 0.513726 0.233333
0.216667 0.509804 0.229412
0.509804 0.509804 0.217647
0.770588 0.505883 0.205882
0.996078 0.505883 0.193137
0.034314 0.770588 0.251961
0.230392 0.769607 0.248039
0.509804 0.766667 0.237255
0.765686 0.766667 0.225490
0.988235 0.765686 0.213725
0.137255 1.000000 0.280392
0.296078 1.000000 0.276470
0.529411 1.000000 0.268627
0.757843 1.000000 0.260784
1.000000 1.000000 0.245098
0.000000 0.000000 0.501961
0.209804 0.000000 0.490197
0.501961 0.000000 0.476471
0.773529 0.000000 0.462745
1.000000 0.000000 0.450981
0.083334 0.214706 0.509804
0.217647 0.213725 0.505883
0.509804 0.213725 0.491177
0.774510 0.209804 0.478432
1.000000 0.205882 0.470588
0.000000 0.509804 0.521568
0.216667 0.509804 0.517648
0.509804 0.509804 0.509804
0.770588 0.505883 0.498039
0.996078 0.505883 0.486274
0.035294 0.769607 0.533334
0.232353 0.768627 0.529411
0.509804 0.766667 0.521568
0.762745 0.765686 0.513726
0.988235 0.762745 0.501961
0.137255 1.000000 0.545098
0.296078 1.000000 0.542157
0.529411 1.000000 0.537254
0.757843 1.000000 0.529411
1.000000 1.000000 0.517648
0.000000 0.000000 0.754902
0.209804 0.000000 0.746079
0.501961 0.000000 0.731373
0.773529 0.000000 0.719608
1.000000 0.000000 0.707843
0.083334 0.213725 0.762745
0.213725 0.213725 0.758824
0.509804 0.209804 0.747059
0.774510 0.209804 0.735294
1.000000 0.205882 0.723530
0.000000 0.509804 0.774510
0.217647 0.509804 0.770588
0.509804 0.505883 0.761764
0.770588 0.505883 0.750981
0.996078 0.501961 0.740196
0.035294 0.766667 0.782353
0.233333 0.766667 0.779412
0.509804 0.766667 0.773529
0.765686 0.762745 0.762745
0.988235 0.762745 0.754902
0.133333 1.000000 0.790196
0.293137 1.000000 0.789215
0.529411 1.000000 0.785294
0.757843 1.000000 0.777451
1.000000 1.000000 0.766667
0.000000 0.000000 0.984314
0.209804 0.000000 0.972549
0.501961 0.000000 0.960784
0.770588 0.000000 0.949020
1.000000 0.000000 0.937255
0.083333 0.213725 0.992157
0.217647 0.213725 0.988235
0.509804 0.209804 0.976471
0.774510 0.205882 0.964706
1.000000 0.205882 0.952941
0.000000 0.509804 1.000000
0.217647 0.505883 1.000000
0.509804 0.505883 0.992157
0.770588 0.501961 0.980392
0.996078 0.501961 0.972549
0.036275 0.766667 1.000000
0.236275 0.766667 1.000000
0.510784 0.765686 1.000000
0.765686 0.762745 0.996078
0.988235 0.761764 0.988235
0.133333 1.000000 1.000000
0.293137 1.000000 1.000000
0.529411 1.000000 1.000000
0.754902 1.000000 1.000000
1.000000 1.000000 1.000000
