Color/Fuji/Fuji Provia 100 Generic 65x.cube
TITLE "Fuji Provia 100 Generic"
LUT_3D_SIZE 9
DOMAIN_MIN 0.000000 0.000000 0.000000
DOMAIN_MAX 1.000000 1.000000 1.000000
0.000000 0.000000 0.000000
0.108824 0.000000 0.000000
0.229412 0.000000 0.000000
0.407353 0.000000 0.000000
0.596078 0.000000 0.000000
0.759804 0.000000 0.000000
0.916666 0.000000 0.000000
1.000000 0.000000 0.000000
1.000000 0.000000 0.000000
0.023039 0.089706 0.000000
0.089216 0.089706 0.000000
0.213725 0.093138 0.000000
0.391666 0.093628 0.000000
0.580392 0.097059 0.000000
0.741667 0.097549 0.000000
0.900000 0.100981 0.000000
1.000000 0.101471 0.000000
1.000000 0.101471 0.000000
0.049020 0.213725 0.011765
0.095588 0.213725 0.011765
0.205882 0.213725 0.011765
0.389216 0.213725 0.011765
0.570588 0.217647 0.011765
0.726960 0.217647 0.014706
0.882353 0.221568 0.014706
1.000000 0.221568 0.014706
1.000000 0.224510 0.015686
0.000000 0.377451 0.025980
0.002941 0.377451 0.025980
0.159313 0.379902 0.027451
0.368137 0.381373 0.027451
0.545098 0.381373 0.027451
0.703922 0.383823 0.027451
0.858333 0.385294 0.027451
0.982843 0.387745 0.027451
1.000000 0.387745 0.027451
0.000000 0.529411 0.039216
0.000000 0.529411 0.039216
0.085294 0.533334 0.039216
0.344608 0.533334 0.039216
0.517648 0.533334 0.039216
0.681372 0.537254 0.039216
0.829412 0.537254 0.039216
0.951961 0.537254 0.039216
1.000000 0.541176 0.039216
0.000000 0.673529 0.039216
0.000000 0.673529 0.041667
0.066177 0.673529 0.039216
0.306863 0.675980 0.041667
0.490197 0.677451 0.041667
0.657843 0.677451 0.041667
0.800490 0.677451 0.043137
0.917157 0.681372 0.043137
1.000000 0.681372 0.043137
0.000000 0.794118 0.027451
0.000000 0.797059 0.027451
0.016667 0.797059 0.027451
0.289706 0.797058 0.027451
0.480393 0.798039 0.027451
0.642157 0.798039 0.027451
0.774510 0.800981 0.027451
0.886765 0.800981 0.027451
0.992157 0.801961 0.027451
0.000000 0.890686 0.000000
0.000000 0.890686 0.000000
0.102451 0.890686 0.000000
0.330882 0.890686 0.000000
0.498530 0.891176 0.000000
0.642157 0.891176 0.000000
0.762745 0.894608 0.000000
0.867157 0.894608 0.000000
0.984314 0.894608 0.000000
0.000000 0.996078 0.000000
0.023039 0.996078 0.000000
0.164706 0.996078 0.000000
0.353922 1.000000 0.000000
0.501961 1.000000 0.000000
0.626470 1.000000 0.000000
0.738235 1.000000 0.000000
0.840196 1.000000 0.000000
0.972549 1.000000 0.000000
0.000000 0.000000 0.093628
0.112745 0.000000 0.093628
0.233333 0.000000 0.093628
0.411274 0.000000 0.093628
0.600000 0.000000 0.097059
0.763725 0.000000 0.097059
0.919608 0.000000 0.097059
1.000000 0.000000 0.097059
1.000000 0.000000 0.097059
0.026961 0.089706 0.089706
0.089706 0.089706 0.089706
0.217157 0.093138 0.089706
0.395588 0.093628 0.093138
0.584313 0.097059 0.093138
0.744117 0.097549 0.093138
0.903922 0.100981 0.093138
1.000000 0.101471 0.093628
1.000000 0.101471 0.093628
0.052941 0.213725 0.093628
0.098529 0.213725 0.093628
0.209804 0.213725 0.093628
0.391666 0.213725 0.093628
0.572549 0.217647 0.093628
0.732353 0.217647 0.093628
0.888236 0.221568 0.093628
1.000000 0.221568 0.093628
1.000000 0.224510 0.093628
0.000000 0.377451 0.089706
0.006373 0.377451 0.089706
0.163235 0.379902 0.089706
0.369608 0.381373 0.089706
0.546569 0.381373 0.089706
0.707843 0.383823 0.093628
0.860785 0.385294 0.093628
0.986765 0.387745 0.093628
1.000000 0.387745 0.093628
0.000000 0.529411 0.085785
0.000000 0.529411 0.085785
0.090686 0.533334 0.085785
0.346569 0.533334 0.085785
0.517648 0.533334 0.087745
0.681372 0.537254 0.087745
0.832353 0.537254 0.088236
0.953431 0.537254 0.089706
1.000000 0.541176 0.089706
0.000000 0.673529 0.077941
0.000000 0.673529 0.077941
0.067647 0.673529 0.077941
0.311765 0.675980 0.077941
0.492157 0.677451 0.077941
0.657843 0.677451 0.077941
0.801961 0.677451 0.077941
0.918137 0.681372 0.077941
1.000000 0.681372 0.077941
0.000000 0.794118 0.057353
0.000000 0.797058 0.057353
0.017647 0.797058 0.054902
0.292157 0.797058 0.054902
0.481863 0.798039 0.054902
0.642157 0.798039 0.054412
0.777451 0.800980 0.054412
0.886765 0.800980 0.053431
0.992157 0.801961 0.053431
0.000000 0.890686 0.006863
0.000000 0.890686 0.006863
0.103921 0.890686 0.003922
0.334804 0.890686 0.003922
0.501961 0.891176 0.002942
0.646078 0.891176 0.003432
0.765686 0.894608 0.003432
0.867647 0.894608 0.000000
0.984314 0.894608 0.003432
0.000000 0.996078 0.037745
0.026961 0.996078 0.037745
0.172549 0.996078 0.037745
0.356372 1.000000 0.037745
0.501961 1.000000 0.037745
0.630392 1.000000 0.037745
0.739216 1.000000 0.041667
0.840196 1.000000 0.041666
0.972549 1.000000 0.041667
0.000000 0.000000 0.216667
0.117157 0.000000 0.216667
0.237255 0.000000 0.216667
0.415196 0.000000 0.217647
0.602941 0.000000 0.217647
0.765196 0.000000 0.217647
0.923530 0.000000 0.217647
1.000000 0.000000 0.217647
1.000000 0.000000 0.220588
0.027451 0.089706 0.213725
0.097059 0.093138 0.213725
0.221568 0.093138 0.213725
0.399510 0.093628 0.213725
0.586275 0.097059 0.216667
0.748039 0.097549 0.216667
0.905392 0.100981 0.217647
1.000000 0.101471 0.217647
1.000000 0.101471 0.217647
0.056863 0.212745 0.213725
0.102451 0.212745 0.213725
0.213725 0.213725 0.213725
0.395588 0.213725 0.213725
0.576470 0.217647 0.213725
0.736274 0.217647 0.213725
0.892157 0.221568 0.213725
1.000000 0.221568 0.213725
1.000000 0.224510 0.216667
0.000000 0.377451 0.208824
0.006373 0.377451 0.208824
0.169608 0.379902 0.208824
0.373529 0.381373 0.209804
0.550490 0.381373 0.209804
0.711765 0.383823 0.209804
0.864706 0.385294 0.209804
0.989215 0.387745 0.209804
1.000000 0.387745 0.209804
0.000000 0.529411 0.201961
0.000000 0.529411 0.201961
0.103921 0.533334 0.201961
0.352451 0.533334 0.201961
0.521568 0.533334 0.201961
0.685294 0.537254 0.201961
0.835294 0.537254 0.204902
0.957353 0.537254 0.204902
1.000000 0.541176 0.204902
0.000000 0.673529 0.197059
0.000000 0.673529 0.197059
0.077941 0.673529 0.197059
0.317157 0.675980 0.197059
0.498039 0.677451 0.197059
0.661765 0.677451 0.197059
0.805883 0.677451 0.197059
0.922059 0.681373 0.197059
1.000000 0.681372 0.197059
0.000000 0.794118 0.193137
0.000000 0.796568 0.193137
0.033334 0.797058 0.193137
0.300490 0.797058 0.193137
0.486274 0.798039 0.193137
0.646078 0.798039 0.194117
0.781373 0.800981 0.194117
0.890686 0.800981 0.194117
0.996078 0.801961 0.194117
0.000000 0.890686 0.200981
0.000000 0.890686 0.200981
0.119608 0.890686 0.200981
0.341176 0.890686 0.200981
0.506373 0.890686 0.200981
0.650000 0.891176 0.200981
0.769607 0.894608 0.201961
0.871568 0.894608 0.201961
0.988235 0.894608 0.201961
0.000000 0.996078 0.208824
0.034804 0.996078 0.208824
0.185294 0.996078 0.208824
0.364216 1.000000 0.209804
0.508824 1.000000 0.209804
0.634314 1.000000 0.209804
0.743137 1.000000 0.209804
0.844117 1.000000 0.209804
0.976471 1.000000 0.209804
0.000000 0.000000 0.385294
0.123529 0.000000 0.385294
0.241176 0.000000 0.385294
0.419118 0.000000 0.385294
0.607843 0.000000 0.387745
0.771568 0.000000 0.387745
0.927451 0.000000 0.387745
1.000000 0.000000 0.387745
1.000000 0.000000 0.387745
0.033824 0.089706 0.383823
0.101471 0.089706 0.383823
0.225490 0.093138 0.383823
0.403431 0.093628 0.383823
0.592156 0.097059 0.384314
0.751961 0.097549 0.385294
0.911765 0.100981 0.385294
1.000000 0.101471 0.385294
1.000000 0.101471 0.385294
0.060785 0.212745 0.381373
0.106372 0.213725 0.381373
0.217647 0.213725 0.383823
0.399510 0.213725 0.383823
0.580392 0.217647 0.383823
0.740196 0.217647 0.383823
0.896079 0.221568 0.384804
1.000000 0.221568 0.385294
1.000000 0.221568 0.385294
0.000000 0.377451 0.379902
0.006863 0.377451 0.379902
0.177451 0.379902 0.379902
0.379902 0.381373 0.379902
0.556372 0.381373 0.381373
0.715687 0.383823 0.381373
0.868628 0.385294 0.381373
0.994117 0.387745 0.381373
1.000000 0.387745 0.381373
0.000000 0.529411 0.377451
0.000000 0.529411 0.377451
0.116667 0.533334 0.377451
0.360294 0.533334 0.377451
0.529411 0.533334 0.377451
0.692647 0.537254 0.379902
0.841177 0.537254 0.379902
0.961764 0.537254 0.379902
1.000000 0.541176 0.379902
0.000000 0.673529 0.375980
0.000000 0.673529 0.375980
0.087255 0.673529 0.375980
0.326471 0.673529 0.375980
0.502451 0.677451 0.375980
0.666667 0.677451 0.377451
0.809804 0.677451 0.377451
0.927451 0.681373 0.377451
1.000000 0.681372 0.377451
0.000000 0.794118 0.377451
0.000000 0.794118 0.377451
0.054902 0.797058 0.377451
0.309314 0.797058 0.377451
0.492157 0.798039 0.377451
0.652451 0.798039 0.377451
0.785294 0.800981 0.377451
0.894608 0.800981 0.377451
0.999019 0.801961 0.377451
0.000000 0.890686 0.381863
0.007353 0.890686 0.381863
0.138725 0.890686 0.383823
0.350490 0.890686 0.383823
0.513726 0.890686 0.383823
0.653922 0.891176 0.383823
0.774510 0.894608 0.383823
0.877451 0.894608 0.383823
0.992157 0.894608 0.383823
0.007843 0.996078 0.389216
0.046569 0.996078 0.387745
0.204902 0.996078 0.389216
0.372059 1.000000 0.389216
0.513726 1.000000 0.389216
0.639216 1.000000 0.389216
0.748530 1.000000 0.389216
0.851470 1.000000 0.389216
0.980392 1.000000 0.389216
0.000000 0.000000 0.545098
0.128432 0.000000 0.545098
0.245098 0.000000 0.545098
0.423039 0.000000 0.545098
0.611765 0.000000 0.545098
0.775490 0.000000 0.545098
0.932353 0.000000 0.545098
1.000000 0.000000 0.545098
1.000000 0.000000 0.547059
0.038726 0.089706 0.541176
0.108824 0.089706 0.541176
0.231372 0.093138 0.541176
0.408824 0.093628 0.541176
0.596078 0.097059 0.543138
0.757353 0.097549 0.545098
0.915686 0.100981 0.545098
1.000000 0.101471 0.545098
1.000000 0.101471 0.545098
0.067647 0.212745 0.541176
0.114215 0.212745 0.541176
0.225490 0.213725 0.541176
0.404902 0.213725 0.541176
0.586275 0.217647 0.541176
0.744117 0.217647 0.541176
0.900000 0.221568 0.541176
1.000000 0.221568 0.541177
1.000000 0.221568 0.541176
0.000000 0.377451 0.537254
0.006863 0.377451 0.537254
0.184314 0.379902 0.537254
0.385294 0.379902 0.537254
0.560785 0.381373 0.537254
0.720588 0.383823 0.537254
0.872549 0.385294 0.537254
0.996568 0.387255 0.537254
1.000000 0.387745 0.537254
0.000000 0.529411 0.533334
0.000000 0.529411 0.533334
0.129412 0.533334 0.533334
0.365686 0.533334 0.533334
0.533334 0.533334 0.533334
0.697059 0.537254 0.533334
0.845098 0.537254 0.533334
0.967647 0.537254 0.535294
1.000000 0.541176 0.537254
0.000000 0.673529 0.529411
0.000000 0.673529 0.529411
0.100000 0.673529 0.529411
0.334314 0.673529 0.529411
0.509804 0.677451 0.529411
0.673529 0.677451 0.531373
0.816176 0.677451 0.533334
0.932843 0.681372 0.533334
1.000000 0.681372 0.533334
0.000000 0.794118 0.529411
0.000000 0.794118 0.529411
0.078431 0.797058 0.529411
0.318137 0.797058 0.529411
0.500000 0.798039 0.529411
0.657843 0.798039 0.529411
0.790196 0.800981 0.529411
0.901961 0.800981 0.529411
1.000000 0.801961 0.529411
0.000000 0.890686 0.533334
0.019118 0.890686 0.533334
0.160784 0.890686 0.533334
0.360294 0.890686 0.533334
0.519608 0.890686 0.533334
0.660785 0.891176 0.533334
0.778432 0.894608 0.533334
0.882843 0.894608 0.533334
0.996078 0.894608 0.533334
0.019608 0.996078 0.533334
0.056863 0.996078 0.533334
0.220588 0.996078 0.533334
0.381373 0.996078 0.533334
0.521568 1.000000 0.533334
0.646078 1.000000 0.533334
0.753922 1.000000 0.533334
0.855392 1.000000 0.533334
0.984314 1.000000 0.533334
0.000000 0.000000 0.689216
0.132843 0.000000 0.689216
0.252941 0.000000 0.689216
0.426961 0.000000 0.689216
0.617647 0.000000 0.693137
0.779412 0.000000 0.693137
0.939216 0.000000 0.693137
1.000000 0.000000 0.693137
1.000000 0.000000 0.693137
0.042647 0.089706 0.689216
0.113235 0.089706 0.689216
0.236275 0.093138 0.689216
0.412745 0.093628 0.689216
0.598530 0.097059 0.689216
0.761274 0.097549 0.689216
0.919608 0.097549 0.689216
1.000000 0.101471 0.689216
1.000000 0.101471 0.689216
0.072549 0.211275 0.685294
0.118137 0.212745 0.685294
0.232353 0.213725 0.685294
0.408334 0.213725 0.685294
0.592156 0.217647 0.689216
0.748039 0.217647 0.689216
0.903922 0.221568 0.689216
1.000000 0.221568 0.689216
1.000000 0.221568 0.689216
0.001471 0.377451 0.681372
0.008334 0.377451 0.681372
0.191667 0.379902 0.681373
0.391666 0.379902 0.685294
0.564215 0.381373 0.685294
0.724510 0.383823 0.685294
0.876471 0.385294 0.685294
1.000000 0.385294 0.685294
1.000000 0.387745 0.685294
0.000000 0.529411 0.679412
0.000000 0.529411 0.681372
0.141177 0.531373 0.681372
0.372059 0.533334 0.681372
0.541176 0.533334 0.681372
0.700980 0.537254 0.681372
0.849020 0.537254 0.681372
0.971569 0.537254 0.681372
1.000000 0.541176 0.681372
0.000000 0.673529 0.677451
0.000000 0.673529 0.677451
0.111765 0.673529 0.677451
0.342157 0.673529 0.677451
0.514216 0.677451 0.677451
0.677451 0.677451 0.677451
0.820098 0.677451 0.677451
0.936765 0.681372 0.677451
1.000000 0.681372 0.677451
0.000000 0.794118 0.673529
0.000000 0.794118 0.673529
0.100000 0.797058 0.673529
0.328921 0.797058 0.673529
0.505883 0.798039 0.677451
0.661765 0.798039 0.677451
0.794608 0.800980 0.677451
0.906372 0.800980 0.677451
1.000000 0.801961 0.677451
0.000000 0.890686 0.677451
0.026961 0.890686 0.677451
0.178431 0.890686 0.677451
0.368627 0.890686 0.677451
0.525981 0.890686 0.677451
0.665686 0.891176 0.677451
0.785294 0.894608 0.677451
0.886765 0.894608 0.677451
1.000000 0.894608 0.677451
0.031373 0.996078 0.677451
0.071569 0.996078 0.677451
0.236275 0.996078 0.677451
0.390686 0.996078 0.677451
0.529411 1.000000 0.677451
0.650000 1.000000 0.677451
0.758824 1.000000 0.677451
0.859804 1.000000 0.677451
0.992157 1.000000 0.677451
0.003922 0.000000 0.817647
0.136765 0.000000 0.817647
0.256863 0.000000 0.817647
0.432353 0.000000 0.817647
0.621568 0.000000 0.817647
0.783333 0.000000 0.820588
0.943137 0.000000 0.820588
1.000000 0.000000 0.820588
1.000000 0.000000 0.820588
0.047059 0.089706 0.814216
0.120588 0.089706 0.816667
0.241176 0.093138 0.816667
0.419118 0.093138 0.816667
0.603921 0.097059 0.816667
0.765196 0.097549 0.817647
0.923530 0.098529 0.817647
1.000000 0.101471 0.817647
1.000000 0.101471 0.817647
0.076471 0.210784 0.813726
0.122059 0.212745 0.813726
0.237255 0.213725 0.813726
0.415196 0.213725 0.813726
0.596079 0.217647 0.813726
0.750491 0.217647 0.813726
0.907843 0.221568 0.814706
1.000000 0.221568 0.816666
1.000000 0.221568 0.816667
0.001471 0.377451 0.809804
0.008334 0.377451 0.809804
0.198529 0.379902 0.809804
0.397059 0.379902 0.809804
0.570098 0.381373 0.809804
0.727451 0.383823 0.809804
0.881863 0.385294 0.811275
1.000000 0.385294 0.812745
1.000000 0.387745 0.812745
0.000000 0.529411 0.805883
0.000000 0.529411 0.805883
0.150981 0.532353 0.805883
0.377941 0.533334 0.805883
0.545098 0.533334 0.805883
0.704902 0.537254 0.805883
0.852941 0.537254 0.805883
0.975490 0.537254 0.807843
1.000000 0.541176 0.808823
0.000000 0.673529 0.801961
0.000000 0.673529 0.801961
0.123530 0.673529 0.801961
0.347059 0.673529 0.801961
0.522059 0.677451 0.801961
0.681372 0.677451 0.801961
0.824019 0.677451 0.801961
0.940686 0.681373 0.801961
1.000000 0.681372 0.804412
0.000000 0.794118 0.798039
0.000000 0.794118 0.798039
0.118628 0.797058 0.798039
0.336764 0.797058 0.798039
0.511764 0.798039 0.798039
0.669608 0.798039 0.800980
0.800981 0.800981 0.800981
0.910294 0.800981 0.800981
1.000000 0.801961 0.800981
0.000000 0.890686 0.798039
0.034804 0.890686 0.798039
0.194117 0.890686 0.798039
0.376470 0.890686 0.798039
0.533334 0.890686 0.798039
0.669608 0.891176 0.798039
0.789215 0.894608 0.798039
0.890686 0.894608 0.798039
1.000000 0.894608 0.798039
0.039216 0.996078 0.797058
0.089216 0.996078 0.797058
0.248039 0.996078 0.797058
0.398039 0.996078 0.797058
0.533334 1.000000 0.797058
0.656373 1.000000 0.797058
0.762745 1.000000 0.797058
0.863725 1.000000 0.797058
0.996078 1.000000 0.797058
0.007843 0.000000 0.914705
0.140686 0.000000 0.914706
0.260784 0.000000 0.918137
0.436275 0.000000 0.918137
0.624020 0.000000 0.918137
0.787255 0.000000 0.918137
0.943137 0.000000 0.918137
1.000000 0.000000 0.918137
1.000000 0.000000 0.918627
0.050490 0.089706 0.914215
0.124510 0.089706 0.914215
0.245098 0.093138 0.914215
0.420588 0.093628 0.914215
0.607843 0.097059 0.914215
0.765686 0.097549 0.914705
0.927451 0.100981 0.914706
1.000000 0.100981 0.915196
1.000000 0.101471 0.918137
0.080392 0.209804 0.910294
0.125980 0.209804 0.910784
0.241176 0.213725 0.910784
0.416667 0.213725 0.910784
0.595588 0.217647 0.914215
0.755882 0.217647 0.914215
0.911765 0.220588 0.914215
1.000000 0.221568 0.914215
1.000000 0.221568 0.914215
0.001471 0.377451 0.906372
0.012255 0.377451 0.906372
0.201961 0.377451 0.906862
0.400981 0.379902 0.906862
0.572059 0.381373 0.908333
0.732353 0.383823 0.910294
0.884314 0.385294 0.910294
1.000000 0.385294 0.910294
1.000000 0.387745 0.910294
0.000000 0.529412 0.902451
0.000000 0.529412 0.902451
0.160784 0.529411 0.902451
0.381373 0.533334 0.902941
0.549019 0.533334 0.902941
0.708824 0.537254 0.904902
0.856863 0.537254 0.906372
0.977451 0.537254 0.906372
1.000000 0.537254 0.906372
0.000000 0.673529 0.898529
0.000000 0.673529 0.898529
0.134313 0.673529 0.898529
0.354902 0.673529 0.898529
0.525981 0.677451 0.898529
0.685294 0.677451 0.899019
0.827941 0.677451 0.899019
0.944608 0.681372 0.899019
1.000000 0.681372 0.901471
0.000000 0.794118 0.894608
0.000000 0.794118 0.894608
0.131372 0.797058 0.894608
0.342647 0.797058 0.894608
0.514706 0.797059 0.894608
0.674019 0.798039 0.895098
0.804902 0.800981 0.895098
0.913725 0.800981 0.895098
1.000000 0.801961 0.898039
0.003922 0.890686 0.894608
0.042647 0.890686 0.894608
0.205882 0.890686 0.894608
0.381863 0.890686 0.894608
0.537254 0.890686 0.894608
0.673529 0.891176 0.894608
0.793137 0.894608 0.894608
0.894608 0.894608 0.894608
1.000000 0.894608 0.894608
0.047059 0.996078 0.890686
0.101471 0.996078 0.890686
0.257353 0.996078 0.890686
0.404902 0.996078 0.890686
0.541177 1.000000 0.890686
0.660294 1.000000 0.890686
0.766667 1.000000 0.890686
0.867647 1.000000 0.890686
0.996568 1.000000 0.890686
0.003922 0.000000 1.000000
0.144118 0.000000 1.000000
0.264706 0.000000 1.000000
0.438725 0.000000 1.000000
0.627451 0.000000 1.000000
0.791176 0.000000 1.000000
0.947059 0.000000 1.000000
1.000000 0.000000 1.000000
1.000000 0.000000 1.000000
0.054412 0.089706 1.000000
0.128432 0.089706 1.000000
0.249019 0.089706 1.000000
0.424510 0.093138 1.000000
0.611764 0.097059 1.000000
0.771568 0.097549 1.000000
0.927941 0.100981 1.000000
1.000000 0.100981 1.000000
1.000000 0.101471 1.000000
0.087255 0.209804 1.000000
0.129902 0.209804 1.000000
0.245098 0.213725 1.000000
0.420098 0.213725 1.000000
0.599020 0.217647 1.000000
0.759804 0.217647 1.000000
0.915686 0.220588 1.000000
1.000000 0.221568 1.000000
1.000000 0.221568 1.000000
0.002941 0.377451 1.000000
0.015687 0.377451 1.000000
0.210295 0.377451 1.000000
0.404902 0.379902 1.000000
0.575980 0.381373 1.000000
0.736274 0.383823 1.000000
0.888236 0.385294 1.000000
1.000000 0.385294 1.000000
1.000000 0.387745 1.000000
0.000000 0.529411 1.000000
0.000000 0.529411 1.000000
0.168627 0.529412 1.000000
0.387745 0.533334 1.000000
0.552941 0.533334 1.000000
0.712745 0.534804 1.000000
0.860785 0.537254 1.000000
0.979412 0.537254 1.000000
1.000000 0.537254 1.000000
0.000000 0.673529 1.000000
0.000000 0.673529 1.000000
0.142156 0.673529 1.000000
0.360294 0.673529 1.000000
0.529411 0.677451 1.000000
0.689216 0.677451 1.000000
0.831863 0.677451 1.000000
0.949510 0.681372 1.000000
1.000000 0.681372 1.000000
0.000000 0.794118 1.000000
0.000000 0.794118 1.000000
0.141177 0.794118 1.000000
0.347058 0.797058 1.000000
0.521568 0.797058 1.000000
0.677451 0.798039 1.000000
0.808823 0.800981 1.000000
0.918137 0.800981 1.000000
1.000000 0.801961 1.000000
0.011765 0.890686 1.000000
0.050490 0.890686 1.000000
0.217647 0.890686 1.000000
0.389706 0.890686 1.000000
0.541667 0.890686 1.000000
0.676471 0.891176 1.000000
0.797059 0.894608 1.000000
0.898529 0.894608 1.000000
1.000000 0.894608 1.000000
0.054902 0.996078 1.000000
0.116667 0.996078 1.000000
0.268627 0.996078 1.000000
0.412745 0.996078 1.000000
0.545098 1.000000 1.000000
0.665686 1.000000 1.000000
0.770588 1.000000 1.000000
0.871568 1.000000 1.000000
1.000000 1.000000 1.000000
