Color/Fuji/Fuji Superia X-Tra 800 65x.cube
TITLE "Fuji Superia X-Tra 800"
LUT_3D_SIZE 5
DOMAIN_MIN 0.000000 0.000000 0.000000
DOMAIN_MAX 1.000000 1.000000 1.000000
0.000000 0.000000 0.000000
0.252941 0.000000 0.000000
0.472549 0.000000 0.000000
0.703922 0.000000 0.027451
0.886275 0.000000 0.129412
0.121569 0.257844 0.098039
0.292157 0.246078 0.085295
0.505883 0.207843 0.093137
0.727451 0.110784 0.097059
0.894118 0.000000 0.125490
0.256863 0.496078 0.115686
0.373529 0.492157 0.117647
0.578431 0.474510 0.143137
0.781373 0.431373 0.212745
0.949020 0.319608 0.286274
0.345098 0.714706 0.126470
0.465687 0.714706 0.101961
0.725490 0.711765 0.042156
0.900000 0.696079 0.116667
1.000000 0.649020 0.376471
0.156863 0.952941 0.250980
0.374510 0.952941 0.211765
0.692157 0.956863 0.090196
0.997059 0.956863 0.000000
1.000000 0.949020 0.000000
0.000000 0.000000 0.191176
0.221568 0.000000 0.148039
0.441176 0.000000 0.136274
0.675490 0.000000 0.150000
0.874510 0.000000 0.196078
0.104902 0.265686 0.268627
0.253922 0.252941 0.252941
0.478432 0.217647 0.230393
0.703922 0.122549 0.204902
0.882353 0.000000 0.180392
0.191176 0.500000 0.276470
0.315686 0.494117 0.282353
0.533334 0.478432 0.296078
0.750000 0.439215 0.318628
0.937255 0.327451 0.346079
0.414706 0.719608 0.109804
0.519608 0.719608 0.091176
0.691176 0.714706 0.136274
0.838235 0.696079 0.300000
0.996078 0.652941 0.450000
0.289216 0.959804 0.232353
0.444118 0.960784 0.193137
0.728431 0.964706 0.072549
1.000000 0.964706 0.000000
1.000000 0.949020 0.000000
0.000000 0.003922 0.343137
0.217647 0.000000 0.276470
0.429412 0.000000 0.252941
0.658824 0.000000 0.241177
0.866667 0.000000 0.252941
0.104902 0.276470 0.440196
0.230393 0.264706 0.420588
0.456863 0.229412 0.382353
0.679412 0.138235 0.326471
0.870588 0.000000 0.250980
0.066667 0.505883 0.513726
0.245098 0.501961 0.505883
0.486274 0.486274 0.486274
0.707843 0.448039 0.470588
0.919608 0.339216 0.435295
0.254902 0.719608 0.485294
0.363725 0.718628 0.489216
0.563725 0.711765 0.498039
0.752941 0.699019 0.531372
0.967647 0.656863 0.565686
0.474510 0.972549 0.190196
0.576470 0.974510 0.154902
0.800000 0.976471 0.027451
1.000000 0.978432 0.000000
1.000000 0.952941 0.466666
0.011765 0.015686 0.487255
0.238236 0.000000 0.424509
0.435295 0.000000 0.368627
0.648039 0.000000 0.338235
0.857843 0.000000 0.329412
0.119608 0.293137 0.603922
0.250000 0.281373 0.577451
0.462745 0.250980 0.525490
0.667647 0.162745 0.450980
0.858824 0.000000 0.338235
0.103922 0.517648 0.697059
0.254902 0.513726 0.683334
0.478432 0.500980 0.646078
0.687255 0.462745 0.605882
0.901961 0.356863 0.540196
0.178432 0.723530 0.750981
0.305882 0.722549 0.742156
0.505883 0.718628 0.722549
0.703922 0.703922 0.703922
0.937255 0.664706 0.684314
0.474509 0.984314 0.469608
0.529412 0.984314 0.484313
0.654902 0.984314 0.530392
0.807843 0.980392 0.615687
1.000000 0.964706 0.718628
0.121569 0.054902 0.600000
0.308824 0.019608 0.541176
0.468627 0.000000 0.476471
0.645098 0.000000 0.439216
0.847059 0.000000 0.411765
0.231373 0.319608 0.720588
0.332353 0.308824 0.698039
0.499020 0.280392 0.651960
0.667647 0.203922 0.585294
0.850980 0.000000 0.442157
0.278431 0.537254 0.827451
0.355882 0.535294 0.814706
0.507843 0.521568 0.786274
0.683334 0.486274 0.744117
0.890196 0.384313 0.660784
0.321569 0.734314 0.921569
0.381373 0.734313 0.914705
0.519608 0.727451 0.898039
0.695098 0.715687 0.867647
0.917647 0.676471 0.824510
0.258824 0.988235 1.000000
0.328431 0.992157 1.000000
0.484314 0.992157 1.000000
0.684314 0.996078 0.996078
1.000000 0.992157 0.992157
