Color/Fuji/Fuji Velvia 100 Generic 65x.cube
TITLE "Fuji Velvia 100 Generic"
LUT_3D_SIZE 5
DOMAIN_MIN 0.000000 0.000000 0.000000
DOMAIN_MAX 1.000000 1.000000 1.000000
0.000000 0.000000 0.000000
0.191176 0.000000 0.000000
0.554902 0.000000 0.000000
0.923530 0.000000 0.000000
1.000000 0.000000 0.000000
0.044117 0.200981 0.003922
0.175490 0.197059 0.003922
0.547059 0.186274 0.003922
0.903922 0.174510 0.000000
1.000000 0.165686 0.000000
0.000000 0.570588 0.007843
0.000000 0.568628 0.007843
0.494117 0.558824 0.007843
0.852941 0.550981 0.007843
1.000000 0.543138 0.003922
0.000000 0.899020 0.000000
0.000000 0.896079 0.000000
0.398039 0.891177 0.000000
0.781373 0.884314 0.000000
1.000000 0.876471 0.000000
0.003922 1.000000 0.000000
0.204902 1.000000 0.000000
0.545098 1.000000 0.000000
0.808823 1.000000 0.000000
0.984314 1.000000 0.000000
0.000000 0.000000 0.194117
0.195098 0.000000 0.193137
0.558824 0.000000 0.189216
0.927451 0.000000 0.182353
1.000000 0.000000 0.181373
0.057844 0.186274 0.182353
0.182353 0.182353 0.182353
0.550980 0.170588 0.178431
0.907843 0.158823 0.174510
1.000000 0.150980 0.170588
0.000000 0.558824 0.145098
0.000000 0.555882 0.145098
0.501961 0.547059 0.143137
0.857843 0.538235 0.141176
1.000000 0.531373 0.139215
0.000000 0.888236 0.027451
0.000000 0.884314 0.027451
0.414706 0.880392 0.024510
0.789215 0.872549 0.024510
1.000000 0.865686 0.032353
0.007843 1.000000 0.094118
0.216667 1.000000 0.091177
0.549019 1.000000 0.090196
0.812745 1.000000 0.085294
0.984314 1.000000 0.082353
0.000000 0.000000 0.558824
0.201961 0.000000 0.556863
0.566666 0.000000 0.552941
0.932353 0.000000 0.549019
1.000000 0.000000 0.545098
0.061765 0.154902 0.547059
0.198039 0.150980 0.545098
0.558824 0.139215 0.541176
0.914706 0.128432 0.537254
1.000000 0.119608 0.535294
0.000000 0.531373 0.525490
0.000000 0.529411 0.523529
0.521568 0.521568 0.521568
0.868628 0.511764 0.517648
1.000000 0.503922 0.513726
0.000000 0.860785 0.500000
0.000000 0.860785 0.500000
0.449019 0.852941 0.498039
0.805883 0.847059 0.495098
1.000000 0.841177 0.492157
0.023529 1.000000 0.501961
0.236275 1.000000 0.501961
0.558824 1.000000 0.500000
0.817647 1.000000 0.496078
0.992157 1.000000 0.496078
0.000000 0.000000 0.888236
0.209804 0.000000 0.884314
0.570588 0.000000 0.880392
0.939216 0.000000 0.876471
1.000000 0.000000 0.872549
0.066667 0.125490 0.872549
0.213725 0.121568 0.872549
0.566666 0.110784 0.868628
0.920588 0.098039 0.864706
1.000000 0.088235 0.860785
0.000000 0.505883 0.852941
0.056863 0.501961 0.849020
0.537254 0.494117 0.849020
0.880392 0.484314 0.845098
1.000000 0.476471 0.841177
0.000000 0.837255 0.828432
0.000000 0.836274 0.825490
0.480393 0.829412 0.825490
0.821569 0.821569 0.821569
1.000000 0.817647 0.821569
0.039216 1.000000 0.817647
0.252941 1.000000 0.817647
0.568628 1.000000 0.817647
0.824510 1.000000 0.813726
1.000000 1.000000 0.813726
0.000000 0.000000 1.000000
0.213725 0.000000 1.000000
0.574510 0.000000 1.000000
0.943137 0.000000 1.000000
1.000000 0.000000 1.000000
0.073529 0.106863 1.000000
0.221568 0.102941 1.000000
0.572549 0.091177 1.000000
0.924510 0.079412 1.000000
1.000000 0.068627 1.000000
0.000000 0.488235 1.000000
0.109803 0.484314 1.000000
0.547059 0.476471 1.000000
0.888236 0.468628 1.000000
1.000000 0.460784 1.000000
0.000000 0.821569 1.000000
0.000000 0.821569 1.000000
0.496078 0.813726 1.000000
0.833334 0.805883 1.000000
1.000000 0.801961 1.000000
0.047059 1.000000 1.000000
0.264706 1.000000 1.000000
0.572549 1.000000 1.000000
0.828432 1.000000 1.000000
1.000000 1.000000 1.000000
