Color/Fuji/Fuji Provia 100F 65x.cube
TITLE "Fuji Provia 100F"
LUT_3D_SIZE 9
DOMAIN_MIN 0.000000 0.000000 0.000000
DOMAIN_MAX 1.000000 1.000000 1.000000
0.000000 0.000000 0.000000
0.104902 0.000000 0.000000
0.229412 0.000000 0.000000
0.361765 0.000000 0.000000
0.501961 0.000000 0.000000
0.661765 0.000000 0.000000
0.830392 0.000000 0.000000
0.996568 0.000000 0.000000
1.000000 0.000000 0.000000
0.050490 0.120588 0.034804
0.124510 0.116667 0.027451
0.245098 0.112745 0.024019
0.373529 0.106372 0.019118
0.513725 0.097059 0.011275
0.669608 0.085295 0.005883
0.841177 0.072549 0.000000
1.000000 0.053431 0.000000
1.000000 0.023039 0.000000
0.097059 0.241176 0.104902
0.148530 0.241176 0.100981
0.252941 0.237255 0.097059
0.381863 0.233333 0.089706
0.515686 0.226470 0.075491
0.673529 0.217647 0.057844
0.841177 0.205882 0.037255
1.000000 0.188725 0.014216
1.000000 0.154902 0.000000
0.096569 0.369608 0.171078
0.159804 0.369608 0.171078
0.264216 0.365686 0.167157
0.389216 0.365686 0.159314
0.523529 0.361765 0.147549
0.682843 0.353922 0.131863
0.847549 0.346078 0.105882
1.000000 0.334314 0.076471
1.000000 0.310785 0.029902
0.117647 0.511764 0.247058
0.179902 0.511764 0.245098
0.281373 0.511764 0.241177
0.398529 0.509804 0.232843
0.539215 0.507844 0.221569
0.694608 0.503922 0.205882
0.850000 0.498039 0.178431
1.000000 0.490197 0.150491
1.000000 0.476471 0.103921
0.149020 0.669608 0.326961
0.197059 0.669608 0.326961
0.290687 0.669608 0.323039
0.416667 0.667157 0.319118
0.560785 0.665686 0.307353
0.708824 0.665686 0.291667
0.853921 0.661765 0.272549
1.000000 0.653922 0.236765
1.000000 0.646078 0.179412
0.213726 0.813726 0.409804
0.259313 0.813726 0.408824
0.348039 0.813726 0.405883
0.464706 0.813726 0.400981
0.593137 0.813726 0.393137
0.725490 0.813726 0.381373
0.864706 0.809804 0.361764
1.000000 0.806863 0.334313
1.000000 0.801961 0.284314
0.353921 0.957353 0.502451
0.377941 0.957353 0.502451
0.443137 0.957353 0.498529
0.532353 0.957843 0.494608
0.635785 0.957843 0.487255
0.755882 0.957843 0.478921
0.888236 0.957843 0.462745
1.000000 0.957843 0.439706
1.000000 0.953921 0.397058
0.600000 1.000000 0.619608
0.611765 1.000000 0.619608
0.646079 1.000000 0.615686
0.700490 1.000000 0.611765
0.774510 1.000000 0.607843
0.864216 1.000000 0.602451
0.965686 1.000000 0.591176
1.000000 1.000000 0.572549
1.000000 1.000000 0.533333
0.000000 0.000000 0.034804
0.077941 0.000000 0.027451
0.205882 0.000000 0.023529
0.338725 0.000000 0.019118
0.486274 0.000000 0.011765
0.650000 0.000000 0.003922
0.825490 0.000000 0.000000
0.996568 0.000000 0.000000
1.000000 0.000000 0.000000
0.027451 0.104902 0.104902
0.100981 0.100981 0.100981
0.225490 0.097059 0.093628
0.353922 0.093138 0.085294
0.494117 0.083334 0.071569
0.655392 0.073530 0.052451
0.829412 0.057843 0.026961
0.996568 0.038726 0.006863
1.000000 0.015196 0.000000
0.082353 0.233333 0.160294
0.136765 0.229902 0.159313
0.237255 0.226470 0.152451
0.365686 0.223039 0.144608
0.501961 0.217647 0.132843
0.663235 0.208334 0.113235
0.832843 0.194607 0.088725
0.996568 0.175000 0.052941
1.000000 0.143137 0.010784
0.069118 0.362255 0.217647
0.139215 0.361765 0.214216
0.252451 0.361765 0.210294
0.377451 0.357843 0.203432
0.513726 0.353922 0.191667
0.673529 0.350000 0.175000
0.837255 0.338725 0.151471
1.000000 0.326471 0.119118
1.000000 0.305882 0.068627
0.090196 0.509804 0.283824
0.162745 0.509804 0.280392
0.269118 0.507844 0.276470
0.389216 0.505883 0.272059
0.531373 0.503922 0.260294
0.687255 0.500000 0.244608
0.843627 0.494117 0.222549
1.000000 0.484804 0.189706
1.000000 0.470588 0.142647
0.130882 0.665686 0.357843
0.177941 0.665686 0.357843
0.280392 0.665686 0.353922
0.406863 0.665686 0.350000
0.552941 0.663235 0.338725
0.700980 0.661765 0.326471
0.849020 0.657843 0.306863
1.000000 0.651961 0.276961
1.000000 0.642157 0.225980
0.198039 0.813726 0.435784
0.244608 0.813726 0.435784
0.337255 0.813726 0.432353
0.456863 0.813726 0.427941
0.588236 0.810784 0.420098
0.720588 0.809804 0.408824
0.860785 0.809804 0.392647
1.000000 0.805883 0.366177
1.000000 0.799019 0.322059
0.342647 0.953921 0.522549
0.373039 0.954412 0.522549
0.435294 0.957353 0.521569
0.525000 0.957353 0.517647
0.629902 0.957353 0.510294
0.748529 0.957353 0.501961
0.880882 0.957353 0.486765
1.000000 0.953921 0.466667
1.000000 0.953921 0.424509
0.592647 1.000000 0.638726
0.607843 1.000000 0.635294
0.639216 1.000000 0.635294
0.693137 1.000000 0.631373
0.768628 1.000000 0.627451
0.860294 1.000000 0.621568
0.959314 1.000000 0.611765
1.000000 1.000000 0.595098
1.000000 1.000000 0.556863
0.000000 0.000000 0.108823
0.054902 0.000000 0.100981
0.183334 0.000000 0.093137
0.320098 0.000000 0.085294
0.469608 0.000000 0.073529
0.635784 0.000000 0.053921
0.813726 0.000000 0.029412
0.988725 0.000000 0.007843
1.000000 0.000000 0.000000
0.015196 0.089216 0.175000
0.081373 0.089216 0.168137
0.205882 0.082353 0.163235
0.335784 0.077451 0.155392
0.478432 0.069608 0.143627
0.640686 0.057844 0.124019
0.813726 0.043137 0.096569
0.985294 0.026470 0.060294
1.000000 0.007843 0.011275
0.070588 0.221568 0.222549
0.125000 0.218627 0.221568
0.217647 0.217647 0.217647
0.346078 0.213725 0.209804
0.486274 0.205882 0.198039
0.647549 0.195098 0.180883
0.817647 0.182353 0.158823
0.985294 0.162255 0.123529
1.000000 0.130392 0.068627
0.053922 0.353922 0.279902
0.107353 0.353922 0.276470
0.230393 0.353922 0.273039
0.357843 0.350000 0.268137
0.498039 0.346079 0.257353
0.659314 0.338235 0.240686
0.822549 0.330392 0.221078
0.986275 0.314706 0.189706
1.000000 0.291177 0.142647
0.039216 0.501961 0.342157
0.125000 0.501961 0.342157
0.246078 0.501961 0.338235
0.370588 0.500000 0.334314
0.516667 0.498039 0.322549
0.673529 0.493137 0.310785
0.829412 0.486274 0.291177
0.989215 0.477451 0.263726
1.000000 0.461765 0.216667
0.106863 0.661765 0.409314
0.148039 0.661765 0.408334
0.255392 0.661765 0.408334
0.389216 0.660785 0.401471
0.538725 0.657843 0.392647
0.689216 0.655392 0.383333
0.837255 0.652451 0.366667
0.992647 0.646078 0.341666
1.000000 0.635784 0.300000
0.162745 0.809804 0.482353
0.214216 0.809804 0.482353
0.314706 0.809804 0.479411
0.441176 0.809804 0.474510
0.573529 0.806863 0.469608
0.708824 0.805883 0.458824
0.849020 0.805883 0.447059
1.000000 0.801961 0.423529
1.000000 0.794118 0.388235
0.319118 0.953431 0.569608
0.350000 0.953431 0.568137
0.415686 0.953431 0.568137
0.508823 0.953431 0.564216
0.616177 0.953431 0.557843
0.736274 0.953431 0.550000
0.869118 0.953431 0.537255
1.000000 0.950000 0.517157
1.000000 0.950000 0.482353
0.580392 1.000000 0.674510
0.596078 1.000000 0.674510
0.627451 1.000000 0.673530
0.681863 1.000000 0.670588
0.758823 1.000000 0.666667
0.848529 1.000000 0.661765
0.950000 1.000000 0.653921
1.000000 1.000000 0.638236
1.000000 1.000000 0.603922
0.000000 0.000000 0.178922
0.030883 0.000000 0.171569
0.158823 0.000000 0.167157
0.299020 0.000000 0.159314
0.450490 0.000000 0.151471
0.617647 0.000000 0.134314
0.796569 0.000000 0.112255
0.973529 0.000000 0.080392
1.000000 0.000000 0.029902
0.003922 0.075000 0.241667
0.057843 0.073530 0.237745
0.182353 0.066177 0.233333
0.314706 0.061765 0.225980
0.458823 0.051961 0.217647
0.622549 0.039706 0.200490
0.796569 0.026961 0.178431
0.967647 0.011765 0.147059
1.000000 0.000000 0.096078
0.059804 0.205882 0.292647
0.109314 0.205882 0.291667
0.194117 0.201961 0.287745
0.326471 0.198039 0.279902
0.467157 0.190196 0.272059
0.630392 0.178431 0.256373
0.800490 0.165686 0.236765
0.969607 0.143137 0.208824
1.000000 0.107843 0.160784
0.050980 0.342157 0.346078
0.071569 0.342157 0.346078
0.203432 0.342157 0.342157
0.338235 0.338235 0.338235
0.481863 0.334314 0.330392
0.642157 0.326471 0.317157
0.805883 0.314706 0.299020
0.970098 0.299020 0.275000
1.000000 0.275490 0.232353
0.033334 0.494117 0.408334
0.079902 0.494117 0.406373
0.215196 0.493627 0.404412
0.350000 0.490197 0.400490
0.498039 0.486274 0.392647
0.657353 0.482353 0.380883
0.813726 0.475490 0.368137
0.974020 0.466176 0.345588
1.000000 0.449020 0.308824
0.049019 0.653922 0.474510
0.108333 0.653922 0.474510
0.220588 0.653922 0.474019
0.365686 0.652941 0.470588
0.519118 0.650000 0.462745
0.669608 0.646078 0.454902
0.820098 0.642157 0.439216
0.980392 0.637255 0.419608
1.000000 0.625490 0.388235
0.104412 0.801961 0.548530
0.162255 0.801961 0.548530
0.278921 0.801961 0.548530
0.413725 0.801961 0.544608
0.551471 0.801961 0.537745
0.689216 0.798039 0.529902
0.829412 0.798039 0.517157
0.986765 0.794118 0.501471
1.000000 0.786275 0.468627
0.277941 0.946078 0.632353
0.314216 0.946078 0.630883
0.386275 0.946078 0.630392
0.485294 0.946078 0.626470
0.594608 0.946078 0.622549
0.717157 0.946078 0.617647
0.852941 0.946078 0.606863
0.992647 0.946078 0.591176
1.000000 0.942156 0.559804
0.564706 1.000000 0.724020
0.576471 1.000000 0.724020
0.611765 1.000000 0.724020
0.666667 1.000000 0.721569
0.743137 1.000000 0.720098
0.835784 1.000000 0.713726
0.935294 1.000000 0.707353
1.000000 1.000000 0.694118
1.000000 1.000000 0.665196
0.000000 0.000000 0.254902
0.011275 0.000000 0.249020
0.129412 0.000000 0.245098
0.273529 0.000000 0.241177
0.427451 0.000000 0.233333
0.595098 0.000000 0.218137
0.775490 0.000000 0.201961
0.952451 0.000000 0.177941
1.000000 0.000000 0.135294
0.000000 0.053922 0.315196
0.032353 0.050000 0.311765
0.154902 0.046079 0.308333
0.291177 0.040196 0.303431
0.435295 0.030883 0.295588
0.601961 0.021078 0.280392
0.774510 0.011275 0.264216
0.946569 0.003432 0.236765
1.000000 0.000000 0.196078
0.043137 0.188235 0.365686
0.088725 0.186274 0.364706
0.170588 0.182353 0.361765
0.302941 0.178431 0.356863
0.447059 0.168627 0.350000
0.610294 0.158823 0.338235
0.778432 0.142157 0.322549
0.948530 0.117647 0.298530
1.000000 0.078431 0.259804
0.041667 0.327941 0.420098
0.063725 0.326471 0.420098
0.170588 0.326471 0.419608
0.311275 0.322549 0.415686
0.458823 0.315196 0.408334
0.620588 0.307353 0.396569
0.786275 0.297059 0.384804
0.950491 0.279902 0.364706
1.000000 0.252451 0.329902
0.027451 0.482353 0.486274
0.064706 0.480393 0.484314
0.172549 0.478432 0.482353
0.319118 0.478432 0.478432
0.474510 0.474510 0.474510
0.634314 0.467157 0.464706
0.794118 0.460784 0.451961
0.956373 0.450981 0.435295
1.000000 0.431373 0.403922
0.000000 0.642157 0.554412
0.020588 0.642157 0.554412
0.168627 0.642157 0.552451
0.330882 0.642157 0.548529
0.491667 0.638235 0.544608
0.646078 0.634314 0.536764
0.798039 0.630392 0.525000
0.961274 0.622549 0.509314
1.000000 0.610784 0.479902
0.009804 0.794118 0.626470
0.081863 0.794118 0.626470
0.228432 0.794118 0.622549
0.380392 0.794118 0.622549
0.524510 0.791176 0.615686
0.665686 0.790196 0.610784
0.809804 0.786275 0.599019
0.969607 0.782353 0.584804
1.000000 0.774510 0.557843
0.223529 0.941666 0.700490
0.266176 0.941666 0.700490
0.349020 0.941666 0.696569
0.454412 0.941666 0.696569
0.569118 0.941666 0.692647
0.695588 0.941666 0.688726
0.833824 0.941176 0.680392
0.975490 0.938235 0.665196
1.000000 0.934313 0.641667
0.541176 1.000000 0.782353
0.556863 1.000000 0.782353
0.591176 1.000000 0.782353
0.647549 1.000000 0.778431
0.723529 1.000000 0.778431
0.818627 1.000000 0.774510
0.918627 1.000000 0.766667
1.000000 1.000000 0.758333
1.000000 1.000000 0.735294
0.000000 0.000000 0.334804
0.000000 0.000000 0.330882
0.094608 0.000000 0.330882
0.242647 0.000000 0.326961
0.400000 0.000000 0.319118
0.571569 0.000000 0.308824
0.750981 0.000000 0.295588
0.929412 0.000000 0.276961
1.000000 0.000000 0.246078
0.000000 0.026961 0.393137
0.007843 0.023039 0.393137
0.119608 0.021078 0.389216
0.258333 0.015196 0.385294
0.407844 0.011275 0.377451
0.575490 0.003922 0.367647
0.750490 0.000000 0.353922
0.922549 0.000000 0.334314
1.000000 0.000000 0.299020
0.013235 0.162745 0.447549
0.051961 0.159313 0.447549
0.137745 0.155883 0.443628
0.271569 0.149510 0.439706
0.419607 0.141667 0.434314
0.583333 0.128922 0.424019
0.754902 0.110784 0.412255
0.925490 0.083824 0.389706
1.000000 0.042647 0.357353
0.031373 0.306863 0.505882
0.054902 0.305392 0.505882
0.129902 0.302941 0.504902
0.279412 0.299020 0.501961
0.431372 0.294118 0.494118
0.595098 0.284314 0.486275
0.762745 0.271569 0.474510
0.929412 0.252941 0.457843
1.000000 0.224510 0.428921
0.006373 0.463236 0.569608
0.041176 0.462745 0.568137
0.124510 0.462746 0.568137
0.283334 0.458333 0.564215
0.443628 0.454902 0.560294
0.610784 0.450981 0.552451
0.770098 0.443137 0.544608
0.934313 0.428921 0.528921
1.000000 0.409804 0.501470
0.000000 0.630392 0.634314
0.000000 0.630392 0.634314
0.092647 0.630392 0.634314
0.292157 0.626470 0.630392
0.462746 0.626470 0.626470
0.622549 0.622549 0.622549
0.774510 0.615196 0.612255
0.938726 0.606863 0.599019
1.000000 0.595098 0.575490
0.000000 0.783333 0.700490
0.000000 0.783333 0.700490
0.158333 0.782353 0.700490
0.340196 0.782353 0.696569
0.494117 0.782353 0.692647
0.638235 0.778432 0.688726
0.786275 0.777942 0.680882
0.949020 0.770588 0.669118
1.000000 0.762745 0.649510
0.149510 0.934313 0.770588
0.200000 0.934313 0.770588
0.300980 0.934313 0.766667
0.419118 0.934313 0.766667
0.540686 0.934313 0.762745
0.670098 0.934313 0.758824
0.813235 0.933823 0.754902
0.956373 0.930392 0.743137
1.000000 0.926470 0.723530
0.512255 1.000000 0.844608
0.527451 1.000000 0.844608
0.563725 1.000000 0.844608
0.622059 1.000000 0.844608
0.703921 1.000000 0.842647
0.797549 1.000000 0.840686
0.899019 1.000000 0.835784
0.984804 1.000000 0.828432
1.000000 1.000000 0.809314
0.000000 0.000000 0.424509
0.000000 0.000000 0.421569
0.048039 0.000000 0.421569
0.202451 0.000000 0.417647
0.365686 0.000000 0.412745
0.540196 0.000000 0.404902
0.723530 0.000000 0.394118
0.902451 0.000000 0.381372
1.000000 0.000000 0.353921
0.000000 0.006373 0.482843
0.000000 0.003922 0.480392
0.075490 0.003432 0.478921
0.219118 0.002451 0.475000
0.375000 0.000000 0.468628
0.544118 0.000000 0.461765
0.719608 0.000000 0.447549
0.895098 0.000000 0.431863
1.000000 0.000000 0.404412
0.000000 0.127451 0.533333
0.014216 0.126471 0.533333
0.099020 0.122549 0.533333
0.235294 0.114706 0.529412
0.388235 0.103921 0.523530
0.552451 0.092648 0.513726
0.727451 0.070588 0.501961
0.898529 0.040686 0.486275
1.000000 0.010784 0.458824
0.027451 0.279412 0.591666
0.058334 0.278431 0.591666
0.116666 0.275490 0.591666
0.244118 0.271569 0.587745
0.400000 0.263726 0.583824
0.567647 0.255882 0.575981
0.735294 0.241667 0.564215
0.903432 0.220588 0.552451
1.000000 0.187745 0.528921
0.000000 0.443137 0.652941
0.000000 0.443137 0.650981
0.091177 0.440196 0.650000
0.244118 0.439215 0.650000
0.413726 0.432353 0.646078
0.583333 0.427451 0.638235
0.743137 0.419608 0.630392
0.910784 0.404902 0.618627
1.000000 0.384313 0.599019
0.000000 0.614706 0.716177
0.000000 0.614706 0.715687
0.030883 0.611274 0.712255
0.245588 0.610784 0.712255
0.428921 0.607353 0.708333
0.595098 0.603431 0.704412
0.750981 0.599019 0.696569
0.918137 0.588235 0.684804
1.000000 0.573039 0.669118
0.000000 0.770588 0.778432
0.000000 0.770588 0.778432
0.062745 0.770588 0.778432
0.289706 0.770588 0.774510
0.458823 0.767647 0.773529
0.610784 0.766667 0.770098
0.762745 0.762745 0.762745
0.926470 0.758824 0.754902
1.000000 0.747059 0.736274
0.031863 0.925980 0.844608
0.108823 0.925980 0.844608
0.229902 0.925980 0.844608
0.369608 0.925980 0.844608
0.505392 0.925980 0.840686
0.641667 0.925490 0.837745
0.786765 0.922549 0.832844
0.933823 0.922059 0.825000
1.000000 0.914706 0.809804
0.474510 1.000000 0.914706
0.490196 1.000000 0.914706
0.531373 1.000000 0.913725
0.593627 1.000000 0.910784
0.676470 1.000000 0.910784
0.774020 1.000000 0.910784
0.875490 1.000000 0.906862
0.961274 1.000000 0.902451
1.000000 1.000000 0.887255
0.000000 0.000000 0.518137
0.000000 0.000000 0.518137
0.006863 0.000000 0.518137
0.157353 0.000000 0.514216
0.326961 0.000000 0.510294
0.505883 0.000000 0.502941
0.692647 0.000000 0.495098
0.875490 0.000000 0.483333
1.000000 0.000000 0.463725
0.000000 0.000000 0.568627
0.000000 0.000000 0.568627
0.022549 0.000000 0.565686
0.171569 0.000000 0.561764
0.333333 0.000000 0.558824
0.506373 0.000000 0.551471
0.688726 0.000000 0.541176
0.867647 0.000000 0.525980
1.000000 0.000000 0.509804
0.000000 0.083824 0.616666
0.000000 0.079902 0.616176
0.052451 0.075980 0.615196
0.195588 0.068137 0.611275
0.350490 0.056373 0.607353
0.520588 0.042156 0.599510
0.696569 0.021078 0.589215
0.871568 0.006373 0.575981
1.000000 0.000000 0.556373
0.007843 0.244118 0.673529
0.025000 0.243628 0.673529
0.083334 0.240196 0.673529
0.204902 0.234314 0.669608
0.366176 0.226471 0.665686
0.536274 0.217157 0.659804
0.707843 0.199020 0.652941
0.879412 0.176961 0.638235
1.000000 0.140196 0.619118
0.000000 0.415686 0.734313
0.000000 0.415686 0.732353
0.008823 0.413235 0.731863
0.199020 0.409314 0.731863
0.377941 0.403922 0.727941
0.551961 0.397549 0.724020
0.716177 0.389216 0.716177
0.887255 0.374019 0.708333
1.000000 0.349019 0.689216
0.000000 0.591176 0.798039
0.000000 0.591176 0.798039
0.009314 0.591176 0.798039
0.177941 0.587255 0.794608
0.389706 0.584314 0.794118
0.563725 0.579412 0.790196
0.723530 0.572549 0.782843
0.892647 0.563725 0.774510
1.000000 0.545098 0.762745
0.000000 0.754902 0.860294
0.000000 0.754902 0.860294
0.001961 0.754902 0.860294
0.215686 0.751471 0.860294
0.417157 0.750981 0.856373
0.575980 0.747549 0.852941
0.735294 0.743627 0.848530
0.902941 0.739216 0.844608
1.000000 0.727451 0.829412
0.000000 0.914705 0.922549
0.000000 0.914706 0.922549
0.111274 0.914705 0.922059
0.305882 0.914705 0.918627
0.459314 0.914215 0.918627
0.604412 0.914215 0.918137
0.758824 0.910784 0.914706
0.910294 0.906862 0.906862
1.000000 0.902941 0.899019
0.434804 1.000000 0.968627
0.450980 1.000000 0.968627
0.493138 1.000000 0.968627
0.561275 1.000000 0.968627
0.649019 1.000000 0.965196
0.751471 1.000000 0.965196
0.856373 1.000000 0.964706
0.941666 1.000000 0.961274
1.000000 1.000000 0.953431
0.000000 0.000000 0.607843
0.000000 0.000000 0.607843
0.000000 0.000000 0.607843
0.102941 0.000000 0.607843
0.282353 0.000000 0.603922
0.467157 0.000000 0.600000
0.657843 0.000000 0.592157
0.844608 0.000000 0.584314
1.000000 0.000000 0.568627
0.000000 0.000000 0.650490
0.000000 0.000000 0.650490
0.000000 0.000000 0.650490
0.114706 0.000000 0.646569
0.288235 0.000000 0.642647
0.467157 0.000000 0.638726
0.653921 0.000000 0.631373
0.836765 0.000000 0.623529
1.000000 0.000000 0.611765
0.000000 0.022549 0.698039
0.000000 0.021568 0.698039
0.006863 0.017647 0.697059
0.142157 0.010784 0.694118
0.303922 0.003922 0.690196
0.478922 0.000000 0.685294
0.660785 0.000000 0.677451
0.836765 0.000000 0.665687
1.000000 0.000000 0.650000
0.000000 0.193137 0.759314
0.000000 0.193137 0.759314
0.055393 0.189216 0.755392
0.161765 0.181373 0.755392
0.325491 0.172059 0.751471
0.499510 0.157843 0.747549
0.673529 0.140686 0.739706
0.848039 0.112744 0.731373
1.000000 0.066176 0.712255
0.000000 0.376471 0.821568
0.000000 0.374509 0.819608
0.006863 0.372549 0.817647
0.139216 0.368627 0.817647
0.335294 0.362745 0.813725
0.514706 0.354902 0.812255
0.686275 0.343137 0.805883
0.856373 0.326961 0.798039
1.000000 0.296079 0.786274
0.000000 0.559804 0.879902
0.000000 0.559804 0.879902
0.000000 0.557353 0.879902
0.115686 0.553431 0.878431
0.339216 0.549510 0.875980
0.524510 0.545588 0.872059
0.692157 0.536274 0.868137
0.867647 0.525491 0.862745
1.000000 0.502451 0.852451
0.000000 0.731373 0.933333
0.000000 0.731373 0.933333
0.000000 0.728431 0.930392
0.113726 0.727451 0.930392
0.359804 0.724510 0.929412
0.537255 0.723530 0.926470
0.703922 0.716667 0.922549
0.875981 0.708823 0.918628
1.000000 0.696079 0.910784
0.000000 0.899019 0.976471
0.000000 0.899019 0.976471
0.000000 0.899019 0.976471
0.203431 0.899019 0.976471
0.400980 0.899019 0.973039
0.564215 0.899019 0.972549
0.727941 0.895098 0.968137
0.887255 0.891176 0.965196
1.000000 0.883333 0.961274
0.368627 1.000000 1.000000
0.388235 1.000000 1.000000
0.438236 1.000000 1.000000
0.512255 1.000000 1.000000
0.607843 1.000000 1.000000
0.719118 1.000000 1.000000
0.832353 1.000000 1.000000
0.925980 1.000000 1.000000
1.000000 1.000000 1.000000
