Color/Fuji/Fuji FP-100c Cool 1 -- 65x.cube
TITLE "Fuji FP-100c Cool 1 --"
LUT_3D_SIZE 9
DOMAIN_MIN 0.000000 0.000000 0.000000
DOMAIN_MAX 1.000000 1.000000 1.000000
0.000000 0.000000 0.000000
0.046079 0.007353 0.003922
0.162745 0.008823 0.000981
0.332843 0.000000 0.000000
0.525490 0.000000 0.000000
0.708824 0.000000 0.000000
0.838235 0.000000 0.000000
0.949510 0.000000 0.000000
1.000000 0.129412 0.000000
0.000000 0.050490 0.003922
0.050980 0.062255 0.000000
0.185294 0.069117 0.000000
0.359804 0.043627 0.000000
0.543138 0.000000 0.000000
0.722059 0.000000 0.000000
0.845098 0.000000 0.000000
0.950000 0.018137 0.000000
1.000000 0.195588 0.000000
0.000000 0.187255 0.000000
0.000000 0.188236 0.000000
0.174510 0.209804 0.000000
0.394118 0.220588 0.000000
0.609804 0.216667 0.000000
0.750981 0.207843 0.000000
0.861765 0.210784 0.000000
0.956372 0.239706 0.000000
1.000000 0.311765 0.000000
0.000000 0.342157 0.000000
0.000000 0.352451 0.000000
0.076961 0.362255 0.000000
0.360294 0.389216 0.000000
0.591666 0.391176 0.000000
0.757353 0.397059 0.000000
0.871568 0.400981 0.000000
0.961274 0.408824 0.000000
1.000000 0.449510 0.000000
0.000000 0.490196 0.000000
0.000000 0.496078 0.000000
0.000000 0.487255 0.000000
0.278431 0.504412 0.000000
0.515686 0.521568 0.000000
0.706862 0.525981 0.000000
0.846078 0.535294 0.000000
0.953921 0.560785 0.000000
1.000000 0.584314 0.011765
0.000000 0.599020 0.000000
0.000000 0.606863 0.000000
0.000000 0.596078 0.000000
0.226961 0.600490 0.000000
0.445098 0.614706 0.000000
0.638235 0.634314 0.000000
0.800490 0.637745 0.000000
0.922549 0.661765 0.000000
1.000000 0.693137 0.000000
0.000000 0.721569 0.000000
0.000000 0.724510 0.000000
0.000000 0.716667 0.000000
0.243137 0.710294 0.000000
0.432353 0.718627 0.000000
0.600000 0.734803 0.000000
0.751961 0.748039 0.000000
0.892157 0.756372 0.000000
1.000000 0.783333 0.000000
0.000000 0.851470 0.126470
0.000000 0.851961 0.137745
0.141177 0.848039 0.131373
0.345098 0.843627 0.138235
0.481372 0.840196 0.096078
0.618627 0.855392 0.000000
0.750981 0.867157 0.000000
0.879412 0.879412 0.000000
0.999510 0.887255 0.000000
0.415686 0.976471 0.419608
0.439216 0.976471 0.423529
0.490196 0.976471 0.427451
0.563235 0.974020 0.437745
0.649020 0.972549 0.450980
0.724510 0.974020 0.423529
0.815686 0.980392 0.379412
0.910784 0.984804 0.309314
1.000000 0.992157 0.149020
0.007843 0.000490 0.062255
0.070098 0.000000 0.080882
0.146079 0.003922 0.073530
0.334314 0.000000 0.066177
0.525980 0.000000 0.073530
0.699510 0.000000 0.069608
0.824509 0.000000 0.061765
0.934313 0.000000 0.053922
1.000000 0.090196 0.065687
0.000000 0.054412 0.074020
0.053922 0.070098 0.085295
0.193627 0.073039 0.085295
0.364216 0.049509 0.081373
0.552451 0.000000 0.077451
0.716667 0.000000 0.071078
0.834314 0.000000 0.062255
0.938725 0.019118 0.053922
1.000000 0.179902 0.065687
0.000000 0.217647 0.111274
0.000000 0.212255 0.096078
0.193627 0.225000 0.066177
0.418137 0.232843 0.074020
0.608333 0.227451 0.081373
0.743627 0.212255 0.069608
0.852451 0.212745 0.057844
0.949510 0.243137 0.052941
1.000000 0.310784 0.072549
0.000000 0.366666 0.086275
0.000000 0.377451 0.093138
0.115196 0.376470 0.077451
0.380883 0.401961 0.000000
0.603431 0.400000 0.000000
0.761274 0.404902 0.031373
0.867647 0.402451 0.057353
0.955392 0.409314 0.053922
1.000000 0.448039 0.089216
0.000000 0.509804 0.075000
0.000000 0.510294 0.079412
0.000000 0.499510 0.081373
0.297549 0.513726 0.000000
0.529411 0.529902 0.000000
0.712745 0.525490 0.000000
0.845588 0.538235 0.000000
0.955882 0.563725 0.083824
1.000000 0.584314 0.130392
0.000000 0.612745 0.065196
0.000000 0.618627 0.075000
0.000000 0.610784 0.077451
0.250490 0.608334 0.041667
0.455882 0.621568 0.000000
0.646078 0.640686 0.000000
0.804412 0.642647 0.000000
0.925000 0.664706 0.000000
1.000000 0.697549 0.067647
0.000000 0.725981 0.082353
0.000000 0.731373 0.091176
0.000000 0.724510 0.088235
0.255392 0.713236 0.086765
0.439216 0.724020 0.000000
0.601470 0.736274 0.000000
0.754902 0.751961 0.000000
0.891667 0.759314 0.000000
1.000000 0.786275 0.000000
0.000000 0.851961 0.177451
0.000000 0.852451 0.185294
0.151961 0.850980 0.185294
0.346079 0.844117 0.184804
0.486765 0.843627 0.163235
0.618627 0.851961 0.064216
0.750981 0.867157 0.000000
0.878921 0.878921 0.000000
0.996078 0.886765 0.000000
0.412255 0.980392 0.435294
0.439216 0.976471 0.439216
0.489216 0.976961 0.446569
0.560784 0.974020 0.451960
0.647549 0.972549 0.466667
0.726961 0.976471 0.441667
0.815196 0.980392 0.402451
0.911274 0.984804 0.333823
1.000000 0.988725 0.196078
0.000000 0.000000 0.209804
0.074020 0.000000 0.229412
0.255883 0.000000 0.255883
0.309804 0.000981 0.210785
0.506863 0.000000 0.219608
0.691177 0.000000 0.191667
0.816667 0.000000 0.197059
0.929902 0.000000 0.193627
1.000000 0.090196 0.197059
0.000000 0.061765 0.205882
0.046569 0.066667 0.233824
0.260294 0.032353 0.261275
0.329902 0.109314 0.233333
0.548039 0.000000 0.225490
0.710784 0.000000 0.209804
0.828432 0.000000 0.202451
0.933823 0.050490 0.195098
1.000000 0.183334 0.201961
0.000000 0.203922 0.239215
0.000000 0.220588 0.248039
0.231373 0.258823 0.270588
0.433824 0.255883 0.263726
0.606863 0.243137 0.249019
0.735294 0.225981 0.228432
0.844117 0.225490 0.214706
0.942157 0.248529 0.205882
1.000000 0.310784 0.210784
0.000000 0.404902 0.280392
0.000000 0.424510 0.288235
0.182353 0.419608 0.263726
0.425981 0.430882 0.232353
0.626961 0.424020 0.237255
0.759804 0.420098 0.251471
0.857843 0.408334 0.233333
0.949510 0.415196 0.221568
1.000000 0.451471 0.232843
0.000000 0.548039 0.262745
0.000000 0.552451 0.249510
0.065686 0.536274 0.243137
0.344608 0.533824 0.229412
0.554902 0.549019 0.171569
0.725980 0.542647 0.151960
0.851961 0.554902 0.214706
0.949510 0.573039 0.256373
1.000000 0.584314 0.260784
0.000000 0.639706 0.228432
0.000000 0.644608 0.234314
0.000000 0.636765 0.231863
0.299020 0.620098 0.226961
0.481373 0.634804 0.182353
0.658824 0.650000 0.091667
0.812255 0.653431 0.000000
0.928431 0.672059 0.140196
1.000000 0.706373 0.272549
0.000000 0.741176 0.227451
0.000000 0.743137 0.230392
0.000000 0.737255 0.226471
0.283824 0.727451 0.222549
0.452941 0.727451 0.194118
0.609314 0.741667 0.121079
0.759804 0.755882 0.000000
0.895589 0.761274 0.000000
1.000000 0.789215 0.000000
0.000000 0.859314 0.271568
0.000000 0.859314 0.277941
0.156373 0.856863 0.275000
0.347059 0.849020 0.273529
0.491667 0.844117 0.266177
0.618627 0.855392 0.216667
0.750491 0.867647 0.125490
0.876961 0.879412 0.000000
1.000000 0.887255 0.000000
0.400981 0.980392 0.474510
0.428432 0.977451 0.478431
0.478431 0.976471 0.482353
0.554902 0.976471 0.488726
0.641177 0.972549 0.498039
0.723039 0.974020 0.485295
0.809804 0.978432 0.449020
0.906862 0.984804 0.392157
1.000000 0.992157 0.285295
0.000000 0.000000 0.369608
0.025490 0.000000 0.388726
0.287745 0.000000 0.436275
0.523530 0.000000 0.458333
0.542157 0.000000 0.375980
0.645098 0.037745 0.375000
0.795588 0.000000 0.353922
0.919608 0.000000 0.320588
1.000000 0.000000 0.312255
0.000000 0.065687 0.368137
0.017647 0.060784 0.392157
0.280392 0.000000 0.432843
0.528431 0.000000 0.462255
0.555392 0.100000 0.391666
0.665196 0.126961 0.382353
0.807843 0.004412 0.355882
0.927451 0.000000 0.317157
1.000000 0.149510 0.327451
0.000000 0.194607 0.352451
0.000000 0.213235 0.374020
0.252941 0.237745 0.431372
0.538725 0.239706 0.478431
0.560294 0.296569 0.421078
0.709314 0.252451 0.395588
0.833824 0.199510 0.352451
0.928922 0.251961 0.344608
1.000000 0.301961 0.342157
0.000000 0.375000 0.406373
0.000000 0.402451 0.428431
0.270098 0.434804 0.447549
0.491177 0.479412 0.475490
0.629412 0.451961 0.442157
0.742647 0.429412 0.413725
0.844118 0.418137 0.388235
0.933823 0.416667 0.365686
1.000000 0.448039 0.364216
0.000000 0.576961 0.456373
0.000000 0.589216 0.464216
0.271569 0.588726 0.459804
0.425490 0.576961 0.430882
0.594608 0.580883 0.400000
0.744117 0.578431 0.403921
0.853921 0.586275 0.423529
0.937745 0.575980 0.400490
1.000000 0.586275 0.393137
0.000000 0.674510 0.440196
0.133333 0.682843 0.448529
0.183824 0.678431 0.411765
0.369118 0.662745 0.397059
0.520098 0.656373 0.375981
0.679902 0.668137 0.335294
0.822549 0.670588 0.317647
0.928431 0.687745 0.375980
1.000000 0.723039 0.449510
0.000000 0.767647 0.389706
0.000000 0.769118 0.382353
0.040196 0.760784 0.376471
0.325980 0.750981 0.370588
0.479412 0.738726 0.357353
0.620588 0.750000 0.321079
0.767647 0.763725 0.265687
0.901471 0.769118 0.193628
1.000000 0.795098 0.318137
0.000000 0.867647 0.387255
0.000000 0.870098 0.393627
0.149020 0.867157 0.390686
0.344118 0.860785 0.384804
0.492157 0.851961 0.379412
0.618627 0.855882 0.351961
0.747059 0.867647 0.302941
0.879412 0.879412 0.226961
1.000000 0.887255 0.000490
0.377941 0.980392 0.531863
0.410294 0.981863 0.537255
0.463235 0.980392 0.539706
0.541176 0.980392 0.543627
0.629412 0.974510 0.549510
0.719118 0.975491 0.551471
0.808823 0.980392 0.523039
0.906372 0.988235 0.476470
1.000000 0.992157 0.390686
0.000000 0.000000 0.519608
0.032843 0.000000 0.533334
0.291177 0.000000 0.565686
0.563235 0.000000 0.620098
0.752941 0.000000 0.635294
0.725491 0.000000 0.527941
0.763725 0.174510 0.507843
0.882843 0.174019 0.509314
1.000000 0.172549 0.503922
0.000000 0.053922 0.514216
0.048039 0.039706 0.531373
0.291177 0.000000 0.564705
0.564706 0.000000 0.621569
0.751471 0.000000 0.635785
0.729902 0.081863 0.534314
0.763725 0.242647 0.517648
0.886765 0.217157 0.511274
1.000000 0.217647 0.501961
0.000000 0.196078 0.511765
0.014216 0.216667 0.533334
0.284314 0.218627 0.565686
0.544118 0.200490 0.614706
0.740196 0.195098 0.638235
0.723530 0.295588 0.548530
0.780393 0.341176 0.534314
0.901471 0.301471 0.512745
1.000000 0.288235 0.492157
0.000000 0.338235 0.492157
0.000000 0.361765 0.511765
0.224020 0.385294 0.522549
0.481863 0.431372 0.588726
0.701471 0.450490 0.629412
0.706863 0.476961 0.570098
0.811765 0.442647 0.544117
0.918627 0.395098 0.498040
1.000000 0.411275 0.478922
0.000000 0.527451 0.550980
0.141667 0.542647 0.560785
0.319608 0.559804 0.571569
0.489706 0.590686 0.592156
0.643138 0.631373 0.619607
0.742647 0.606863 0.587255
0.832353 0.584314 0.553922
0.922059 0.566666 0.523039
1.000000 0.570588 0.503922
0.000000 0.699510 0.598039
0.173039 0.709314 0.605882
0.327941 0.707843 0.600490
0.477941 0.711275 0.596078
0.580392 0.697549 0.565196
0.707353 0.701470 0.539706
0.829902 0.703921 0.542157
0.922059 0.716667 0.570098
1.000000 0.717157 0.554412
0.154902 0.787255 0.580392
0.233824 0.790196 0.581373
0.337255 0.789215 0.575490
0.408333 0.784804 0.545588
0.515686 0.770588 0.518628
0.636275 0.764706 0.495588
0.778432 0.780392 0.461765
0.905392 0.782843 0.441176
1.000000 0.809804 0.521568
0.226961 0.879412 0.574510
0.248039 0.881373 0.570588
0.253431 0.880882 0.541667
0.346079 0.876471 0.515196
0.494118 0.867157 0.505883
0.619117 0.856373 0.489706
0.744117 0.871078 0.459314
0.877451 0.884804 0.411765
1.000000 0.890686 0.352941
0.352942 0.984314 0.615687
0.374020 0.988235 0.613725
0.431373 0.984314 0.610785
0.516177 0.983824 0.615687
0.611765 0.978432 0.617647
0.711275 0.976471 0.623529
0.800981 0.980392 0.607843
0.899019 0.988235 0.574020
1.000000 0.992157 0.509804
0.000000 0.000000 0.648529
0.147059 0.000000 0.658333
0.332843 0.000000 0.681372
0.550980 0.000000 0.717647
0.769118 0.000000 0.758333
0.887745 0.000000 0.754412
0.859804 0.000000 0.660294
0.888236 0.250980 0.637255
0.959314 0.376961 0.657843
0.000000 0.028432 0.644608
0.164706 0.006863 0.661765
0.339215 0.000000 0.683824
0.551961 0.000000 0.717157
0.767157 0.000000 0.760294
0.884314 0.000000 0.756372
0.859804 0.133824 0.664706
0.886765 0.302941 0.640686
0.960784 0.398529 0.661765
0.000000 0.199020 0.644608
0.153921 0.200981 0.655392
0.329411 0.195588 0.675980
0.534804 0.173039 0.708824
0.745588 0.130882 0.750490
0.869608 0.184804 0.754412
0.851471 0.317157 0.671569
0.876471 0.402451 0.650000
0.966176 0.441176 0.662745
0.000000 0.319608 0.595098
0.000000 0.336274 0.619608
0.273039 0.366176 0.649020
0.484804 0.383823 0.683824
0.696079 0.406863 0.730392
0.840686 0.439706 0.749020
0.828922 0.479412 0.676471
0.863235 0.512745 0.663235
0.977451 0.499510 0.660294
0.000000 0.473039 0.609314
0.060784 0.482843 0.615686
0.253922 0.496569 0.623039
0.414215 0.519118 0.634804
0.623530 0.576961 0.697549
0.795098 0.614216 0.740196
0.799019 0.620588 0.689216
0.886765 0.586274 0.662745
0.994608 0.551961 0.629412
0.185784 0.638235 0.653922
0.263235 0.648529 0.663726
0.368137 0.660785 0.671079
0.493627 0.679902 0.682353
0.622059 0.709314 0.703431
0.746569 0.754412 0.734804
0.824509 0.728431 0.703431
0.904902 0.704412 0.669118
0.993627 0.698530 0.647549
0.208823 0.810784 0.725000
0.274020 0.811765 0.725490
0.369607 0.812745 0.721569
0.481373 0.810784 0.713726
0.597059 0.809804 0.705883
0.683824 0.800980 0.677451
0.791667 0.803431 0.655392
0.902451 0.809804 0.659314
0.986765 0.835784 0.707843
0.279902 0.892157 0.712745
0.322059 0.894608 0.712745
0.390196 0.893628 0.710294
0.478922 0.890686 0.700490
0.552451 0.887745 0.673529
0.634314 0.875490 0.640686
0.747059 0.878431 0.621569
0.875490 0.891176 0.591176
0.993627 0.896079 0.585294
0.470588 0.986765 0.758333
0.486275 0.984314 0.756372
0.520588 0.985784 0.752941
0.548039 0.984314 0.731373
0.586765 0.984314 0.703431
0.691667 0.980392 0.703431
0.794118 0.980392 0.704902
0.890686 0.987255 0.679902
1.000000 0.992157 0.634314
0.237255 0.000000 0.777451
0.298529 0.000000 0.781373
0.417647 0.000000 0.792157
0.573530 0.000000 0.808823
0.745098 0.000000 0.835294
0.912255 0.000000 0.864216
0.989216 0.000000 0.855883
0.962255 0.124510 0.775000
0.993137 0.375491 0.766667
0.229412 0.000000 0.769117
0.301961 0.000000 0.781373
0.414216 0.000000 0.789216
0.573040 0.000000 0.807353
0.743628 0.000000 0.834804
0.907843 0.000000 0.866667
0.986765 0.000000 0.857353
0.958824 0.218137 0.775000
0.991667 0.410294 0.769117
0.214706 0.188236 0.763725
0.280392 0.185294 0.769608
0.399020 0.172549 0.780392
0.558333 0.148529 0.800981
0.728431 0.111765 0.829412
0.892157 0.086275 0.860294
0.972549 0.216666 0.854902
0.948530 0.357843 0.778432
0.980392 0.482353 0.771568
0.017647 0.319118 0.730392
0.203922 0.338235 0.744608
0.344608 0.341176 0.757843
0.513235 0.350000 0.781373
0.683334 0.363235 0.808333
0.851961 0.394608 0.848039
0.945098 0.441667 0.848039
0.928431 0.497059 0.779902
0.963235 0.572549 0.777451
0.000000 0.433333 0.677451
0.000000 0.442157 0.686275
0.186275 0.454902 0.707843
0.407844 0.481372 0.743137
0.616667 0.524510 0.783333
0.797058 0.569608 0.828432
0.907843 0.605882 0.841177
0.903922 0.625490 0.783824
0.939215 0.659804 0.780393
0.000000 0.582353 0.708333
0.105883 0.590196 0.717157
0.250000 0.597059 0.720588
0.386274 0.606863 0.723039
0.524510 0.625490 0.730392
0.722059 0.696079 0.796078
0.867647 0.743137 0.836275
0.872059 0.736274 0.790196
0.959804 0.719118 0.778432
0.260784 0.740196 0.752942
0.307353 0.747059 0.758824
0.385294 0.753922 0.762745
0.488235 0.763725 0.769118
0.601961 0.780392 0.780392
0.720098 0.812745 0.801961
0.832353 0.855883 0.836274
0.891667 0.829902 0.802451
0.976471 0.817647 0.779412
0.338726 0.906862 0.840196
0.373530 0.907843 0.838235
0.431863 0.908333 0.836765
0.512255 0.909314 0.832353
0.605882 0.906372 0.824510
0.700490 0.903432 0.813235
0.773529 0.895098 0.782353
0.878431 0.902451 0.766177
0.980882 0.910294 0.782353
0.486275 0.988235 0.859804
0.501471 0.989215 0.859314
0.531372 0.988235 0.854902
0.582843 0.988235 0.850490
0.645098 0.985294 0.840196
0.708333 0.988235 0.821079
0.781373 0.984314 0.798039
0.882353 0.987745 0.789706
0.999019 0.996078 0.765686
0.424509 0.000000 0.890686
0.455882 0.000000 0.891176
0.531862 0.000000 0.898529
0.638235 0.000000 0.906372
0.761275 0.000000 0.918137
0.890687 0.000000 0.931373
1.000000 0.000000 0.952451
1.000000 0.000000 0.941666
1.000000 0.298039 0.891176
0.413235 0.000000 0.883333
0.459314 0.000000 0.891176
0.531372 0.000000 0.897059
0.634804 0.000000 0.902941
0.759804 0.000000 0.917157
0.885784 0.000000 0.927942
1.000000 0.000000 0.952941
1.000000 0.000000 0.941176
1.000000 0.348040 0.888236
0.402451 0.203431 0.881373
0.436765 0.201471 0.882843
0.513236 0.189216 0.890686
0.620588 0.164706 0.898529
0.743627 0.128921 0.910784
0.873529 0.092157 0.928922
1.000000 0.098039 0.944117
1.000000 0.281863 0.938235
1.000000 0.436765 0.885294
0.322059 0.338725 0.861275
0.375981 0.347549 0.869118
0.460295 0.346078 0.875490
0.579412 0.346079 0.886765
0.709804 0.348529 0.899019
0.844608 0.363725 0.920098
0.970098 0.392157 0.938235
1.000000 0.460294 0.934313
1.000000 0.547059 0.879412
0.000000 0.440686 0.833824
0.108824 0.443138 0.840196
0.304902 0.453431 0.845098
0.490196 0.478431 0.861765
0.645588 0.496079 0.880882
0.793137 0.523039 0.902451
0.925980 0.563726 0.926470
1.000000 0.607843 0.927941
0.992647 0.650980 0.878922
0.000000 0.567647 0.800980
0.000000 0.571569 0.802942
0.078431 0.567647 0.804902
0.306373 0.570588 0.816667
0.507353 0.587255 0.844117
0.719118 0.645588 0.878921
0.872059 0.697549 0.910784
0.967647 0.738725 0.922059
0.972549 0.758333 0.882843
0.021569 0.709804 0.826470
0.135784 0.712745 0.832353
0.246569 0.715687 0.834804
0.363725 0.713725 0.827942
0.486765 0.720588 0.828432
0.607843 0.725000 0.828922
0.801961 0.795588 0.883824
0.933823 0.849020 0.919118
0.949510 0.849020 0.891667
0.341666 0.851470 0.863235
0.368627 0.854412 0.866177
0.422549 0.855392 0.867157
0.500980 0.859314 0.867157
0.596568 0.869608 0.871078
0.700980 0.883333 0.880392
0.805883 0.903432 0.894608
0.914215 0.937745 0.925980
0.973039 0.918137 0.899019
0.509804 0.992157 0.945098
0.527451 0.995098 0.945098
0.556863 0.992157 0.945588
0.610294 0.992157 0.945588
0.669118 0.992157 0.939706
0.737745 0.991176 0.932843
0.809804 0.992157 0.922059
0.878921 0.988235 0.895098
0.995588 0.996078 0.886765
0.623529 0.180392 0.996078
0.639216 0.172549 0.996078
0.675490 0.143137 0.996078
0.739706 0.079902 1.000000
0.821568 0.000000 1.000000
0.915196 0.000000 1.000000
1.000000 0.000000 1.000000
1.000000 0.000000 1.000000
1.000000 0.207843 1.000000
0.612255 0.230883 0.992157
0.635294 0.235294 0.992647
0.673530 0.215196 0.992647
0.734804 0.179902 0.998529
0.817647 0.116666 1.000000
0.908823 0.000000 1.000000
1.000000 0.000000 1.000000
1.000000 0.000000 1.000000
1.000000 0.277451 1.000000
0.605882 0.347059 0.991177
0.622549 0.346079 0.992157
0.661765 0.334314 0.992157
0.724020 0.314706 0.996078
0.803921 0.288235 0.999019
0.894118 0.252451 1.000000
0.994118 0.210784 1.000000
1.000000 0.167156 1.000000
1.000000 0.392157 1.000000
0.562255 0.451961 0.980392
0.588235 0.460294 0.983334
0.631863 0.455883 0.988725
0.694118 0.445588 0.988235
0.778431 0.434314 0.994117
0.871079 0.420588 1.000000
0.968137 0.405882 1.000000
1.000000 0.407353 1.000000
1.000000 0.522549 1.000000
0.488236 0.562745 0.976471
0.517647 0.570589 0.976471
0.563725 0.564705 0.976471
0.642157 0.563235 0.980392
0.731372 0.558824 0.986274
0.835294 0.558824 0.992157
0.933333 0.559804 0.998039
1.000000 0.578431 1.000000
1.000000 0.641177 1.000000
0.363235 0.665686 0.956863
0.396569 0.665686 0.963235
0.441667 0.661765 0.964706
0.516177 0.645098 0.970098
0.655882 0.666176 0.976961
0.774020 0.673529 0.984314
0.890686 0.691667 0.992157
0.996568 0.716667 0.996568
1.000000 0.755882 0.997549
0.381373 0.782353 0.957843
0.400000 0.783333 0.960784
0.433333 0.782353 0.960784
0.481372 0.778432 0.957843
0.553922 0.774510 0.960784
0.669608 0.762254 0.972549
0.829412 0.795098 0.981372
0.956373 0.829412 0.996568
1.000000 0.852941 0.993137
0.483333 0.891176 0.972549
0.491176 0.890686 0.972549
0.518137 0.894608 0.975981
0.557353 0.894118 0.975981
0.614216 0.891176 0.973039
0.680392 0.894608 0.976471
0.753431 0.887255 0.972059
0.901961 0.906372 0.987745
1.000000 0.933823 0.996078
0.588235 0.972549 0.984314
0.596078 0.972549 0.984314
0.615686 0.972549 0.985294
0.649510 0.974020 0.985784
0.696079 0.976471 0.988235
0.754412 0.980392 0.988235
0.820588 0.981372 0.989216
0.902451 0.988725 0.992647
1.000000 1.000000 1.000000
