Color/Fuji/Fuji Superia Reala 100 65x.cube
TITLE "Fuji Superia Reala 100"
LUT_3D_SIZE 5
DOMAIN_MIN 0.000000 0.000000 0.000000
DOMAIN_MAX 1.000000 1.000000 1.000000
0.000000 0.000000 0.000000
0.280392 0.000000 0.000000
0.560785 0.000000 0.000000
0.812745 0.000000 0.000981
1.000000 0.000000 0.101961
0.109804 0.288235 0.093137
0.296078 0.272549 0.078431
0.574510 0.231373 0.061765
0.821569 0.141176 0.078432
1.000000 0.000000 0.121569
0.158824 0.549019 0.117647
0.339215 0.545098 0.111765
0.615687 0.527451 0.113725
0.852941 0.490197 0.156863
1.000000 0.394118 0.256863
0.309804 0.766667 0.057844
0.456863 0.765686 0.046078
0.718628 0.757843 0.015686
0.939216 0.743137 0.042157
1.000000 0.711765 0.250000
0.270588 0.964706 0.000000
0.437255 0.964706 0.000000
0.709804 0.960784 0.000000
0.989216 0.956863 0.000000
1.000000 0.945098 0.000000
0.000000 0.000000 0.222549
0.260784 0.000000 0.195098
0.521568 0.000000 0.179412
0.769607 0.000000 0.191176
0.976471 0.000000 0.242157
0.099020 0.288235 0.288235
0.272549 0.272549 0.272549
0.545098 0.231373 0.252941
0.789215 0.138235 0.237255
0.981372 0.000000 0.230392
0.110784 0.552941 0.305882
0.300000 0.549019 0.300980
0.575490 0.533334 0.300000
0.815686 0.494117 0.321569
1.000000 0.394118 0.361765
0.333333 0.769607 0.117647
0.451961 0.766667 0.122549
0.671569 0.761764 0.160784
0.876471 0.750000 0.255883
1.000000 0.714706 0.399019
0.363725 0.968627 0.000000
0.492157 0.968627 0.000000
0.740196 0.964706 0.000000
1.000000 0.960784 0.000000
1.000000 0.949020 0.000000
0.000000 0.000000 0.405883
0.264706 0.000000 0.366667
0.509804 0.000000 0.339216
0.749020 0.000000 0.327451
0.958824 0.000000 0.343137
0.105882 0.288235 0.495098
0.276470 0.269608 0.472549
0.525490 0.225490 0.436275
0.761764 0.130392 0.393137
0.956863 0.000000 0.350981
0.088235 0.556863 0.564705
0.268627 0.552941 0.556863
0.535294 0.533334 0.535294
0.774510 0.495098 0.517648
0.990196 0.390196 0.501961
0.169608 0.777451 0.560785
0.329412 0.774510 0.556863
0.567647 0.769607 0.552941
0.793137 0.753922 0.560785
1.000000 0.718628 0.588236
0.515686 0.976471 0.000000
0.604902 0.974510 0.000000
0.803921 0.972549 0.000000
0.999019 0.968627 0.000000
1.000000 0.960784 0.388235
0.032353 0.000000 0.560784
0.307843 0.000000 0.518628
0.519608 0.000000 0.487255
0.738235 0.000000 0.462745
0.941176 0.000000 0.455882
0.188235 0.272549 0.654902
0.331372 0.252941 0.631373
0.537254 0.205882 0.590196
0.747059 0.102941 0.532353
0.937255 0.000000 0.475490
0.200981 0.556863 0.746079
0.325490 0.549019 0.734314
0.541176 0.532353 0.706863
0.757843 0.490197 0.673529
0.968627 0.374509 0.626470
0.217647 0.781373 0.800981
0.339215 0.778432 0.793137
0.545098 0.770588 0.776471
0.757843 0.757843 0.757843
0.976471 0.715687 0.742156
0.272549 0.989216 0.693137
0.378432 0.989216 0.690196
0.575490 0.988235 0.689216
0.792157 0.988235 0.697059
1.000000 0.976471 0.739216
0.184314 0.000000 0.670588
0.387255 0.000000 0.635294
0.556863 0.000000 0.607843
0.742156 0.000000 0.580392
0.929412 0.000000 0.556863
0.344117 0.233333 0.755882
0.430393 0.213725 0.737255
0.584313 0.163726 0.697059
0.756862 0.050980 0.634314
0.929412 0.000000 0.584314
0.384314 0.541176 0.864706
0.450000 0.537254 0.856863
0.600000 0.513726 0.829412
0.773529 0.466667 0.793138
0.958824 0.333333 0.727451
0.411765 0.777451 0.950000
0.469608 0.774510 0.945098
0.605883 0.766667 0.929412
0.769607 0.750981 0.905882
0.961765 0.707843 0.871568
0.388235 1.000000 1.000000
0.446079 1.000000 1.000000
0.578431 1.000000 1.000000
0.747059 1.000000 1.000000
1.000000 0.996078 0.996078
