Color/Fuji/Fuji Superia 100 1 - 65x.cube
TITLE "Fuji Superia 100 1 -"
LUT_3D_SIZE 5
DOMAIN_MIN 0.000000 0.000000 0.000000
DOMAIN_MAX 1.000000 1.000000 1.000000
0.000000 0.000000 0.000000
0.178431 0.023529 0.000000
0.517648 0.086275 0.000000
0.774510 0.138235 0.000000
1.000000 0.211765 0.000000
0.000000 0.257843 0.000000
0.182353 0.255883 0.000000
0.567647 0.300981 0.000000
0.795098 0.302941 0.000000
1.000000 0.334314 0.000000
0.000000 0.601961 0.239216
0.000000 0.607843 0.249020
0.503922 0.574510 0.170588
0.799999 0.569608 0.046078
1.000000 0.570588 0.001961
0.000000 0.850000 0.459804
0.169607 0.852941 0.465686
0.450000 0.847059 0.451961
0.728431 0.818627 0.376471
1.000000 0.825490 0.333333
0.603922 1.000000 0.745098
0.624510 1.000000 0.746079
0.682353 1.000000 0.756863
0.781373 1.000000 0.740196
0.933333 1.000000 0.721569
0.000000 0.000000 0.255883
0.228432 0.000000 0.248039
0.537254 0.000000 0.219608
0.756863 0.048039 0.199020
0.996078 0.164706 0.185294
0.000000 0.263726 0.259804
0.244118 0.267647 0.263726
0.559804 0.274510 0.248039
0.776471 0.280392 0.220588
1.000000 0.314706 0.203922
0.217647 0.589216 0.413725
0.256863 0.598039 0.391176
0.525490 0.573530 0.346079
0.800000 0.565686 0.283334
1.000000 0.562745 0.259804
0.289216 0.846078 0.547059
0.335294 0.850980 0.542157
0.499020 0.846078 0.535294
0.740196 0.819608 0.467647
1.000000 0.825490 0.421569
0.643137 1.000000 0.772549
0.658824 1.000000 0.776471
0.712746 1.000000 0.785294
0.797058 0.997059 0.768627
0.940196 0.999019 0.749020
0.000000 0.000000 0.592156
0.271569 0.000000 0.590196
0.584313 0.000000 0.580392
0.789215 0.155883 0.503922
1.000000 0.105882 0.462746
0.000000 0.262745 0.594118
0.273529 0.281373 0.596078
0.585294 0.298040 0.579412
0.787255 0.323529 0.514706
1.000000 0.250980 0.458824
0.219608 0.580392 0.582353
0.367647 0.582353 0.583333
0.568628 0.568628 0.568628
0.781373 0.542157 0.525490
1.000000 0.531373 0.486274
0.512745 0.836275 0.697059
0.562745 0.836274 0.702941
0.609804 0.844117 0.686275
0.770588 0.822549 0.632353
1.000000 0.820588 0.584314
0.749020 0.992157 0.850980
0.754902 0.992157 0.849020
0.772549 0.996078 0.843137
0.836274 0.996078 0.841176
0.952941 0.996078 0.815686
0.000000 0.000000 0.851961
0.276470 0.000000 0.848039
0.566666 0.039216 0.839216
0.828432 0.178432 0.821569
1.000000 0.314706 0.770588
0.019608 0.278431 0.846078
0.299020 0.287255 0.844118
0.577451 0.316667 0.841177
0.828431 0.354902 0.820588
1.000000 0.419608 0.772549
0.089216 0.549019 0.827451
0.316667 0.556863 0.829412
0.577451 0.572549 0.825490
0.817647 0.589216 0.815686
1.000000 0.604902 0.771568
0.432353 0.830392 0.826470
0.499020 0.833334 0.829412
0.637255 0.827451 0.822549
0.805883 0.816667 0.809804
1.000000 0.779412 0.759804
0.796078 0.992157 0.914706
0.813725 0.990196 0.919608
0.859804 0.989215 0.926470
0.899020 0.996078 0.926471
0.976471 0.999019 0.909804
0.164706 0.098039 1.000000
0.316667 0.129412 1.000000
0.556863 0.205882 1.000000
0.793137 0.314706 1.000000
1.000000 0.423529 1.000000
0.232353 0.313725 1.000000
0.354902 0.323529 1.000000
0.571569 0.361765 1.000000
0.798039 0.426471 1.000000
1.000000 0.502941 1.000000
0.307843 0.556863 1.000000
0.408824 0.564705 1.000000
0.596078 0.584313 1.000000
0.804902 0.618627 1.000000
1.000000 0.672549 1.000000
0.401960 0.795098 1.000000
0.460784 0.797059 1.000000
0.597059 0.794118 1.000000
0.821569 0.829412 1.000000
0.996078 0.856863 0.996078
0.760784 0.992157 0.992157
0.780392 0.996078 0.993137
0.835294 0.994117 0.994117
0.914706 0.996078 0.996078
1.000000 1.000000 1.000000
