Color/Fuji/Fuji Superia 200 65x.cube
TITLE "Fuji Superia 200"
LUT_3D_SIZE 5
DOMAIN_MIN 0.000000 0.000000 0.000000
DOMAIN_MAX 1.000000 1.000000 1.000000
0.000000 0.000000 0.000000
0.163725 0.000000 0.000000
0.458823 0.000000 0.000000
0.699019 0.000000 0.000000
0.835294 0.000000 0.000000
0.096079 0.306863 0.100981
0.275490 0.260784 0.039216
0.555882 0.148039 0.000000
0.749019 0.005883 0.000000
0.826471 0.000000 0.000000
0.213726 0.654902 0.156863
0.411765 0.631373 0.114706
0.688236 0.570588 0.043137
0.881372 0.492157 0.011765
0.978432 0.356863 0.039216
0.507843 0.851961 0.038235
0.612745 0.836274 0.034314
0.814706 0.800981 0.019608
0.970588 0.761764 0.023529
1.000000 0.710784 0.094118
0.764706 1.000000 0.000000
0.827451 1.000000 0.000000
0.966666 0.990196 0.000000
1.000000 0.960784 0.000000
1.000000 0.925490 0.000000
0.000000 0.000000 0.201961
0.150980 0.000000 0.124510
0.419608 0.000000 0.018627
0.632353 0.000000 0.000000
0.761764 0.000000 0.002942
0.069608 0.303921 0.314706
0.255883 0.255883 0.255883
0.514706 0.144118 0.144118
0.687255 0.003922 0.054902
0.772549 0.000000 0.025490
0.153922 0.658824 0.392157
0.365686 0.635294 0.354902
0.638235 0.576470 0.276470
0.823529 0.502941 0.231373
0.934314 0.362745 0.227451
0.453921 0.855883 0.341176
0.558824 0.842157 0.321569
0.751961 0.808823 0.278431
0.903922 0.770588 0.275490
1.000000 0.718628 0.323529
0.785294 1.000000 0.000000
0.839216 1.000000 0.000000
0.954902 0.996078 0.000000
1.000000 0.968627 0.000000
1.000000 0.937255 0.000000
0.000000 0.000000 0.490197
0.131372 0.000000 0.389216
0.382353 0.000000 0.284314
0.577451 0.000000 0.215687
0.717647 0.000000 0.194117
0.059804 0.291177 0.593137
0.229412 0.240196 0.528431
0.471569 0.132353 0.416667
0.628432 0.001961 0.319608
0.717647 0.000000 0.244118
0.105882 0.654902 0.694117
0.313725 0.635294 0.657843
0.580392 0.580392 0.580392
0.757843 0.506863 0.514706
0.880392 0.360784 0.449020
0.362745 0.859804 0.717647
0.476471 0.848039 0.694118
0.661765 0.817647 0.646078
0.820588 0.781373 0.603921
0.964706 0.726471 0.571568
0.647058 1.000000 0.552941
0.695098 1.000000 0.545098
0.800000 1.000000 0.525490
0.924510 0.997059 0.517647
1.000000 0.960784 0.541176
0.000000 0.000000 0.706863
0.150980 0.000000 0.584314
0.372549 0.000000 0.485295
0.546079 0.000000 0.408824
0.682353 0.000000 0.361764
0.122549 0.239216 0.753922
0.264706 0.190196 0.695098
0.455882 0.085294 0.590196
0.588235 0.000000 0.493138
0.677451 0.000000 0.396078
0.231373 0.635294 0.852941
0.370588 0.615687 0.819608
0.572549 0.568628 0.751961
0.726471 0.495098 0.681372
0.841176 0.335294 0.595098
0.417647 0.851961 0.895098
0.494118 0.841177 0.873529
0.638235 0.816667 0.832353
0.785294 0.785294 0.785294
0.929412 0.727451 0.730392
0.584314 1.000000 0.900000
0.626470 1.000000 0.888236
0.723529 1.000000 0.859804
0.848039 1.000000 0.821569
1.000000 0.977451 0.773529
0.003922 0.000000 0.788235
0.222549 0.000000 0.683334
0.390196 0.000000 0.607843
0.534313 0.000000 0.544118
0.662745 0.000000 0.490196
0.246078 0.134314 0.810785
0.339215 0.092157 0.763726
0.459804 0.010784 0.687255
0.563725 0.000000 0.600000
0.658824 0.000000 0.521569
0.409804 0.588236 0.931372
0.472549 0.572549 0.908824
0.596078 0.529411 0.860785
0.715687 0.449019 0.797058
0.805883 0.264706 0.698039
0.522549 0.829412 1.000000
0.567647 0.824510 0.989216
0.660784 0.804902 0.960784
0.774510 0.773529 0.921569
0.905882 0.714706 0.866667
0.639216 1.000000 1.000000
0.665687 1.000000 1.000000
0.731372 1.000000 1.000000
0.824510 1.000000 1.000000
1.000000 0.992157 0.992157
