Color/Fuji/Fuji Superia HG 1600 65x.cube
TITLE "Fuji Superia HG 1600"
LUT_3D_SIZE 65
DOMAIN_MIN 0.000000 0.000000 0.000000
DOMAIN_MAX 1.000000 1.000000 1.000000
0.000000 0.000000 0.000000
0.058578 0.000000 0.000000
0.091789 0.000000 0.000000
0.111397 0.000000 0.000000
0.128922 0.003677 0.000000
0.142524 0.003922 0.000000
0.156127 0.003922 0.000000
0.169730 0.003922 0.000000
0.179902 0.003922 0.000000
0.192586 0.003922 0.000000
0.202696 0.007843 0.000000
0.214032 0.007843 0.000000
0.222794 0.007843 0.000000
0.235478 0.007843 0.000000
0.245343 0.011765 0.000000
0.258946 0.011765 0.000000
0.269608 0.011765 0.000000
0.282292 0.015625 0.000000
0.294976 0.015686 0.000000
0.307659 0.019608 0.000000
0.319118 0.019608 0.000000
0.332720 0.023223 0.000000
0.345711 0.023529 0.000000
0.358395 0.023529 0.000000
0.373529 0.027451 0.000000
0.387132 0.027451 0.000000
0.400735 0.031373 0.000000
0.416973 0.032660 0.000000
0.431863 0.035294 0.000000
0.445466 0.039216 0.000000
0.459069 0.043137 0.000000
0.476593 0.044179 0.000000
0.490197 0.047059 0.000000
0.507721 0.050980 0.000000
0.525245 0.054779 0.000000
0.538848 0.055699 0.000000
0.556372 0.058824 0.000000
0.573897 0.062745 0.000000
0.587500 0.066299 0.000000
0.605025 0.070588 0.000000
0.618627 0.072059 0.000000
0.633762 0.074510 0.000000
0.649755 0.078431 0.000000
0.663358 0.078737 0.000000
0.676961 0.082353 0.000000
0.690564 0.086275 0.000000
0.704166 0.089338 0.000000
0.717708 0.090196 0.000000
0.730392 0.094118 0.000000
0.743076 0.096017 0.000000
0.754657 0.098039 0.000000
0.768259 0.101777 0.003738
0.777942 0.101961 0.000000
0.791544 0.105882 0.001655
0.802574 0.105882 0.003922
0.815257 0.109804 0.003922
0.827941 0.113725 0.003922
0.840625 0.113725 0.003922
0.853309 0.117647 0.003922
0.865319 0.117647 0.003922
0.878676 0.121569 0.003922
0.891360 0.125490 0.003922
0.902206 0.125490 0.003922
0.915809 0.129412 0.003922
0.929412 0.133333 0.003922
0.019363 0.055576 0.012684
0.079106 0.058578 0.012684
0.107475 0.058578 0.012684
0.123162 0.058578 0.013603
0.134008 0.058578 0.013603
0.150613 0.054657 0.013603
0.163970 0.054657 0.013603
0.172059 0.054657 0.013603
0.187255 0.050735 0.013603
0.196507 0.051226 0.016605
0.206618 0.046814 0.016605
0.214951 0.046814 0.016605
0.223714 0.042892 0.019791
0.231741 0.038970 0.017524
0.244240 0.037868 0.017524
0.255025 0.033027 0.015502
0.262684 0.028187 0.016605
0.271447 0.027206 0.016605
0.280147 0.019363 0.013603
0.291973 0.017585 0.013603
0.303431 0.015441 0.013603
0.317034 0.018443 0.016605
0.326715 0.018137 0.016605
0.342708 0.021446 0.016605
0.356924 0.018995 0.016605
0.370527 0.020527 0.017524
0.383211 0.023529 0.016605
0.397733 0.023529 0.016605
0.413052 0.028738 0.016605
0.428860 0.030454 0.016605
0.442463 0.035294 0.016605
0.459988 0.035294 0.016605
0.473591 0.039216 0.016605
0.491115 0.042218 0.016605
0.508640 0.043137 0.016605
0.526164 0.050061 0.013603
0.543688 0.050980 0.011887
0.557292 0.054902 0.012684
0.574816 0.061459 0.012684
0.592341 0.062745 0.012684
0.609865 0.067219 0.009681
0.623468 0.072058 0.008762
0.640993 0.070588 0.008762
0.654596 0.073897 0.008762
0.668199 0.078431 0.008762
0.680576 0.083579 0.008762
0.699326 0.088420 0.004841
0.712929 0.090196 0.003922
0.726532 0.093199 0.000919
0.740135 0.094118 0.000919
0.751838 0.099938 0.000919
0.764522 0.098039 0.000919
0.777022 0.101961 0.000919
0.789890 0.105882 0.000919
0.802574 0.105882 0.003922
0.815257 0.109804 0.003922
0.827941 0.113725 0.003922
0.840625 0.113725 0.003922
0.851716 0.117647 0.003922
0.865319 0.117647 0.003922
0.875000 0.121569 0.003922
0.888603 0.122733 0.003922
0.902206 0.125490 0.003922
0.915809 0.129412 0.003922
0.929412 0.129412 0.003922
0.052574 0.086029 0.025367
0.086948 0.087868 0.025367
0.111397 0.087868 0.025367
0.127084 0.087868 0.025367
0.138847 0.087868 0.025367
0.153615 0.086029 0.027206
0.166299 0.083946 0.027206
0.176899 0.083946 0.027206
0.187745 0.083946 0.027206
0.200429 0.080025 0.029289
0.211029 0.080025 0.029289
0.219791 0.080025 0.029289
0.228554 0.077941 0.032475
0.235662 0.076103 0.031127
0.250000 0.074020 0.031127
0.258762 0.072181 0.031127
0.267524 0.070098 0.031127
0.282230 0.066177 0.029289
0.288971 0.063235 0.029289
0.301654 0.058333 0.029289
0.310417 0.058333 0.029289
0.324877 0.054412 0.029289
0.335784 0.050490 0.029289
0.344240 0.044730 0.029289
0.357843 0.038358 0.029289
0.365992 0.029595 0.029289
0.377206 0.025367 0.029289
0.393444 0.027206 0.029289
0.408334 0.025367 0.029289
0.421936 0.027451 0.027206
0.439339 0.031373 0.025490
0.451225 0.032415 0.029289
0.468750 0.035294 0.029289
0.484191 0.040258 0.029289
0.501716 0.039216 0.029289
0.517402 0.047059 0.025367
0.534926 0.046936 0.025367
0.552451 0.050980 0.025367
0.569975 0.054902 0.025367
0.583578 0.058824 0.026654
0.601103 0.062745 0.021446
0.618627 0.067219 0.021446
0.632231 0.066667 0.021446
0.645833 0.072672 0.019362
0.662132 0.074510 0.019362
0.676961 0.078737 0.017218
0.690564 0.083579 0.017524
0.704166 0.086275 0.013603
0.717770 0.085417 0.013603
0.731373 0.090196 0.009620
0.748897 0.095099 0.009681
0.762500 0.099938 0.005760
0.775368 0.101961 0.003922
0.789890 0.103615 0.003922
0.803309 0.105882 0.003922
0.816912 0.109804 0.003922
0.827941 0.113725 0.003922
0.840625 0.113725 0.003922
0.851716 0.117647 0.003922
0.865319 0.117647 0.003922
0.875000 0.121569 0.003922
0.888603 0.122733 0.003922
0.902206 0.125490 0.003922
0.915809 0.129412 0.003922
0.929412 0.129412 0.003922
0.078860 0.103554 0.038052
0.098713 0.104718 0.038052
0.113480 0.104718 0.038052
0.131005 0.104718 0.038052
0.144608 0.104718 0.038052
0.154289 0.103554 0.038052
0.169057 0.103554 0.038052
0.178983 0.103554 0.038052
0.190503 0.103554 0.040809
0.203186 0.103554 0.040809
0.213113 0.099633 0.041973
0.221875 0.099633 0.041973
0.230638 0.099633 0.041973
0.239584 0.102206 0.041973
0.252083 0.095711 0.041973
0.263603 0.095711 0.041973
0.273529 0.094547 0.041973
0.282292 0.090687 0.041973
0.294976 0.090625 0.041973
0.306495 0.087868 0.041973
0.315196 0.086703 0.041973
0.327942 0.086703 0.041973
0.340625 0.084927 0.041973
0.353309 0.080086 0.041973
0.364522 0.073774 0.041973
0.374755 0.066483 0.041973
0.387439 0.061642 0.041973
0.400123 0.056802 0.041973
0.412806 0.049203 0.040809
0.421568 0.037316 0.040809
0.435417 0.031373 0.040809
0.449142 0.034130 0.038052
0.464706 0.035294 0.040809
0.480270 0.035294 0.040809
0.497794 0.039216 0.038052
0.512561 0.043137 0.038052
0.530086 0.047059 0.038052
0.547733 0.049693 0.038174
0.563971 0.050980 0.036888
0.578738 0.052696 0.034130
0.597549 0.057537 0.034130
0.612622 0.062745 0.034498
0.627390 0.067219 0.029657
0.640993 0.070588 0.030209
0.654596 0.069056 0.030209
0.668198 0.074510 0.030209
0.685723 0.078737 0.026287
0.702022 0.082353 0.022365
0.714706 0.083517 0.022365
0.727390 0.085417 0.022365
0.740135 0.090196 0.018444
0.752757 0.094118 0.013541
0.767340 0.098039 0.014522
0.780944 0.101961 0.010601
0.798652 0.105882 0.008027
0.812071 0.105882 0.006679
0.824510 0.110294 0.003922
0.840625 0.113725 0.003922
0.851716 0.117647 0.003922
0.865319 0.117647 0.003922
0.875000 0.121569 0.003922
0.888603 0.122733 0.003922
0.902206 0.125490 0.003922
0.915809 0.129412 0.003922
0.929412 0.129412 0.003922
0.089951 0.117402 0.050490
0.107475 0.121079 0.050490
0.117402 0.121079 0.050490
0.131005 0.121079 0.050490
0.144608 0.121079 0.050490
0.157537 0.121079 0.047487
0.170220 0.121079 0.050735
0.181495 0.117402 0.050735
0.191667 0.117402 0.050735
0.204351 0.120649 0.050735
0.213113 0.117157 0.050735
0.221875 0.117157 0.054412
0.234314 0.117157 0.054412
0.243321 0.117157 0.054657
0.253186 0.116054 0.054657
0.264767 0.113235 0.054657
0.273529 0.113235 0.054657
0.285969 0.113235 0.054412
0.295834 0.109314 0.054412
0.307659 0.109314 0.052513
0.319118 0.110294 0.054657
0.332782 0.105392 0.054657
0.342402 0.105147 0.054657
0.358149 0.103616 0.054657
0.370833 0.098774 0.054657
0.379289 0.097610 0.054657
0.396201 0.089461 0.054657
0.406250 0.085540 0.057046
0.417647 0.083088 0.054412
0.430331 0.078002 0.054412
0.443015 0.065687 0.054412
0.455699 0.058089 0.050735
0.468382 0.046814 0.050735
0.476593 0.039216 0.050735
0.493873 0.035294 0.050735
0.507721 0.040012 0.050490
0.525245 0.041176 0.046814
0.543811 0.047059 0.046814
0.560049 0.050980 0.046814
0.573897 0.054902 0.046814
0.593627 0.058824 0.042892
0.608701 0.057537 0.042892
0.622916 0.062745 0.042892
0.636152 0.066667 0.042647
0.649754 0.070588 0.042647
0.663358 0.069056 0.042647
0.681495 0.073897 0.039584
0.690564 0.074815 0.035049
0.707108 0.082353 0.035049
0.723468 0.084253 0.031128
0.736152 0.085417 0.031986
0.748897 0.090196 0.027206
0.761765 0.091177 0.023284
0.778125 0.098039 0.025306
0.789706 0.101961 0.020466
0.803309 0.101777 0.015441
0.816911 0.109804 0.011520
0.836703 0.113725 0.010110
0.849387 0.116054 0.003922
0.865319 0.117647 0.003922
0.875000 0.121569 0.003922
0.888603 0.122733 0.003922
0.902206 0.125490 0.003922
0.915809 0.129412 0.003922
0.929412 0.129412 0.003922
0.102635 0.130760 0.059498
0.115318 0.134007 0.060172
0.129166 0.134007 0.060172
0.136764 0.134007 0.060172
0.145527 0.134007 0.060172
0.161458 0.134007 0.060172
0.171814 0.134007 0.060172
0.182905 0.134007 0.060172
0.195098 0.134007 0.060172
0.204351 0.134007 0.063419
0.213113 0.130760 0.063419
0.222549 0.130760 0.063419
0.234559 0.130760 0.063419
0.243505 0.130760 0.064093
0.256005 0.130760 0.064093
0.264767 0.130086 0.064093
0.277451 0.130086 0.064093
0.286214 0.130086 0.064093
0.298897 0.126838 0.064093
0.308333 0.126838 0.064093
0.323039 0.124142 0.067341
0.333027 0.126164 0.067341
0.346385 0.122917 0.067341
0.359927 0.121385 0.067341
0.373529 0.118995 0.067341
0.387132 0.115625 0.067341
0.396813 0.115380 0.067341
0.410416 0.111152 0.067341
0.424020 0.105698 0.067341
0.437623 0.103983 0.064093
0.447304 0.099938 0.064093
0.460540 0.095098 0.063051
0.473223 0.088297 0.063419
0.485907 0.078247 0.063419
0.498591 0.069485 0.063419
0.511275 0.056005 0.060172
0.523959 0.047365 0.058456
0.536642 0.042524 0.059498
0.556128 0.047733 0.059498
0.573101 0.050980 0.059620
0.587255 0.055699 0.054780
0.604106 0.060540 0.055576
0.618383 0.058824 0.055576
0.631986 0.062377 0.052328
0.648836 0.066667 0.052328
0.662439 0.072058 0.050183
0.673652 0.070588 0.051654
0.690257 0.073897 0.047733
0.703248 0.078431 0.047733
0.716851 0.083579 0.044485
0.728309 0.082353 0.043811
0.740992 0.086275 0.036826
0.757659 0.090196 0.036642
0.771262 0.094118 0.034988
0.784865 0.099938 0.032047
0.798468 0.098039 0.025307
0.812071 0.101777 0.024203
0.824938 0.105882 0.019547
0.843199 0.109804 0.014706
0.856801 0.113725 0.012439
0.871078 0.117218 0.008272
0.887929 0.121569 0.004596
0.900123 0.125490 0.003922
0.915809 0.129412 0.003922
0.929412 0.129412 0.003922
0.115318 0.144363 0.072181
0.124081 0.146691 0.072181
0.132843 0.146691 0.072181
0.141606 0.146691 0.072181
0.150367 0.146691 0.072181
0.163051 0.146691 0.072181
0.174142 0.146691 0.072181
0.185416 0.146691 0.072181
0.195588 0.146691 0.072181
0.205944 0.146691 0.072181
0.217034 0.146936 0.073774
0.225796 0.144363 0.073774
0.234559 0.144363 0.076103
0.243505 0.144363 0.076103
0.256005 0.144363 0.076103
0.266360 0.144363 0.076103
0.277451 0.142769 0.076103
0.290073 0.142769 0.076103
0.300490 0.143505 0.076103
0.311581 0.140441 0.076103
0.321936 0.140441 0.076103
0.336642 0.140441 0.076103
0.346323 0.138848 0.076103
0.359927 0.136519 0.076103
0.372672 0.136519 0.076103
0.385355 0.134926 0.076103
0.401961 0.132598 0.077696
0.414645 0.131311 0.076103
0.427941 0.128676 0.076103
0.441544 0.123224 0.076103
0.451225 0.120833 0.076103
0.464828 0.116912 0.076103
0.482353 0.112623 0.076103
0.495956 0.107781 0.076103
0.509559 0.102819 0.076103
0.520037 0.091851 0.072181
0.532721 0.083088 0.072181
0.545404 0.072732 0.072181
0.556495 0.056495 0.068260
0.569730 0.049204 0.068260
0.583333 0.052451 0.068260
0.598468 0.054902 0.068260
0.614461 0.060540 0.062623
0.631679 0.062745 0.064338
0.644363 0.062377 0.064338
0.657598 0.066667 0.064338
0.669730 0.072058 0.064338
0.686336 0.074510 0.060417
0.699019 0.073897 0.061030
0.711704 0.078431 0.056189
0.724387 0.083579 0.056495
0.737071 0.082353 0.050428
0.753676 0.090196 0.050245
0.766421 0.090196 0.048652
0.780025 0.094118 0.044730
0.793627 0.099938 0.042402
0.808333 0.101961 0.036887
0.820833 0.101777 0.032966
0.833701 0.105882 0.028309
0.851961 0.109804 0.025122
0.865564 0.112377 0.017279
0.879166 0.117218 0.013358
0.896691 0.121569 0.009436
0.914215 0.128493 0.005515
0.927819 0.129412 0.003922
0.124081 0.157965 0.080944
0.132844 0.157965 0.083456
0.141605 0.157965 0.083456
0.147856 0.157965 0.083456
0.155209 0.157965 0.083456
0.165380 0.157965 0.080944
0.176654 0.157965 0.080944
0.186826 0.157965 0.080944
0.195588 0.157965 0.083456
0.208272 0.157965 0.084866
0.217034 0.157965 0.084866
0.225796 0.157965 0.084866
0.234559 0.157965 0.084866
0.247243 0.157965 0.084866
0.257108 0.155454 0.084866
0.268689 0.155454 0.087377
0.277451 0.155454 0.087377
0.290135 0.155454 0.087377
0.299755 0.155454 0.087377
0.311581 0.156189 0.087377
0.324265 0.154044 0.088787
0.336949 0.154044 0.088787
0.349633 0.151532 0.088787
0.364828 0.151532 0.089767
0.377512 0.151593 0.087316
0.391054 0.150122 0.088787
0.400735 0.147611 0.088787
0.414338 0.146201 0.088787
0.427941 0.146201 0.088787
0.440931 0.142279 0.088787
0.455147 0.142157 0.088787
0.468750 0.139828 0.084866
0.482353 0.134436 0.084866
0.499878 0.130514 0.084866
0.513481 0.125307 0.084866
0.525674 0.120466 0.084866
0.539277 0.114215 0.084866
0.552880 0.105453 0.080821
0.566483 0.091728 0.080944
0.575612 0.080085 0.082904
0.585784 0.063787 0.077022
0.596936 0.054902 0.077022
0.611949 0.058211 0.077022
0.627757 0.056618 0.075612
0.639154 0.062745 0.075612
0.652757 0.064890 0.075612
0.665809 0.066667 0.072549
0.682414 0.070588 0.071691
0.693566 0.074510 0.069179
0.707169 0.078431 0.069179
0.720466 0.078431 0.069179
0.733149 0.082353 0.065258
0.749755 0.086275 0.061336
0.762439 0.090196 0.062194
0.775184 0.090196 0.057415
0.788787 0.094118 0.056005
0.800980 0.098039 0.049571
0.817095 0.101961 0.048161
0.829596 0.101777 0.044240
0.842463 0.105882 0.037071
0.856802 0.113725 0.036152
0.874326 0.112377 0.026042
0.887929 0.117218 0.022549
0.905453 0.121569 0.015196
0.922978 0.126899 0.010356
0.132843 0.168137 0.093628
0.141606 0.168137 0.093628
0.148530 0.168137 0.093628
0.155209 0.168137 0.093628
0.160539 0.168137 0.093628
0.168812 0.168137 0.093628
0.178064 0.168137 0.093628
0.186826 0.168137 0.093628
0.199020 0.168137 0.093628
0.208272 0.168137 0.093628
0.217034 0.168137 0.093628
0.225796 0.168137 0.093628
0.237745 0.168137 0.093628
0.247243 0.168137 0.097059
0.259927 0.168137 0.097549
0.268689 0.168137 0.097549
0.280883 0.168137 0.097549
0.290135 0.168137 0.097549
0.302819 0.168137 0.097549
0.313358 0.167647 0.097549
0.327696 0.167647 0.097549
0.336949 0.167647 0.097549
0.350245 0.164216 0.097549
0.363848 0.164216 0.097549
0.377451 0.164216 0.097549
0.391054 0.163726 0.097549
0.404290 0.163726 0.097549
0.416973 0.160294 0.097549
0.433088 0.159804 0.097549
0.445772 0.159804 0.097549
0.458947 0.155883 0.097549
0.472671 0.154841 0.097549
0.486274 0.151961 0.097549
0.499878 0.148040 0.097549
0.517402 0.144240 0.097549
0.530515 0.140196 0.097059
0.546324 0.137990 0.097059
0.559007 0.129228 0.093628
0.571814 0.124387 0.093138
0.584374 0.114583 0.093138
0.593137 0.104412 0.089706
0.604289 0.085846 0.089706
0.614583 0.070711 0.086398
0.620710 0.058824 0.085785
0.634314 0.062745 0.085785
0.647916 0.062745 0.085785
0.664951 0.066667 0.085785
0.675122 0.070588 0.081863
0.688726 0.068137 0.081863
0.702328 0.074510 0.077941
0.715931 0.078431 0.077941
0.729228 0.078431 0.077941
0.745833 0.079657 0.074020
0.758517 0.086275 0.075796
0.771201 0.090196 0.070098
0.783946 0.093689 0.069608
0.793627 0.091177 0.062255
0.813174 0.098039 0.064277
0.825858 0.101961 0.059437
0.838358 0.105882 0.054596
0.851961 0.109804 0.049755
0.865564 0.113725 0.044914
0.883089 0.117647 0.036152
0.896691 0.117218 0.031312
0.914215 0.122059 0.026471
0.141605 0.180821 0.102390
0.149449 0.180821 0.102390
0.155208 0.180821 0.102390
0.160050 0.180821 0.102390
0.165135 0.180821 0.102390
0.172978 0.180821 0.102390
0.181985 0.180821 0.102390
0.190748 0.180821 0.102390
0.199510 0.180821 0.102390
0.208272 0.180821 0.102390
0.217034 0.180821 0.102390
0.226225 0.180821 0.104657
0.238481 0.180821 0.106311
0.251164 0.180821 0.106311
0.259927 0.180821 0.106311
0.268689 0.180821 0.106311
0.281373 0.180821 0.106311
0.293995 0.177329 0.106311
0.302819 0.177329 0.106311
0.315503 0.177329 0.106311
0.326961 0.176900 0.109007
0.340563 0.176900 0.110233
0.353554 0.176900 0.110233
0.366238 0.176900 0.105208
0.378922 0.176900 0.106311
0.391605 0.176900 0.106311
0.404657 0.173407 0.106679
0.418259 0.172978 0.106740
0.430086 0.172978 0.106740
0.446262 0.172978 0.110233
0.459069 0.169056 0.110233
0.475552 0.169056 0.105698
0.490197 0.163603 0.106311
0.501347 0.165135 0.106311
0.517524 0.157843 0.106311
0.530638 0.156924 0.106311
0.548529 0.152083 0.106311
0.562133 0.147243 0.106311
0.572610 0.142402 0.102390
0.589338 0.137561 0.102390
0.597978 0.128799 0.102390
0.610661 0.116544 0.102390
0.619423 0.104472 0.095588
0.631679 0.090870 0.094976
0.640441 0.073346 0.094547
0.645710 0.060111 0.094547
0.661029 0.063174 0.094547
0.674571 0.066667 0.094547
0.687255 0.071139 0.093567
0.699939 0.070588 0.090625
0.712623 0.074510 0.090625
0.725306 0.081739 0.083395
0.738726 0.079166 0.086704
0.752329 0.082353 0.082782
0.763358 0.086275 0.082782
0.776042 0.093259 0.075796
0.792647 0.094179 0.074939
0.805331 0.094118 0.074939
0.818015 0.098039 0.069118
0.833946 0.104780 0.067096
0.847120 0.105882 0.063358
0.861152 0.110539 0.058517
0.876593 0.111887 0.049754
0.892280 0.113725 0.044914
0.909375 0.121140 0.040074
0.150368 0.189583 0.115073
0.158211 0.189583 0.115073
0.162132 0.189583 0.115073
0.166054 0.189583 0.115073
0.169975 0.189583 0.115073
0.177145 0.189583 0.115073
0.185907 0.189583 0.115073
0.192095 0.189583 0.115073
0.200858 0.189583 0.115073
0.208701 0.189583 0.112500
0.220956 0.189583 0.112500
0.229718 0.189583 0.115073
0.241666 0.189583 0.115073
0.251164 0.189583 0.115073
0.259927 0.189583 0.115073
0.270037 0.189583 0.115073
0.281373 0.189583 0.115073
0.293995 0.189583 0.115073
0.303677 0.189583 0.115073
0.315503 0.189583 0.115073
0.328186 0.189583 0.118995
0.338296 0.189583 0.118995
0.354902 0.187010 0.118995
0.367770 0.187010 0.118995
0.381373 0.187010 0.115073
0.394975 0.185662 0.115073
0.408211 0.185662 0.118995
0.420895 0.185662 0.118995
0.435785 0.185662 0.118995
0.449387 0.183088 0.118995
0.462868 0.181740 0.118995
0.476593 0.179167 0.119302
0.489584 0.177819 0.115073
0.507721 0.177819 0.115073
0.521324 0.171447 0.115073
0.534926 0.169975 0.115073
0.548162 0.167402 0.115073
0.566054 0.166054 0.115073
0.579657 0.162132 0.115073
0.592708 0.155086 0.111152
0.602819 0.147794 0.111152
0.615503 0.138909 0.111152
0.630147 0.130148 0.111152
0.636948 0.121078 0.107230
0.645710 0.104902 0.107230
0.654473 0.088726 0.104657
0.660172 0.072426 0.101593
0.670711 0.062806 0.103309
0.684314 0.066667 0.102329
0.696017 0.070588 0.099387
0.708701 0.073407 0.099387
0.721385 0.074510 0.099387
0.737990 0.078431 0.095466
0.750981 0.082659 0.095466
0.764583 0.084927 0.091544
0.775613 0.086275 0.091544
0.787868 0.089338 0.088481
0.801409 0.094118 0.083640
0.814093 0.094118 0.083701
0.832599 0.098039 0.076531
0.842279 0.100858 0.076961
0.857230 0.105882 0.072120
0.873407 0.109804 0.063358
0.885356 0.115379 0.058517
0.901961 0.117647 0.057598
0.156863 0.200613 0.121569
0.163051 0.200613 0.121569
0.166544 0.200613 0.123836
0.170894 0.200613 0.123836
0.174816 0.200613 0.123836
0.181066 0.200613 0.123836
0.190502 0.200613 0.123836
0.194669 0.200613 0.123836
0.203432 0.202267 0.123836
0.212194 0.202267 0.123836
0.220956 0.202267 0.123836
0.231985 0.202267 0.123836
0.242402 0.202267 0.123836
0.253431 0.202267 0.123836
0.263848 0.202267 0.123836
0.272610 0.202513 0.123836
0.284314 0.200613 0.123836
0.294057 0.200613 0.123836
0.306740 0.200613 0.123836
0.317280 0.200613 0.123836
0.330882 0.200613 0.123836
0.340870 0.200613 0.129106
0.354166 0.198345 0.127757
0.367770 0.198345 0.127757
0.381189 0.198345 0.125306
0.393872 0.198345 0.123836
0.408578 0.198345 0.127757
0.422181 0.196691 0.127757
0.435785 0.196691 0.127757
0.448529 0.193566 0.127757
0.462990 0.194424 0.127757
0.476593 0.192769 0.127757
0.494117 0.190502 0.123836
0.507721 0.190502 0.123836
0.525245 0.185049 0.123836
0.540319 0.184926 0.123836
0.552451 0.183211 0.123836
0.565686 0.178370 0.123836
0.583579 0.177083 0.123836
0.593260 0.172610 0.123836
0.606863 0.165318 0.119914
0.620343 0.159007 0.119914
0.634069 0.152513 0.119914
0.645710 0.143750 0.115992
0.654473 0.134988 0.115992
0.663236 0.122426 0.115992
0.671998 0.107169 0.112928
0.674571 0.086765 0.112071
0.683334 0.070588 0.111091
0.696017 0.068566 0.108149
0.709252 0.070588 0.108149
0.722856 0.075981 0.108149
0.732537 0.078431 0.104228
0.746753 0.077818 0.104228
0.759436 0.082353 0.100306
0.773345 0.087501 0.100306
0.785294 0.090196 0.096385
0.798897 0.089338 0.097243
0.812500 0.094118 0.092463
0.827757 0.099019 0.088542
0.839706 0.101961 0.084620
0.856066 0.103125 0.083456
0.868566 0.105698 0.076777
0.884437 0.109804 0.072120
0.898039 0.113725 0.068934
0.160784 0.211030 0.128677
0.167892 0.211030 0.128677
0.171814 0.211030 0.128677
0.175736 0.211030 0.128677
0.180147 0.214215 0.128677
0.187500 0.214215 0.128677
0.189828 0.214215 0.128677
0.198591 0.214215 0.128677
0.206618 0.214215 0.128677
0.215380 0.214215 0.128677
0.222304 0.214215 0.128677
0.233640 0.214215 0.128677
0.245588 0.214215 0.128677
0.255086 0.214215 0.129412
0.263848 0.214215 0.129412
0.275796 0.214215 0.129412
0.285295 0.214215 0.132598
0.297916 0.214215 0.132598
0.309927 0.211030 0.132598
0.319424 0.211030 0.132598
0.330882 0.211030 0.132598
0.344056 0.211030 0.132598
0.357476 0.211030 0.132598
0.373346 0.211030 0.132598
0.386029 0.211030 0.132598
0.398897 0.211030 0.132598
0.408578 0.210294 0.132598
0.424816 0.210294 0.132598
0.440686 0.210294 0.132598
0.453370 0.207108 0.132598
0.469976 0.210172 0.129535
0.480515 0.206372 0.132598
0.494117 0.203187 0.132598
0.511949 0.203493 0.132598
0.524632 0.202451 0.132598
0.538848 0.201654 0.132598
0.557843 0.195343 0.132598
0.569976 0.194607 0.132598
0.583211 0.191422 0.132598
0.597181 0.186764 0.128677
0.610784 0.182843 0.128677
0.625184 0.179718 0.128677
0.637991 0.171691 0.128677
0.650552 0.163235 0.124755
0.659313 0.158088 0.124755
0.668811 0.148591 0.124755
0.677573 0.139951 0.121692
0.685600 0.125613 0.120834
0.696568 0.108088 0.119853
0.699204 0.084926 0.116912
0.704412 0.070588 0.116912
0.717463 0.070588 0.113725
0.730883 0.072059 0.112990
0.744485 0.078431 0.111336
0.754902 0.082353 0.109069
0.768198 0.082353 0.109069
0.784804 0.083579 0.105147
0.797487 0.090196 0.103738
0.810172 0.094118 0.101226
0.822855 0.094118 0.097304
0.839461 0.095098 0.093383
0.850122 0.101961 0.092218
0.866912 0.105882 0.087378
0.881434 0.109804 0.082537
0.894853 0.113725 0.077696
0.164706 0.223713 0.133517
0.169546 0.223713 0.133517
0.174387 0.223713 0.133517
0.176471 0.223713 0.133517
0.184069 0.223713 0.133517
0.188909 0.223713 0.137255
0.192341 0.223713 0.137255
0.202513 0.223713 0.137255
0.211275 0.223713 0.137255
0.216299 0.223713 0.137255
0.228799 0.223713 0.137255
0.237561 0.223713 0.137255
0.246507 0.223713 0.137255
0.259008 0.223713 0.137255
0.267770 0.223713 0.137255
0.278554 0.223713 0.137439
0.285478 0.223713 0.137439
0.297978 0.223713 0.137439
0.310662 0.223713 0.137439
0.323346 0.223713 0.137439
0.332292 0.223713 0.137439
0.348407 0.223713 0.137439
0.361397 0.223713 0.137439
0.374081 0.223713 0.137439
0.386765 0.223713 0.137439
0.402819 0.223713 0.137439
0.412316 0.219976 0.137439
0.425000 0.219976 0.137439
0.441422 0.217770 0.141176
0.457231 0.219792 0.141176
0.470711 0.219792 0.141176
0.484436 0.216054 0.141176
0.496263 0.214093 0.137439
0.515564 0.215870 0.137439
0.529167 0.215870 0.137439
0.542156 0.211949 0.137439
0.560294 0.211949 0.137439
0.573897 0.208027 0.137439
0.584129 0.200735 0.137439
