Color/Fuji/Fuji FP-100c 1 -- 65x.cube
TITLE "Fuji FP-100c 1 --"
LUT_3D_SIZE 65
DOMAIN_MIN 0.000000 0.000000 0.000000
DOMAIN_MAX 1.000000 1.000000 1.000000
0.000000 0.000000 0.000000
0.003003 0.000000 0.000000
0.005760 0.000000 0.000000
0.007843 0.000000 0.000000
0.011520 0.000000 0.000000
0.016360 0.000000 0.000000
0.029044 0.003922 0.003922
0.036397 0.000000 0.000000
0.050000 0.003922 0.003432
0.063174 0.003922 0.000000
0.075858 0.007843 0.000000
0.088542 0.007843 0.000000
0.104411 0.011765 0.000000
0.121937 0.011765 0.000000
0.138358 0.010662 0.000000
0.156985 0.009865 0.002022
0.174510 0.004902 0.000000
0.192034 0.003922 0.000000
0.213481 0.000000 0.003064
0.232782 0.000000 0.001777
0.252451 0.000000 0.000000
0.269975 0.000000 0.000000
0.291421 0.000000 0.000000
0.312868 0.000000 0.000000
0.332843 0.000000 0.000000
0.355209 0.000000 0.000000
0.381127 0.000000 0.000000
0.402573 0.000000 0.000000
0.424020 0.000000 0.000000
0.448590 0.000000 0.000000
0.470956 0.000000 0.000000
0.496201 0.000000 0.000000
0.519608 0.000000 0.000000
0.543015 0.000000 0.000000
0.564461 0.000000 0.000000
0.585907 0.000000 0.000000
0.612990 0.000000 0.000000
0.636643 0.000000 0.000000
0.661642 0.000000 0.000000
0.684007 0.000000 0.000000
0.708824 0.000000 0.000000
0.726348 0.000000 0.000000
0.747794 0.000000 0.000000
0.765319 0.000000 0.000000
0.782843 0.000000 0.000000
0.800368 0.000000 0.000000
0.813970 0.000000 0.000000
0.831434 0.000000 0.000000
0.846078 0.000000 0.000000
0.860723 0.000000 0.000000
0.876225 0.000000 0.000000
0.890012 0.000000 0.000000
0.903432 0.000000 0.000000
0.920956 0.000000 0.000000
0.934559 0.000000 0.000000
0.948162 0.000000 0.000000
0.957353 0.000000 0.000000
0.971446 0.000000 0.000000
0.985049 0.000000 0.000000
0.994730 0.000000 0.000000
1.000000 0.000000 0.000000
1.000000 0.017586 0.003922
1.000000 0.063235 0.011765
1.000000 0.104289 0.021691
1.000000 0.149020 0.039216
0.000000 0.000919 0.000000
0.003922 0.003922 0.000000
0.003922 0.003922 0.000000
0.007843 0.003922 0.000000
0.011765 0.003922 0.003003
0.020282 0.004596 0.003003
0.029718 0.005515 0.004596
0.034805 0.006434 0.000000
0.050490 0.004841 0.000000
0.064093 0.008762 0.000000
0.077206 0.013113 0.000000
0.090809 0.014951 0.002267
0.108333 0.016605 0.003922
0.121937 0.011949 -0.000735
0.140564 0.012684 0.001103
0.157904 0.012684 0.000919
0.177451 0.008762 0.000000
0.195955 0.004901 -0.002942
0.214338 0.003922 -0.000061
0.234927 0.000000 0.000000
0.252145 0.000000 0.000000
0.270894 0.000000 0.000000
0.296262 0.000000 0.000000
0.313787 0.000000 0.000000
0.338235 0.000000 0.000000
0.359130 0.000000 0.000000
0.381127 0.000000 0.000000
0.403493 0.000000 0.000000
0.426226 0.000000 0.000000
0.449510 0.000000 0.000000
0.474755 0.000000 0.000000
0.497243 0.000000 0.000000
0.518566 0.000000 0.000000
0.543015 0.000000 0.000000
0.568259 0.000000 0.000000
0.586704 0.000000 0.000000
0.612990 0.000000 0.000000
0.639277 0.000000 0.000000
0.665564 0.000000 0.000000
0.687378 0.000000 0.000000
0.709375 0.000000 0.000000
0.729350 0.000000 0.000000
0.747794 0.000000 0.000000
0.765319 0.000000 0.000000
0.782843 0.000000 0.000000
0.798223 0.000000 0.000000
0.814828 0.000000 0.000000
0.827635 0.000000 0.000000
0.845036 0.000000 0.000000
0.862623 0.000000 0.000000
0.874325 0.000000 0.000000
0.893750 0.000000 0.000000
0.903432 0.000000 0.000000
0.919302 0.000000 0.000000
0.931985 0.000000 0.000000
0.948162 0.000000 0.000000
0.961274 0.000000 0.000000
0.973039 0.000000 0.000000
0.982721 0.000000 0.000000
0.995404 0.000000 0.000000
1.000000 0.002328 0.000000
1.000000 0.038113 0.005086
1.000000 0.072917 0.008762
1.000000 0.107965 0.021692
1.000000 0.152941 0.039216
0.000000 0.005760 0.001838
0.000919 0.005760 0.000000
0.005760 0.005760 0.000000
0.007843 0.005760 0.000000
0.015441 0.005760 0.000000
0.021446 0.009007 0.003248
0.026716 0.009681 0.000000
0.037807 0.010356 0.000000
0.053922 0.015196 0.005515
0.063603 0.017524 0.003922
0.077696 0.017524 0.000000
0.093076 0.019791 0.002267
0.105147 0.019608 0.000000
0.125674 0.019608 0.003738
0.141299 0.017524 0.000000
0.156801 0.015502 0.000000
0.178431 0.014583 -0.001103
0.195955 0.009743 0.000000
0.214338 0.007843 -0.000981
0.234927 0.003983 0.000000
0.256373 -0.000858 0.000000
0.277512 0.000000 0.000000
0.297181 0.000000 0.000000
0.318628 0.000000 0.000000
0.340686 0.000000 0.000000
0.359681 0.000000 0.000000
0.381495 0.000000 0.000000
0.408333 0.000000 0.000000
0.425858 0.000000 0.000000
0.452512 0.000000 0.000000
0.474878 0.000000 0.000000
0.500122 0.000000 0.000000
0.519485 0.000000 0.000000
0.543811 0.000000 0.000000
0.568259 0.000000 0.000000
0.591667 0.000000 0.000000
0.614828 0.000000 0.000000
0.643199 0.000000 0.000000
0.665564 0.000000 0.000000
0.689216 0.000000 0.000000
0.708824 0.000000 0.000000
0.730269 0.000000 0.000000
0.747794 0.000000 0.000000
0.765319 0.000000 0.000000
0.782843 0.000000 0.000000
0.798223 0.000000 0.000000
0.813970 0.000000 0.000000
0.833273 0.000000 0.000000
0.849020 0.000000 0.000000
0.862623 0.000000 0.000000
0.876225 0.000000 0.000000
0.890012 0.000000 0.000000
0.906617 0.000000 0.000000
0.919302 0.000000 0.000000
0.934559 0.000000 0.000000
0.948162 0.000000 0.000000
0.957843 0.000000 0.000000
0.971875 0.000000 0.000000
0.985049 0.000000 0.000000
0.993321 0.000000 0.000000
1.000000 0.006986 -0.001593
1.000000 0.050797 0.005086
1.000000 0.086765 0.012010
1.000000 0.115809 0.021691
1.000000 0.154779 0.039216
0.000000 0.006679 0.002758
0.006679 0.010601 0.005760
0.005760 0.010601 0.000000
0.010601 0.010601 0.002758
0.015441 0.010601 0.000000
0.020956 0.011274 -0.002084
0.029044 0.011765 0.000000
0.040318 0.014277 -0.000245
0.053922 0.019118 0.004596
0.063603 0.022365 0.002758
0.077206 0.020956 -0.001409
0.092463 0.023529 -0.000490
0.108333 0.023100 0.000000
0.124694 0.028860 0.002758
0.142218 0.025183 0.000000
0.159007 0.022365 0.000000
0.178431 0.018444 0.000000
0.200981 0.019608 0.000000
0.217402 0.013665 0.000000
0.239828 0.008823 0.000000
0.259068 0.003922 0.000000
0.277818 0.000000 0.000000
0.298714 0.000000 0.000000
0.319547 0.000000 0.000000
0.340686 0.000000 0.000000
0.363052 0.000000 0.000000
0.385417 0.000000 0.000000
0.407782 0.000000 0.000000
0.430147 0.000000 0.000000
0.452512 0.000000 0.000000
0.478676 0.000000 0.000000
0.497243 0.000000 0.000000
0.520772 0.000000 0.000000
0.545895 0.000000 0.000000
0.568382 0.000000 0.000000
0.592586 0.000000 0.000000
0.616912 0.000000 0.000000
0.643199 0.000000 0.000000
0.664767 0.000000 0.000000
0.687929 0.000000 0.000000
0.710294 0.000000 0.000000
0.730269 0.000000 0.000000
0.747794 0.000000 0.000000
0.768076 0.000000 0.000000
0.782843 0.000000 0.000000
0.800368 0.000000 0.000000
0.813664 0.000000 0.000000
0.831496 0.000000 0.000000
0.848039 0.000000 0.000000
0.862623 0.000000 0.000000
0.876225 0.000000 0.000000
0.893750 0.000000 0.000000
0.904596 0.000000 0.000000
0.919302 0.000000 0.000000
0.934559 0.000000 0.000000
0.944669 0.000000 0.000000
0.958517 0.000000 0.000000
0.972794 0.000000 0.000000
0.982292 0.000000 0.000000
0.995404 0.000000 0.000000
1.000000 0.028861 0.002758
1.000000 0.062316 0.005086
1.000000 0.094118 0.009927
1.000000 0.121569 0.019853
1.000000 0.159620 0.038052
0.000000 0.011765 0.000000
0.003922 0.015441 0.003003
0.007843 0.013603 0.000245
0.011520 0.015441 0.000000
0.015441 0.015441 0.000000
0.027206 0.019363 0.000000
0.032966 0.019608 0.000000
0.041728 0.018199 0.000000
0.057599 0.026716 0.003432
0.063603 0.027206 0.000000
0.079779 0.027451 0.000000
0.094730 0.027451 0.000000
0.112009 0.031128 0.003677
0.125858 0.031128 0.000000
0.143382 0.030025 0.000000
0.162929 0.025551 -0.001655
0.182353 0.027206 0.000000
0.199877 0.023284 0.000000
0.221324 0.022427 0.000000
0.240625 0.013542 0.000000
0.260294 0.009069 0.000000
0.277818 0.003983 0.000000
0.296200 0.000000 0.000000
0.320711 0.000000 0.000000
0.340686 0.000000 0.000000
0.363052 0.000000 0.000000
0.392647 0.000000 0.000000
0.410416 0.000000 0.000000
0.431863 0.000000 0.000000
0.456434 0.000000 0.000000
0.478554 0.000000 0.000000
0.503799 0.000000 0.000000
0.523529 0.000000 0.000000
0.546936 0.000000 0.000000
0.568382 0.000000 0.000000
0.590625 0.000000 0.000000
0.620833 0.000000 0.000000
0.648161 0.000000 0.000000
0.669485 0.000000 0.000000
0.687929 0.000000 0.000000
0.711275 0.000000 0.000000
0.730269 0.000000 0.000000
0.748407 0.000000 0.000000
0.765319 0.000000 0.000000
0.782843 0.000000 0.000000
0.800368 0.000000 0.000000
0.817647 0.000000 0.000000
0.835111 0.000000 0.000000
0.842401 0.000000 0.000000
0.860723 0.000000 0.000000
0.876225 0.000000 0.000000
0.893812 0.000000 0.000000
0.907108 0.000000 0.000000
0.917280 0.000000 0.000000
0.930882 0.000000 0.000000
0.944669 0.000000 0.000000
0.961030 0.000000 0.000000
0.970036 0.000000 0.000000
0.982721 0.000000 0.000000
0.991054 0.007353 0.000000
1.000000 0.043628 0.000000
1.000000 0.073836 0.003922
1.000000 0.104044 0.009927
1.000000 0.129657 0.018015
1.000000 0.168382 0.038971
0.000000 0.020956 0.000674
0.004596 0.020956 0.003922
0.009681 0.022120 0.005086
0.011274 0.023714 0.000674
0.016116 0.020956 -0.003003
0.024877 0.024877 0.000000
0.034314 0.025551 0.000000
0.048836 0.031312 0.000000
0.059007 0.032721 0.000000
0.068873 0.033150 0.000000
0.082475 0.035968 0.000000
0.100000 0.036642 0.000000
0.120037 0.039890 0.000000
0.131128 0.036642 0.000000
0.148652 0.037071 0.000000
0.168076 0.037868 0.000000
0.189889 0.035968 0.000000
0.208333 0.035294 0.000000
0.222672 0.028125 0.000000
0.245221 0.024877 0.000000
0.263664 0.020956 0.000000
0.282415 0.013419 0.000000
0.303799 0.008517 0.000000
0.325307 0.003064 0.000000
0.346752 -0.001777 0.000000
0.370895 0.000000 0.000000
0.390318 0.000000 0.000000
0.415625 0.000000 0.000000
0.434742 0.000000 0.000000
0.461029 0.000000 0.000000
0.483272 0.000000 0.000000
0.505760 0.000000 0.000000
0.526839 0.000000 0.000000
0.548284 0.000000 0.000000
0.572855 0.000000 0.000000
0.596691 0.000000 0.000000
0.622181 0.000000 0.000000
0.645834 0.000000 0.000000
0.670527 0.000000 0.000000
0.689277 0.000000 0.000000
0.710845 0.000000 0.000000
0.731617 0.000000 0.000000
0.749142 0.000000 0.000000
0.766667 0.000000 0.000000
0.782966 0.000000 0.000000
0.797794 0.000000 0.000000
0.812255 0.000000 0.000000
0.832782 0.000000 0.000000
0.845466 0.000000 0.000000
0.863297 0.000000 0.000000
0.876899 0.000000 0.000000
0.887439 0.000000 0.000000
0.903370 0.000000 0.000000
0.917708 0.000000 0.000000
0.932660 0.000000 0.000000
0.944915 0.000000 0.000000
0.958701 0.000000 0.000000
0.967463 0.000000 0.000000
0.981802 0.012990 0.000000
0.988909 0.017157 0.000000
1.000000 0.053860 0.000674
1.000000 0.078309 0.001838
1.000000 0.105086 0.007353
1.000000 0.133701 0.015870
1.000000 0.152512 0.020404
0.000000 0.031373 0.003922
0.004841 0.029963 0.003922
0.011765 0.032966 0.002084
0.016116 0.035724 0.003922
0.019608 0.038971 0.002329
0.031373 0.036887 0.003248
0.038480 0.038480 0.000000
0.049571 0.040809 0.000000
0.065687 0.044730 0.000000
0.080453 0.049816 0.000000
0.091299 0.048652 0.000000
0.106495 0.048652 0.000000
0.124019 0.047059 0.000000
0.141544 0.052389 0.000000
0.159559 0.048652 0.000000
0.174264 0.048652 0.000000
0.194117 0.043382 0.000000
0.215502 0.048590 0.000000
0.230760 0.043138 0.000000
0.250613 0.036704 0.000000
0.265809 0.031863 0.000000
0.290870 0.030637 0.000000
0.312623 0.022181 0.000000
0.330147 0.015747 0.000000
0.350000 0.006985 0.000000
0.371446 -0.003554 0.000000
0.398406 0.000000 0.000000
0.419853 0.000000 0.000000
0.441912 0.000000 0.000000
0.465870 0.000000 0.000000
0.486643 0.000000 0.000000
0.509007 0.000000 0.000000
0.531005 0.000000 0.000000
0.557659 0.000000 0.000000
0.580024 0.000000 0.000000
0.603983 0.000000 0.000000
0.630270 0.000000 0.000000
0.654964 0.000000 0.000000
0.675368 0.000000 0.000000
0.700735 0.000000 0.000000
0.718137 0.000000 0.000000
0.737316 0.000000 0.000000
0.758946 0.000000 0.000000
0.771875 0.000000 0.000000
0.790686 0.000000 0.000000
0.806618 0.000000 0.000000
0.821813 0.000000 0.000000
0.835417 0.000000 0.000000
0.853554 0.000000 0.000000
0.866238 0.000000 0.000000
0.884069 0.000000 0.000000
0.891606 0.000000 0.000000
0.907353 0.000000 0.000000
0.920956 0.000000 0.000000
0.935907 0.000000 0.000000
0.950491 0.000000 0.000000
0.960171 0.000000 0.000000
0.973958 0.009007 0.000000
0.981985 0.036887 0.000000
0.998652 0.071078 0.000000
1.000000 0.093872 0.001593
1.000000 0.113726 0.007843
1.000000 0.134926 0.013848
1.000000 0.157292 0.023284
1.000000 0.189828 0.043137
0.002513 0.044240 0.003922
0.007354 0.044240 0.003922
0.013603 0.043566 0.003922
0.018199 0.045650 0.003922
0.025797 0.049325 0.002513
0.032047 0.051409 0.000000
0.040809 0.052083 0.000000
0.052083 0.052083 0.000000
0.066177 0.057415 0.000000
0.079289 0.059926 0.000000
0.095466 0.061336 0.000000
0.110416 0.061336 0.000000
0.127941 0.061336 0.000000
0.141544 0.061336 0.000000
0.161887 0.062745 0.000000
0.180515 0.061336 0.000000
0.193688 0.056986 0.000000
0.214154 0.057415 0.000000
0.230025 0.050429 0.000000
0.252390 0.052083 0.000000
0.272059 0.048161 0.000000
0.292096 0.043138 0.000000
0.311642 0.039706 0.000000
0.334988 0.030944 0.000000
0.353922 0.022120 0.000000
0.378738 0.019301 0.000000
0.403248 0.011091 0.000000
0.424694 0.000000 0.000000
0.446140 0.000000 0.000000
0.467586 0.000000 0.000000
0.490564 0.000000 0.000000
0.514400 0.000000 0.000000
0.535294 0.000000 0.000000
0.561581 0.000000 0.000000
0.586458 0.000000 0.000000
0.612745 0.000000 0.000000
0.637316 0.000000 0.000000
0.658885 0.000000 0.000000
0.680208 0.000000 0.000000
0.703064 0.000000 0.000000
0.719546 0.000000 0.000000
0.739522 0.000000 0.000000
0.759559 0.000000 0.000000
0.779290 0.000000 0.000000
0.790686 0.000000 0.000000
0.805699 0.000000 0.000000
0.821813 0.000000 0.000000
0.841790 0.000000 0.000000
0.854473 0.000000 0.000000
0.866544 0.000000 0.000000
0.879841 0.000000 0.000000
0.893934 0.000000 0.000000
0.913052 0.000000 0.000000
0.923223 0.000000 0.000000
0.934559 0.000000 0.000000
0.948591 0.000000 0.000000
0.961274 0.011519 0.000000
0.973958 0.041728 0.000000
0.985049 0.069424 0.000000
0.995404 0.089951 0.000000
1.000000 0.111397 0.000245
1.000000 0.128922 0.007599
1.000000 0.147855 0.013848
1.000000 0.167892 0.021201
1.000000 0.201103 0.045650
0.000000 0.054412 0.003922
0.007843 0.060846 0.003922
0.013603 0.054412 0.003922
0.018444 0.054412 0.000000
0.023284 0.057843 0.000000
0.032047 0.059007 0.003248
0.040809 0.065687 0.003432
0.048652 0.064768 0.000000
0.062255 0.066177 0.000000
0.075857 0.066605 0.000000
0.098898 0.073530 0.000000
0.110416 0.073530 0.000000
0.127941 0.074020 0.000000
0.141727 0.073713 0.000000
0.165318 0.073530 0.000000
0.183946 0.075429 0.000000
0.198039 0.070098 0.000000
0.218995 0.069669 0.000000
0.240441 0.072672 0.000000
0.259743 0.069608 0.000000
0.279412 0.065687 0.000000
0.297426 0.062071 0.000000
0.315564 0.054412 0.000000
0.339828 0.055821 0.000000
0.361275 0.047059 0.000000
0.382721 0.042218 0.000000
0.408088 0.033456 0.000000
0.427389 0.021262 0.000000
0.449755 0.012500 0.000000
0.476348 0.006863 0.000000
0.494486 0.000000 0.000000
0.516851 0.000000 0.000000
0.539215 0.000000 0.000000
0.565012 0.000000 0.000000
0.591422 0.000000 0.000000
0.617586 0.000000 0.000000
0.640441 0.000000 0.000000
0.663603 0.000000 0.000000
0.685172 0.000000 0.000000
0.706434 0.000000 0.000000
0.725490 0.000000 0.000000
0.742034 0.000000 0.000000
0.759559 0.000000 0.000000
0.776593 0.000000 0.000000
0.794118 0.000000 0.000000
0.808211 0.000000 0.000000
0.821813 0.000000 0.000000
0.835478 0.000000 0.000000
0.855392 0.000000 0.000000
0.868566 0.000000 0.000000
0.879534 0.000000 0.000000
0.897671 0.000000 0.000000
0.910539 0.000000 0.000000
0.923223 0.000000 0.000000
0.935049 0.006863 0.000000
0.948591 0.027635 0.000000
0.961274 0.050490 0.000000
0.973958 0.075858 0.000000
0.986642 0.093872 0.000000
0.995404 0.111397 0.000000
1.000000 0.125000 0.000000
0.997242 0.140257 0.005086
1.000000 0.160539 0.013848
1.000000 0.181066 0.022181
1.000000 0.207353 0.043137
0.000000 0.067525 0.003922
0.008333 0.071936 0.003922
0.009681 0.067954 0.003922
0.018014 0.071017 0.003922
0.023284 0.071446 0.003922
0.031618 0.074694 0.003248
0.040380 0.076532 0.003493
0.051654 0.078860 0.000000
0.062255 0.079289 0.000000
0.078860 0.086704 0.000000
0.097733 0.087133 0.000000
0.113909 0.090625 0.000000
0.128370 0.087562 0.000000
0.145649 0.087317 0.000000
0.163419 0.086459 0.000000
0.184436 0.090625 0.000000
0.202389 0.087133 0.000000
0.216483 0.083702 0.000000
0.241361 0.086704 0.000000
0.262807 0.085356 0.000000
0.286519 0.083211 0.000000
0.301777 0.082782 0.000000
0.323223 0.075184 0.000000
0.344669 0.073836 0.000000
0.366115 0.071446 0.000000
0.384069 0.064032 0.000000
0.412500 0.059743 0.000000
0.430453 0.052267 0.000000
0.454106 0.044853 0.000000
0.479963 0.040503 0.000000
0.502206 0.028922 0.000000
0.523652 0.015318 0.000000
0.547059 0.005637 0.000000
0.573775 -0.001164 0.000000
0.592770 -0.002941 0.000000
0.621998 0.000000 0.000000
0.644792 0.000000 0.000000
0.668015 0.000000 0.000000
0.689093 0.000000 0.000000
0.706985 0.000000 0.000000
0.728431 0.000000 0.000000
0.745956 0.000000 0.000000
0.763481 0.000000 0.000000
0.777513 0.000000 0.000000
0.793382 0.000000 0.000000
0.808211 0.000000 0.000000
0.824877 0.000000 0.000000
0.839339 0.000000 0.000000
0.852389 0.000000 0.000000
0.866973 0.000000 0.000000
0.884069 0.000000 0.000000
0.901164 0.011642 0.000000
0.910539 0.007966 0.000000
0.921385 0.027145 0.000000
0.935907 0.050000 0.000000
0.948591 0.064462 0.000000
0.961764 0.084559 0.000000
0.973958 0.102144 0.000000
0.982721 0.113419 0.000000
0.995404 0.132843 0.000000
1.000000 0.146017 -0.000184
1.000000 0.160049 0.007843
1.000000 0.177145 0.013848
1.000000 0.194669 0.022610
1.000000 0.220037 0.043137
0.000000 0.081127 0.002574
-0.000429 0.085049 0.001348
0.008333 0.085049 0.003922
0.010417 0.082292 0.001164
0.018014 0.087377 0.003922
0.026103 0.087623 0.003248
0.035539 0.091544 0.002574
0.046814 0.094056 0.000000
0.058334 0.092892 0.000000
0.074449 0.097243 0.000000
0.092892 0.102083 0.000000
0.112684 0.106924 0.000000
0.131862 0.105392 0.000000
0.149388 0.109742 0.000000
0.168015 0.104412 0.000000
0.188358 0.108578 0.000000
0.205882 0.107230 0.000000
0.220894 0.104657 0.000000
0.245711 0.104657 0.000000
0.268076 0.104657 0.000000
0.290441 0.100735 0.000000
0.306617 0.097120 0.000000
0.330637 0.096814 0.000000
0.349510 0.092892 0.000000
0.372059 0.087868 0.000000
0.394424 0.086397 0.000000
0.417769 0.082475 0.000000
0.439154 0.077206 0.000000
0.458088 0.071568 0.000000
0.483885 0.070711 0.000000
0.502329 0.060172 0.000000
0.526042 0.051103 0.000000
0.554289 0.045956 0.000000
0.578615 0.036581 0.000000
0.601104 0.030392 0.000000
0.630392 0.022978 0.000000
0.647917 0.011642 0.000000
0.669363 0.005454 0.000000
0.693015 0.003186 0.000000
0.710110 0.002696 0.000000
0.729902 0.002696 0.000000
0.747488 0.000307 0.000000
0.763481 0.001348 0.000000
0.780698 0.001348 0.000000
0.794608 0.001348 0.000000
0.807415 0.003492 0.000000
0.822671 0.004411 0.000000
0.837990 0.005392 0.000000
0.855883 0.007720 0.000000
0.869118 0.018382 0.000000
0.882720 0.029166 0.000000
0.893934 0.039277 0.000000
0.909926 0.056495 0.000000
0.923530 0.069792 0.000000
0.934558 0.086274 0.000000
0.946017 0.095159 0.000000
0.961274 0.109559 0.000000
0.970036 0.121752 0.000000
0.983701 0.137990 0.000000
0.991483 0.145772 0.000000
1.000000 0.161029 -0.001103
1.000000 0.170956 0.003738
1.000000 0.186397 0.012500
1.000000 0.200735 0.019914
1.000000 0.224633 0.036397
0.000000 0.108149 0.003922
0.000000 0.105147 -0.001348
0.000000 0.110845 0.004351
0.000000 0.106495 0.002758
0.014584 0.106740 0.003922
0.018015 0.109742 0.000000
0.029106 0.110416 0.002329
0.041973 0.112929 0.000000
0.060662 0.115503 0.000000
0.075368 0.118688 0.000000
0.090625 0.119607 0.000000
0.112071 0.126103 0.000000
0.131862 0.126103 0.000000
0.159314 0.132107 0.000000
0.174755 0.124939 0.000000
0.192279 0.126103 0.000000
0.209130 0.126103 0.000000
0.232843 0.127697 0.000000
0.248775 0.122181 0.000000
0.270221 0.122671 0.000000
0.292096 0.118260 0.000000
0.318076 0.121874 0.000000
0.336826 0.116606 0.000000
0.358272 0.115074 0.000000
0.375796 0.112684 0.000000
0.400613 0.108762 0.000000
0.420711 0.106495 0.000000
0.446324 0.105821 0.000000
0.467709 0.098652 0.000000
0.489216 0.096140 0.000000
0.514094 0.092954 0.000000
0.543873 0.090380 0.000000
0.565012 0.081312 0.000000
0.591299 0.076777 0.000000
0.619118 0.075735 0.000000
0.636030 0.069363 0.000000
0.660601 0.064522 0.000000
0.679780 0.059681 0.000000
0.699571 0.053186 0.000000
0.717096 0.052819 0.000000
0.736274 0.053615 0.000000
0.756189 0.051287 0.000000
0.771324 0.048897 0.000000
0.784927 0.048897 0.000000
0.801226 0.048897 0.000000
0.816054 0.052819 0.000000
0.830515 0.056740 0.000000
0.849388 0.064583 0.000000
0.857843 0.067218 0.000000
0.870466 0.071691 0.000000
0.887990 0.085294 0.000000
0.896385 0.091237 0.000000
0.914460 0.100000 0.000000
0.924878 0.108762 0.000000
0.938174 0.117218 0.000000
0.953738 0.127941 0.000000
0.963541 0.140625 0.000000
0.975368 0.153309 0.000000
0.988971 0.162071 0.000000
1.000306 0.172488 0.000000
1.000000 0.185171 0.006189
1.000000 0.197856 0.011765
1.000000 0.210539 0.017770
1.000000 0.226961 0.029535
1.000000 0.249326 0.050980
0.000000 0.120834 0.000735
0.000000 0.124019 0.006189
0.000000 0.122671 0.000735
0.000000 0.124019 0.000735
0.000000 0.124019 0.000245
0.009253 0.124019 0.000000
0.016422 0.122426 0.000000
0.030025 0.127941 0.000000
0.050735 0.131372 0.000000
0.067525 0.132291 0.000000
0.087623 0.138358 0.000000
0.103309 0.139705 0.000000
0.127941 0.143627 0.000000
0.149388 0.146814 0.000000
0.176838 0.149632 0.000000
0.192279 0.146814 0.000000
0.210539 0.144608 0.000000
0.231250 0.143627 0.000000
0.251961 0.142892 0.000000
0.268812 0.139705 0.000000
0.294363 0.139705 0.000000
0.313113 0.138970 0.000000
0.341667 0.138970 0.000000
0.363112 0.140625 0.000000
0.383823 0.135784 0.000000
0.405270 0.131679 0.000000
0.427819 0.127941 0.000000
0.452819 0.129841 0.000000
0.474264 0.128187 0.000000
0.498836 0.123284 0.000000
0.525123 0.119363 0.000000
0.551409 0.115441 0.000000
0.575735 0.113480 0.000000
0.601103 0.111826 0.000000
0.622426 0.107598 0.000000
0.641606 0.103676 0.000000
0.667647 0.105147 0.000000
0.686887 0.100306 0.000000
0.705147 0.095466 0.000000
0.728493 0.098285 0.000000
0.740196 0.095098 0.000000
0.756189 0.093566 0.000000
0.771201 0.094363 0.000000
0.788848 0.097978 0.000000
0.802451 0.092401 0.000000
0.821017 0.098284 0.000000
0.833701 0.098162 0.000000
0.850307 0.102941 0.000000
0.862991 0.106863 0.000000
0.876409 0.110784 0.000000
0.887990 0.117525 0.000000
0.902329 0.123100 0.000000
0.917647 0.131127 0.000000
0.924878 0.136703 0.000000
0.939828 0.145466 0.000000
0.949020 0.150735 0.000000
0.965196 0.166421 0.000000
0.975368 0.172488 0.000000
0.985049 0.181250 0.000000
0.995343 0.190686 0.000000
1.000000 0.202696 0.000981
1.000000 0.212193 0.011765
1.000000 0.225980 0.017770
1.000000 0.239828 0.029535
1.000000 0.265196 0.054167
0.000000 0.141360 0.003738
0.000000 0.141544 0.000000
0.000000 0.141544 0.000000
0.000000 0.141544 0.003738
0.000000 0.141544 0.003677
0.000000 0.138297 0.000674
0.010662 0.142953 0.000000
0.024449 0.141727 0.000000
0.045221 0.145466 0.000000
0.059498 0.149388 0.000000
0.082108 0.153125 0.000000
0.100736 0.157659 0.000000
0.116176 0.154044 0.000000
0.141544 0.157414 0.000000
0.167831 0.165074 0.000000
0.182598 0.163051 0.000000
0.212745 0.161335 0.000000
0.234926 0.161213 0.000000
0.249816 0.161335 0.000000
0.274142 0.161152 0.000000
0.300796 0.161152 0.000000
0.313296 0.153800 0.000000
0.339277 0.157414 0.000000
0.363848 0.157231 0.000000
0.385478 0.157231 0.000000
0.414032 0.160600 0.000000
0.436581 0.153492 0.000000
0.460233 0.153492 0.000000
0.485233 0.149571 0.000000
0.508579 0.150367 0.000000
0.537868 0.145833 0.000000
0.563051 0.144792 0.000000
0.586458 0.145649 0.000000
0.608823 0.144608 0.000000
0.627391 0.145342 0.000000
0.648223 0.137194 0.000000
0.674019 0.136091 0.000000
0.694179 0.131433 0.000000
