Color/Fuji/Fuji Provia 400F 65x.cube
TITLE "Fuji Provia 400F"
LUT_3D_SIZE 65
DOMAIN_MIN 0.000000 0.000000 0.000000
DOMAIN_MAX 1.000000 1.000000 1.000000
0.000000 0.000000 0.000000
0.000919 0.000000 0.000000
0.005760 0.000000 0.000000
0.010601 0.000000 0.000000
0.015441 0.000000 0.000000
0.020282 0.000000 0.000000
0.025122 0.000000 0.000000
0.033885 0.000000 0.000000
0.042647 0.000000 0.000000
0.051409 0.000000 0.000000
0.061520 0.000000 0.000000
0.072855 0.000000 0.000000
0.081618 0.000000 0.000000
0.094302 0.000000 0.000000
0.108088 0.000000 0.000000
0.121691 0.000000 0.000000
0.139215 0.000000 0.000000
0.156740 0.000000 0.000000
0.174265 0.003922 0.000000
0.191789 0.003922 0.000000
0.209314 0.003922 0.000000
0.226838 0.003922 0.000000
0.244362 0.007843 0.000000
0.263419 0.007843 0.000000
0.283334 0.010294 0.000000
0.300858 0.011765 0.000000
0.322304 0.015686 0.000000
0.339828 0.015686 0.000000
0.361275 0.017892 0.000000
0.378799 0.019608 0.000000
0.396446 0.019731 0.000000
0.417769 0.023529 0.000000
0.435295 0.025490 0.000000
0.452819 0.027451 0.000000
0.470343 0.031373 0.000000
0.487868 0.032169 0.000000
0.505392 0.035294 0.000000
0.522917 0.039216 0.000000
0.540441 0.039216 0.000000
0.557414 0.043137 0.000000
0.571569 0.047059 0.000000
0.589093 0.049448 0.000000
0.606618 0.050980 0.000000
0.623835 0.054902 0.000000
0.637745 0.058824 0.000000
0.653125 0.058824 0.000000
0.668872 0.061887 0.000000
0.682476 0.062806 0.000000
0.699019 0.066667 0.000000
0.711704 0.068566 0.000000
0.727206 0.070588 0.000000
0.740808 0.074326 0.000000
0.753676 0.074510 0.000000
0.766360 0.078431 0.000000
0.779044 0.078431 0.000000
0.791728 0.082353 0.000000
0.804902 0.082353 0.000000
0.818505 0.083762 0.000000
0.832108 0.086275 0.000000
0.845711 0.089522 0.000000
0.859069 0.090196 0.000000
0.871752 0.091360 0.000000
0.882598 0.094118 0.000000
0.896201 0.097120 0.000000
0.909804 0.098039 0.000000
0.000000 0.003922 0.000000
0.004841 0.003922 0.000000
0.009681 0.003922 0.000000
0.014522 0.003922 0.000000
0.019363 0.003922 0.000000
0.024203 0.000919 0.000000
0.032966 0.000919 0.000000
0.038725 0.000919 0.000000
0.047487 0.000919 0.000000
0.056250 0.000919 0.000000
0.068015 0.000919 0.000000
0.076777 0.000919 0.000000
0.085540 0.000919 0.000000
0.099142 0.000919 0.000000
0.112010 0.000919 0.000000
0.124510 0.000919 0.000000
0.143137 0.000919 0.000000
0.157659 0.000919 0.000000
0.175184 0.003922 0.000000
0.192708 0.003922 0.000000
0.210233 0.003922 0.000000
0.227758 0.003922 0.000000
0.244975 0.007843 0.000000
0.265809 0.007843 0.000000
0.283334 0.007843 0.000000
0.304228 0.011765 0.000000
0.322304 0.012133 0.000000
0.341115 0.015686 0.000000
0.361275 0.015686 0.000000
0.378799 0.021814 0.000000
0.396446 0.019608 0.000000
0.417769 0.023652 0.000000
0.435295 0.023529 0.000000
0.452819 0.027451 0.000000
0.470343 0.027451 0.000000
0.486949 0.031373 0.000000
0.504473 0.036090 0.000000
0.518996 0.035294 0.000000
0.536520 0.039216 0.000000
0.554044 0.043137 0.000000
0.571568 0.043137 0.000000
0.589093 0.047059 0.000000
0.603309 0.053369 0.000000
0.620221 0.051286 0.000000
0.636520 0.054902 0.000000
0.651348 0.060050 0.000000
0.665809 0.058824 0.000000
0.682414 0.062745 0.000000
0.696079 0.062745 0.000000
0.709681 0.066667 0.000000
0.723284 0.066667 0.000000
0.739889 0.070588 0.000000
0.750491 0.074510 0.000000
0.764093 0.074510 0.000000
0.777696 0.078431 0.000000
0.791299 0.078431 0.000000
0.804412 0.082353 0.000000
0.817095 0.082353 0.000000
0.831189 0.084682 0.000000
0.844792 0.086275 0.000000
0.855147 0.090196 0.000000
0.867831 0.090196 0.000000
0.881679 0.090196 0.000000
0.895282 0.094118 0.000000
0.905882 0.094118 0.000000
0.001838 0.009681 0.001838
0.004841 0.009681 0.000000
0.011765 0.007843 0.000000
0.015686 0.007843 0.000000
0.023284 0.007843 0.000000
0.028125 0.007843 0.000000
0.037132 0.007843 0.000000
0.043566 0.007843 0.000000
0.052329 0.005760 0.000000
0.061091 0.005760 0.000000
0.071936 0.005760 0.000000
0.080698 0.005760 0.000000
0.092647 0.005760 0.000000
0.103983 0.005760 0.000000
0.115931 0.005760 0.000000
0.131372 0.005760 0.000000
0.147059 0.005760 0.000000
0.162500 0.005760 0.000000
0.180025 0.007843 0.000000
0.197549 0.007843 0.000000
0.215073 0.007843 0.000000
0.228983 0.007843 0.000000
0.248284 0.009681 0.000000
0.265809 0.009681 0.000000
0.283334 0.009681 0.000000
0.302696 0.011765 0.000000
0.322304 0.012133 0.000000
0.341115 0.015686 0.000000
0.361275 0.015686 0.000000
0.378799 0.018811 0.000000
0.400245 0.019608 0.000000
0.417769 0.020650 0.000000
0.435295 0.023529 0.000000
0.452819 0.028493 0.000000
0.466544 0.027451 0.000000
0.483946 0.031373 0.000000
0.501470 0.033088 0.000000
0.518996 0.035294 0.000000
0.536520 0.040932 0.000000
0.554044 0.039767 0.000000
0.571569 0.043137 0.000000
0.589093 0.047059 0.000000
0.603309 0.050367 0.000000
0.620221 0.049448 0.000000
0.636520 0.054902 0.000000
0.651348 0.057047 0.000000
0.665809 0.058824 0.000000
0.682414 0.062745 0.000000
0.695098 0.062745 0.000000
0.709681 0.066728 0.000000
0.723284 0.066667 0.000000
0.736887 0.070588 0.000000
0.749755 0.071323 0.000000
0.762439 0.074510 0.000000
0.775123 0.077083 0.000000
0.787806 0.078431 0.000000
0.800980 0.077083 0.000000
0.814584 0.082353 0.000000
0.828186 0.082353 0.000000
0.841789 0.087684 0.000000
0.855147 0.086275 0.000000
0.867831 0.090196 0.000000
0.878677 0.090196 0.000000
0.892280 0.093199 0.000000
0.904044 0.094118 0.000000
0.006679 0.014522 0.003922
0.008762 0.014522 0.005760
0.013603 0.014522 0.002758
0.018444 0.014522 0.000000
0.022365 0.010846 0.000000
0.034130 0.011765 0.000000
0.039644 0.011765 0.000000
0.048406 0.011765 0.000000
0.057169 0.011765 0.000000
0.065931 0.011765 0.000000
0.074693 0.011765 0.000000
0.082966 0.011765 0.000000
0.093383 0.011765 0.000000
0.108823 0.010601 0.000000
0.119853 0.011765 0.000000
0.136213 0.011765 0.000000
0.150980 0.011765 0.000000
0.167340 0.011765 0.000000
0.184865 0.011765 0.000000
0.199632 0.011765 0.000000
0.217157 0.014522 0.000000
0.234681 0.014522 0.000000
0.252206 0.014522 0.000000
0.269731 0.014522 0.000000
0.287255 0.014522 0.000000
0.308150 0.014522 0.000000
0.322672 0.015686 0.000000
0.343750 0.015686 0.000000
0.361275 0.015686 0.000000
0.378799 0.018811 0.000000
0.400245 0.019608 0.000000
0.417769 0.020650 0.000000
0.435295 0.023529 0.000000
0.452819 0.026409 0.000000
0.470343 0.027451 0.000000
0.483946 0.031373 0.000000
0.501470 0.030331 0.000000
0.518996 0.035294 0.000000
0.536520 0.038848 0.000000
0.554044 0.039767 0.000000
0.571568 0.043137 0.000000
0.589093 0.045527 0.000000
0.603861 0.047059 0.000000
0.620221 0.050980 0.000000
0.636520 0.054902 0.000000
0.651348 0.054902 0.000000
0.664951 0.058824 0.000000
0.682414 0.062745 0.000000
0.695098 0.062745 0.000000
0.707782 0.064645 0.000000
0.723284 0.066667 0.000000
0.736887 0.070404 0.000000
0.749755 0.068566 0.000000
0.762439 0.074510 0.000000
0.775123 0.074326 0.000000
0.787806 0.078431 0.000000
0.800980 0.078431 0.000000
0.814584 0.082353 0.000000
0.825429 0.082353 0.000000
0.838542 0.082353 0.000000
0.851470 0.086275 0.000000
0.865073 0.087439 0.000000
0.875919 0.090196 0.000000
0.889277 0.090196 0.000000
0.901961 0.094118 0.000000
0.007843 0.023284 0.003922
0.015441 0.023284 0.003922
0.019363 0.019608 0.003922
0.023284 0.019363 0.003922
0.027206 0.019363 0.003922
0.035724 0.019363 0.003677
0.040809 0.019363 0.000000
0.049571 0.019363 0.000000
0.058334 0.019363 0.000000
0.067096 0.019363 0.000000
0.075858 0.019363 0.000000
0.088296 0.019363 0.000000
0.097304 0.019363 0.000000
0.113665 0.019363 0.000000
0.123775 0.019363 0.000000
0.137377 0.019363 0.000000
0.155638 0.019363 0.000000
0.172181 0.019363 0.000000
0.189706 0.019363 0.000000
0.207231 0.019363 0.000000
0.221078 0.019363 0.000000
0.238603 0.019363 0.000000
0.256127 0.023284 0.000000
0.273652 0.023284 0.000000
0.291177 0.023284 0.000000
0.308701 0.023284 0.000000
0.329902 0.023284 0.000000
0.347426 0.023284 0.000000
0.365196 0.023284 0.000000
0.382721 0.023284 0.000000
0.400245 0.019608 0.000000
0.417769 0.019608 0.000000
0.435295 0.023529 0.000000
0.452819 0.026409 0.000000
0.470343 0.027451 0.000000
0.483946 0.031373 0.000000
0.501470 0.031373 0.000000
0.518996 0.035294 0.000000
0.536520 0.038848 0.000000
0.554044 0.039216 0.000000
0.571569 0.043137 0.000000
0.589093 0.045527 0.000000
0.602696 0.047059 0.000000
0.620221 0.050980 0.000000
0.633824 0.054902 0.000000
0.651348 0.054902 0.000000
0.664951 0.058824 0.000000
0.678554 0.058885 0.000000
0.695098 0.062745 0.000000
0.707782 0.062745 0.000000
0.719608 0.066667 0.000000
0.736887 0.066667 0.000000
0.749755 0.070588 0.000000
0.762439 0.074510 0.000000
0.775123 0.074510 0.000000
0.787806 0.078431 0.000000
0.797304 0.078431 0.000000
0.813174 0.076164 0.000000
0.825858 0.082353 0.000000
0.838542 0.082353 0.000000
0.847793 0.086275 0.000000
0.863909 0.086275 0.000000
0.876593 0.090196 0.000000
0.889277 0.090196 0.000000
0.901961 0.090441 0.000000
0.012439 0.032047 0.008517
0.016360 0.032047 0.007843
0.020282 0.026961 0.007843
0.024203 0.028125 0.007843
0.028125 0.028125 0.004596
0.036642 0.028125 0.003922
0.043811 0.028125 0.003922
0.053493 0.028125 0.003922
0.065687 0.028125 0.003922
0.071691 0.024877 0.000674
0.080453 0.023529 0.000674
0.089216 0.024203 0.000000
0.104411 0.024203 0.000000
0.114093 0.024203 0.000000
0.128370 0.025306 0.000000
0.145221 0.024877 0.000000
0.156556 0.028125 0.000000
0.176348 0.028125 0.000000
0.193873 0.028125 0.000000
0.211397 0.028125 0.000000
0.225675 0.028125 0.000000
0.243198 0.028125 0.000000
0.260723 0.028738 0.000000
0.278248 0.032047 0.000000
0.295772 0.032047 0.000000
0.313296 0.032047 0.000000
0.330515 0.032047 0.000000
0.351593 0.032047 0.000000
0.369118 0.032047 0.000000
0.386642 0.032047 0.000000
0.404167 0.028125 0.000000
0.421691 0.028125 0.000000
0.435968 0.028125 0.000000
0.452819 0.028125 0.000000
0.470343 0.028125 0.000000
0.487868 0.028125 0.000000
0.500429 0.031373 0.000000
0.518996 0.034007 0.000000
0.536520 0.035294 0.000000
0.554044 0.039216 0.000000
0.571569 0.043933 0.000000
0.589093 0.043137 0.000000
0.602696 0.047059 0.000000
0.620221 0.050980 0.000000
0.633824 0.050980 0.000000
0.649203 0.054902 0.000000
0.664951 0.054902 0.000000
0.678554 0.058824 0.000000
0.692157 0.063051 0.000000
0.709007 0.062745 0.000000
0.720466 0.065564 0.000000
0.733149 0.066667 0.000000
0.746569 0.070588 0.000000
0.760172 0.070588 0.000000
0.773775 0.074510 0.000000
0.787377 0.074510 0.000000
0.800490 0.078431 0.000000
0.813174 0.078431 0.000000
0.827512 0.080760 0.000000
0.837868 0.082353 0.000000
0.851225 0.082598 0.000000
0.864399 0.086275 0.000000
0.874755 0.086275 0.000000
0.888358 0.092524 0.000000
0.901287 0.090196 0.000000
0.017279 0.040809 0.013358
0.020527 0.040809 0.011765
0.025122 0.040809 0.011765
0.029044 0.040809 0.009436
0.032966 0.038480 0.009436
0.039890 0.036887 0.007843
0.048652 0.036887 0.007843
0.057415 0.036887 0.005515
0.066177 0.036887 0.005515
0.074939 0.036887 0.003922
0.083701 0.036887 0.003922
0.094056 0.036887 0.003922
0.105147 0.036887 0.003922
0.118015 0.036887 0.000000
0.133211 0.036887 0.000000
0.149142 0.036887 0.000000
0.164338 0.036887 0.000000
0.181863 0.036887 0.000000
0.197794 0.036887 0.000000
0.215319 0.036887 0.000000
0.230514 0.039583 0.000000
0.248039 0.038480 0.000000
0.265564 0.040809 0.000000
0.283088 0.040809 0.000000
0.300613 0.040809 0.000000
0.318137 0.040809 0.000000
0.335662 0.040809 0.000000
0.352880 0.040809 0.000000
0.373039 0.040809 0.000000
0.390564 0.040809 0.000000
0.409558 0.040809 0.000000
0.423285 0.038480 0.000000
0.439215 0.036887 0.000000
0.456740 0.036887 0.000000
0.471936 0.036887 0.000000
0.487868 0.032966 0.000000
0.505392 0.032966 0.000000
0.517954 0.032966 0.000000
0.536520 0.035294 0.000000
0.554044 0.039216 0.000000
0.571569 0.040686 0.000000
0.586703 0.043137 0.000000
0.602696 0.046446 0.000000
0.619914 0.050980 0.000000
0.633824 0.050980 0.000000
0.649203 0.055454 0.000000
0.664951 0.054902 0.000000
0.678554 0.058824 0.000000
0.692157 0.058211 0.000000
0.705760 0.062745 0.000000
0.721691 0.062745 0.000000
0.733149 0.066667 0.000000
0.746569 0.070588 0.000000
0.760172 0.070588 0.000000
0.773775 0.075491 0.000000
0.783885 0.074510 0.000000
0.800490 0.078431 0.000000
0.810662 0.078431 0.000000
0.824265 0.078431 0.000000
0.837868 0.082353 0.000000
0.851225 0.082353 0.000000
0.861152 0.086275 0.000000
0.872672 0.086275 0.000000
0.885356 0.086275 0.000000
0.898039 0.090196 0.000000
0.023529 0.053493 0.018199
0.029964 0.052083 0.015686
0.031801 0.052083 0.015686
0.036643 0.049571 0.014277
0.041482 0.049571 0.014277
0.043811 0.049571 0.011765
0.052573 0.049571 0.012684
0.061336 0.049571 0.010356
0.070098 0.048161 0.006924
0.078860 0.045650 0.007843
0.087623 0.045650 0.009007
0.098897 0.045650 0.006434
0.109069 0.045650 0.003922
0.121937 0.045650 0.003922
0.140870 0.045650 0.002513
0.153554 0.045650 0.000000
0.169179 0.048590 0.000000
0.186703 0.048161 0.000000
0.201716 0.046507 0.000000
0.219975 0.049571 0.000000
0.235356 0.049571 0.000000
0.252880 0.049571 0.000000
0.267892 0.049571 0.000000
0.285417 0.049571 0.000000
0.305453 0.052083 0.000000
0.322978 0.052083 0.000000
0.340503 0.053493 0.000000
0.358027 0.052083 0.000000
0.375245 0.049571 0.000000
0.393076 0.049571 0.000000
0.410601 0.049571 0.000000
0.425613 0.049571 0.000000
0.443137 0.049571 0.000000
0.459252 0.045282 0.000000
0.474265 0.045650 0.000000
0.493505 0.041728 0.000000
0.505392 0.041728 0.000000
0.522917 0.039093 0.000000
0.536887 0.039216 0.000000
0.554044 0.039216 0.000000
0.571569 0.039216 0.000000
0.586703 0.043137 0.000000
0.602696 0.046446 0.000000
0.619914 0.047365 0.000000
0.633824 0.050980 0.000000
0.649203 0.053125 0.000000
0.664951 0.054902 0.000000
0.676041 0.058824 0.000000
0.692157 0.058824 0.000000
0.705760 0.062745 0.000000
0.719363 0.062745 0.000000
0.734375 0.066483 0.000000
0.744057 0.064890 0.000000
0.758517 0.070588 0.000000
0.771201 0.070588 0.000000
0.783885 0.074510 0.000000
0.797059 0.074510 0.000000
0.810662 0.078431 0.000000
0.821752 0.078431 0.000000
0.834620 0.078431 0.000000
0.845037 0.082353 0.000000
0.859988 0.082353 0.000000
0.872672 0.086275 0.000000
0.885846 0.086275 0.000000
0.898039 0.087684 0.000000
0.030883 0.065687 0.023529
0.032292 0.065687 0.023039
0.038726 0.062255 0.023039
0.042647 0.062255 0.019608
0.046569 0.062255 0.019118
0.051165 0.061765 0.019118
0.056495 0.061765 0.015686
0.064768 0.058334 0.015196
0.073530 0.058334 0.011765
0.082782 0.058334 0.011765
0.091544 0.058334 0.011275
0.103737 0.058334 0.007843
0.116422 0.058334 0.007843
0.125858 0.058334 0.007353
0.145711 0.058334 0.003922
0.156985 0.058334 0.003922
0.174020 0.058334 0.003432
0.191544 0.058334 0.000000
0.205638 0.058334 0.000000
0.223162 0.058334 0.000000
0.240196 0.058334 0.000000
0.257721 0.061948 0.000000
0.271813 0.061765 0.000000
0.289339 0.062255 0.000000
0.310295 0.062255 0.000000
0.327819 0.062255 0.000000
0.345342 0.062255 0.000000
0.362867 0.062255 0.000000
0.380392 0.062255 0.000000
0.397917 0.061765 0.000000
0.412010 0.058334 0.000000
0.429534 0.058334 0.000000
0.448529 0.058334 0.000000
0.460662 0.058334 0.000000
0.478186 0.054044 0.000000
0.491789 0.054412 0.000000
0.509314 0.050490 0.000000
0.526348 0.050490 0.000000
0.540441 0.046446 0.000000
0.554044 0.043137 0.000000
0.571569 0.043137 0.000000
0.586703 0.043137 0.000000
0.602696 0.043137 0.000000
0.619914 0.047059 0.000000
0.633824 0.050980 0.000000
0.647426 0.050980 0.000000
0.661520 0.054902 0.000000
0.678492 0.058824 0.000000
0.688726 0.058824 0.000000
0.705760 0.057292 0.000000
0.719363 0.062745 0.000000
0.732965 0.062745 0.000000
0.745833 0.066667 0.000000
0.758517 0.070588 0.000000
0.771201 0.070588 0.000000
0.783946 0.074081 0.000000
0.796568 0.074510 0.000000
0.809252 0.072488 0.000000
0.821936 0.078431 0.000000
0.834620 0.078431 0.000000
0.847304 0.082353 0.000000
0.859988 0.082353 0.000000
0.872672 0.082353 0.000000
0.881005 0.086275 0.000000
0.894118 0.086275 0.000000
0.039645 0.078860 0.031802
0.044056 0.075368 0.031802
0.045404 0.075368 0.027880
0.050246 0.075368 0.027880
0.051409 0.074939 0.027880
0.059498 0.074939 0.023958
0.063174 0.071446 0.023958
0.069608 0.071446 0.023529
0.074939 0.068015 0.020037
0.086704 0.071017 0.019608
0.095895 0.071017 0.016115
0.104657 0.071017 0.015686
0.117341 0.071017 0.012194
0.133701 0.071017 0.012010
0.147733 0.071017 0.007169
0.164828 0.071017 0.007843
0.178860 0.071017 0.004351
0.196384 0.071017 0.003922
0.213481 0.071017 0.003922
0.227512 0.071017 0.000000
0.245037 0.071017 0.000000
0.262132 0.071017 0.000000
0.279657 0.071017 0.000000
0.293689 0.071017 0.000000
0.311213 0.071017 0.000000
0.332230 0.071017 0.000000
0.349755 0.071017 0.000000
0.367279 0.071017 0.000000
0.384804 0.071017 0.000000
0.402329 0.071017 0.000000
0.416360 0.070894 0.000000
0.433456 0.067096 0.000000
0.450981 0.067096 0.000000
0.462133 0.067096 0.000000
0.482108 0.063297 0.000000
0.495344 0.063174 0.000000
0.513235 0.057966 0.000000
0.527267 0.059253 0.000000
0.544363 0.055699 0.000000
0.557843 0.054779 0.000000
0.575490 0.051409 0.000000
0.589093 0.047488 0.000000
0.599816 0.044180 0.000000
0.619914 0.047059 0.000000
0.633824 0.048284 0.000000
0.647426 0.050980 0.000000
0.661887 0.050980 0.000000
0.678492 0.054902 0.000000
0.691176 0.059376 0.000000
0.703860 0.058824 0.000000
0.716544 0.058824 0.000000
0.729228 0.062745 0.000000
0.746140 0.066973 0.000000
0.756250 0.066667 0.000000
0.769853 0.070588 0.000000
0.783456 0.070588 0.000000
0.796630 0.074571 0.000000
0.806741 0.074510 0.000000
0.820343 0.074510 0.000000
0.830699 0.081249 0.000000
0.843627 0.078431 0.000000
0.856066 0.078431 0.000000
0.868750 0.082353 0.000000
0.884007 0.082353 0.000000
0.893689 0.082353 0.000000
0.048407 0.092892 0.040564
0.049326 0.091973 0.040564
0.054167 0.088971 0.040564
0.056250 0.088971 0.035233
0.060172 0.088971 0.036642
0.064767 0.087623 0.032721
0.069608 0.085049 0.032721
0.075858 0.085049 0.028799
0.083211 0.085049 0.028799
0.090625 0.083701 0.024877
0.100735 0.083701 0.023529
0.114338 0.083701 0.020956
0.125368 0.081127 0.019608
0.138971 0.081127 0.016850
0.155392 0.081127 0.013113
0.168076 0.081127 0.011765
0.186274 0.081127 0.009191
0.201226 0.081127 0.007843
0.217402 0.081127 0.003922
0.232353 0.081127 0.003922
0.249877 0.081127 0.001348
0.263787 0.081127 0.000000
0.283578 0.081127 0.000000
0.301103 0.081127 0.000000
0.318628 0.081127 0.000000
0.336152 0.081127 0.000000
0.353676 0.079779 0.000000
0.371201 0.079779 0.000000
0.388726 0.079779 0.000000
0.406250 0.079779 0.000000
0.419853 0.079779 0.000000
0.437377 0.075858 0.000000
0.452329 0.075858 0.000000
0.468505 0.075858 0.000000
0.486030 0.072059 0.000000
0.499632 0.071936 0.000000
0.517157 0.070220 0.000000
0.530760 0.068015 0.000000
0.548285 0.064461 0.000000
0.561887 0.064890 0.000000
0.575368 0.060172 0.000000
0.593014 0.055209 0.000000
0.606618 0.052941 0.000000
0.621263 0.050980 0.000000
0.633824 0.050980 0.000000
0.647426 0.050980 0.000000
0.661887 0.050980 0.000000
0.674633 0.054902 0.000000
0.691176 0.054534 0.000000
0.703860 0.058824 0.000000
0.716544 0.058824 0.000000
0.729228 0.065134 0.000000
0.742647 0.062132 0.000000
0.756250 0.066667 0.000000
0.767279 0.066667 0.000000
0.779963 0.070588 0.000000
0.793137 0.070588 0.000000
0.805331 0.073162 0.000000
0.818015 0.074510 0.000000
0.830699 0.074510 0.000000
0.843382 0.078431 0.000000
0.856066 0.078431 0.000000
0.869485 0.078431 0.000000
0.877512 0.084008 0.000000
0.890196 0.082353 0.000000
0.057169 0.106495 0.053247
0.058088 0.106495 0.049326
0.062929 0.106495 0.049326
0.065012 0.106495 0.049326
0.068934 0.106495 0.043995
0.073529 0.102573 0.046997
0.078370 0.102573 0.041483
0.084866 0.102573 0.041483
0.088542 0.100306 0.037561
0.096814 0.098652 0.033640
0.105576 0.098652 0.033640
0.118260 0.098652 0.029718
0.130943 0.095466 0.025796
0.145466 0.096385 0.021875
0.159069 0.094730 0.020772
0.174938 0.094730 0.017953
0.192463 0.094730 0.015686
0.207720 0.094730 0.011765
0.223591 0.094730 0.007843
0.238848 0.094730 0.008333
0.254719 0.094730 0.003493
0.272243 0.094730 0.003922
0.287500 0.094730 0.000000
0.305025 0.092463 0.000000
0.322549 0.092463 0.000000
0.340073 0.092463 0.000000
0.357598 0.092463 0.000000
0.375122 0.092463 0.000000
0.392647 0.092525 0.000000
0.408517 0.090809 0.000000
0.423774 0.088542 0.000000
0.442525 0.088542 0.000000
0.454902 0.088848 0.000000
0.472427 0.084620 0.000000
0.488296 0.084620 0.000000
0.505025 0.080698 0.000000
0.517157 0.080698 0.000000
0.534682 0.076777 0.000000
0.546998 0.076777 0.000000
0.567525 0.072855 0.000000
0.579412 0.068934 0.000000
0.592892 0.066544 0.000000
0.607230 0.065012 0.000000
0.620221 0.063052 0.000000
0.633824 0.057169 0.000000
0.649203 0.053247 0.000000
0.661887 0.050980 0.000000
0.674633 0.054902 0.000000
0.688236 0.054902 0.000000
0.703860 0.058824 0.000000
0.717096 0.058824 0.000000
0.729228 0.058824 0.000000
0.740379 0.062745 0.000000
0.754596 0.064400 0.000000
0.767279 0.066667 0.000000
0.779963 0.066667 0.000000
0.792647 0.070588 0.000000
0.805331 0.070588 0.000000
0.818076 0.070588 0.000000
0.830025 0.074510 0.000000
0.843382 0.074510 0.000000
0.851041 0.078431 0.000000
0.864829 0.078431 0.000000
0.877512 0.078431 0.000000
0.890196 0.080086 0.000000
0.065932 0.127941 0.065196
0.069853 0.130209 0.062010
0.071692 0.127206 0.063358
0.076960 0.124019 0.061274
0.077696 0.124019 0.058089
0.082292 0.126532 0.057353
0.087132 0.120098 0.054167
0.093383 0.120098 0.053431
0.097304 0.120098 0.050245
0.105576 0.119363 0.046324
0.114338 0.116176 0.042402
0.122181 0.116176 0.040135
0.138970 0.116176 0.035294
0.152573 0.119179 0.030638
0.168995 0.112254 0.029535
0.183701 0.112254 0.024693
0.198284 0.112254 0.022794
0.214828 0.112254 0.018873
0.231495 0.112254 0.014951
0.245956 0.109069 0.013174
0.260294 0.109559 0.007843
0.277083 0.108333 0.007843
0.294608 0.108333 0.003922
0.312132 0.108333 0.005577
0.329657 0.108333 0.000000
0.347182 0.104963 0.000000
0.364706 0.105147 0.000000
0.379044 0.107047 0.000000
0.396569 0.104411 0.000000
0.413358 0.101226 0.000000
0.427696 0.101226 0.000000
0.444485 0.100490 0.000000
0.458823 0.097304 0.000000
0.476654 0.097610 0.000000
0.489338 0.092770 0.000000
0.509865 0.095772 0.000000
0.521078 0.089461 0.000000
0.539154 0.089461 0.000000
0.552206 0.085172 0.000000
0.565809 0.081618 0.000000
0.585049 0.083333 0.000000
0.596936 0.077696 0.000000
0.610417 0.073652 0.000000
0.624142 0.069853 0.000000
0.637745 0.065932 0.000000
0.652390 0.062010 0.000000
0.665074 0.058089 0.000000
0.674633 0.054902 0.000000
0.688236 0.054902 0.000000
0.701838 0.054902 0.000000
0.715441 0.058824 0.000000
0.729044 0.058824 0.000000
0.741911 0.062745 0.000000
0.754596 0.062745 0.000000
0.767279 0.066667 0.000000
0.779534 0.066667 0.000000
0.792647 0.070588 0.000000
0.805331 0.070588 0.000000
0.816422 0.070588 0.000000
0.826777 0.070588 0.000000
0.836520 0.074510 0.000000
0.852144 0.074510 0.000000
0.864829 0.078431 0.000000
0.876593 0.078431 0.000000
0.886275 0.078431 0.000000
0.078615 0.145649 0.074878
0.079534 0.145466 0.074694
0.084375 0.145466 0.074694
0.086459 0.145466 0.068199
0.086643 0.145466 0.070772
0.094302 0.141544 0.067035
0.098223 0.141544 0.066851
0.102145 0.141544 0.063113
0.109497 0.141544 0.062929
0.114338 0.137623 0.059008
0.123101 0.137623 0.053922
0.131863 0.133884 0.049080
0.144546 0.133701 0.044240
0.161152 0.133701 0.043321
0.174939 0.133701 0.039400
0.188542 0.129963 0.035478
0.206066 0.129780 0.031557
0.223406 0.129780 0.027635
0.236336 0.129780 0.022855
0.250797 0.125858 0.018015
0.268321 0.125858 0.015870
0.285662 0.125858 0.011949
0.299448 0.125674 0.008027
0.316973 0.121937 0.007843
0.334498 0.121937 0.001655
0.352022 0.121753 0.003922
0.369362 0.118015 -0.000184
0.386887 0.116728 0.000000
0.400674 0.117831 0.000000
0.415074 0.114093 0.000000
0.431802 0.113909 0.000000
0.449142 0.110172 0.000000
0.462929 0.109988 0.000000
0.480270 0.109988 0.000000
0.497794 0.106066 0.000000
0.511397 0.101532 0.000000
0.523469 0.102145 0.000000
0.542525 0.098223 0.000000
0.552758 0.098223 0.000000
