Color/Fuji/Fuji Velvia 50 65x.cube
TITLE "Fuji Velvia 50"
LUT_3D_SIZE 9
DOMAIN_MIN 0.000000 0.000000 0.000000
DOMAIN_MAX 1.000000 1.000000 1.000000
0.000000 0.000000 0.000000
0.042157 0.000000 0.000000
0.157843 0.000000 0.000000
0.318628 0.000000 0.000000
0.454902 0.000000 0.000000
0.595098 0.000000 0.000000
0.727451 0.000000 0.000000
0.855392 0.000000 0.000000
0.988235 0.000000 0.000000
0.007843 0.050000 0.003432
0.038726 0.038726 0.000000
0.161765 0.023039 0.003432
0.321079 0.007843 0.003432
0.454902 0.000000 0.003432
0.595098 0.000000 0.000000
0.727451 0.000000 0.000000
0.851961 0.000000 0.000000
0.988235 0.000000 0.000000
0.031373 0.194117 0.015686
0.070098 0.189216 0.015686
0.170588 0.170588 0.015686
0.326471 0.147549 0.015686
0.462746 0.122549 0.014706
0.602941 0.093628 0.011765
0.731373 0.063726 0.007843
0.859804 0.029412 0.003922
0.992157 0.006863 0.000000
0.002941 0.361765 0.035294
0.022549 0.353922 0.035294
0.142647 0.338235 0.035294
0.318628 0.322549 0.035294
0.458824 0.300980 0.033824
0.602941 0.275490 0.029902
0.735294 0.251961 0.023529
0.863235 0.227941 0.015686
0.996078 0.195588 0.007843
0.000000 0.501961 0.062745
0.000000 0.498039 0.062745
0.101961 0.486274 0.062745
0.299510 0.472549 0.062745
0.450981 0.454902 0.058824
0.600981 0.435294 0.054902
0.731373 0.416667 0.047059
0.863725 0.393627 0.035294
1.000000 0.364706 0.019608
0.000000 0.650000 0.087745
0.000000 0.646078 0.087745
0.011765 0.638235 0.090196
0.258333 0.626470 0.090196
0.439215 0.610784 0.087745
0.591176 0.593627 0.082353
0.723530 0.575490 0.074510
0.859804 0.556862 0.058824
0.996078 0.529902 0.036765
0.000000 0.782353 0.089216
0.000000 0.778432 0.090196
0.008824 0.774510 0.093137
0.228432 0.762745 0.094118
0.427451 0.750981 0.097059
0.578432 0.735294 0.098039
0.715687 0.719608 0.090196
0.855882 0.700000 0.078431
0.996078 0.677451 0.050980
0.000000 0.922549 0.129902
0.000000 0.922549 0.129902
0.000000 0.918627 0.129902
0.170098 0.904901 0.129412
0.392157 0.899019 0.122059
0.551961 0.882353 0.113725
0.700000 0.871568 0.093628
0.848039 0.851961 0.046569
0.992157 0.832844 0.034804
0.000000 1.000000 0.156863
0.000000 1.000000 0.156863
0.026471 1.000000 0.152941
0.219118 1.000000 0.152941
0.400000 1.000000 0.147059
0.548039 1.000000 0.137255
0.696079 1.000000 0.117647
0.840196 1.000000 0.073530
0.980392 0.984314 0.000000
0.000000 0.000000 0.019608
0.038726 0.000000 0.019608
0.154902 0.000000 0.019608
0.318628 0.000000 0.019608
0.454902 0.000000 0.019608
0.599020 0.000000 0.015686
0.731373 0.000000 0.011765
0.859804 0.000000 0.007843
0.992157 0.000000 0.003432
0.007843 0.046569 0.038726
0.038726 0.038726 0.038726
0.161765 0.023039 0.038726
0.322549 0.007843 0.038726
0.458823 0.000000 0.038726
0.599020 0.000000 0.034804
0.731373 0.000000 0.026961
0.855882 0.000000 0.019118
0.992157 0.000000 0.007843
0.031373 0.193137 0.062255
0.069117 0.186274 0.062255
0.170588 0.169608 0.062255
0.330392 0.146079 0.061765
0.462746 0.120588 0.058334
0.606863 0.092157 0.053431
0.735294 0.062745 0.042647
0.863725 0.029412 0.033824
0.996078 0.003922 0.019118
0.002941 0.361765 0.085785
0.023530 0.353922 0.085785
0.142157 0.338235 0.088235
0.318628 0.322549 0.088235
0.458823 0.302941 0.084314
0.606863 0.276470 0.077941
0.735294 0.253432 0.069118
0.863725 0.226471 0.054412
0.996078 0.195588 0.034804
0.000000 0.501961 0.117157
0.000000 0.498039 0.119118
0.098039 0.486274 0.119118
0.299020 0.474510 0.119118
0.454902 0.454902 0.116667
0.602941 0.435295 0.111274
0.733333 0.415687 0.099510
0.863725 0.392157 0.081863
1.000000 0.364706 0.054412
0.000000 0.650000 0.138235
0.000000 0.646078 0.138235
0.008824 0.638235 0.140686
0.258333 0.626470 0.140686
0.441177 0.610784 0.140686
0.591176 0.595098 0.136765
0.723530 0.575490 0.130392
0.859804 0.555882 0.114215
0.998529 0.532353 0.081863
0.000000 0.782353 0.175490
0.000000 0.782353 0.175981
0.005883 0.774510 0.175981
0.228432 0.763725 0.175981
0.428431 0.750981 0.173039
0.579412 0.735294 0.168137
0.715687 0.719608 0.155883
0.859804 0.700000 0.131863
1.000000 0.680392 0.101471
0.000000 0.926470 0.203432
0.000000 0.922549 0.203432
0.000000 0.918627 0.203432
0.170098 0.910784 0.203432
0.393627 0.899019 0.202941
0.552941 0.887255 0.196078
0.703431 0.871568 0.186765
0.851961 0.855392 0.159804
0.992157 0.836274 0.092157
0.000000 1.000000 0.226471
0.000000 1.000000 0.223039
0.029412 1.000000 0.223039
0.219118 1.000000 0.219118
0.400000 1.000000 0.215196
0.551961 1.000000 0.207353
0.696079 1.000000 0.191667
0.840196 1.000000 0.159313
0.984314 0.984314 0.080882
0.000000 0.000000 0.089216
0.038726 0.000000 0.089216
0.153922 0.000000 0.092157
0.318628 0.000000 0.089216
0.458823 0.000000 0.088235
0.602941 0.000000 0.078921
0.735294 0.000000 0.069608
0.863725 0.000000 0.053921
0.999019 0.000000 0.034314
0.007843 0.046569 0.130882
0.038726 0.038726 0.130882
0.158823 0.020098 0.131372
0.322549 0.007353 0.131372
0.458823 0.000000 0.127451
0.602941 0.000000 0.119608
0.735294 0.000000 0.104412
0.859804 0.000000 0.087745
0.996078 0.000000 0.060784
0.034314 0.190196 0.166666
0.069117 0.185294 0.166666
0.169608 0.166666 0.166666
0.330392 0.143137 0.166666
0.466666 0.118628 0.166666
0.606863 0.089706 0.158823
0.739216 0.059804 0.146079
0.866177 0.027941 0.125980
1.000000 0.002942 0.092157
0.002941 0.361765 0.198039
0.022059 0.353922 0.200490
0.138725 0.338235 0.201471
0.318628 0.322549 0.201961
0.462746 0.299510 0.201471
0.610784 0.276470 0.195098
0.739216 0.251961 0.186274
0.867647 0.226471 0.168627
1.000000 0.193137 0.133823
0.000000 0.505883 0.231373
0.000000 0.500000 0.232353
0.094118 0.490197 0.233333
0.299020 0.474510 0.233333
0.454902 0.458823 0.233333
0.604902 0.435785 0.229412
0.735294 0.415687 0.220588
0.867647 0.393627 0.203431
1.000000 0.366667 0.172549
0.000000 0.650000 0.259314
0.000000 0.646568 0.260784
0.008824 0.640686 0.260784
0.258333 0.630392 0.260784
0.443138 0.612745 0.260784
0.593627 0.595098 0.256863
0.727451 0.578432 0.250490
0.863725 0.555882 0.237255
1.000000 0.532353 0.205882
0.000000 0.786275 0.288235
0.000000 0.782353 0.288235
0.001961 0.775490 0.288235
0.228432 0.766667 0.288235
0.428431 0.751961 0.288235
0.579412 0.739216 0.286275
0.719608 0.722549 0.280392
0.859804 0.703431 0.268627
1.000000 0.680392 0.238235
0.000000 0.926470 0.311765
0.000000 0.926470 0.311765
0.000000 0.918627 0.311765
0.166177 0.910784 0.311765
0.393627 0.899019 0.311765
0.555392 0.887255 0.311765
0.703922 0.871568 0.304902
0.851961 0.855882 0.293138
0.996078 0.836274 0.264706
0.000000 1.000000 0.328431
0.000000 1.000000 0.328431
0.029412 1.000000 0.328431
0.221569 1.000000 0.327451
0.401960 1.000000 0.324510
0.551961 1.000000 0.319608
0.700000 1.000000 0.311765
0.844117 1.000000 0.295588
0.984314 0.988235 0.249019
0.000000 0.000000 0.212745
0.038726 0.000000 0.214216
0.150980 0.000000 0.216667
0.318628 0.000000 0.216667
0.458823 0.000000 0.214216
0.604412 0.000000 0.207353
0.738235 0.000000 0.197059
0.867647 0.000000 0.177451
1.000000 0.000000 0.142157
0.007843 0.042647 0.255883
0.038726 0.036275 0.255883
0.157843 0.019608 0.256863
0.322549 0.003922 0.259314
0.462255 0.000000 0.256863
0.602941 0.000000 0.251961
0.735294 0.000000 0.244118
0.863725 0.000000 0.228432
1.000000 0.000000 0.199510
0.034314 0.189216 0.287255
0.065197 0.182353 0.287745
0.166666 0.165686 0.291177
0.330392 0.139215 0.291177
0.466666 0.114706 0.291177
0.610784 0.083824 0.287255
0.742156 0.054902 0.279412
0.869608 0.021568 0.267647
1.000000 0.000000 0.243137
0.002941 0.361765 0.314706
0.019608 0.353922 0.316177
0.134804 0.338235 0.318628
0.318628 0.318628 0.318628
0.462746 0.299020 0.318628
0.610784 0.275490 0.318628
0.743137 0.249510 0.312255
0.871568 0.223039 0.302941
1.000000 0.191667 0.281863
0.000000 0.505883 0.342157
0.000000 0.501961 0.343627
0.084314 0.490197 0.345588
0.299020 0.474510 0.346079
0.454902 0.458823 0.346079
0.606863 0.437255 0.346079
0.739216 0.415687 0.342157
0.871568 0.393627 0.334314
1.000000 0.364706 0.316667
0.000000 0.653922 0.369608
0.000000 0.650000 0.369608
0.007353 0.642157 0.371078
0.256863 0.630392 0.372549
0.443138 0.614706 0.373529
0.595098 0.595098 0.373529
0.729902 0.578432 0.369608
0.867647 0.555882 0.364215
1.000000 0.532353 0.347549
0.000000 0.786275 0.397059
0.000000 0.786275 0.397059
0.000000 0.778432 0.399510
0.224510 0.766667 0.400980
0.428431 0.754902 0.400981
0.579412 0.739216 0.400980
0.719608 0.723530 0.397059
0.863725 0.703922 0.391667
1.000000 0.680392 0.373529
0.000000 0.930392 0.422549
0.000000 0.926961 0.422549
0.000000 0.922549 0.424510
0.160294 0.914705 0.424510
0.391666 0.902941 0.424510
0.555392 0.891176 0.424510
0.703922 0.875490 0.420588
0.855882 0.859804 0.412745
0.999510 0.836765 0.393137
0.000000 1.000000 0.441667
0.000000 1.000000 0.441667
0.026471 1.000000 0.441667
0.221569 1.000000 0.440196
0.403922 1.000000 0.440196
0.555882 1.000000 0.436275
0.700980 1.000000 0.432353
0.848039 1.000000 0.420588
0.988235 0.990686 0.389216
0.000000 0.000000 0.325491
0.038726 0.000000 0.327451
0.147059 0.000000 0.329411
0.318628 0.000000 0.331372
0.462746 0.000000 0.331372
0.606863 0.000000 0.327451
0.739216 0.000000 0.321569
0.871078 0.000000 0.313235
1.000000 0.000000 0.290196
0.007353 0.040196 0.362255
0.034804 0.034804 0.362255
0.152451 0.019118 0.364706
0.321079 0.003922 0.366667
0.462746 0.000000 0.366667
0.606863 0.000000 0.366176
0.739216 0.000000 0.362255
0.867647 0.000000 0.354412
1.000000 0.000000 0.337255
0.030392 0.181373 0.389216
0.062255 0.177451 0.392157
0.162745 0.158823 0.393137
0.330392 0.131862 0.396079
0.466666 0.106863 0.397059
0.610784 0.077451 0.396079
0.743137 0.046078 0.393137
0.871568 0.014706 0.387745
1.000000 0.000000 0.372549
0.002941 0.357843 0.419608
0.019607 0.353922 0.420098
0.126961 0.338235 0.423530
0.318628 0.316667 0.424020
0.466176 0.295098 0.427451
0.614706 0.271569 0.427451
0.743137 0.245588 0.424020
0.875490 0.218627 0.419607
1.000000 0.183824 0.407844
0.000000 0.505883 0.450981
0.000000 0.501961 0.450981
0.075490 0.490197 0.452941
0.295588 0.474510 0.454902
0.456863 0.454902 0.454902
0.606863 0.435295 0.458824
0.739216 0.415687 0.454902
0.875490 0.390196 0.450981
1.000000 0.362745 0.439215
0.000000 0.653922 0.481863
0.000000 0.650000 0.482353
0.001471 0.642157 0.482353
0.252941 0.630392 0.485784
0.443138 0.614706 0.486274
0.595098 0.595098 0.486274
0.731373 0.578432 0.486274
0.871568 0.555882 0.482353
1.000000 0.532353 0.470589
0.000000 0.790196 0.509804
0.000000 0.786275 0.512745
0.000000 0.778432 0.512745
0.216667 0.770588 0.513726
0.427451 0.754902 0.516667
0.579902 0.739216 0.516667
0.723530 0.723530 0.513726
0.867647 0.703922 0.509804
1.000000 0.681372 0.498039
0.000000 0.934313 0.535784
0.000000 0.930392 0.535784
0.000000 0.926470 0.537254
0.145588 0.916666 0.537254
0.388235 0.906862 0.539706
0.552941 0.894118 0.539706
0.707843 0.878921 0.539216
0.857353 0.859804 0.533334
1.000000 0.840196 0.521568
0.000000 1.000000 0.554902
0.000000 1.000000 0.554902
0.022549 1.000000 0.554902
0.219118 1.000000 0.554902
0.403922 1.000000 0.554902
0.555882 1.000000 0.554902
0.703922 1.000000 0.550980
0.851961 1.000000 0.545098
0.992157 0.992157 0.523529
0.000000 0.000000 0.425000
0.034804 0.000000 0.428431
0.139215 0.000000 0.430392
0.314706 0.000000 0.434314
0.462746 0.000000 0.434314
0.606863 0.000000 0.434314
0.743137 0.000000 0.432843
0.871568 0.000000 0.426470
1.000000 0.000000 0.414706
0.007353 0.034804 0.463726
0.031373 0.027451 0.467647
0.143137 0.016176 0.469608
0.314706 0.003432 0.473529
0.458823 0.000000 0.475490
0.606863 0.000000 0.475490
0.739216 0.000000 0.473529
0.871568 0.000000 0.469608
1.000000 0.000000 0.457843
0.027451 0.169608 0.497059
0.053921 0.165686 0.498529
0.154902 0.147059 0.502451
0.323529 0.120098 0.504902
0.466666 0.093138 0.506373
0.613726 0.062255 0.508824
0.746079 0.030882 0.506373
0.875490 0.006863 0.502451
1.000000 0.000000 0.493137
0.002941 0.353922 0.529412
0.018137 0.345098 0.530882
0.115196 0.329902 0.533333
0.314706 0.310785 0.536274
0.462746 0.287255 0.537255
0.614706 0.263726 0.540196
0.747059 0.237745 0.540196
0.879412 0.209804 0.536274
1.000000 0.174510 0.528431
0.000000 0.505883 0.559804
0.000000 0.500000 0.560294
0.071569 0.488235 0.563725
0.291667 0.472549 0.564215
0.454902 0.454902 0.567647
0.606863 0.431863 0.568137
0.743137 0.411764 0.568137
0.878921 0.385784 0.566176
1.000000 0.357353 0.559804
0.000000 0.653922 0.587255
0.000000 0.650000 0.587255
0.000000 0.642157 0.591176
0.246568 0.630392 0.591176
0.439215 0.614216 0.595098
0.595098 0.595098 0.595098
0.731373 0.575490 0.595098
0.872059 0.555392 0.594608
1.000000 0.528431 0.587255
0.000000 0.790196 0.614216
0.000000 0.786275 0.614706
0.000000 0.782353 0.614706
0.203431 0.770588 0.618137
0.423530 0.754902 0.618627
0.579412 0.741666 0.621078
0.723530 0.723530 0.622059
0.871078 0.703922 0.618627
1.000000 0.680392 0.610784
0.000000 0.935784 0.638235
0.000000 0.934313 0.638235
0.000000 0.930392 0.638235
0.122549 0.918627 0.641177
0.381863 0.906862 0.642157
0.551961 0.895098 0.644608
0.707843 0.879412 0.644608
0.859804 0.863725 0.642157
1.000000 0.840687 0.634314
0.000000 1.000000 0.660294
0.000000 1.000000 0.660294
0.013725 1.000000 0.660294
0.207353 1.000000 0.661765
0.400000 1.000000 0.661765
0.555882 1.000000 0.661765
0.707843 1.000000 0.660294
0.855882 1.000000 0.656373
0.996078 0.996078 0.642157
0.000000 0.000000 0.531373
0.026961 0.000000 0.535294
0.127451 0.000000 0.539216
0.306863 0.000000 0.543137
0.458823 0.000000 0.546079
0.606863 0.000000 0.547059
0.743137 0.000000 0.546079
0.875490 0.000000 0.543137
1.000000 0.000000 0.535294
0.003922 0.027451 0.573039
0.026961 0.023039 0.574510
0.127451 0.011765 0.576471
0.306863 0.000000 0.580882
0.454902 0.000000 0.582353
0.606863 0.000000 0.584804
0.742156 0.000000 0.584804
0.871568 0.000000 0.582353
1.000000 0.000000 0.574510
0.021569 0.153922 0.600980
0.046569 0.146569 0.601961
0.141176 0.131372 0.605883
0.318628 0.101961 0.608824
0.462745 0.073530 0.611765
0.610784 0.042647 0.612745
0.747059 0.014706 0.612745
0.877941 0.000000 0.611765
1.000000 0.000000 0.605883
0.002941 0.346078 0.629412
0.020588 0.340686 0.630883
0.099019 0.322059 0.633334
0.306863 0.302941 0.636275
0.462745 0.279902 0.638725
0.614706 0.251961 0.641177
0.747059 0.226961 0.641177
0.879412 0.197059 0.641177
1.000000 0.160294 0.636275
0.000000 0.501961 0.657843
0.000000 0.498040 0.657843
0.059803 0.486274 0.660785
0.282843 0.467647 0.663725
0.450980 0.448039 0.665686
0.606863 0.427941 0.668628
0.743137 0.404902 0.668628
0.879412 0.380392 0.668628
1.000000 0.350000 0.664706
0.000000 0.653922 0.684804
0.000000 0.650000 0.684804
0.000000 0.642157 0.688236
0.234804 0.625490 0.688726
0.435785 0.610784 0.692157
0.595098 0.591176 0.695098
0.733823 0.572059 0.696079
0.875490 0.551961 0.696079
1.000000 0.524510 0.692157
0.000000 0.790196 0.711765
0.000000 0.790196 0.714706
0.000000 0.782353 0.715687
0.181372 0.770588 0.715687
0.416667 0.754902 0.719608
0.578432 0.739216 0.722549
0.723530 0.723530 0.723530
0.871568 0.703922 0.723530
1.000000 0.680392 0.719608
0.000000 0.938235 0.739216
0.000000 0.938235 0.742157
0.000000 0.930392 0.742647
0.087745 0.922549 0.743137
0.370098 0.910784 0.746569
0.547549 0.898039 0.747059
0.704412 0.879902 0.750491
0.863725 0.863725 0.750491
1.000000 0.840686 0.746569
0.000000 1.000000 0.766667
0.000000 1.000000 0.766667
0.000000 1.000000 0.769607
0.182353 1.000000 0.769607
0.392156 1.000000 0.770588
0.551961 1.000000 0.771078
0.707843 1.000000 0.773529
0.856373 1.000000 0.770588
0.996078 1.000000 0.762745
0.000000 0.000000 0.631863
0.019608 0.000000 0.635784
0.111764 0.000000 0.639706
0.295098 0.000000 0.643627
0.452941 0.000000 0.644117
0.606863 0.000000 0.647549
0.743137 0.000000 0.647549
0.875490 0.000000 0.647549
1.000000 0.000000 0.643627
0.002942 0.019608 0.667647
0.019608 0.015196 0.670588
0.111764 0.007843 0.674510
0.293137 0.000000 0.675490
0.450981 0.000000 0.679412
0.602941 0.000000 0.682353
0.739216 0.000000 0.683333
0.875490 0.000000 0.682843
1.000000 0.000000 0.679412
0.014706 0.129902 0.697549
0.034804 0.123529 0.698529
0.122059 0.107843 0.701471
0.305392 0.076470 0.705392
0.458823 0.045098 0.706863
0.608333 0.020098 0.710294
0.743137 0.002942 0.710784
0.879412 0.000000 0.710784
1.000000 0.000000 0.709314
0.007843 0.332843 0.725980
0.018628 0.328431 0.726470
0.092647 0.310294 0.729902
0.295098 0.287255 0.732353
0.458823 0.264216 0.736274
0.610784 0.237255 0.738235
0.747059 0.207353 0.740196
0.883333 0.175980 0.741666
1.000000 0.138726 0.738235
0.000000 0.498040 0.755392
0.000000 0.491667 0.755392
0.048529 0.478431 0.757843
0.268137 0.460294 0.761764
0.447058 0.439215 0.765196
0.604902 0.417157 0.767157
0.743137 0.397059 0.769607
0.883333 0.370098 0.771078
1.000000 0.338725 0.769607
0.000000 0.650000 0.785294
0.000000 0.646078 0.786275
0.000000 0.638235 0.789215
0.211275 0.621569 0.790196
0.425000 0.606863 0.794118
0.591176 0.587255 0.797059
0.731373 0.567647 0.800980
0.878431 0.544117 0.800980
1.000000 0.516667 0.800980
0.000000 0.790196 0.816666
0.000000 0.783824 0.817157
0.000000 0.782353 0.820588
0.138236 0.770588 0.821078
0.404902 0.754902 0.824510
0.571569 0.739216 0.828431
0.722549 0.719608 0.828922
0.871568 0.700000 0.832353
1.000000 0.676471 0.832353
0.000000 0.942156 0.848039
0.000000 0.938235 0.848039
0.000000 0.934313 0.848039
0.026471 0.922549 0.851961
0.350490 0.910784 0.855882
0.537255 0.898039 0.855882
0.703431 0.879902 0.859804
0.863725 0.863725 0.863725
1.000000 0.840196 0.859804
0.000000 1.000000 0.879412
0.000000 1.000000 0.879412
0.000000 1.000000 0.879412
0.118138 1.000000 0.882843
0.372549 1.000000 0.883333
0.544117 1.000000 0.886765
0.700980 1.000000 0.887255
0.859804 1.000000 0.890686
1.000000 1.000000 0.886765
0.000000 0.000000 0.725490
0.011765 0.000000 0.729412
0.092157 0.000000 0.733333
0.277941 0.000000 0.737255
0.443137 0.000000 0.741176
0.599020 0.000000 0.745098
0.742156 0.000000 0.745098
0.879412 0.000000 0.749020
1.000000 0.000000 0.745098
0.000000 0.011765 0.764216
0.011765 0.007843 0.768137
0.088235 0.003922 0.772059
0.271569 0.000000 0.775981
0.439215 0.000000 0.776471
0.595098 0.000000 0.780392
0.739216 0.000000 0.781372
0.875490 0.000000 0.784314
1.000000 0.000000 0.784314
0.007843 0.099020 0.795098
0.022549 0.092157 0.796078
0.096078 0.080392 0.800000
0.285784 0.045098 0.803922
0.447059 0.018627 0.805882
0.602941 0.002942 0.810785
0.745098 0.000000 0.814706
0.878432 0.000000 0.815686
1.000000 0.000000 0.814706
0.003922 0.309314 0.825980
0.011275 0.305392 0.827451
0.087746 0.291177 0.829902
0.275490 0.263726 0.833824
0.446568 0.236765 0.837745
0.606863 0.207353 0.841667
0.746078 0.178922 0.845588
0.883333 0.146569 0.847059
1.000000 0.101471 0.847059
0.000000 0.488235 0.856863
0.000000 0.482353 0.858824
0.016667 0.465686 0.860785
0.242647 0.446568 0.864706
0.433334 0.427451 0.868627
0.599020 0.400000 0.872549
0.739216 0.376471 0.874510
0.883333 0.349020 0.878431
1.000000 0.317647 0.878431
0.000000 0.646078 0.890196
0.000000 0.642157 0.890196
0.000000 0.630392 0.891667
0.175490 0.614706 0.895588
0.408334 0.599020 0.900000
0.583333 0.575490 0.901961
0.726961 0.556372 0.905882
0.879412 0.533334 0.909804
1.000000 0.502451 0.911274
0.000000 0.790196 0.921569
0.000000 0.786275 0.922549
0.000000 0.778432 0.925490
0.063726 0.766667 0.926470
0.377451 0.750981 0.930392
0.559804 0.731373 0.934804
0.715687 0.711765 0.937255
0.871568 0.688236 0.941176
1.000000 0.664706 0.942157
0.000000 0.942156 0.952941
0.000000 0.935294 0.953431
0.000000 0.934313 0.956863
0.000000 0.922549 0.957353
0.308824 0.910784 0.960784
0.517648 0.895098 0.964706
0.692647 0.875981 0.968627
0.859804 0.855882 0.972549
1.000000 0.832844 0.976471
0.000000 1.000000 0.984314
0.000000 1.000000 0.988235
0.000000 1.000000 0.988235
0.024510 1.000000 0.988235
0.309804 1.000000 0.992157
0.508824 1.000000 0.992157
0.681372 1.000000 0.996078
0.848039 1.000000 1.000000
1.000000 1.000000 1.000000
