Color/Fuji/Fuji Superia 200 XPRO 65x.cube
TITLE "Fuji Superia 200 XPRO"
LUT_3D_SIZE 5
DOMAIN_MIN 0.000000 0.000000 0.000000
DOMAIN_MAX 1.000000 1.000000 1.000000
0.000000 0.000000 0.000000
0.003922 0.000000 0.023529
0.011765 0.003922 0.131373
0.142157 0.000000 0.169608
0.372549 0.054902 0.227451
0.016667 0.280392 0.359804
0.025490 0.288235 0.374510
0.080392 0.278431 0.390196
0.229412 0.232353 0.359804
0.443137 0.226470 0.356863
0.000000 0.617647 0.566666
0.000000 0.617647 0.566666
0.058824 0.600000 0.560785
0.345098 0.500980 0.510784
0.554902 0.423530 0.464706
0.100981 1.000000 0.770588
0.160785 1.000000 0.782353
0.279411 1.000000 0.769607
0.500980 0.903922 0.695098
0.727451 0.720588 0.609804
1.000000 1.000000 1.000000
1.000000 1.000000 1.000000
1.000000 1.000000 1.000000
1.000000 1.000000 1.000000
1.000000 1.000000 0.847059
0.000000 0.000000 0.367647
0.000000 0.007843 0.382353
0.000000 0.011765 0.375491
0.060785 0.007843 0.356863
0.329412 0.082353 0.364706
0.000000 0.292157 0.515686
0.000981 0.292157 0.515686
0.050000 0.269608 0.500981
0.190196 0.234314 0.460784
0.411765 0.234314 0.445098
0.000000 0.625490 0.662745
0.000000 0.621568 0.658824
0.039216 0.584313 0.633333
0.312745 0.485294 0.576471
0.523529 0.421569 0.538235
0.014706 1.000000 0.860785
0.031372 1.000000 0.855882
0.112745 1.000000 0.828431
0.465686 0.866667 0.749020
0.710784 0.712745 0.655883
0.988235 1.000000 1.000000
0.996078 1.000000 1.000000
1.000000 1.000000 1.000000
1.000000 1.000000 1.000000
1.000000 1.000000 0.877451
0.000000 0.037255 0.523529
0.000000 0.035294 0.511765
0.000000 0.019608 0.492157
0.063725 0.048039 0.480392
0.309804 0.113725 0.474510
0.000000 0.315686 0.644118
0.000000 0.303921 0.636275
0.051961 0.273529 0.610785
0.162745 0.250000 0.578431
0.395098 0.257844 0.547059
0.000000 0.613726 0.778431
0.000000 0.596078 0.765686
0.003921 0.537254 0.727451
0.286275 0.474510 0.677451
0.511765 0.439215 0.631373
0.000000 1.000000 0.951961
0.000000 1.000000 0.939216
0.169608 0.933333 0.891177
0.465686 0.816666 0.818627
0.683334 0.700000 0.740196
0.937255 1.000000 1.000000
0.945098 1.000000 1.000000
0.966666 1.000000 1.000000
0.990196 1.000000 1.000000
1.000000 1.000000 0.929412
0.000000 0.082353 0.651960
0.000000 0.083333 0.636275
0.000000 0.099020 0.624510
0.106862 0.117647 0.604902
0.330392 0.180392 0.593137
0.007843 0.323529 0.742156
0.014706 0.312746 0.732353
0.068627 0.297059 0.715687
0.193137 0.285295 0.687255
0.406863 0.313726 0.665686
0.000000 0.552941 0.840196
0.000000 0.541176 0.832353
0.114706 0.513726 0.809804
0.321569 0.482353 0.774510
0.519608 0.477451 0.740196
0.074510 0.903922 0.981372
0.172549 0.884314 0.969607
0.338235 0.839216 0.941176
0.497059 0.769607 0.891177
0.676471 0.700000 0.833334
0.898039 1.000000 1.000000
0.900980 1.000000 1.000000
0.905882 1.000000 1.000000
0.912745 1.000000 1.000000
0.955882 1.000000 0.988235
0.000000 0.180392 0.760784
0.023529 0.184314 0.752941
0.090196 0.188235 0.741176
0.189216 0.212745 0.729412
0.392157 0.282353 0.721569
0.036275 0.355882 0.831373
0.051960 0.351961 0.827451
0.153922 0.351961 0.815686
0.294117 0.363725 0.800000
0.470588 0.403922 0.787255
0.200000 0.549019 0.909804
0.235295 0.545098 0.905882
0.317647 0.537254 0.894118
0.426470 0.533334 0.874510
0.578431 0.543137 0.850980
0.441177 0.801961 1.000000
0.460785 0.794118 1.000000
0.516667 0.774510 0.988235
0.598039 0.750000 0.961765
0.727451 0.722549 0.925490
0.862745 1.000000 1.000000
0.870588 1.000000 1.000000
0.886275 1.000000 1.000000
0.910784 1.000000 1.000000
0.996078 0.996078 1.000000
