Color/Fuji/Fuji Astia 100F 65x.cube
TITLE "Fuji Astia 100F"
LUT_3D_SIZE 5
DOMAIN_MIN 0.000000 0.000000 0.000000
DOMAIN_MAX 1.000000 1.000000 1.000000
0.000000 0.000000 0.000000
0.221568 0.003922 0.000000
0.490197 0.021569 0.001961
0.754902 0.058824 0.039216
0.984314 0.094118 0.125490
0.109804 0.250000 0.124510
0.280392 0.245098 0.112745
0.537254 0.217647 0.089216
0.782353 0.130392 0.068628
0.996078 0.094118 0.113725
0.237255 0.505883 0.245098
0.377451 0.509804 0.224510
0.631373 0.509804 0.194117
0.873529 0.478432 0.213726
1.000000 0.343137 0.231372
0.389216 0.742156 0.365686
0.490197 0.746079 0.354903
0.717647 0.754902 0.326470
0.986275 0.762745 0.275490
1.000000 0.731373 0.304902
0.556863 0.929412 0.458824
0.630392 0.937255 0.451960
0.811764 0.949020 0.431373
1.000000 0.968627 0.400000
1.000000 0.980392 0.352941
0.000000 0.000000 0.128432
0.174510 0.003922 0.132353
0.435295 0.021569 0.140196
0.711765 0.058824 0.160784
0.952941 0.094118 0.207843
0.081372 0.241176 0.245098
0.234314 0.234314 0.234314
0.486274 0.201961 0.209804
0.743137 0.112745 0.161765
0.972549 0.094118 0.187255
0.235295 0.505883 0.304902
0.356862 0.509804 0.306863
0.575490 0.505883 0.319608
0.814706 0.474510 0.334314
1.000000 0.329412 0.298040
0.437255 0.746079 0.361764
0.529412 0.750000 0.353921
0.745098 0.758824 0.322549
0.988235 0.762745 0.299020
1.000000 0.727451 0.442157
0.592157 0.936274 0.458824
0.660784 0.941176 0.450980
0.833333 0.952941 0.431373
1.000000 0.972549 0.400000
1.000000 0.984314 0.352941
0.000000 0.000000 0.250980
0.159804 0.006863 0.245098
0.411764 0.023529 0.241177
0.686275 0.058824 0.248039
0.931372 0.094118 0.272549
0.066667 0.225490 0.379412
0.201961 0.213725 0.361765
0.447059 0.172549 0.320588
0.703922 0.085294 0.254902
0.937255 0.094118 0.268628
0.060785 0.501961 0.509804
0.245098 0.501961 0.505883
0.494117 0.494117 0.494117
0.750981 0.459804 0.470588
0.976471 0.290196 0.382353
0.372549 0.746079 0.518628
0.452941 0.750000 0.526471
0.629412 0.754902 0.545098
0.836275 0.757843 0.572549
1.000000 0.718627 0.602941
0.668627 0.945098 0.452941
0.728431 0.949020 0.447059
0.882353 0.960784 0.427451
1.000000 0.980392 0.400000
1.000000 0.988235 0.352941
0.000000 0.000000 0.368627
0.172549 0.007843 0.353921
0.403921 0.027451 0.346078
0.667647 0.059804 0.338235
0.909804 0.094118 0.345098
0.104902 0.184314 0.478431
0.215686 0.166666 0.457843
0.434314 0.120589 0.406863
0.678431 0.062745 0.346078
0.909804 0.094118 0.350000
0.078432 0.486274 0.650000
0.225490 0.486274 0.641177
0.466667 0.474510 0.618627
0.715687 0.428431 0.570588
0.941176 0.216666 0.425490
0.186275 0.743137 0.766667
0.309804 0.746079 0.762745
0.521568 0.750981 0.758824
0.747059 0.747059 0.747059
0.972549 0.700000 0.719608
0.780392 0.956863 0.444117
0.824510 0.960784 0.442157
0.930392 0.968627 0.460784
1.000000 0.984314 0.559804
1.000000 0.988235 0.735294
0.007843 0.003922 0.454902
0.230392 0.015686 0.439216
0.435295 0.035294 0.427451
0.672549 0.066667 0.411765
0.898039 0.094118 0.403922
0.191176 0.100000 0.508824
0.289216 0.085295 0.489216
0.466666 0.042157 0.439216
0.687255 0.067647 0.423529
0.901961 0.097059 0.415686
0.250980 0.450981 0.717647
0.336275 0.445098 0.707843
0.519608 0.423530 0.672549
0.727451 0.350000 0.602942
0.921569 0.103921 0.427451
0.310785 0.735294 0.883333
0.387255 0.735294 0.879412
0.552941 0.735294 0.863725
0.742156 0.723530 0.840196
0.949020 0.650000 0.778432
0.466667 0.956863 0.984314
0.512745 0.960784 0.980392
0.625490 0.968627 0.980392
0.777451 0.980392 0.984314
1.000000 0.996078 0.996078
