Color/Fuji/Fuji FP-100c Cool 1 -- 65x.cube
TITLE "Fuji FP-100c Cool 1 --"
LUT_3D_SIZE 65
DOMAIN_MIN 0.000000 0.000000 0.000000
DOMAIN_MAX 1.000000 1.000000 1.000000
0.000000 0.000000 0.000000
0.003922 0.003003 0.003003
0.007843 0.003922 0.003922
0.007843 0.001164 0.001164
0.011520 0.000000 0.000000
0.015686 0.000000 0.000000
0.025122 0.003922 0.003922
0.033885 0.003922 0.002513
0.046079 0.007353 0.003922
0.055760 0.003922 0.000000
0.069363 0.007843 0.003922
0.080698 0.010110 0.002267
0.096568 0.011765 0.003922
0.110172 0.011765 0.003922
0.126593 0.011765 0.002819
0.145221 0.011765 0.002022
0.162745 0.008823 0.000981
0.180269 0.003983 0.000000
0.201716 0.003064 0.003064
0.221017 0.000000 0.001777
0.243382 0.000000 0.003922
0.262132 0.000000 0.000000
0.284191 0.000000 0.000000
0.308946 0.000000 0.000000
0.332843 0.000000 0.000000
0.355209 0.000000 0.000000
0.381495 0.000000 0.000000
0.403860 0.000000 0.000000
0.427941 0.000000 0.000000
0.452512 0.000000 0.000000
0.474878 0.000000 0.000000
0.501164 0.000000 0.000000
0.525490 0.000000 0.000000
0.549816 0.000000 0.000000
0.568504 0.000000 0.000000
0.593750 0.000000 0.000000
0.616912 0.000000 0.000000
0.640564 0.000000 0.000000
0.665564 0.000000 0.000000
0.687378 0.000000 0.000000
0.708824 0.000000 0.000000
0.726348 0.000000 0.000000
0.747794 0.000000 0.000000
0.761703 0.000000 0.000000
0.781618 0.000000 0.000000
0.796446 0.000000 0.000000
0.810049 0.000000 0.000000
0.827512 0.000000 0.000000
0.838235 0.000000 0.000000
0.854779 0.000000 0.000000
0.868382 0.000000 0.000000
0.882169 0.000000 0.000000
0.895589 0.000000 0.000000
0.911458 0.000000 0.000000
0.924142 0.000000 0.000000
0.936397 0.000000 0.000000
0.949510 0.000000 0.000000
0.962193 0.000000 0.000000
0.977206 0.000000 0.000000
0.990135 0.000000 0.000000
1.000000 0.000000 0.000000
1.000000 0.000000 0.000000
1.000000 0.020343 0.000000
1.000000 0.075919 0.000000
1.000000 0.129412 0.000000
0.000000 0.000919 0.000000
0.003922 0.003922 0.003003
0.003922 0.003922 0.000000
0.007843 0.003922 0.000000
0.011765 0.006924 0.006680
0.019363 0.007843 0.003922
0.025122 0.007843 0.003922
0.033885 0.004841 0.002513
0.046569 0.005330 0.000490
0.059253 0.012684 0.004412
0.069363 0.013113 0.004351
0.082966 0.014951 0.000919
0.099571 0.016605 0.003922
0.110172 0.014951 -0.000735
0.127696 0.016789 0.001103
0.145221 0.016605 0.003922
0.165686 0.012684 0.002942
0.181189 0.008824 0.003922
0.202574 0.007843 0.000858
0.223162 0.003922 0.003003
0.246078 0.000000 0.002696
0.263051 0.000000 0.000000
0.291421 0.000000 0.000000
0.309865 0.000000 0.000000
0.334314 0.000000 0.000000
0.359130 0.000000 0.000000
0.381495 0.000000 0.000000
0.403493 0.000000 0.000000
0.430147 0.000000 0.000000
0.456434 0.000000 0.000000
0.478799 0.000000 0.000000
0.505086 0.000000 0.000000
0.526409 0.000000 0.000000
0.550858 0.000000 0.000000
0.569301 0.000000 0.000000
0.594669 0.000000 0.000000
0.616912 0.000000 0.000000
0.643199 0.000000 0.000000
0.666482 0.000000 0.000000
0.691299 0.000000 0.000000
0.710294 0.000000 0.000000
0.729350 0.000000 0.000000
0.747794 0.000000 0.000000
0.761397 0.000000 0.000000
0.778616 0.000000 0.000000
0.794301 0.000000 0.000000
0.810049 0.000000 0.000000
0.823652 0.000000 0.000000
0.841177 0.000000 0.000000
0.857782 0.000000 0.000000
0.866482 0.000000 0.000000
0.882905 0.000000 0.000000
0.895589 0.000000 0.000000
0.912194 0.000000 0.000000
0.921139 0.000000 0.000000
0.942891 0.000000 0.000000
0.950000 0.000000 0.000000
0.962193 0.000000 0.000000
0.974878 0.000000 0.000000
0.987561 0.000000 0.000000
1.000000 0.000000 0.000000
1.000000 0.002328 0.000000
1.000000 0.035784 0.000000
1.000000 0.083517 0.000000
1.000000 0.133333 0.000000
0.001838 0.005760 0.001838
0.000919 0.005760 0.001838
0.005760 0.007843 0.001838
0.007843 0.005760 -0.000919
0.015441 0.011520 0.005760
0.019608 0.011091 0.003248
0.025122 0.009681 0.001593
0.033885 0.009681 0.000000
0.050000 0.013603 0.003922
0.059253 0.017524 0.003922
0.069363 0.017524 0.003922
0.082966 0.019791 0.002267
0.093383 0.019608 0.002084
0.113909 0.023345 0.002084
0.127696 0.021446 0.001838
0.145221 0.019424 0.001900
0.161642 0.016667 0.000980
0.184191 0.015686 0.005944
0.202574 0.008701 0.000858
0.225000 0.007904 0.000000
0.247304 0.001226 0.002084
0.269669 0.000000 0.000000
0.293260 0.000000 0.000000
0.314706 0.000000 0.000000
0.336152 0.000000 0.000000
0.361213 0.000000 0.000000
0.380025 0.000000 0.000000
0.409620 0.000000 0.000000
0.431985 0.000000 0.000000
0.456434 0.000000 0.000000
0.477083 0.000000 0.000000
0.505086 0.000000 0.000000
0.527328 0.000000 0.000000
0.548774 0.000000 0.000000
0.570220 0.000000 0.000000
0.598713 0.000000 0.000000
0.618750 0.000000 0.000000
0.647120 0.000000 0.000000
0.665932 0.000000 0.000000
0.693137 0.000000 0.000000
0.708456 0.000000 0.000000
0.730269 0.000000 0.000000
0.747794 0.000000 0.000000
0.761397 0.000000 0.000000
0.781618 0.000000 0.000000
0.794301 0.000000 0.000000
0.810049 0.000000 0.000000
0.825490 0.000000 0.000000
0.841177 0.000000 0.000000
0.856863 0.000000 0.000000
0.868382 0.000000 0.000000
0.882169 0.000000 0.000000
0.895589 0.000000 0.000000
0.909191 0.000000 0.000000
0.924632 0.000000 0.000000
0.940318 0.000000 0.000000
0.948162 0.000000 0.000000
0.964031 0.000000 0.000000
0.977206 0.000000 0.000000
0.986887 0.000000 0.000000
1.000000 0.000000 0.000000
1.000000 0.007659 0.000000
1.000000 0.051471 0.000000
1.000000 0.091360 0.000000
1.000000 0.137255 0.000000
0.000000 0.010601 0.002758
0.003922 0.011765 0.003922
0.005760 0.009681 0.003922
0.010601 0.010601 0.002758
0.015441 0.010601 0.002758
0.017034 0.011274 0.000674
0.025122 0.011765 0.000000
0.036397 0.014277 -0.000245
0.050000 0.019118 0.004596
0.062011 0.022365 0.003922
0.069179 0.020956 0.001164
0.080208 0.023529 0.001164
0.096139 0.023100 -0.000429
0.112929 0.026287 0.006496
0.127696 0.023529 0.002819
0.147242 0.023529 0.002022
0.165502 0.019424 0.000000
0.188051 0.019608 0.001164
0.205638 0.017585 0.000000
0.227083 0.012745 0.000000
0.247304 0.006618 -0.000061
0.269975 0.003922 0.000000
0.292034 0.000000 0.000000
0.314400 0.000000 0.000000
0.336764 0.000000 0.000000
0.363052 0.000000 0.000000
0.388175 0.000000 0.000000
0.411703 0.000000 0.000000
0.434069 0.000000 0.000000
0.459191 0.000000 0.000000
0.485356 0.000000 0.000000
0.505086 0.000000 0.000000
0.528615 0.000000 0.000000
0.553738 0.000000 0.000000
0.576103 0.000000 0.000000
0.594547 0.000000 0.000000
0.620833 0.000000 0.000000
0.644363 0.000000 0.000000
0.669485 0.000000 0.000000
0.687929 0.000000 0.000000
0.710294 0.000000 0.000000
0.727512 0.000000 0.000000
0.747794 0.000000 0.000000
0.761703 0.000000 0.000000
0.778922 0.000000 0.000000
0.796446 0.000000 0.000000
0.810049 0.000000 0.000000
0.827512 0.000000 0.000000
0.840196 0.000000 0.000000
0.854779 0.000000 0.000000
0.868382 0.000000 0.000000
0.885907 0.000000 0.000000
0.898774 0.000000 0.000000
0.911458 0.000000 0.000000
0.925552 0.000000 0.000000
0.936397 0.000000 0.000000
0.950674 0.000000 0.000000
0.962193 0.000000 0.000000
0.974449 0.000000 0.000000
0.987561 0.000000 0.000000
1.000000 0.000000 0.000000
1.000000 0.017585 0.000000
1.000000 0.064828 0.000000
1.000000 0.101042 0.000000
1.000000 0.141176 0.000000
0.000000 0.011765 0.003922
0.003922 0.015441 0.003922
0.002084 0.013603 0.003922
0.007843 0.015441 0.004841
0.011765 0.015441 0.003677
0.023284 0.019363 0.000000
0.029044 0.019608 0.000245
0.037807 0.018199 0.000000
0.050000 0.026716 0.003432
0.059253 0.027206 0.000000
0.071936 0.027451 0.003922
0.082966 0.027451 -0.001409
0.100981 0.031128 0.003922
0.114093 0.031128 0.003922
0.134192 0.027451 0.002819
0.147487 0.027451 0.002022
0.170343 0.028186 0.000981
0.187867 0.023345 0.000000
0.209559 0.025490 0.003064
0.228860 0.019363 -0.001900
0.252451 0.012990 0.001226
0.269975 0.004228 0.000000
0.295343 0.000000 0.000000
0.320466 0.000000 0.000000
0.340686 0.000000 0.000000
0.363052 0.000000 0.000000
0.389338 0.000000 0.000000
0.411703 0.000000 0.000000
0.435785 0.000000 0.000000
0.464032 0.000000 0.000000
0.482721 0.000000 0.000000
0.511641 0.000000 0.000000
0.529411 0.000000 0.000000
0.554780 0.000000 0.000000
0.576348 0.000000 0.000000
0.601347 0.000000 0.000000
0.624755 0.000000 0.000000
0.648407 0.000000 0.000000
0.673407 0.000000 0.000000
0.691299 0.000000 0.000000
0.709069 0.000000 0.000000
0.731556 0.000000 0.000000
0.747794 0.000000 0.000000
0.761703 0.000000 0.000000
0.781618 0.000000 0.000000
0.792769 0.000000 0.000000
0.810049 0.000000 0.000000
0.827512 0.000000 0.000000
0.838235 0.000000 0.000000
0.851103 0.000000 0.000000
0.868382 0.000000 0.000000
0.882230 0.000000 0.000000
0.895589 0.000000 0.000000
0.911458 0.000000 0.000000
0.924142 0.000000 0.000000
0.936397 0.000000 0.000000
0.953187 0.000000 0.000000
0.962193 0.000000 0.000000
0.973284 0.000000 0.000000
0.983211 0.000000 0.000000
1.000000 0.011274 0.000000
1.000000 0.036703 0.000000
1.000000 0.074755 0.000000
1.000000 0.109804 0.000000
1.000000 0.152451 0.000000
0.000000 0.020956 0.003922
0.003922 0.020956 0.003677
0.005760 0.022120 0.003922
0.010601 0.020956 0.006679
0.015441 0.020956 0.003922
0.020956 0.024877 0.003922
0.029718 0.026470 -0.000919
0.039155 0.028799 0.000000
0.051165 0.032047 0.000000
0.060356 0.032476 -0.000245
0.073958 0.032721 0.000000
0.085968 0.036642 0.003922
0.105086 0.042402 0.006435
0.119363 0.036642 0.000674
0.132966 0.035968 0.000000
0.152390 0.037868 0.001900
0.174204 0.035968 0.002942
0.192708 0.039155 0.003248
0.211090 0.027941 0.000000
0.232353 0.028125 0.000000
0.255821 0.024203 0.000000
0.274571 0.016667 0.000000
0.299877 0.011826 0.000000
0.321385 0.003064 0.000000
0.345282 -0.001777 0.000000
0.367647 0.000000 0.000000
0.390012 0.000000 0.000000
0.416299 0.000000 0.000000
0.438665 0.000000 0.000000
0.464951 0.000000 0.000000
0.487868 0.000000 0.000000
0.510355 0.000000 0.000000
0.534007 0.000000 0.000000
0.558334 0.000000 0.000000
0.576899 0.000000 0.000000
0.600612 0.000000 0.000000
0.626103 0.000000 0.000000
0.649755 0.000000 0.000000
0.674080 0.000000 0.000000
0.692647 0.000000 0.000000
0.709375 0.000000 0.000000
0.728370 0.000000 0.000000
0.745833 0.000000 0.000000
0.762745 0.000000 0.000000
0.779044 0.000000 0.000000
0.793873 0.000000 0.000000
0.810723 0.000000 0.000000
0.825000 0.000000 0.000000
0.841851 0.000000 0.000000
0.855453 0.000000 0.000000
0.869056 0.000000 0.000000
0.879596 0.000000 0.000000
0.895527 0.000000 0.000000
0.908210 0.000000 0.000000
0.923468 0.000000 0.000000
0.937071 0.000000 0.000000
0.950184 0.000000 0.000000
0.959620 0.000000 0.000000
0.973958 0.000000 0.000000
0.981066 0.009743 0.000000
0.993076 0.009069 0.000000
1.000000 0.045527 0.000000
1.000000 0.078983 0.000000
1.000000 0.108518 0.000000
1.000000 0.133578 0.000000
0.000000 0.031373 0.006250
0.000919 0.028370 0.003922
0.003677 0.031128 0.003677
0.010601 0.032966 0.003922
0.017769 0.032966 0.003922
0.025122 0.036887 0.003248
0.032966 0.038480 0.000000
0.041728 0.038480 0.000000
0.054412 0.040809 0.000000
0.068689 0.046323 0.000000
0.079534 0.044485 0.000000
0.092463 0.044730 0.000000
0.109069 0.048652 0.000735
0.125858 0.048652 0.002329
0.143382 0.048652 0.000000
0.160478 0.046323 -0.000429
0.177083 0.043382 0.000000
0.199877 0.048590 0.002329
0.218995 0.042402 0.000000
0.238848 0.039032 0.000000
0.257965 0.031863 0.000000
0.283027 0.030637 0.000000
0.304780 0.025490 0.000000
0.326164 0.015747 0.000000
0.347671 0.006985 0.000000
0.371446 -0.001777 0.000000
0.398406 0.000000 0.000000
0.421140 0.000000 0.000000
0.445833 0.000000 0.000000
0.469792 0.000000 0.000000
0.490564 0.000000 0.000000
0.517402 0.000000 0.000000
0.539215 0.000000 0.000000
0.566789 0.000000 0.000000
0.585539 0.000000 0.000000
0.607905 0.000000 0.000000
0.634191 0.000000 0.000000
0.658885 0.000000 0.000000
0.677696 0.000000 0.000000
0.700735 0.000000 0.000000
0.718137 0.000000 0.000000
0.738112 0.000000 0.000000
0.755638 0.000000 0.000000
0.767953 0.000000 0.000000
0.787133 0.000000 0.000000
0.800368 0.000000 0.000000
0.815564 0.000000 0.000000
0.833028 0.000000 0.000000
0.845710 0.000000 0.000000
0.858395 0.000000 0.000000
0.873407 0.000000 0.000000
0.883762 0.000000 0.000000
0.899510 0.000000 0.000000
0.911458 0.000000 0.000000
0.926716 0.000000 0.000000
0.942647 0.000000 0.000000
0.953431 0.000000 0.000000
0.966115 0.000000 0.000000
0.974878 0.006985 0.000000
0.990809 0.036030 0.000000
1.000000 0.064339 0.000000
1.000000 0.091790 0.000000
1.000000 0.115318 0.000000
1.000000 0.140687 0.000000
1.000000 0.175735 0.000000
0.000000 0.040318 0.006434
0.000919 0.041728 0.006434
0.005760 0.041728 0.003248
0.011765 0.044240 0.003677
0.017954 0.044240 0.003922
0.026042 0.045650 0.005760
0.032966 0.050490 0.002329
0.041728 0.048161 0.000000
0.057844 0.053493 0.000000
0.067525 0.053493 0.000000
0.083701 0.054902 0.000000
0.094730 0.057415 0.000000
0.112254 0.057415 0.000000
0.125858 0.057415 0.000000
0.148713 0.060233 0.002819
0.164828 0.057415 -0.000490
0.180944 0.057415 0.000000
0.199877 0.057415 0.000000
0.218260 0.050429 0.000000
0.240625 0.052083 0.000000
0.262807 0.049571 0.000000
0.284253 0.043138 0.000000
0.309620 0.037193 0.000000
0.331066 0.030944 0.000000
0.352451 0.022181 0.000000
0.377328 0.016789 0.000000
0.401103 0.006067 0.000000
0.423468 0.000000 0.000000
0.452574 0.000000 0.000000
0.471507 0.000000 0.000000
0.494486 0.000000 0.000000
0.519363 0.000000 0.000000
0.543138 0.000000 0.000000
0.565502 0.000000 0.000000
0.590380 0.000000 0.000000
0.614155 0.000000 0.000000
0.641238 0.000000 0.000000
0.662807 0.000000 0.000000
0.683763 0.000000 0.000000
0.703064 0.000000 0.000000
0.719546 0.000000 0.000000
0.738112 0.000000 0.000000
0.755638 0.000000 0.000000
0.775367 0.000000 0.000000
0.784252 0.000000 0.000000
0.802145 0.000000 0.000000
0.817892 0.000000 0.000000
0.833947 0.000000 0.000000
0.849571 0.000000 0.000000
0.858701 0.000000 0.000000
0.872304 0.000000 0.000000
0.887317 0.000000 0.000000
0.904473 0.000000 0.000000
0.910600 0.000000 0.000000
0.926716 0.000000 0.000000
0.939338 0.000000 0.000000
0.953431 0.000000 0.000000
0.964705 0.010049 0.000000
0.977390 0.031127 0.000000
0.987561 0.062929 0.000000
1.000000 0.090380 0.000000
1.000000 0.109069 0.000000
1.000000 0.130760 0.000000
1.000000 0.150797 0.000000
1.000000 0.187929 0.000000
0.000000 0.050490 0.003922
0.003922 0.056924 0.006924
0.005760 0.050490 0.003922
0.010601 0.050490 0.003922
0.015441 0.054167 0.003922
0.024203 0.057844 0.003922
0.034804 0.061765 0.005760
0.038297 0.058334 0.000000
0.050980 0.062255 0.000000
0.064093 0.062685 0.000000
0.081127 0.066177 0.000000
0.098162 0.069608 0.000000
0.112990 0.070343 0.000000
0.129780 0.066360 0.000000
0.149632 0.072427 0.000000
0.168260 0.074939 0.000000
0.185294 0.069117 0.000000
0.207169 0.069608 0.000000
0.228676 0.066177 0.000000
0.250123 0.066177 0.000000
0.270343 0.066422 0.000000
0.293199 0.062255 0.000000
0.311642 0.051103 0.000000
0.337439 0.054289 0.000000
0.359804 0.043627 0.000000
0.382660 0.038297 0.000000
0.408457 0.029535 0.000000
0.430024 0.016850 0.000000
0.453677 0.003432 0.000000
0.480270 0.000000 0.000000
0.501838 0.000000 0.000000
0.523652 0.000000 0.000000
0.543138 0.000000 0.000000
0.573407 0.000000 0.000000
0.595343 0.000000 0.000000
0.620711 0.000000 0.000000
0.640441 0.000000 0.000000
0.666237 0.000000 0.000000
0.689093 0.000000 0.000000
0.706434 0.000000 0.000000
0.722059 0.000000 0.000000
0.739644 0.000000 0.000000
0.756250 0.000000 0.000000
0.776286 0.000000 0.000000
0.786765 0.000000 0.000000
0.799081 0.000000 0.000000
0.818260 0.000000 0.000000
0.831496 0.000000 0.000000
0.845098 0.000000 0.000000
0.860723 0.000000 0.000000
0.872304 0.000000 0.000000
0.889828 0.000000 0.000000
0.899510 0.000000 0.000000
0.911948 0.000000 0.000000
0.926716 0.000000 0.000000
0.940808 0.000000 0.000000
0.950000 0.018137 0.000000
0.966115 0.041482 0.000000
0.978799 0.068260 0.000000
0.987561 0.087377 0.000000
0.996323 0.108824 0.000000
0.997242 0.124080 0.000000
1.000000 0.143015 0.000000
1.000000 0.165379 0.000000
1.000000 0.195588 0.000000
0.000000 0.063603 0.004351
0.000000 0.067586 0.008333
0.001838 0.063603 0.004351
0.010171 0.060846 0.003922
0.011765 0.063603 0.000675
0.019608 0.066851 0.003922
0.028615 0.071017 0.003922
0.037377 0.071017 0.003493
0.046569 0.074939 0.000000
0.063174 0.078860 0.000000
0.082046 0.080208 0.000000
0.098223 0.082782 0.000000
0.112683 0.083211 0.000000
0.129963 0.083211 0.000000
0.147733 0.083211 0.000000
0.168750 0.086704 0.000000
0.186703 0.083211 0.000000
0.208149 0.079779 0.000000
0.230025 0.083211 0.000000
0.254534 0.083211 0.000000
0.274755 0.079289 0.000000
0.293934 0.075673 0.000000
0.319301 0.075184 0.000000
0.340748 0.070343 0.000000
0.368137 0.068995 0.000000
0.387010 0.057169 0.000000
0.412929 0.055392 0.000000
0.434375 0.043566 0.000000
0.458027 0.034804 0.000000
0.483885 0.026042 0.000000
0.506127 0.013358 0.000000
0.527573 0.000674 0.000000
0.550980 -0.001532 0.000000
0.577696 0.000000 0.000000
0.600185 0.000000 0.000000
0.625919 0.000000 0.000000
0.646997 0.000000 0.000000
0.670650 0.000000 0.000000
0.685968 0.000000 0.000000
0.706985 0.000000 0.000000
0.729473 0.000000 0.000000
0.742034 0.000000 0.000000
0.759559 0.000000 0.000000
0.773162 0.000000 0.000000
0.790257 0.000000 0.000000
0.798652 0.000000 0.000000
0.817892 0.000000 0.000000
0.831496 0.000000 0.000000
0.844546 0.000000 0.000000
0.859130 0.000000 0.000000
0.873407 0.000000 0.000000
0.889828 0.000000 0.000000
0.899510 0.000000 0.000000
0.913113 0.005392 0.000000
0.930208 0.011214 0.000000
0.937254 0.029596 0.000000
0.949939 0.057537 0.000000
0.967096 0.078615 0.000000
0.974878 0.093811 0.000000
0.987561 0.113236 0.000000
1.000000 0.126654 0.000000
1.000000 0.144362 0.000000
1.000000 0.163542 0.000000
1.000000 0.181985 0.000000
1.000000 0.208272 0.000000
0.000000 0.075858 0.003922
0.000000 0.077206 0.003922
0.000000 0.079779 0.008333
0.002574 0.074448 0.003922
0.010171 0.079535 0.003922
0.015012 0.079779 0.007169
0.023774 0.083701 0.003922
0.032537 0.086213 0.002513
0.042647 0.085049 -0.002084
0.057415 0.088052 0.000000
0.077206 0.092892 0.000000
0.094730 0.095159 0.000000
0.114828 0.099387 0.000000
0.133701 0.100735 0.000000
0.151226 0.100735 0.000000
0.172672 0.100735 0.000000
0.190196 0.100735 0.000000
0.211642 0.096875 0.000000
0.233946 0.100735 0.000000
0.256311 0.100735 0.000000
0.280025 0.099510 0.000000
0.298774 0.096814 0.000000
0.323407 0.096201 0.000000
0.345588 0.088787 0.000000
0.369485 0.088971 0.000000
0.394424 0.081679 0.000000
0.416789 0.077206 0.000000
0.439154 0.073345 0.000000
0.462867 0.063725 0.000000
0.487806 0.058946 0.000000
0.507598 0.048407 0.000000
0.529963 0.039951 0.000000
0.558211 0.028309 0.000000
0.582536 0.016974 0.000000
0.605024 0.004412 0.000000
0.634314 0.004044 0.000000
0.650123 -0.000368 0.000000
0.673284 0.000000 0.000000
0.693015 0.000000 0.000000
0.710907 0.000000 0.000000
0.728431 0.000000 0.000000
0.745956 0.000000 0.000000
0.757598 0.000000 0.000000
0.776777 0.000000 0.000000
0.789338 0.000000 0.000000
0.804289 0.000000 0.000000
0.817892 0.000000 0.000000
0.830147 0.000000 0.000000
0.846691 0.000000 0.000000
0.861275 0.000000 0.000000
0.874877 0.005637 0.000000
0.886091 0.005392 0.000000
0.901348 0.019976 0.000000
0.913113 0.037500 0.000000
0.926715 0.055025 0.000000
0.940318 0.071630 0.000000
0.948652 0.089951 0.000000
0.962193 0.102144 0.000000
0.973529 0.117402 0.000000
0.983640 0.130085 0.000000
0.998652 0.144240 0.000000
1.000000 0.159375 0.000000
1.000000 0.174633 0.000000
1.000000 0.188971 0.000000
1.000000 0.212868 0.000000
0.000000 0.098039 0.005576
0.000000 0.097304 0.002574
0.000000 0.100735 0.006005
0.000000 0.099142 0.003922
0.000000 0.098652 0.007843
0.006250 0.098652 0.003922
0.015012 0.100306 0.004596
0.026287 0.102573 0.002513
0.039890 0.107660 0.000000
0.053921 0.106924 0.000000
0.072365 0.109497 0.000000
0.092463 0.114338 0.000000
0.113909 0.115073 0.000000
0.137623 0.121998 0.000000
0.153982 0.117095 0.000000
0.174693 0.118260 0.000000
0.194117 0.118260 0.000000
0.217156 0.123774 0.000000
0.237010 0.118260 0.000000
0.260723 0.118750 0.000000
0.282598 0.115992 0.000000
0.310233 0.119608 0.000000
0.329595 0.114338 0.000000
0.354351 0.115074 0.000000
0.375796 0.108762 0.000000
0.400613 0.104841 0.000000
0.422978 0.104472 0.000000
0.450245 0.096998 0.000000
0.469363 0.093076 0.000000
0.493137 0.088297 0.000000
0.518015 0.081189 0.000000
0.547794 0.078615 0.000000
0.568934 0.069853 0.000000
0.592341 0.063358 0.000000
0.619240 0.060049 0.000000
0.637684 0.048100 0.000000
0.660601 0.043260 0.000000
0.679780 0.034497 0.000000
0.699571 0.028003 0.000000
0.717096 0.023713 0.000000
0.737071 0.022243 0.000000
0.752267 0.019792 0.000000
0.767402 0.017525 0.000000
0.781005 0.015870 0.000000
0.797304 0.018566 0.000000
0.812255 0.019792 0.000000
0.822671 0.024510 0.000000
0.841545 0.031556 0.000000
0.851287 0.036458 0.000000
0.862623 0.043199 0.000000
0.880147 0.058456 0.000000
0.890012 0.064400 0.000000
0.901164 0.076471 0.000000
0.917647 0.086887 0.000000
0.930331 0.100184 0.000000
0.940747 0.110601 0.000000
0.953431 0.123284 0.000000
0.965257 0.135110 0.000000
0.978799 0.148713 0.000000
0.989215 0.161703 0.000000
1.000000 0.169730 0.000000
1.000000 0.186091 0.000000
1.000000 0.198775 0.000000
1.000000 0.214461 0.000000
1.000000 0.239828 0.000000
0.000000 0.112254 0.004657
0.000000 0.113174 0.003922
0.000000 0.112990 0.002574
0.000000 0.113419 0.003922
0.000000 0.112254 0.003922
-0.002513 0.109742 0.003922
0.003064 0.112990 0.000735
0.015012 0.115503 0.000000
0.027941 0.120343 0.000000
0.047917 0.120526 0.000000
0.068015 0.126593 0.000000
0.083701 0.127941 0.000000
0.108333 0.131862 0.000000
0.126778 0.135784 0.000000
0.155147 0.138603 0.000000
0.176593 0.135784 0.000000
0.195098 0.136765 0.000000
0.215563 0.135111 0.000000
0.240196 0.138113 0.000000
0.260233 0.135784 0.000000
0.282108 0.135784 0.000000
0.308885 0.135049 0.000000
0.331863 0.135049 0.000000
0.362377 0.136703 0.000000
0.384559 0.131862 0.000000
0.405453 0.127941 0.000000
0.427819 0.126838 0.000000
0.453554 0.122733 0.000000
0.478186 0.122059 0.000000
0.502757 0.115441 0.000000
0.529043 0.111519 0.000000
0.555331 0.107598 0.000000
0.577696 0.104902 0.000000
0.604289 0.100061 0.000000
0.623161 0.095098 0.000000
0.644792 0.091177 0.000000
0.666176 0.088726 0.000000
0.686887 0.083885 0.000000
0.700858 0.079044 0.000000
0.721937 0.081311 0.000000
0.738725 0.074755 0.000000
0.752267 0.070037 0.000000
0.767279 0.070711 0.000000
0.787807 0.077635 0.000000
0.792647 0.074019 0.000000
0.813174 0.075796 0.000000
0.825735 0.077941 0.000000
0.842464 0.082599 0.000000
0.851960 0.086519 0.000000
0.867831 0.091177 0.000000
0.880147 0.096814 0.000000
0.893750 0.103492 0.000000
0.903432 0.109069 0.000000
0.917034 0.118750 0.000000
0.931985 0.129779 0.000000
0.940747 0.138541 0.000000
0.956617 0.151225 0.000000
0.964338 0.158211 0.000000
0.977206 0.167892 0.000000
0.987500 0.178186 0.000000
1.000000 0.190932 0.000000
1.000000 0.203615 0.000000
1.000000 0.217402 0.000000
1.000000 0.228799 0.000000
1.000000 0.256618 0.000000
0.000000 0.129596 0.003922
0.000000 0.129780 0.003003
0.000000 0.129780 0.000184
0.000000 0.129780 0.003922
0.000000 0.129780 0.003922
0.000000 0.130270 0.003922
0.000000 0.131189 0.005331
0.000000 0.129963 0.000184
0.018260 0.133701 0.000000
0.035784 0.137623 0.000000
0.057230 0.141360 0.000000
0.079289 0.143811 0.000000
0.096385 0.145466 0.000000
0.118015 0.149388 0.000000
0.148223 0.154412 0.000000
0.168750 0.151470 0.000000
0.196079 0.153492 0.000000
0.219239 0.157047 0.000000
0.237194 0.153492 0.000000
0.262378 0.157231 0.000000
0.286519 0.156005 0.000000
0.308885 0.153309 0.000000
0.335171 0.153492 0.000000
0.361458 0.153309 0.000000
0.381557 0.153309 0.000000
0.414032 0.153309 0.000000
0.436581 0.149571 0.000000
0.459130 0.146936 0.000000
0.489154 0.145649 0.000000
0.515441 0.142524 0.000000
0.537990 0.141789 0.000000
0.563235 0.136949 0.000000
0.590196 0.137806 0.000000
0.612561 0.133884 0.000000
0.634926 0.129963 0.000000
0.648223 0.125429 0.000000
0.674019 0.124326 0.000000
0.687806 0.122120 0.000000
