Color/Fuji/Fuji Sensia 100 65x.cube
TITLE "Fuji Sensia 100"
LUT_3D_SIZE 5
DOMAIN_MIN 0.000000 0.000000 0.000000
DOMAIN_MAX 1.000000 1.000000 1.000000
0.000000 0.000000 0.000000
0.202941 0.000000 0.000000
0.435295 0.000000 0.000000
0.735294 0.000000 0.000000
0.905882 0.000000 0.000000
0.129412 0.280392 0.128432
0.273529 0.276470 0.112745
0.516667 0.268627 0.082353
0.820588 0.256863 0.046078
0.991177 0.256863 0.107843
0.184314 0.605882 0.250980
0.335294 0.603921 0.239216
0.609804 0.598040 0.203922
0.916667 0.590196 0.170588
1.000000 0.592156 0.249020
0.300000 0.851961 0.281373
0.438236 0.848039 0.269608
0.722549 0.839216 0.233333
1.000000 0.832353 0.219608
1.000000 0.833334 0.326470
0.301961 0.980392 0.156863
0.472549 0.976471 0.117647
0.805883 0.964706 0.000000
1.000000 0.952941 0.000000
1.000000 0.952941 0.109804
0.000000 0.000000 0.171568
0.183334 0.000000 0.132353
0.411764 0.000000 0.093137
0.692157 0.000000 0.056863
0.847059 0.000000 0.112745
0.121569 0.256863 0.269608
0.253922 0.252941 0.252941
0.497059 0.245098 0.217647
0.782353 0.233333 0.186274
0.941176 0.233333 0.241176
0.151961 0.600000 0.386274
0.312746 0.598040 0.374510
0.594117 0.590196 0.342157
0.880392 0.582353 0.317647
1.000000 0.586275 0.381373
0.255883 0.855883 0.436275
0.407843 0.852941 0.425490
0.699020 0.845098 0.393137
0.963725 0.840196 0.382353
1.000000 0.840196 0.470588
0.385294 0.980392 0.177451
0.516667 0.976471 0.162745
0.810784 0.968627 0.119608
1.000000 0.960784 0.125490
1.000000 0.964706 0.338235
0.000000 0.000000 0.347059
0.175490 0.000000 0.311765
0.400000 0.000000 0.276470
0.654902 0.000000 0.249020
0.798039 0.000000 0.286274
0.125490 0.213725 0.450981
0.233333 0.207843 0.436275
0.466666 0.198039 0.404902
0.718628 0.186274 0.375490
0.863725 0.184314 0.408824
0.129412 0.574510 0.605882
0.289216 0.571569 0.596078
0.564705 0.564705 0.564705
0.812745 0.556863 0.543138
0.960784 0.556863 0.570588
0.186275 0.860785 0.709804
0.363725 0.859804 0.700000
0.650000 0.851961 0.670589
0.878431 0.844118 0.657843
1.000000 0.844118 0.689216
0.225490 1.000000 0.605882
0.407843 0.996078 0.595098
0.715687 0.988235 0.566666
0.967647 0.981373 0.566666
1.000000 0.982353 0.662745
0.000000 0.003922 0.569608
0.183334 0.000000 0.531373
0.400000 0.000000 0.489216
0.612745 0.000000 0.451960
0.752941 0.000000 0.448039
0.124510 0.102941 0.634314
0.236275 0.095098 0.612745
0.442157 0.079412 0.567647
0.643137 0.065686 0.528431
0.779412 0.057843 0.516667
0.246078 0.500981 0.786274
0.354902 0.497059 0.770588
0.570588 0.488235 0.728431
0.759804 0.480393 0.694118
0.898039 0.476471 0.684314
0.340196 0.849020 0.910784
0.451961 0.848039 0.895098
0.657843 0.840196 0.863726
0.836274 0.836274 0.836274
0.976471 0.832353 0.824510
0.289216 1.000000 0.950000
0.426471 1.000000 0.934313
0.666667 1.000000 0.901961
0.871568 1.000000 0.871568
1.000000 0.996078 0.871568
0.086275 0.003922 0.701961
0.277451 0.000000 0.654902
0.452941 0.000000 0.611765
0.608824 0.000000 0.576471
0.729412 0.000000 0.556863
0.238236 0.000000 0.694118
0.323529 0.000000 0.674510
0.471569 0.000000 0.637255
0.608823 0.000000 0.603922
0.721569 0.000000 0.584314
0.439215 0.307843 0.801961
0.491177 0.301961 0.790196
0.605882 0.290196 0.758823
0.720588 0.274510 0.729412
0.821568 0.262745 0.705882
0.597059 0.790196 0.968627
0.640196 0.787255 0.960784
0.734314 0.782353 0.941176
0.841177 0.775490 0.918627
0.945098 0.770588 0.899020
0.662745 1.000000 1.000000
0.697059 1.000000 1.000000
0.780392 1.000000 1.000000
0.883333 1.000000 1.000000
1.000000 1.000000 1.000000
