Color/Fuji/Fuji 400H 1 - 65x.cube
TITLE "Fuji 400H 1 -"
LUT_3D_SIZE 9
DOMAIN_MIN 0.000000 0.000000 0.000000
DOMAIN_MAX 1.000000 1.000000 1.000000
0.000000 0.000000 0.000000
0.089216 0.011275 0.003432
0.233333 0.012745 0.003922
0.430882 0.000000 0.000000
0.619607 0.000000 0.000000
0.766176 0.000000 0.000000
0.860785 0.000000 0.000000
0.941666 0.118137 0.000000
1.000000 0.239216 0.058824
0.000000 0.097059 0.007843
0.062745 0.101471 0.003922
0.232843 0.116667 0.000000
0.430882 0.098039 0.000000
0.613725 0.046569 0.000000
0.759804 0.039706 0.000000
0.855882 0.109804 0.000000
0.937745 0.192156 0.000000
1.000000 0.277941 0.047059
0.000000 0.243138 0.000981
0.000000 0.240196 0.011765
0.190196 0.252941 0.000000
0.423039 0.264706 0.000000
0.611765 0.249999 0.000000
0.746569 0.251961 0.000000
0.846079 0.267647 0.000000
0.922549 0.301470 0.000000
1.000000 0.357843 0.002942
0.000000 0.397059 0.000000
0.000000 0.400980 0.015196
0.106373 0.400980 -0.000490
0.369608 0.412745 0.000000
0.579902 0.419118 0.000000
0.716666 0.403432 0.000000
0.820588 0.399510 0.000000
0.906372 0.418627 0.000000
0.993627 0.453431 0.000000
0.000000 0.527451 0.060785
0.000000 0.527451 0.076470
0.005882 0.518628 0.092157
0.319608 0.521569 0.056863
0.513726 0.527451 0.000000
0.679902 0.537254 0.000000
0.787255 0.531373 0.000000
0.882843 0.529411 0.000000
0.978432 0.545098 0.000000
0.000000 0.618627 0.144118
0.000000 0.624510 0.157843
0.094607 0.613235 0.166176
0.310785 0.608334 0.163726
0.478432 0.612745 0.135784
0.626470 0.618627 0.093137
0.754902 0.632843 0.012745
0.855392 0.638235 0.000000
0.960784 0.646078 0.000000
0.000000 0.708823 0.238235
0.103921 0.710784 0.245098
0.230392 0.703922 0.249020
0.353431 0.697550 0.260785
0.481372 0.698039 0.247059
0.605392 0.703922 0.229412
0.715687 0.707843 0.198039
0.836765 0.727451 0.164216
0.945098 0.739216 0.145098
0.271568 0.804412 0.345588
0.302451 0.800980 0.350000
0.352941 0.798040 0.353921
0.429902 0.796568 0.367647
0.512255 0.791176 0.367646
0.610784 0.800490 0.357843
0.706863 0.808333 0.342156
0.808823 0.816666 0.318627
0.937255 0.839706 0.295098
0.415686 0.929412 0.498039
0.431373 0.925490 0.501961
0.462745 0.926471 0.506862
0.513726 0.925490 0.521569
0.574510 0.925490 0.537255
0.644608 0.930882 0.533333
0.729412 0.940196 0.528431
0.828431 0.949020 0.521569
0.941176 0.960784 0.513726
0.019608 0.011765 0.093138
0.093138 0.011765 0.097059
0.244118 0.000000 0.097059
0.440196 0.000000 0.101471
0.621568 0.000000 0.116667
0.760294 0.000000 0.120589
0.855883 0.024019 0.127941
0.933823 0.157353 0.140686
1.000000 0.254412 0.168137
0.000000 0.109314 0.101471
0.081373 0.116667 0.104902
0.248039 0.120589 0.104902
0.442647 0.104902 0.107353
0.621568 0.080392 0.108333
0.756372 0.096078 0.112745
0.852451 0.149020 0.120588
0.930883 0.216176 0.133333
1.000000 0.293628 0.163726
0.000000 0.270098 0.123039
0.000000 0.260294 0.115686
0.217157 0.264216 0.104902
0.442647 0.271569 0.081863
0.618627 0.257843 0.075980
0.744608 0.260294 0.081373
0.840196 0.280392 0.094608
0.922059 0.316176 0.115686
1.000000 0.369118 0.150000
0.000000 0.413725 0.118137
0.000000 0.416667 0.132353
0.161275 0.408824 0.135294
0.388726 0.417647 0.105392
0.587745 0.423529 0.060294
0.718137 0.404902 0.008824
0.818137 0.408824 0.020098
0.904412 0.426470 0.060294
0.992157 0.456863 0.113725
0.000000 0.537255 0.159804
0.000000 0.535784 0.166176
0.117647 0.523529 0.175490
0.340196 0.526471 0.161274
0.523529 0.531373 0.128432
0.677941 0.537254 0.079412
0.786275 0.532353 0.016667
0.881373 0.527941 0.000000
0.978432 0.549019 0.021079
0.000000 0.625000 0.206863
0.000000 0.626470 0.216667
0.165196 0.619117 0.224510
0.332843 0.614706 0.225980
0.486765 0.615686 0.205392
0.628922 0.621078 0.179412
0.757843 0.633334 0.143137
0.856373 0.639216 0.105882
0.961275 0.644608 0.051471
0.069608 0.711765 0.277451
0.159804 0.712255 0.284314
0.260294 0.707843 0.287745
0.367647 0.699019 0.298529
0.489706 0.700000 0.290196
0.606863 0.703922 0.272059
0.718137 0.710784 0.248530
0.832353 0.727451 0.222059
0.945098 0.741666 0.206373
0.283333 0.804412 0.369607
0.310784 0.804412 0.373529
0.364216 0.800980 0.380392
0.434314 0.797058 0.388725
0.516177 0.793137 0.392157
0.609804 0.798039 0.381372
0.707353 0.808333 0.369117
0.808823 0.816666 0.345588
0.937255 0.839706 0.326470
0.419608 0.929412 0.513236
0.431373 0.929412 0.513726
0.466177 0.928922 0.521079
0.513726 0.926471 0.530392
0.574510 0.925490 0.547059
0.645098 0.929902 0.545098
0.729902 0.939706 0.539706
0.825000 0.946079 0.529902
0.941176 0.960784 0.522059
0.000981 0.023529 0.245098
0.105392 0.019608 0.245098
0.259804 0.007843 0.255883
0.451471 0.000000 0.248529
0.637255 0.000000 0.249019
0.766176 0.000000 0.261765
0.850980 0.170588 0.301961
0.929902 0.238726 0.310785
1.000000 0.304902 0.323529
0.000000 0.112745 0.249019
0.100981 0.128432 0.256863
0.268137 0.132353 0.264216
0.462745 0.090686 0.253922
0.637745 0.098529 0.264706
0.761274 0.161275 0.284804
0.848039 0.227451 0.299510
0.925490 0.276960 0.303921
1.000000 0.335784 0.322549
0.000000 0.275490 0.267647
0.000000 0.280392 0.271569
0.270588 0.287255 0.275490
0.466177 0.291177 0.279412
0.627451 0.294118 0.282353
0.744117 0.299020 0.281863
0.836274 0.320588 0.283334
0.915686 0.351471 0.292647
0.999019 0.393137 0.309804
0.000000 0.440686 0.280392
0.062255 0.444608 0.295098
0.251471 0.432843 0.288235
0.426961 0.434804 0.282844
0.600980 0.429412 0.256863
0.722059 0.419608 0.248039
0.815196 0.425980 0.255392
0.899020 0.444608 0.267647
0.988235 0.473039 0.292157
0.000000 0.556863 0.302941
0.032843 0.556372 0.299510
0.239215 0.543137 0.301961
0.384314 0.535294 0.303431
0.543137 0.539216 0.284314
0.683824 0.542647 0.260294
0.788235 0.536274 0.237255
0.882353 0.537254 0.227941
0.972549 0.552941 0.250980
0.000000 0.636765 0.317157
0.139706 0.637255 0.324020
0.261274 0.630392 0.327451
0.375000 0.617157 0.331372
0.508824 0.621078 0.322059
0.636765 0.626470 0.302451
0.757843 0.637745 0.284314
0.855392 0.640686 0.258333
0.962255 0.644608 0.236275
0.192157 0.719608 0.357843
0.236274 0.716177 0.360784
0.312745 0.712745 0.366666
0.402451 0.703922 0.371569
0.501961 0.700980 0.368627
0.611765 0.705392 0.356863
0.719608 0.711765 0.338235
0.833824 0.728921 0.323039
0.945098 0.741176 0.307843
0.307843 0.808823 0.424019
0.333333 0.808333 0.426961
0.383333 0.805883 0.430883
0.447059 0.800490 0.436274
0.522549 0.795588 0.443627
0.614216 0.800490 0.434804
0.707353 0.808823 0.423039
0.808823 0.816666 0.404902
0.937255 0.840196 0.394607
0.419608 0.929412 0.536274
0.435294 0.929902 0.537745
0.466667 0.929412 0.541176
0.516177 0.927941 0.552941
0.575490 0.926470 0.567647
0.644608 0.929412 0.568627
0.727451 0.937255 0.563725
0.827451 0.949020 0.557353
0.944118 0.960784 0.551961
0.000000 0.037745 0.411274
0.114706 0.037745 0.415196
0.288725 0.031373 0.422059
0.470098 0.000000 0.432353
0.626961 0.000000 0.418627
0.767647 0.000000 0.407353
0.854412 0.097549 0.410294
0.929412 0.227941 0.424510
1.000000 0.324510 0.453431
0.000000 0.138725 0.415196
0.130882 0.143137 0.420588
0.299510 0.149510 0.428431
0.474019 0.144118 0.436275
0.634804 0.106373 0.426961
0.762255 0.121569 0.416667
0.848529 0.208333 0.420588
0.922549 0.287745 0.436275
0.996078 0.386275 0.477941
0.000000 0.256373 0.415686
0.068627 0.268137 0.424020
0.306372 0.293628 0.436275
0.484804 0.309804 0.450980
0.635785 0.291177 0.437255
0.748039 0.313725 0.436275
0.833334 0.349510 0.442647
0.905882 0.409314 0.470588
0.990196 0.442647 0.479902
0.000000 0.441667 0.437745
0.000000 0.449510 0.449019
0.293627 0.455392 0.455392
0.479412 0.459804 0.459804
0.613235 0.453431 0.451961
0.719118 0.455883 0.448039
0.810294 0.463726 0.447059
0.890686 0.475490 0.448039
0.980392 0.499020 0.458333
0.021569 0.578922 0.446569
0.192647 0.580883 0.452941
0.349020 0.570588 0.456373
0.452451 0.554902 0.451961
0.569118 0.553432 0.442647
0.691667 0.552941 0.424510
0.789215 0.545098 0.408824
0.878431 0.554412 0.414216
0.970588 0.567157 0.425000
0.281372 0.652451 0.467647
0.333333 0.653922 0.473039
0.359314 0.650980 0.456373
0.442647 0.636765 0.454412
0.535784 0.628922 0.449510
0.648529 0.632843 0.438725
0.760294 0.644608 0.425000
0.855882 0.642157 0.400981
0.964706 0.644608 0.383823
0.295588 0.729902 0.467157
0.313726 0.728921 0.464706
0.369608 0.723530 0.465686
0.446568 0.715687 0.467647
0.521568 0.706372 0.469608
0.620588 0.709804 0.460294
0.722059 0.715687 0.447549
0.834314 0.732843 0.435294
0.947549 0.743137 0.420098
0.337745 0.816666 0.493137
0.361274 0.816176 0.499510
0.403432 0.812745 0.500490
0.466667 0.806373 0.502451
0.535784 0.800000 0.508823
0.616177 0.801961 0.506372
0.706863 0.808823 0.497059
0.808823 0.820588 0.485294
0.941176 0.841667 0.477451
0.419608 0.933333 0.572549
0.435294 0.934804 0.576471
0.466667 0.933333 0.579902
0.516177 0.933333 0.586765
0.576470 0.929412 0.598039
0.644608 0.930882 0.607843
0.730392 0.941176 0.603922
0.828431 0.950981 0.598039
0.945098 0.960784 0.590686
0.058824 0.064706 0.549019
0.175490 0.067157 0.552941
0.326471 0.070588 0.558823
0.493627 0.080882 0.568628
0.643138 0.082353 0.580392
0.742157 0.041176 0.556863
0.848039 0.082353 0.545098
0.929412 0.208333 0.544608
1.000000 0.309804 0.556863
0.109803 0.158333 0.549510
0.200981 0.161765 0.554412
0.341176 0.171569 0.560785
0.502451 0.187255 0.570588
0.641667 0.193137 0.580883
0.740686 0.177451 0.561275
0.845588 0.191666 0.549019
0.922059 0.272059 0.549019
1.000000 0.352941 0.562745
0.089216 0.275490 0.552941
0.220588 0.295098 0.560785
0.354902 0.304902 0.564705
0.505882 0.322059 0.573039
0.634314 0.334314 0.581373
0.732843 0.323529 0.565686
0.832353 0.337255 0.556863
0.910294 0.381373 0.559314
0.994117 0.432353 0.572549
0.000000 0.404902 0.547059
0.163725 0.415196 0.556862
0.316667 0.421568 0.557843
0.493137 0.450490 0.571079
0.619118 0.465686 0.580392
0.722549 0.459804 0.571078
0.810294 0.473039 0.570098
0.890686 0.493627 0.573039
0.980392 0.528431 0.594608
0.074510 0.566666 0.568627
0.202941 0.570098 0.572549
0.343137 0.569608 0.573530
0.481373 0.572549 0.578431
0.603921 0.576470 0.582353
0.699510 0.575000 0.578922
0.788235 0.575490 0.575490
0.873529 0.580392 0.572549
0.968627 0.588236 0.574510
0.255883 0.674510 0.570588
0.314706 0.676470 0.576471
0.401961 0.668627 0.575000
0.506373 0.664216 0.580392
0.576470 0.648529 0.572059
0.664216 0.648529 0.562745
0.766176 0.650490 0.549019
0.859804 0.642157 0.529411
0.962745 0.652451 0.537745
0.373529 0.745098 0.581373
0.401471 0.744117 0.583333
0.453922 0.741176 0.585294
0.498530 0.732843 0.573039
0.559804 0.722549 0.567647
0.630882 0.716177 0.560785
0.731373 0.724510 0.556863
0.839216 0.737255 0.544118
0.952941 0.741176 0.528431
0.431372 0.825980 0.603921
0.437255 0.825000 0.600490
0.446568 0.825980 0.588236
0.486275 0.818627 0.579902
0.554902 0.812255 0.582353
0.621569 0.803922 0.582843
0.710785 0.812255 0.575980
0.814216 0.822549 0.569118
0.945098 0.843627 0.566667
0.409804 0.941176 0.621568
0.423529 0.941176 0.623039
0.455882 0.937255 0.623529
0.511765 0.939215 0.631373
0.574510 0.935294 0.637255
0.644608 0.933333 0.650980
0.728431 0.941176 0.649020
0.831863 0.952941 0.647059
0.949020 0.964706 0.639216
0.230392 0.105882 0.656373
0.285294 0.109313 0.658333
0.394118 0.117647 0.662745
0.527941 0.138725 0.669608
0.652941 0.182353 0.675490
0.750490 0.202941 0.679902
0.820098 0.201471 0.660294
0.914705 0.233334 0.654412
1.000000 0.290196 0.653922
0.251961 0.187255 0.656373
0.306372 0.191177 0.660294
0.405882 0.199510 0.664216
0.530392 0.218137 0.668137
0.649510 0.250490 0.674020
0.747059 0.267647 0.677941
0.819118 0.267647 0.663235
0.910294 0.286275 0.656373
1.000000 0.335294 0.656373
0.274510 0.304412 0.656863
0.322549 0.309314 0.660294
0.415196 0.315686 0.664216
0.532353 0.331372 0.668628
0.645098 0.357843 0.672059
0.737255 0.374510 0.675980
0.810294 0.372059 0.664216
0.905392 0.380882 0.660294
0.996078 0.416667 0.663235
0.189706 0.395588 0.643137
0.264706 0.408334 0.651960
0.400000 0.432843 0.656373
0.517647 0.448039 0.660294
0.629412 0.471079 0.668137
0.723039 0.488726 0.678431
0.798039 0.480883 0.665686
0.896569 0.483824 0.663235
0.986765 0.510784 0.670588
0.209804 0.531373 0.647058
0.269608 0.533334 0.648529
0.366666 0.534314 0.647549
0.475490 0.538235 0.649510
0.607353 0.564705 0.662255
0.705392 0.584313 0.674019
0.792647 0.579902 0.670098
0.879902 0.584314 0.669608
0.974510 0.598040 0.675980
0.277451 0.657843 0.661765
0.322549 0.659804 0.664216
0.399510 0.659314 0.665686
0.495098 0.660294 0.668137
0.594118 0.664216 0.672059
0.691667 0.672059 0.679902
0.777451 0.672059 0.675980
0.866667 0.671569 0.672059
0.966176 0.673529 0.673529
0.351961 0.766667 0.673529
0.382353 0.766667 0.674019
0.439216 0.763235 0.675000
0.515686 0.756373 0.673529
0.599510 0.747549 0.673039
0.664216 0.734314 0.664216
0.743627 0.735784 0.658824
0.848039 0.739216 0.645588
0.964706 0.737745 0.630392
0.414706 0.843627 0.679902
0.433824 0.841177 0.679902
0.475000 0.842647 0.681863
0.531863 0.836765 0.679902
0.588235 0.829412 0.673039
0.640686 0.819118 0.664216
0.718627 0.817157 0.660785
0.823039 0.828431 0.656863
0.953921 0.845098 0.650000
0.461275 0.949020 0.709804
0.473039 0.949020 0.707843
0.505882 0.947549 0.711275
0.533333 0.945098 0.700980
0.570588 0.945098 0.691667
0.648529 0.941176 0.699510
0.730392 0.945098 0.707353
0.832353 0.952941 0.703431
0.956863 0.964706 0.699510
0.382353 0.172549 0.753922
0.416176 0.173530 0.752941
0.486275 0.184314 0.753922
0.577451 0.204902 0.753922
0.673529 0.244118 0.757843
0.758824 0.299510 0.761764
0.836274 0.319608 0.765686
0.891176 0.314706 0.746569
0.992157 0.346078 0.750981
0.388725 0.230393 0.749510
0.425000 0.238236 0.753922
0.489216 0.243627 0.749510
0.578431 0.261765 0.753922
0.672059 0.292648 0.757353
0.758333 0.344608 0.761765
0.833824 0.358824 0.763235
0.887745 0.353431 0.747059
0.990686 0.375981 0.753431
0.396078 0.331373 0.746078
0.425490 0.332843 0.746568
0.486275 0.339215 0.746079
0.575490 0.357353 0.750000
0.665686 0.383333 0.758824
0.750490 0.420098 0.761765
0.823529 0.434314 0.764706
0.882353 0.425980 0.749020
0.987255 0.437255 0.752941
0.361765 0.423529 0.734314
0.409804 0.437745 0.739706
0.473529 0.445588 0.741176
0.556372 0.456863 0.744608
0.644608 0.475000 0.748530
0.734804 0.508333 0.757843
0.808823 0.520098 0.763235
0.873039 0.510785 0.750000
0.981863 0.514706 0.755392
0.273529 0.507844 0.720588
0.315687 0.511765 0.725490
0.400980 0.517648 0.728431
0.512745 0.534803 0.734803
0.623530 0.560785 0.744117
0.718628 0.587255 0.753922
0.798039 0.602941 0.762745
0.871568 0.595098 0.754902
0.983334 0.591176 0.755882
0.307353 0.625490 0.730882
0.340686 0.628922 0.730882
0.401961 0.628431 0.733333
0.482353 0.626470 0.731863
0.574510 0.628922 0.731373
0.694118 0.659314 0.749020
0.787745 0.682843 0.764706
0.872549 0.673529 0.759314
0.978922 0.678921 0.761764
0.351961 0.740196 0.747059
0.379902 0.745098 0.750000
0.431373 0.746079 0.750981
0.503921 0.743137 0.750981
0.588236 0.747059 0.752941
0.679411 0.753431 0.757843
0.777451 0.761764 0.769607
0.867647 0.758824 0.762745
0.973530 0.762745 0.765686
0.383824 0.863725 0.766667
0.403922 0.863725 0.767157
0.450490 0.863235 0.767647
0.515196 0.860785 0.769117
0.594118 0.855882 0.765686
0.676961 0.847549 0.762745
0.743137 0.832353 0.750981
0.840196 0.836274 0.750000
0.968627 0.844117 0.738726
0.418627 0.960784 0.777451
0.433824 0.961765 0.778432
0.470588 0.959804 0.779412
0.526961 0.959314 0.779902
0.597058 0.956863 0.778431
0.672549 0.956863 0.778432
0.739216 0.952941 0.770588
0.840196 0.957353 0.774020
0.968627 0.972549 0.773529
0.522059 0.271078 0.843627
0.537745 0.271078 0.840686
0.579902 0.283333 0.843627
0.639706 0.302451 0.843627
0.707843 0.331863 0.843627
0.775490 0.371078 0.844117
0.847549 0.424019 0.847549
0.918627 0.428431 0.851961
0.984804 0.416666 0.844117
0.515197 0.306372 0.839706
0.541176 0.317157 0.843627
0.579412 0.324019 0.842647
0.636274 0.337745 0.841667
0.703921 0.364706 0.845098
0.774020 0.396568 0.841666
0.847549 0.448039 0.850980
0.914705 0.451470 0.851961
0.980882 0.439706 0.843627
0.513726 0.385784 0.838726
0.529902 0.387745 0.838726
0.572059 0.395588 0.839706
0.629902 0.409804 0.839706
0.693628 0.427451 0.840196
0.766667 0.461275 0.844117
0.834804 0.496079 0.848039
0.910294 0.501471 0.851961
0.973039 0.488725 0.839216
0.488726 0.465686 0.831863
0.511275 0.473039 0.833333
0.551471 0.477451 0.833824
0.612255 0.489216 0.835784
0.680392 0.502451 0.836274
0.754412 0.530392 0.844608
0.828432 0.561275 0.844608
0.902941 0.563725 0.851961
0.964706 0.549510 0.836274
0.398529 0.525490 0.825490
0.425490 0.525981 0.825980
0.490196 0.541666 0.825490
0.575490 0.561275 0.828431
0.655392 0.575000 0.832353
0.734804 0.594118 0.838235
0.813236 0.619607 0.844117
0.896079 0.627451 0.852941
0.964706 0.615687 0.840196
0.345588 0.617157 0.816176
0.369607 0.615686 0.814705
0.413726 0.614216 0.816176
0.496569 0.616176 0.819118
0.593628 0.625490 0.824019
0.705882 0.656373 0.831863
0.798039 0.680882 0.843627
0.889216 0.698039 0.853921
0.972549 0.687745 0.847549
0.358824 0.724020 0.825490
0.383824 0.726961 0.828431
0.426471 0.726471 0.827941
0.487745 0.718137 0.824019
0.566666 0.719608 0.825000
0.645588 0.711765 0.821078
0.770588 0.743137 0.836765
0.883824 0.774510 0.859314
0.984314 0.767157 0.856373
0.375981 0.839706 0.847549
0.395098 0.842647 0.846569
0.437745 0.842157 0.847549
0.496078 0.841667 0.845588
0.572549 0.842157 0.847549
0.661765 0.848039 0.851470
0.762745 0.851961 0.855392
0.879412 0.863725 0.867157
0.984804 0.863235 0.859804
0.360784 0.975981 0.867157
0.379412 0.975490 0.866667
0.422549 0.974020 0.863725
0.488726 0.976471 0.867157
0.572549 0.974510 0.867157
0.668137 0.971569 0.866177
0.769607 0.969117 0.867647
0.855882 0.964706 0.859314
0.984314 0.976471 0.863235
0.635294 0.435294 0.945098
0.646569 0.439216 0.949020
0.666667 0.444117 0.945098
0.705882 0.458824 0.945098
0.754902 0.476471 0.945098
0.811765 0.501961 0.945098
0.871568 0.526471 0.941176
0.945588 0.560784 0.944608
1.000000 0.549020 0.949020
0.631373 0.454902 0.945098
0.643137 0.462745 0.945588
0.662255 0.466667 0.945098
0.704412 0.476961 0.945098
0.752941 0.494118 0.941666
0.806863 0.515196 0.942647
0.871568 0.539216 0.942157
0.945098 0.572059 0.944608
1.000000 0.564216 0.949020
0.623529 0.503921 0.945098
0.635784 0.505882 0.945098
0.658824 0.508824 0.945098
0.696569 0.519118 0.945098
0.743137 0.532353 0.941176
0.801471 0.549020 0.941176
0.870589 0.574510 0.944118
0.938725 0.596078 0.942157
1.000000 0.587255 0.948039
0.603922 0.555392 0.941176
0.619608 0.559803 0.945098
0.643627 0.563235 0.945588
0.682353 0.571078 0.945098
0.732843 0.580392 0.943137
0.792647 0.593627 0.942647
0.858333 0.608824 0.941176
0.937745 0.633824 0.945098
1.000000 0.629902 0.949020
0.566666 0.609804 0.945098
0.584314 0.613725 0.945098
0.610784 0.615687 0.943137
0.657353 0.621568 0.945098
0.713726 0.629412 0.945098
0.780392 0.645588 0.945588
0.851961 0.655882 0.945098
0.931863 0.678432 0.947059
1.000000 0.674509 0.950981
0.478431 0.656373 0.941176
0.498530 0.656373 0.947059
0.530883 0.654902 0.945098
0.582843 0.657843 0.945098
0.675490 0.680392 0.945098
0.752941 0.691667 0.945098
0.840196 0.709804 0.949020
0.925980 0.726961 0.949020
1.000000 0.732353 0.954412
0.440196 0.743137 0.946079
0.454902 0.746079 0.949020
0.485294 0.745098 0.948040
0.526470 0.736764 0.943627
0.595098 0.735294 0.949020
0.683824 0.738235 0.949020
0.809804 0.766667 0.952941
0.922059 0.793628 0.956863
1.000000 0.800981 0.957843
0.415686 0.851961 0.957353
0.426961 0.851470 0.953922
0.461275 0.851470 0.960784
0.509314 0.851470 0.960294
0.574510 0.844608 0.957353
0.652451 0.844117 0.960784
0.742156 0.836274 0.957353
0.894118 0.859314 0.964216
1.000000 0.882843 0.968137
0.356863 0.972549 0.968627
0.372059 0.972059 0.968627
0.410784 0.972549 0.968627
0.470588 0.972549 0.968627
0.550980 0.974510 0.970588
0.642157 0.974020 0.970098
0.750981 0.976471 0.972549
0.871568 0.980392 0.973039
1.000000 0.984314 0.980392
