Color/Fuji/Fuji Superia HG 1600 65x.cube
TITLE "Fuji Superia HG 1600"
LUT_3D_SIZE 9
DOMAIN_MIN 0.000000 0.000000 0.000000
DOMAIN_MAX 1.000000 1.000000 1.000000
0.000000 0.000000 0.000000
0.179902 0.003922 0.000000
0.269608 0.011765 0.000000
0.373529 0.027451 0.000000
0.490197 0.047059 0.000000
0.618627 0.072059 0.000000
0.730392 0.094118 0.000000
0.827941 0.113725 0.003922
0.929412 0.133333 0.003922
0.132843 0.168137 0.093628
0.199020 0.168137 0.093628
0.280883 0.168137 0.097549
0.377451 0.164216 0.097549
0.486274 0.151961 0.097549
0.593137 0.104412 0.089706
0.688726 0.068137 0.081863
0.793627 0.091177 0.062255
0.914215 0.122059 0.026471
0.176471 0.257844 0.152941
0.218628 0.257844 0.155883
0.296078 0.257844 0.155883
0.394608 0.257844 0.156863
0.505883 0.252941 0.156863
0.622549 0.237255 0.155883
0.717648 0.200980 0.149020
0.776961 0.082353 0.132353
0.886275 0.105882 0.112745
0.227451 0.365686 0.202451
0.260784 0.365686 0.202451
0.330882 0.367157 0.203922
0.428431 0.367157 0.203922
0.539706 0.363235 0.203922
0.654902 0.350000 0.202451
0.748529 0.322549 0.196078
0.827941 0.271079 0.186765
0.883333 0.125980 0.163235
0.278431 0.490197 0.252941
0.307843 0.492157 0.252941
0.375491 0.494118 0.252941
0.467157 0.498040 0.254902
0.580392 0.498039 0.252941
0.689216 0.494117 0.252941
0.783333 0.475490 0.248039
0.869118 0.431373 0.237255
0.947059 0.350981 0.219608
0.338725 0.609314 0.311275
0.368137 0.610784 0.311275
0.424020 0.614706 0.311275
0.513725 0.621078 0.313726
0.623530 0.626470 0.311275
0.723039 0.626470 0.311275
0.814216 0.621569 0.306372
0.902941 0.599020 0.295588
0.996078 0.548039 0.275980
0.408824 0.706863 0.377451
0.431862 0.710784 0.378432
0.486274 0.714706 0.381373
0.564215 0.719608 0.381373
0.658824 0.728431 0.378432
0.748039 0.731373 0.377451
0.836274 0.734314 0.373530
0.929902 0.727451 0.361765
1.000000 0.707843 0.346078
0.478921 0.804902 0.455392
0.498529 0.808333 0.455392
0.544608 0.812255 0.455882
0.610784 0.816666 0.455882
0.688236 0.824510 0.455392
0.770098 0.831863 0.455392
0.855883 0.836274 0.451470
0.949510 0.839706 0.443627
1.000000 0.832353 0.424509
0.537255 0.921569 0.549020
0.552451 0.925490 0.549020
0.587255 0.929412 0.549020
0.641667 0.933333 0.549020
0.707843 0.941176 0.549020
0.785784 0.949020 0.549020
0.868628 0.956863 0.549020
0.965196 0.964706 0.541176
1.000000 0.968627 0.525490
0.000000 0.007353 0.117157
0.121079 0.000000 0.121079
0.210785 0.000000 0.125000
0.315196 0.006863 0.128922
0.435785 0.019608 0.128922
0.567647 0.039216 0.128922
0.679411 0.062745 0.121079
0.784804 0.086275 0.109314
0.898039 0.113725 0.085295
0.117157 0.171569 0.171569
0.172059 0.171569 0.172059
0.256863 0.171569 0.172059
0.355392 0.168137 0.175490
0.468137 0.157843 0.175490
0.579412 0.122549 0.172059
0.663726 0.054902 0.164216
0.766177 0.075490 0.155392
0.875000 0.101961 0.136275
0.156863 0.260784 0.203432
0.202941 0.260784 0.203432
0.280882 0.260784 0.206863
0.381373 0.257844 0.207353
0.495098 0.253922 0.207353
0.612255 0.239706 0.206373
0.705882 0.202941 0.199510
0.763726 0.086274 0.186274
0.866667 0.094118 0.168137
0.210785 0.367157 0.241667
0.245588 0.367157 0.241667
0.319118 0.369608 0.242647
0.416667 0.369608 0.245098
0.529902 0.365686 0.245098
0.643628 0.352451 0.241667
0.736764 0.325490 0.237745
0.818627 0.275000 0.226961
0.875490 0.135784 0.205882
0.264706 0.490197 0.287745
0.296079 0.494117 0.287745
0.363725 0.494117 0.288235
0.459314 0.498039 0.288235
0.572549 0.501961 0.288235
0.681372 0.494118 0.287745
0.774510 0.474510 0.282843
0.859314 0.435295 0.272549
0.939215 0.352942 0.256373
0.326961 0.606863 0.342647
0.354412 0.609314 0.342647
0.414706 0.613235 0.344608
0.505882 0.618627 0.346079
0.611764 0.625000 0.346079
0.712745 0.626470 0.342647
0.804902 0.618627 0.338235
0.895098 0.599019 0.330392
0.986274 0.548039 0.311275
0.397058 0.706863 0.408333
0.420588 0.706863 0.408333
0.474510 0.711765 0.408333
0.556372 0.718628 0.408333
0.649020 0.726471 0.408333
0.738725 0.730392 0.404902
0.828432 0.731373 0.400980
0.919608 0.726961 0.393137
1.000000 0.707843 0.376961
0.471078 0.804902 0.478431
0.490686 0.808333 0.478431
0.536765 0.811765 0.478921
0.603432 0.816666 0.478921
0.680392 0.824019 0.478921
0.762255 0.828431 0.478431
0.848039 0.835784 0.475000
0.941666 0.836274 0.467157
1.000000 0.828431 0.451470
0.529412 0.921569 0.568137
0.545098 0.925490 0.568137
0.580392 0.928431 0.568137
0.635294 0.933333 0.568627
0.703921 0.941176 0.568627
0.777941 0.949020 0.568627
0.863726 0.956863 0.568137
0.957843 0.964706 0.560784
1.000000 0.968627 0.548530
0.000000 0.019608 0.183334
0.117157 0.010784 0.187255
0.191176 0.000000 0.187255
0.295098 0.000000 0.187255
0.415686 0.010784 0.191176
0.546569 0.027451 0.191176
0.657843 0.050980 0.187255
0.761764 0.072059 0.178922
0.871568 0.095098 0.159804
0.105392 0.175000 0.226961
0.159804 0.175490 0.229902
0.238236 0.175490 0.230392
0.342157 0.172059 0.233824
0.455392 0.164216 0.233824
0.569608 0.134804 0.230392
0.644118 0.043137 0.222549
0.746569 0.062745 0.214706
0.855392 0.087255 0.199020
0.141176 0.261765 0.260784
0.182843 0.261765 0.261765
0.264706 0.261765 0.261765
0.365686 0.261765 0.264706
0.482353 0.257844 0.265686
0.597549 0.242157 0.264706
0.691176 0.208824 0.257844
0.755883 0.107353 0.246079
0.847059 0.082353 0.230392
0.184314 0.369608 0.299510
0.222549 0.369608 0.300980
0.299510 0.371078 0.300980
0.398039 0.373529 0.303431
0.513726 0.369608 0.304902
0.628432 0.356372 0.303431
0.721078 0.326471 0.299510
0.800490 0.278922 0.289216
0.865196 0.154902 0.269608
0.237255 0.490197 0.346079
0.270098 0.494117 0.346569
0.342157 0.496078 0.348040
0.439706 0.498039 0.350000
0.552941 0.501961 0.350000
0.663236 0.494118 0.350000
0.755882 0.477451 0.346078
0.841667 0.436765 0.338235
0.921569 0.354902 0.320588
0.300490 0.605392 0.399020
0.330882 0.605392 0.400490
0.392647 0.610784 0.400490
0.486275 0.617157 0.400490
0.593137 0.622549 0.401471
0.694118 0.622549 0.400490
0.786275 0.617647 0.399019
0.877451 0.599019 0.392157
0.970098 0.548039 0.376961
0.375490 0.702941 0.457843
0.400981 0.702941 0.458824
0.455882 0.707843 0.458824
0.539215 0.714706 0.458824
0.630392 0.722549 0.458824
0.720098 0.726471 0.458824
0.809804 0.727451 0.457843
0.902941 0.722549 0.450980
1.000000 0.702941 0.438236
0.455392 0.800980 0.525000
0.475000 0.804412 0.525000
0.521079 0.808333 0.525000
0.587255 0.812745 0.525000
0.664706 0.820098 0.525000
0.745098 0.824509 0.525000
0.830392 0.829902 0.525000
0.925980 0.832353 0.518137
1.000000 0.824509 0.505392
0.514706 0.921569 0.600000
0.529902 0.921569 0.600000
0.567647 0.925490 0.602942
0.622059 0.933333 0.602942
0.688236 0.937255 0.602942
0.766176 0.945098 0.603922
0.851961 0.952941 0.602941
0.946078 0.960784 0.600000
1.000000 0.964706 0.588235
0.000000 0.031373 0.245588
0.105392 0.027451 0.249510
0.187255 0.014216 0.249510
0.273039 0.000000 0.253431
0.394118 0.003922 0.253431
0.525980 0.018627 0.253431
0.636275 0.035294 0.253431
0.739706 0.058824 0.245588
0.848529 0.082353 0.229902
0.089706 0.179412 0.292647
0.144118 0.179902 0.296078
0.218627 0.179412 0.299020
0.323529 0.175981 0.300490
0.439215 0.169608 0.300490
0.553922 0.145588 0.300000
0.630883 0.060294 0.292157
0.722059 0.047059 0.284804
0.831373 0.071078 0.271569
0.120588 0.265686 0.330882
0.152451 0.265686 0.330882
0.238235 0.268137 0.334804
0.346078 0.265686 0.335784
0.462746 0.261765 0.338235
0.577941 0.246079 0.335784
0.671569 0.212745 0.331863
0.740686 0.133333 0.322549
0.821078 0.064216 0.304412
0.147549 0.371078 0.371078
0.187745 0.373529 0.371078
0.269608 0.375000 0.373529
0.377451 0.377451 0.377451
0.494117 0.373529 0.377451
0.606863 0.360294 0.377451
0.699019 0.330392 0.373529
0.780882 0.278922 0.365686
0.849510 0.170588 0.350000
0.199510 0.490687 0.416177
0.237255 0.494117 0.417647
0.312746 0.496078 0.420098
0.416177 0.501961 0.420588
0.532843 0.501961 0.424020
0.640686 0.498039 0.424020
0.733823 0.478432 0.420588
0.819608 0.441177 0.416177
0.900000 0.358823 0.400981
0.268137 0.601471 0.466667
0.299510 0.602941 0.469118
0.365196 0.606863 0.470588
0.462745 0.613235 0.470588
0.570098 0.618627 0.474510
0.671079 0.621078 0.474510
0.761764 0.614706 0.474510
0.854412 0.598529 0.469118
0.945098 0.548039 0.458824
0.346078 0.696079 0.522549
0.373039 0.699019 0.524020
0.431373 0.702941 0.525000
0.513235 0.710784 0.525000
0.606863 0.715687 0.527941
0.696569 0.722549 0.528921
0.786275 0.722549 0.527941
0.879412 0.718627 0.524510
0.980392 0.699019 0.513235
0.431863 0.797058 0.579412
0.451470 0.800490 0.579412
0.498529 0.804412 0.580882
0.567157 0.808823 0.582843
0.644608 0.816176 0.583333
0.725000 0.820588 0.583333
0.811275 0.824510 0.583333
0.904412 0.827941 0.579412
1.000000 0.820588 0.571568
0.498039 0.921569 0.645588
0.513726 0.921569 0.645588
0.551961 0.925490 0.645588
0.606373 0.929412 0.645588
0.672549 0.937255 0.647059
0.750490 0.945098 0.647059
0.836274 0.952941 0.647059
0.931863 0.960784 0.645588
1.000000 0.964706 0.637745
0.000000 0.043137 0.319608
0.085785 0.043137 0.325491
0.171569 0.037255 0.327451
0.267647 0.019118 0.331372
0.366667 0.000000 0.331372
0.497059 0.007843 0.331372
0.607843 0.019608 0.331372
0.708824 0.039216 0.327451
0.819608 0.062745 0.311765
0.070098 0.183824 0.370098
0.124510 0.183824 0.374020
0.191176 0.183824 0.374510
0.300490 0.183824 0.378432
0.417647 0.175981 0.381863
0.533824 0.156373 0.381863
0.618137 0.096569 0.377941
0.690686 0.027451 0.370098
0.800000 0.050980 0.358333
0.105882 0.272549 0.408824
0.128432 0.272549 0.408824
0.207843 0.273529 0.412745
0.318628 0.272549 0.416667
0.439215 0.268627 0.419608
0.554412 0.252941 0.420588
0.648039 0.220588 0.416667
0.722059 0.151961 0.411274
0.786274 0.043137 0.396079
0.100980 0.377451 0.451471
0.146079 0.377451 0.451471
0.236765 0.380883 0.455883
0.348039 0.381373 0.458823
0.470588 0.378922 0.459314
0.583823 0.367157 0.462746
0.675490 0.338235 0.459314
0.755882 0.286765 0.455392
0.825980 0.187255 0.443137
0.143137 0.494117 0.498039
0.191667 0.494117 0.498039
0.277451 0.498039 0.500000
0.385294 0.501961 0.501961
0.505883 0.505883 0.505883
0.614706 0.501961 0.505883
0.706863 0.485294 0.505883
0.793137 0.448529 0.501961
0.874510 0.366667 0.494117
0.225000 0.597549 0.543137
0.260294 0.601471 0.544608
0.332353 0.605392 0.544608
0.432353 0.610784 0.548529
0.544608 0.617157 0.550980
0.644608 0.618627 0.552451
0.737745 0.614706 0.552451
0.827941 0.598529 0.549019
0.921569 0.551961 0.541176
0.314706 0.695098 0.590196
0.342156 0.695098 0.590196
0.403922 0.700000 0.591176
0.489706 0.706863 0.591666
0.583333 0.714706 0.595098
0.673039 0.718628 0.595098
0.762745 0.719608 0.595098
0.855882 0.715197 0.595098
0.957843 0.696079 0.587255
0.408333 0.793137 0.635784
0.429412 0.796568 0.635784
0.477941 0.800490 0.637255
0.546079 0.804902 0.637745
0.622059 0.812255 0.639706
0.703922 0.819608 0.641177
0.792157 0.824019 0.641667
0.885294 0.824510 0.641177
0.996078 0.816666 0.633824
0.478431 0.921569 0.692157
0.494118 0.921569 0.692157
0.532353 0.925490 0.692157
0.586765 0.929412 0.692157
0.656863 0.937255 0.694118
0.734314 0.945098 0.696079
0.820588 0.952941 0.696079
0.916667 0.960784 0.696078
1.000000 0.964706 0.690196
0.000000 0.058824 0.405392
0.058334 0.060294 0.410784
0.148039 0.058824 0.414706
0.251961 0.050980 0.418627
0.356862 0.015686 0.421078
0.464216 0.000000 0.421078
0.573039 0.007843 0.421078
0.674020 0.019608 0.418627
0.782843 0.039216 0.410784
0.050490 0.191667 0.455883
0.103431 0.193137 0.459804
0.167647 0.195098 0.463726
0.275000 0.193137 0.467647
0.392157 0.189216 0.471569
0.510784 0.168137 0.472059
0.599019 0.124020 0.471569
0.654412 0.011765 0.463726
0.763235 0.029902 0.456373
0.084804 0.282843 0.494608
0.107843 0.284804 0.495588
0.170588 0.284314 0.498530
0.291177 0.284314 0.502451
0.415196 0.278921 0.506373
0.530882 0.264706 0.508824
0.623039 0.232353 0.508824
0.698529 0.171078 0.503431
0.751471 0.023529 0.490687
0.028431 0.385294 0.533333
0.100000 0.385294 0.534804
0.199020 0.389216 0.537255
0.318628 0.390686 0.541176
0.443137 0.389216 0.545098
0.558333 0.378922 0.546569
0.651961 0.352941 0.546569
0.732353 0.302451 0.543627
0.803922 0.204902 0.533333
0.075490 0.498039 0.572059
0.137255 0.498039 0.574020
0.240196 0.501961 0.575980
0.354412 0.509314 0.580392
0.478922 0.511765 0.581863
0.591176 0.509804 0.583823
0.684804 0.494117 0.585784
0.773039 0.460294 0.583823
0.852941 0.382353 0.575980
0.180392 0.599020 0.610784
0.220588 0.601471 0.613235
0.302451 0.605392 0.613235
0.407843 0.611765 0.617157
0.519608 0.618627 0.618627
0.621078 0.621078 0.621078
0.714706 0.617647 0.622549
0.805883 0.602941 0.622549
0.901961 0.559804 0.617157
0.283334 0.692157 0.649510
0.313726 0.695098 0.649510
0.377941 0.699019 0.652451
0.467157 0.706863 0.653431
0.562745 0.712745 0.656373
0.652451 0.718628 0.657353
0.742156 0.719608 0.660294
0.836274 0.715197 0.660294
0.938235 0.696079 0.656373
0.384804 0.793137 0.691667
0.406863 0.793137 0.691667
0.454412 0.799510 0.692157
0.524510 0.804412 0.694608
0.602451 0.812255 0.695588
0.684314 0.816666 0.696079
0.773039 0.820588 0.699510
0.867647 0.824019 0.699510
0.979412 0.816666 0.695588
0.454902 0.921569 0.741176
0.472549 0.921569 0.742647
0.509804 0.925490 0.742647
0.567157 0.933333 0.742647
0.637255 0.939215 0.746569
0.715196 0.945098 0.746569
0.800980 0.953922 0.749020
0.899019 0.960784 0.750490
1.000000 0.964706 0.746569
0.000000 0.075490 0.495098
0.038726 0.082353 0.500000
0.122549 0.082353 0.505882
0.231373 0.076961 0.510785
0.345098 0.062745 0.512745
0.444608 0.007843 0.510784
0.538235 0.000000 0.511765
0.635784 0.007843 0.514706
0.745098 0.019608 0.507843
0.019608 0.208333 0.541666
0.070588 0.210785 0.542157
0.144118 0.211275 0.546078
0.248039 0.211275 0.550981
0.372549 0.204412 0.553922
0.489216 0.187745 0.557843
0.580882 0.150980 0.557843
0.642647 0.049019 0.553431
0.728431 0.011765 0.546078
0.044117 0.300000 0.572549
0.075000 0.300000 0.573530
0.132353 0.301961 0.577451
0.265686 0.303921 0.581373
0.392156 0.300000 0.585294
0.513235 0.284314 0.588235
0.604902 0.252941 0.589215
0.681863 0.195588 0.585785
0.728431 0.029412 0.576471
0.000000 0.398529 0.604902
0.035294 0.400981 0.607353
0.165686 0.403431 0.608824
0.291177 0.407353 0.612745
0.423530 0.407353 0.616667
0.541177 0.399509 0.620588
0.634804 0.373529 0.620588
0.716667 0.325981 0.620588
0.788235 0.229412 0.612745
0.011765 0.505883 0.640196
0.066667 0.507843 0.640196
0.202941 0.512745 0.644118
0.330392 0.517648 0.646078
0.458823 0.521568 0.650000
0.571078 0.521568 0.651960
0.665686 0.509804 0.653922
0.754902 0.478431 0.653922
0.839216 0.405882 0.650000
0.127451 0.601471 0.675490
0.180393 0.605392 0.675490
0.271079 0.609314 0.676961
0.382843 0.617157 0.679412
0.497549 0.622549 0.683334
0.599019 0.626470 0.684804
0.692647 0.625000 0.687255
0.786275 0.610784 0.688726
0.882843 0.572549 0.684804
0.251960 0.695098 0.710784
0.283334 0.696079 0.710784
0.352941 0.700000 0.711765
0.444118 0.707843 0.714706
0.540196 0.714706 0.715687
0.630392 0.719608 0.719608
0.722549 0.722549 0.722549
0.816176 0.718627 0.722549
0.921569 0.700000 0.722549
0.357353 0.792647 0.749510
0.380882 0.793137 0.750000
0.430883 0.797058 0.750000
0.500980 0.804412 0.750491
0.581863 0.810294 0.753922
0.664216 0.816666 0.757843
0.750491 0.820588 0.758333
0.848039 0.824019 0.761274
0.961274 0.816666 0.758333
0.430393 0.925490 0.797058
0.447059 0.925490 0.797058
0.485295 0.929412 0.797058
0.543627 0.933333 0.798529
0.613725 0.941176 0.800981
0.694608 0.949020 0.803922
0.781373 0.956863 0.804902
0.882353 0.964706 0.807843
1.000000 0.968627 0.804902
0.000000 0.102451 0.573039
0.026961 0.109804 0.580882
0.100980 0.109804 0.584804
0.216177 0.109804 0.588725
0.333333 0.100490 0.592647
0.444608 0.069608 0.593137
0.507353 0.000000 0.592647
0.608333 0.000000 0.592647
0.713726 0.007843 0.592647
0.015196 0.235294 0.612255
0.050490 0.238236 0.616176
0.116176 0.239216 0.620098
0.227941 0.239216 0.624019
0.356862 0.234804 0.627941
0.478922 0.221078 0.631863
0.569118 0.186274 0.631863
0.639706 0.116176 0.631373
0.698039 0.003922 0.623529
0.026471 0.323529 0.642647
0.038236 0.325000 0.643627
0.089706 0.328431 0.647549
0.240196 0.331372 0.651470
0.376471 0.328922 0.655392
0.497059 0.315686 0.659314
0.592156 0.287255 0.659314
0.671078 0.230393 0.659314
0.736275 0.115196 0.654412
0.000000 0.418137 0.673529
0.009804 0.420588 0.673529
0.125490 0.424510 0.677451
0.265686 0.428431 0.681373
0.403922 0.430392 0.685294
0.525000 0.424510 0.689216
0.617647 0.402941 0.690686
0.704902 0.361275 0.690686
0.778922 0.268137 0.686765
0.000000 0.517648 0.704412
0.001961 0.520098 0.706372
0.160294 0.525490 0.708333
0.302941 0.531863 0.712255
0.436765 0.537254 0.716177
0.551961 0.539706 0.718137
0.648039 0.529412 0.722059
0.737745 0.505392 0.722059
0.825490 0.439706 0.720098
0.071568 0.609314 0.737745
0.125000 0.610784 0.739216
0.233334 0.617157 0.741666
0.356862 0.622549 0.743137
0.475490 0.630882 0.747059
0.578922 0.634314 0.750981
0.672549 0.633334 0.753431
0.769117 0.625000 0.754902
0.866667 0.591176 0.754902
0.212745 0.699019 0.773039
0.250981 0.700000 0.773530
0.324019 0.703922 0.774020
0.419117 0.711275 0.777942
0.517157 0.718627 0.780882
0.609314 0.723530 0.784804
0.700000 0.726471 0.785784
0.796568 0.723530 0.789706
0.901961 0.707843 0.789706
0.325980 0.793137 0.812255
0.352451 0.796568 0.812255
0.403432 0.800490 0.812745
0.476961 0.804902 0.816176
0.555392 0.812255 0.816666
0.640686 0.816666 0.820588
0.730392 0.824019 0.824019
0.824510 0.824510 0.824510
0.941666 0.820098 0.827941
0.399510 0.925490 0.855392
0.415686 0.929412 0.855392
0.457353 0.933333 0.859314
0.516177 0.937255 0.859314
0.589706 0.945098 0.863235
0.669118 0.952941 0.867157
0.758333 0.961274 0.868137
0.859314 0.972549 0.871078
1.000000 0.976471 0.871078
0.000000 0.145098 0.643137
0.023039 0.149020 0.650980
0.097059 0.149020 0.654902
0.202451 0.149020 0.658824
0.327451 0.145098 0.662745
0.440686 0.125490 0.666667
0.526471 0.077451 0.666667
0.580882 0.000000 0.662745
0.686275 0.000000 0.666667
0.011765 0.273530 0.682353
0.046569 0.274020 0.685785
0.104411 0.277941 0.689216
0.204902 0.281373 0.694118
0.345098 0.279412 0.698039
0.465686 0.264216 0.701961
0.561275 0.229902 0.705392
0.635784 0.174509 0.705392
0.677941 0.007353 0.694118
0.004902 0.355882 0.709804
0.013726 0.355882 0.712745
0.044117 0.362745 0.716667
0.215686 0.366666 0.720098
0.360784 0.367647 0.725490
0.486764 0.355882 0.729412
0.581373 0.334314 0.732353
0.663235 0.280882 0.732353
0.733333 0.182353 0.729412
0.000000 0.444118 0.741176
0.000000 0.445588 0.741176
0.093628 0.451961 0.745098
0.234804 0.457353 0.749020
0.384313 0.461275 0.752941
0.504902 0.459804 0.759314
0.604902 0.441667 0.760784
0.691176 0.408334 0.763235
0.772549 0.322549 0.760784
0.000000 0.535294 0.772549
0.000000 0.537254 0.774510
0.123529 0.543137 0.776471
0.273529 0.550980 0.780392
0.413725 0.558823 0.784314
0.528431 0.560785 0.788235
0.628432 0.554902 0.792157
0.724020 0.535294 0.796078
0.813725 0.486274 0.796078
0.015196 0.621078 0.805392
0.056373 0.621078 0.807843
0.190196 0.626470 0.809314
0.327941 0.634314 0.813235
0.450981 0.642157 0.817157
0.555882 0.648529 0.821078
0.649020 0.648529 0.825000
0.746078 0.640686 0.828922
0.848529 0.617157 0.828922
0.154902 0.706863 0.843137
0.201470 0.706862 0.843137
0.289216 0.711765 0.844118
0.387745 0.718628 0.848039
0.490197 0.726471 0.851961
0.583333 0.734313 0.855882
0.675490 0.735294 0.859804
0.773039 0.735294 0.863725
0.879412 0.722549 0.866667
0.287255 0.797059 0.882843
0.310784 0.800490 0.882843
0.368138 0.804412 0.889216
0.442157 0.808823 0.890196
0.524020 0.816176 0.890686
0.609804 0.824019 0.898039
0.702941 0.828922 0.902941
0.797059 0.832353 0.906372
0.918137 0.827941 0.910294
0.349020 0.929412 0.941176
0.368137 0.929412 0.941176
0.410784 0.933333 0.945098
0.473039 0.941176 0.949020
0.547059 0.949020 0.952941
0.628922 0.956863 0.960784
0.719608 0.965686 0.965686
0.820588 0.976961 0.976471
1.000000 0.992157 0.992157
