Color/Fuji/Fuji Superia X-Tra 800 65x.cube
TITLE "Fuji Superia X-Tra 800"
LUT_3D_SIZE 9
DOMAIN_MIN 0.000000 0.000000 0.000000
DOMAIN_MAX 1.000000 1.000000 1.000000
0.000000 0.000000 0.000000
0.132353 0.000000 0.000000
0.252941 0.000000 0.000000
0.367157 0.000000 0.000000
0.472549 0.000000 0.000000
0.595098 0.000000 0.007843
0.703922 0.000000 0.027451
0.793137 0.000000 0.075000
0.886275 0.000000 0.129412
0.077941 0.140196 0.034314
0.155883 0.128922 0.023529
0.272549 0.116667 0.015686
0.386765 0.097059 0.010294
0.490197 0.069608 0.019118
0.608824 0.028921 0.019608
0.707843 0.000000 0.023039
0.797059 0.000000 0.067157
0.890196 0.000000 0.125490
0.121569 0.257844 0.098039
0.179412 0.253922 0.094118
0.292157 0.246078 0.085295
0.400980 0.230393 0.085294
0.505883 0.207843 0.093137
0.625000 0.169118 0.097059
0.727451 0.110784 0.097059
0.808333 0.029902 0.104902
0.894118 0.000000 0.125490
0.175000 0.369608 0.125490
0.229412 0.369608 0.121569
0.323039 0.363235 0.117647
0.424510 0.353922 0.124020
0.533334 0.338235 0.139706
0.650981 0.314706 0.154412
0.750981 0.278431 0.171078
0.835784 0.212255 0.190686
0.916176 0.093628 0.186765
0.256863 0.496078 0.115686
0.297549 0.494117 0.115686
0.373529 0.492157 0.117647
0.467157 0.486274 0.125980
0.578431 0.474510 0.143137
0.685784 0.458823 0.176471
0.781373 0.431373 0.212745
0.863235 0.391666 0.253431
0.949020 0.319608 0.286274
0.311275 0.613235 0.121569
0.352451 0.613235 0.113725
0.431863 0.613235 0.094118
0.542647 0.610784 0.076961
0.648529 0.602941 0.100490
0.744117 0.593627 0.141176
0.822059 0.578432 0.216666
0.896079 0.551471 0.286765
0.980392 0.502451 0.352941
0.345098 0.714706 0.126470
0.383824 0.714706 0.117647
0.465687 0.714706 0.101961
0.585294 0.714706 0.078431
0.725490 0.711765 0.042156
0.838725 0.707843 0.045098
0.900000 0.696079 0.116667
0.950491 0.679902 0.258824
1.000000 0.649020 0.376471
0.364216 0.824019 0.165196
0.400000 0.824019 0.149999
0.485295 0.824019 0.121569
0.604902 0.824019 0.060294
0.741177 0.824019 0.042647
0.881373 0.820588 0.019608
1.000000 0.820098 0.007843
1.000000 0.804902 0.054412
1.000000 0.781372 0.332353
0.156863 0.952941 0.250980
0.242157 0.952941 0.239216
0.374510 0.952941 0.211765
0.530392 0.952941 0.162255
0.692157 0.956863 0.090196
0.851471 0.956863 0.000000
0.997059 0.956863 0.000000
1.000000 0.956863 0.000000
1.000000 0.949020 0.000000
0.000000 0.000000 0.093628
0.112745 0.000000 0.081863
0.229902 0.000000 0.077451
0.338235 0.000000 0.077941
0.450981 0.000000 0.077941
0.575490 0.000000 0.085785
0.687255 0.000000 0.102941
0.777942 0.000000 0.136765
0.878431 0.000000 0.172059
0.062255 0.148040 0.144118
0.136275 0.136275 0.136275
0.252941 0.121569 0.125490
0.361765 0.104902 0.120588
0.470588 0.075490 0.112745
0.591176 0.032843 0.097549
0.695098 0.000000 0.085785
0.784804 0.000000 0.118137
0.882353 0.000000 0.160294
0.112745 0.261765 0.175490
0.160294 0.257844 0.171078
0.272549 0.249509 0.164216
0.378922 0.234314 0.167156
0.490197 0.211765 0.164216
0.612745 0.173039 0.155392
0.717647 0.117647 0.148040
0.800490 0.036275 0.147549
0.886275 0.000000 0.152941
0.157843 0.373529 0.183824
0.213725 0.369608 0.180392
0.307353 0.365686 0.179902
0.404902 0.355392 0.187745
0.517648 0.340196 0.195588
0.638235 0.317157 0.202451
0.742156 0.280883 0.213725
0.826961 0.218137 0.225490
0.912255 0.097549 0.210294
0.237255 0.498039 0.164216
0.279902 0.498039 0.164216
0.355392 0.494117 0.166176
0.448529 0.486274 0.177451
0.559314 0.476471 0.201471
0.670098 0.458824 0.226961
0.769607 0.435295 0.252941
0.853921 0.393627 0.287745
0.945098 0.323530 0.307843
0.336765 0.614706 0.113725
0.373530 0.614706 0.109804
0.435785 0.614706 0.111764
0.524510 0.610784 0.123530
0.628431 0.602941 0.145098
0.722549 0.593627 0.203432
0.806863 0.578432 0.263235
0.886765 0.551961 0.321569
0.974020 0.504902 0.375981
0.369607 0.715687 0.118628
0.404412 0.715687 0.113725
0.484314 0.715687 0.098039
0.600981 0.715687 0.074510
0.734314 0.714706 0.044118
0.818137 0.707843 0.085294
0.876471 0.696079 0.187745
0.938726 0.679902 0.301471
1.000000 0.649020 0.403432
0.387255 0.824510 0.157353
0.423039 0.824510 0.145588
0.503921 0.824509 0.111274
0.620098 0.824510 0.058334
0.752451 0.824510 0.038726
0.888726 0.824019 0.019608
1.000000 0.820588 0.007843
1.000000 0.804902 0.115686
1.000000 0.781372 0.367156
0.207353 0.952941 0.243627
0.276960 0.952941 0.235294
0.397549 0.956863 0.207843
0.545588 0.956863 0.158333
0.703921 0.956863 0.086275
0.857843 0.960784 0.000000
1.000000 0.960784 0.000000
1.000000 0.956863 0.000000
1.000000 0.949020 0.000000
0.000000 0.000000 0.191176
0.104902 0.000000 0.163725
0.221568 0.000000 0.148039
0.327941 0.000000 0.141176
0.441176 0.000000 0.136274
0.566176 0.000000 0.137255
0.675490 0.000000 0.150000
0.770588 0.000000 0.172549
0.874510 0.000000 0.196078
0.053922 0.151961 0.238236
0.128432 0.140686 0.226470
0.241176 0.128432 0.210294
0.347549 0.108824 0.194607
0.459314 0.079412 0.176961
0.581373 0.036765 0.157843
0.683334 0.000000 0.139705
0.776961 0.000000 0.157353
0.878431 0.000000 0.187255
0.104902 0.265686 0.268627
0.144608 0.261765 0.261765
0.253922 0.252941 0.252941
0.361765 0.238726 0.245098
0.478432 0.217647 0.230393
0.601471 0.178431 0.216176
0.703922 0.122549 0.204902
0.789215 0.040196 0.191176
0.882353 0.000000 0.180392
0.127451 0.375000 0.284314
0.179902 0.373529 0.281373
0.277451 0.367157 0.280392
0.381373 0.359314 0.277451
0.501470 0.344118 0.273529
0.622549 0.321079 0.268137
0.726471 0.283334 0.272059
0.815686 0.222549 0.272059
0.905882 0.101471 0.244608
0.191176 0.500000 0.276470
0.237255 0.498039 0.277451
0.315686 0.494117 0.282353
0.413725 0.490197 0.289216
0.533334 0.478432 0.296078
0.650490 0.462746 0.302941
0.750000 0.439215 0.318628
0.839706 0.397549 0.339216
0.937255 0.327451 0.346079
0.301961 0.617157 0.214706
0.330882 0.617157 0.216176
0.393627 0.614706 0.225490
0.482353 0.610784 0.243627
0.587745 0.604902 0.273039
0.691667 0.595098 0.300980
0.782843 0.579412 0.337255
0.867157 0.555392 0.379902
0.964706 0.508824 0.416176
0.414706 0.719608 0.109804
0.446078 0.719608 0.105882
0.519608 0.719608 0.091176
0.601471 0.718628 0.101960
0.691176 0.714706 0.136274
0.769118 0.706863 0.219118
0.838235 0.696079 0.300000
0.911274 0.680392 0.375981
0.996078 0.652941 0.450000
0.434314 0.828431 0.142647
0.468627 0.828431 0.129412
0.543137 0.828431 0.091667
0.648529 0.828431 0.054412
0.775490 0.828431 0.034804
0.904902 0.827941 0.019118
0.967157 0.820588 0.056373
0.994118 0.804902 0.275490
1.000000 0.781372 0.434314
0.289216 0.959804 0.232353
0.339705 0.960784 0.223529
0.444118 0.960784 0.193137
0.580392 0.960784 0.150000
0.728431 0.964706 0.072549
0.875000 0.964706 0.000000
1.000000 0.964706 0.000000
1.000000 0.960784 0.000000
1.000000 0.949020 0.000000
0.000000 0.000000 0.269118
0.108824 0.000000 0.229902
0.218627 0.000000 0.210294
0.322549 0.000000 0.202451
0.435295 0.000000 0.194608
0.558333 0.000000 0.190686
0.667647 0.000000 0.194608
0.765196 0.000000 0.207843
0.870588 0.000000 0.223529
0.050490 0.159804 0.323529
0.128432 0.148040 0.304412
0.233333 0.136275 0.285295
0.339215 0.116667 0.268627
0.450981 0.087255 0.245098
0.571569 0.044608 0.221568
0.671569 0.003432 0.197059
0.765686 0.000000 0.200000
0.870588 0.000000 0.218137
0.100981 0.269608 0.355392
0.136765 0.265686 0.347549
0.241176 0.257844 0.335784
0.350000 0.245098 0.323039
0.466666 0.223039 0.304412
0.587745 0.184804 0.283824
0.691176 0.129412 0.264216
0.780882 0.044608 0.240196
0.878431 0.000000 0.214216
0.100490 0.378922 0.382843
0.158823 0.377451 0.378922
0.253922 0.373529 0.371078
0.363235 0.363235 0.363235
0.486274 0.348039 0.353922
0.606863 0.325000 0.342157
0.710784 0.290196 0.337255
0.804412 0.230392 0.325981
0.900490 0.107843 0.283334
0.128922 0.501961 0.398529
0.183334 0.501961 0.397549
0.274020 0.498039 0.396569
0.385294 0.494117 0.392647
0.509804 0.482353 0.388726
0.628431 0.466666 0.388726
0.729902 0.443137 0.392647
0.824019 0.403431 0.398039
0.929412 0.331373 0.388235
0.216176 0.617157 0.379902
0.252451 0.617157 0.381373
0.327451 0.614706 0.385294
0.431373 0.610784 0.389216
0.548529 0.605392 0.394608
0.657843 0.597549 0.406373
0.752941 0.582353 0.428432
0.844117 0.559314 0.450980
0.952941 0.512745 0.462745
0.366666 0.719608 0.277451
0.389706 0.719608 0.281373
0.445588 0.719608 0.294608
0.527451 0.715687 0.317647
0.618627 0.711765 0.346078
0.711275 0.706863 0.377941
0.794118 0.696079 0.419117
0.878921 0.680392 0.465686
0.982843 0.652941 0.508333
0.500490 0.832353 0.117647
0.527451 0.832353 0.101961
0.593627 0.832353 0.062745
0.691177 0.832353 0.046569
0.773529 0.831863 0.067157
0.833333 0.824509 0.179902
0.881863 0.816666 0.308824
0.948039 0.804902 0.412255
1.000000 0.785294 0.514216
0.378922 0.964706 0.215686
0.420098 0.964706 0.203922
0.506373 0.967157 0.177451
0.624510 0.968627 0.130882
0.760784 0.968627 0.054902
0.897059 0.971078 0.000000
1.000000 0.971078 0.000000
1.000000 0.968627 0.000000
1.000000 0.949020 0.289706
0.000000 0.003922 0.343137
0.116667 0.000000 0.300000
0.217647 0.000000 0.276470
0.316177 0.000000 0.264706
0.429412 0.000000 0.252941
0.551961 0.000000 0.243137
0.658824 0.000000 0.241177
0.757843 0.000000 0.245098
0.866667 0.000000 0.252941
0.060294 0.167647 0.401471
0.132353 0.156373 0.382353
0.229412 0.144118 0.365196
0.331863 0.124510 0.342647
0.444608 0.095098 0.317157
0.562255 0.052451 0.286275
0.663725 0.006373 0.255392
0.757843 0.000000 0.241177
0.866667 0.000000 0.250980
0.104902 0.276470 0.440196
0.136765 0.272549 0.432353
0.230393 0.264706 0.420588
0.339706 0.250000 0.404902
0.456863 0.229412 0.382353
0.577941 0.194117 0.356373
0.679412 0.138235 0.326471
0.773039 0.052451 0.290686
0.870588 0.000000 0.250980
0.088726 0.385294 0.478922
0.143137 0.381373 0.475000
0.238235 0.377451 0.467157
0.348039 0.369608 0.455392
0.470588 0.353922 0.439706
0.591176 0.330392 0.420098
0.695098 0.298039 0.404412
0.792647 0.238235 0.380883
0.894118 0.115686 0.328431
0.066667 0.505883 0.513726
0.140686 0.505883 0.509804
0.245098 0.501961 0.505883
0.361765 0.498039 0.498039
0.486274 0.486274 0.486274
0.605392 0.471079 0.478431
0.707843 0.448039 0.470588
0.808823 0.409314 0.458823
0.919608 0.339216 0.435295
0.138235 0.618627 0.521568
0.187255 0.617157 0.521568
0.279902 0.617157 0.517648
0.393137 0.613235 0.515196
0.513725 0.606863 0.511765
0.624510 0.599020 0.513235
0.723530 0.585784 0.517648
0.824509 0.563235 0.521078
0.941176 0.516667 0.515196
0.254902 0.719608 0.485294
0.290196 0.719608 0.487255
0.363725 0.718628 0.489216
0.462255 0.715687 0.490197
0.563725 0.711765 0.498039
0.661275 0.707843 0.512255
0.752941 0.699019 0.531372
0.850490 0.683824 0.550980
0.967647 0.656863 0.565686
0.460784 0.832353 0.304902
0.480392 0.832353 0.311274
0.523529 0.832353 0.328431
0.588235 0.831863 0.354412
0.663725 0.828431 0.390196
0.739706 0.824509 0.431373
0.815196 0.816666 0.482353
0.899019 0.806373 0.535294
1.000000 0.785294 0.586274
0.474510 0.972549 0.190196
0.505883 0.972549 0.178431
0.576470 0.974510 0.154902
0.681373 0.976471 0.111274
0.800000 0.976471 0.027451
0.926471 0.978431 0.000000
1.000000 0.978432 0.000000
1.000000 0.972549 0.054902
1.000000 0.952941 0.466666
0.000000 0.007843 0.417157
0.130392 0.000000 0.374510
0.222549 0.000000 0.354412
0.318628 0.000000 0.330882
0.427451 0.000000 0.313236
0.548039 0.000000 0.298039
0.651961 0.000000 0.287745
0.752451 0.000000 0.286275
0.862745 0.000000 0.287745
0.081373 0.175981 0.483333
0.144118 0.167647 0.467647
0.230392 0.153922 0.448039
0.331863 0.134314 0.422549
0.443137 0.104902 0.391176
0.558333 0.061765 0.353922
0.655882 0.010294 0.314706
0.750000 0.000000 0.287745
0.861275 0.000000 0.290196
0.109804 0.284314 0.529902
0.137255 0.280392 0.522059
0.230392 0.272549 0.507353
0.338235 0.260784 0.486765
0.454902 0.239216 0.461275
0.571569 0.204412 0.426471
0.671569 0.149019 0.391667
0.765196 0.064216 0.345098
0.862745 0.000000 0.294118
0.090196 0.390686 0.574020
0.143137 0.389216 0.568627
0.234314 0.384314 0.558333
0.345098 0.375000 0.541176
0.466666 0.361765 0.519608
0.583333 0.338235 0.494118
0.684314 0.305882 0.469608
0.784804 0.247549 0.438725
0.886275 0.127451 0.378922
0.041177 0.511765 0.617157
0.124510 0.509804 0.614706
0.233333 0.507843 0.605392
0.350000 0.501961 0.591666
0.476471 0.494118 0.574020
0.591176 0.478431 0.556372
0.695098 0.454902 0.539706
0.797059 0.417157 0.517648
0.909804 0.347058 0.485784
0.097059 0.621078 0.642157
0.153922 0.621078 0.638235
0.252941 0.618627 0.634314
0.373529 0.614706 0.624020
0.494118 0.610784 0.613235
0.602941 0.602941 0.602941
0.703922 0.589706 0.594118
0.812255 0.567647 0.583333
0.929412 0.522059 0.567647
0.184804 0.719608 0.637255
0.227941 0.719608 0.634804
0.313726 0.719608 0.633334
0.416667 0.718628 0.628922
0.523529 0.714706 0.625000
0.625000 0.710294 0.625000
0.723530 0.700000 0.625000
0.831373 0.687746 0.625000
0.952941 0.660785 0.624510
0.325490 0.831863 0.568137
0.354902 0.831863 0.568137
0.412745 0.828431 0.572059
0.492157 0.828431 0.575981
0.581372 0.827941 0.586765
0.668628 0.824509 0.602451
0.758333 0.816666 0.621078
0.863725 0.808823 0.636765
0.988235 0.789215 0.656373
0.571569 0.984314 0.159314
0.597059 0.984314 0.149510
0.655392 0.984314 0.126470
0.743628 0.984314 0.083824
0.848529 0.985784 0.000000
0.921078 0.984314 0.078431
0.949510 0.980392 0.287745
0.994608 0.972549 0.446079
1.000000 0.956863 0.606863
0.011765 0.015686 0.487255
0.153431 0.003922 0.448039
0.238236 0.000000 0.424509
0.330392 0.000000 0.390686
0.435295 0.000000 0.368627
0.548039 0.000000 0.350000
0.648039 0.000000 0.338235
0.746078 0.000000 0.330392
0.857843 0.000000 0.329412
0.109314 0.188725 0.557353
0.163726 0.179902 0.541666
0.246079 0.167647 0.518628
0.347059 0.148040 0.492157
0.450980 0.119608 0.457353
0.561765 0.075980 0.416176
0.651961 0.019118 0.375491
0.745588 0.000000 0.334313
0.854902 0.000000 0.333333
0.119608 0.293137 0.603922
0.156373 0.289216 0.596078
0.250000 0.281373 0.577451
0.351471 0.269608 0.553921
0.462745 0.250980 0.525490
0.571568 0.217157 0.490196
0.667647 0.162745 0.450980
0.760294 0.076470 0.401961
0.858824 0.000000 0.338235
0.126470 0.398529 0.650490
0.169117 0.397059 0.644118
0.254902 0.393137 0.630883
0.357843 0.383823 0.611274
0.472549 0.369608 0.585294
0.581863 0.348530 0.558824
0.679412 0.314706 0.531863
0.776961 0.259314 0.495098
0.882353 0.140686 0.432353
0.103922 0.517648 0.697059
0.161274 0.517648 0.693137
0.254902 0.513726 0.683334
0.361765 0.509804 0.667647
0.478432 0.500980 0.646078
0.585784 0.486274 0.626470
0.687255 0.462745 0.605882
0.789215 0.427451 0.579412
0.901961 0.356863 0.540196
0.133333 0.625000 0.731863
0.178431 0.625000 0.727941
0.268627 0.622549 0.720098
0.376470 0.621078 0.706863
0.490197 0.614706 0.692647
0.593627 0.606863 0.679411
0.692157 0.595098 0.664216
0.800490 0.574020 0.649020
0.917647 0.528431 0.625980
0.178432 0.723530 0.750981
0.224019 0.722549 0.747059
0.305882 0.722549 0.742156
0.404902 0.719608 0.732843
0.505883 0.718628 0.722549
0.605392 0.711765 0.714216
0.703922 0.703922 0.703922
0.812745 0.691667 0.695588
0.937255 0.664706 0.684314
0.251470 0.831863 0.742647
0.285295 0.831863 0.742647
0.351471 0.831863 0.738726
0.437745 0.828431 0.734804
0.530882 0.828431 0.730882
0.625000 0.824509 0.727451
0.726471 0.820588 0.726471
0.836274 0.812745 0.726471
0.968627 0.793137 0.730392
0.474509 0.984314 0.469608
0.490196 0.984314 0.473530
0.529412 0.984314 0.484313
0.587745 0.984314 0.503922
0.654902 0.984314 0.530392
0.728922 0.984314 0.569608
0.807843 0.980392 0.615687
0.905392 0.976471 0.661275
1.000000 0.964706 0.718628
0.062745 0.027941 0.545588
0.188235 0.012745 0.506862
0.266177 0.007843 0.482843
0.355392 0.000000 0.451470
0.449510 0.000000 0.419608
0.550490 0.000000 0.400490
0.644118 0.000000 0.387745
0.742156 0.000000 0.376961
0.850980 0.000000 0.369117
0.144608 0.203922 0.619608
0.196078 0.196078 0.603432
0.277941 0.184314 0.581372
0.369608 0.165686 0.552941
0.466666 0.136275 0.519608
0.563725 0.092157 0.478431
0.651960 0.033334 0.437255
0.741666 0.000000 0.384804
0.850980 0.000000 0.376961
0.157353 0.303921 0.663235
0.203922 0.300980 0.655392
0.285785 0.293628 0.638726
0.377451 0.281863 0.616666
0.479412 0.262255 0.587745
0.575490 0.231863 0.554902
0.664706 0.178431 0.516177
0.757353 0.094608 0.461765
0.850980 0.000000 0.384804
0.184804 0.408824 0.712745
0.219608 0.408824 0.706372
0.293628 0.402451 0.693137
0.385294 0.395098 0.675000
0.486274 0.381373 0.650000
0.584313 0.360294 0.624999
0.675490 0.326471 0.595098
0.773039 0.275000 0.555882
0.876961 0.158824 0.489216
0.189215 0.527451 0.763235
0.227451 0.525490 0.759314
0.297549 0.523529 0.749510
0.389216 0.517648 0.733333
0.490196 0.509804 0.714216
0.585784 0.496569 0.695098
0.680392 0.474509 0.673039
0.781372 0.438725 0.643138
0.895588 0.368627 0.598529
0.209804 0.630392 0.804412
0.241177 0.629412 0.801961
0.310294 0.628922 0.794118
0.400000 0.624510 0.782353
0.496079 0.621078 0.766667
0.589706 0.613235 0.753431
0.684314 0.601471 0.735294
0.789215 0.579412 0.715687
0.909804 0.537745 0.684314
0.243627 0.727451 0.836765
0.274510 0.727451 0.835784
0.336765 0.726471 0.826470
0.418137 0.726471 0.820098
0.505883 0.722549 0.809314
0.594608 0.718627 0.797549
0.692157 0.710785 0.785784
0.800980 0.696079 0.770098
0.925490 0.668628 0.750491
0.271078 0.835784 0.859804
0.297549 0.835784 0.859314
0.352451 0.832353 0.855392
0.426470 0.832353 0.848039
0.511765 0.832353 0.840196
0.605392 0.828431 0.834804
0.703922 0.824510 0.824510
0.816666 0.816666 0.816666
0.952941 0.797059 0.804902
0.261765 0.984314 0.809314
0.289706 0.984314 0.809314
0.351471 0.984314 0.805393
0.431372 0.984314 0.805393
0.523039 0.984314 0.805393
0.620588 0.984804 0.805393
0.726961 0.984804 0.809314
0.847549 0.984314 0.816666
1.000000 0.972549 0.831863
0.121569 0.054902 0.600000
0.238726 0.031863 0.564706
0.308824 0.019608 0.541176
0.386765 0.007843 0.513726
0.468627 0.000000 0.476471
0.558333 0.000000 0.450980
0.645098 0.000000 0.439216
0.741666 0.000000 0.423529
0.847059 0.000000 0.411765
0.188235 0.223039 0.674510
0.250490 0.215196 0.658824
0.320588 0.203922 0.639706
0.402451 0.187255 0.615196
0.488236 0.157843 0.585294
0.574020 0.112745 0.544608
0.655882 0.052941 0.500490
0.738235 0.000000 0.439216
0.847059 0.000000 0.423529
0.231373 0.319608 0.720588
0.265686 0.316667 0.712745
0.332353 0.308824 0.698039
0.410294 0.297059 0.677451
0.499020 0.280392 0.651960
0.583333 0.251470 0.621079
0.667647 0.203922 0.585294
0.757353 0.121568 0.527941
0.850980 0.000000 0.442157
0.258824 0.424510 0.771078
0.289706 0.422059 0.767157
0.348040 0.416667 0.755392
0.420588 0.410294 0.739706
0.505883 0.394608 0.718137
0.589706 0.375981 0.692647
0.676471 0.345098 0.661275
0.773039 0.293138 0.621569
0.874510 0.183824 0.553922
0.278431 0.537254 0.827451
0.300000 0.537254 0.822058
0.355882 0.535294 0.814706
0.425980 0.529411 0.801961
0.507843 0.521568 0.786274
0.593627 0.507843 0.766666
0.683334 0.486274 0.744117
0.781372 0.450981 0.707843
0.890196 0.384313 0.660784
0.298039 0.638235 0.875980
0.321079 0.636765 0.872059
0.367647 0.636765 0.865197
0.433824 0.632843 0.856373
0.513726 0.628922 0.844608
0.597549 0.621078 0.828922
0.687255 0.609314 0.809314
0.788725 0.589706 0.785784
0.901961 0.548039 0.751961
0.321569 0.734314 0.921569
0.341176 0.734313 0.918627
0.381373 0.734313 0.914705
0.445588 0.731373 0.906862
0.519608 0.727451 0.898039
0.601471 0.723530 0.883333
0.695098 0.715687 0.867647
0.797549 0.702941 0.848039
0.917647 0.676471 0.824510
0.333333 0.839706 0.969117
0.352451 0.839706 0.968627
0.391176 0.839706 0.962255
0.449510 0.839706 0.957353
0.523529 0.836274 0.952941
0.605392 0.835784 0.941666
0.700000 0.831863 0.929902
0.804902 0.824019 0.914215
0.937255 0.804412 0.898529
0.258824 0.988235 1.000000
0.281863 0.988235 1.000000
0.328431 0.992157 1.000000
0.402451 0.992157 1.000000
0.484314 0.992157 1.000000
0.579412 0.993627 1.000000
0.684314 0.996078 0.996078
0.800490 0.996078 0.992157
1.000000 0.992157 0.992157
