Color/Fuji/Fuji Provia 400X 65x.cube
TITLE "Fuji Provia 400X"
LUT_3D_SIZE 5
DOMAIN_MIN 0.000000 0.000000 0.000000
DOMAIN_MAX 1.000000 1.000000 1.000000
0.000000 0.000000 0.000000
0.272549 0.000000 0.000000
0.578431 0.000000 0.000000
0.868628 0.000000 0.000000
1.000000 0.000000 0.000000
0.089216 0.260784 0.074510
0.256863 0.252941 0.073529
0.586275 0.233333 0.067647
0.896079 0.204903 0.041177
1.000000 0.150980 0.011765
0.000000 0.549019 0.133333
0.210785 0.545098 0.133333
0.613726 0.537254 0.125490
0.923530 0.521568 0.105882
1.000000 0.498039 0.050980
0.000000 0.765686 0.097059
0.187255 0.762745 0.097059
0.652942 0.757843 0.093137
0.959804 0.750000 0.077451
1.000000 0.735294 0.050980
0.000000 1.000000 0.000000
0.000000 1.000000 0.000000
0.545098 1.000000 0.000000
0.963725 1.000000 0.000000
1.000000 1.000000 0.000000
0.000000 0.000000 0.159804
0.222549 0.000000 0.155883
0.529411 0.000000 0.151961
0.812745 0.000000 0.124510
1.000000 0.000000 0.057844
0.061765 0.226470 0.218627
0.218627 0.218627 0.218627
0.543138 0.201961 0.213725
0.832353 0.170588 0.187255
1.000000 0.115686 0.119608
0.000000 0.537254 0.273529
0.150000 0.533334 0.273529
0.567647 0.525490 0.268627
0.864706 0.509804 0.245098
1.000000 0.482353 0.174510
0.000000 0.761764 0.284314
0.081373 0.757843 0.284314
0.591176 0.750981 0.276470
0.893137 0.743137 0.251961
1.000000 0.731373 0.156863
0.000000 1.000000 0.034314
0.000000 1.000000 0.027451
0.550000 1.000000 0.006863
0.972549 1.000000 0.000000
1.000000 1.000000 0.000000
0.000000 0.000000 0.331372
0.180392 0.000000 0.335294
0.472549 0.000000 0.335294
0.730392 0.000000 0.321569
0.988235 0.000000 0.274509
0.042157 0.168627 0.404902
0.178431 0.160784 0.408824
0.478432 0.137255 0.408824
0.733333 0.102941 0.396079
0.977451 0.039216 0.351961
0.000000 0.505883 0.490197
0.049020 0.501961 0.490197
0.492157 0.490197 0.490197
0.757843 0.474510 0.485294
1.000000 0.439215 0.450981
0.000000 0.746079 0.540196
0.000000 0.742156 0.541176
0.478432 0.737255 0.541176
0.764706 0.727451 0.535294
1.000000 0.714706 0.501961
0.000000 1.000000 0.494117
0.000000 1.000000 0.494117
0.270588 1.000000 0.490197
0.767647 1.000000 0.471569
1.000000 1.000000 0.368627
0.000000 0.000000 0.495098
0.180392 0.000000 0.501961
0.435295 0.000000 0.506862
0.659804 0.000000 0.502941
0.893138 0.000000 0.491177
0.045098 0.051961 0.549020
0.200981 0.040196 0.551961
0.439215 0.018627 0.553921
0.651960 0.001961 0.550000
0.870588 0.000000 0.533333
0.036275 0.441176 0.634314
0.202941 0.436275 0.636275
0.478432 0.424510 0.638235
0.700000 0.400980 0.638235
0.937255 0.351961 0.625490
0.000000 0.719608 0.699019
0.077451 0.718628 0.699019
0.457843 0.711765 0.702941
0.702941 0.702941 0.702941
0.976471 0.687255 0.695098
0.000000 1.000000 0.727451
0.000000 1.000000 0.730392
0.064706 1.000000 0.731373
0.629412 1.000000 0.731373
1.000000 1.000000 0.714706
0.000000 0.000000 0.619608
0.242157 0.000000 0.627451
0.437255 0.000000 0.631373
0.625490 0.000000 0.635294
0.843137 0.000000 0.631373
0.144118 0.000000 0.658824
0.256863 0.000000 0.662745
0.431372 0.000000 0.668627
0.612745 0.000000 0.674510
0.823529 0.000000 0.674510
0.270588 0.266667 0.747059
0.343137 0.258823 0.747059
0.496078 0.235294 0.750981
0.661765 0.195098 0.750981
0.860785 0.115686 0.743137
0.222549 0.660785 0.843137
0.320588 0.656863 0.844118
0.492157 0.650980 0.848039
0.683334 0.637255 0.851961
0.925490 0.613726 0.854902
0.000000 0.996078 0.937255
0.000000 0.996078 0.941176
0.184314 0.996078 0.949020
0.570588 0.996078 0.964706
1.000000 0.988235 0.988235
