Color/Fuji/Fuji Provia 100 Generic 65x.cube
TITLE "Fuji Provia 100 Generic"
LUT_3D_SIZE 65
DOMAIN_MIN 0.000000 0.000000 0.000000
DOMAIN_MAX 1.000000 1.000000 1.000000
0.000000 0.000000 0.000000
0.009681 0.000000 0.000000
0.023284 0.000000 0.000000
0.038052 0.000000 0.000000
0.054412 0.000000 0.000000
0.067341 0.000000 0.000000
0.081618 0.000000 0.000000
0.095220 0.000000 0.000000
0.108824 0.000000 0.000000
0.122427 0.000000 0.000000
0.136029 0.000000 0.000000
0.149632 0.000000 0.000000
0.163235 0.000000 0.000000
0.176839 0.000000 0.000000
0.194363 0.000000 0.000000
0.211887 0.000000 0.000000
0.229412 0.000000 0.000000
0.246936 0.000000 0.000000
0.272304 0.000000 0.000000
0.293750 0.000000 0.000000
0.315196 0.000000 0.000000
0.336642 0.000000 0.000000
0.362009 0.000000 0.000000
0.383456 0.000000 0.000000
0.407353 0.000000 0.000000
0.429719 0.000000 0.000000
0.455637 0.000000 0.000000
0.478370 0.000000 0.000000
0.504657 0.000000 0.000000
0.527022 0.000000 0.000000
0.553186 0.000000 0.000000
0.574632 0.000000 0.000000
0.596078 0.000000 0.000000
0.617525 0.000000 0.000000
0.638971 0.000000 0.000000
0.657292 0.000000 0.000000
0.677941 0.000000 0.000000
0.699388 0.000000 0.000000
0.716912 0.000000 0.000000
0.738358 0.000000 0.000000
0.759804 0.000000 0.000000
0.779718 0.000000 0.000000
0.798775 0.000000 0.000000
0.820221 0.000000 0.000000
0.841667 0.000000 0.000000
0.859191 0.000000 0.000000
0.880637 0.000000 0.000000
0.898162 0.000000 0.000000
0.916666 0.000000 0.000000
0.937132 0.000000 0.000000
0.954657 0.000000 0.000000
0.972181 0.000000 0.000000
0.988970 0.000000 0.000000
1.000000 0.000000 0.000000
1.000000 0.000000 0.000000
1.000000 0.000000 0.000000
1.000000 0.000000 0.000000
1.000000 0.000000 0.000000
1.000000 0.000000 0.000000
1.000000 0.000000 0.000000
1.000000 0.000000 0.000000
1.000000 0.000000 0.000000
1.000000 0.000000 0.000000
1.000000 0.000000 0.000000
1.000000 0.000000 0.000000
0.000000 0.008762 0.000000
0.008762 0.008762 0.000000
0.017524 0.008762 0.000000
0.030209 0.008762 0.000000
0.042892 0.008762 0.000000
0.059253 0.008762 0.000000
0.072181 0.008762 0.000000
0.087377 0.008762 0.000000
0.103983 0.008762 0.000000
0.113664 0.008762 0.000000
0.131189 0.008762 0.000000
0.139522 0.008762 0.000000
0.152206 0.008762 0.000000
0.168995 0.008762 0.000000
0.186520 0.008762 0.000000
0.204044 0.008762 0.000000
0.221568 0.008762 0.000000
0.245955 0.008762 0.000000
0.264399 0.009681 0.000000
0.285907 0.009681 0.000000
0.307353 0.012684 0.000000
0.332414 0.012684 0.000000
0.353860 0.012684 0.000000
0.377145 0.012684 0.000000
0.402512 0.009681 0.000000
0.424877 0.009681 0.000000
0.447243 0.012684 0.000000
0.473529 0.012684 0.000000
0.496814 0.012684 0.000000
0.519976 0.009681 0.000000
0.544546 0.012684 0.000000
0.567831 0.012684 0.000000
0.588236 0.012684 0.000000
0.609682 0.012684 0.000000
0.631128 0.012684 0.000000
0.652573 0.012684 0.000000
0.670098 0.012684 0.000000
0.691545 0.012684 0.000000
0.712071 0.012684 0.000000
0.730147 0.012684 0.000000
0.751961 0.014155 0.000000
0.774877 0.013603 0.000000
0.790932 0.013603 0.000000
0.811765 0.012684 0.000000
0.833824 0.012684 0.000000
0.854350 0.012684 0.000000
0.872794 0.015748 0.000000
0.893321 0.013603 0.000000
0.911765 0.013603 0.000000
0.929289 0.013603 0.000000
0.946814 0.013603 0.000000
0.964338 0.013603 0.000000
0.981863 0.013603 0.000000
0.996078 0.013603 0.000000
1.000000 0.013603 0.000000
1.000000 0.016605 0.000000
1.000000 0.013603 0.000000
1.000000 0.013603 0.000000
1.000000 0.013603 0.000000
1.000000 0.016605 0.000000
1.000000 0.016605 0.000000
1.000000 0.016605 0.000000
1.000000 0.016605 0.000000
1.000000 0.016605 0.000000
1.000000 0.016605 0.000000
0.000000 0.017524 0.000000
0.008762 0.017524 0.000000
0.017524 0.017524 0.000000
0.029044 0.017524 0.000000
0.042647 0.017524 0.000000
0.054412 0.019362 0.000000
0.069853 0.019362 0.000000
0.085540 0.019362 0.000000
0.099142 0.019362 0.000000
0.114154 0.019362 0.000000
0.126838 0.021446 0.000000
0.139951 0.021446 0.000000
0.153554 0.021446 0.000000
0.168811 0.021446 0.000000
0.182598 0.021446 0.000000
0.200123 0.021446 0.000000
0.219730 0.021446 0.000000
0.239093 0.021446 0.000000
0.261397 0.021446 0.000000
0.283762 0.021446 0.000000
0.308211 0.021446 0.000000
0.328799 0.023284 0.000000
0.350858 0.023284 0.000000
0.375613 0.021446 0.000000
0.397059 0.021446 0.000000
0.421875 0.021446 0.000000
0.444240 0.023284 0.000000
0.470527 0.023284 0.000000
0.494975 0.023284 0.000000
0.519179 0.024571 0.000000
0.545343 0.023284 0.000000
0.566789 0.023284 0.000000
0.588236 0.023284 0.000000
0.610723 0.023284 0.000000
0.627206 0.025367 0.000000
0.647610 0.025367 0.000000
0.670098 0.025367 0.000000
0.687623 0.025367 0.000000
0.709069 0.025367 0.000000
0.730515 0.025367 0.000000
0.751961 0.025367 0.000000
0.769485 0.027206 0.000000
0.790932 0.023897 0.000000
0.812378 0.025367 0.000000
0.829289 0.025367 0.000000
0.851348 0.025367 0.000000
0.868872 0.025367 0.000000
0.890319 0.027206 0.000000
0.907843 0.027206 0.000000
0.925368 0.027206 0.000000
0.944975 0.027206 0.000000
0.962500 0.027206 0.000000
0.977942 0.027206 0.000000
0.993811 0.027206 0.000000
1.000000 0.027206 0.000000
1.000000 0.029289 0.000000
1.000000 0.027206 0.000000
1.000000 0.027206 0.000000
1.000000 0.027206 0.000000
1.000000 0.029289 0.000000
1.000000 0.029289 0.000000
1.000000 0.029289 0.000000
1.000000 0.029289 0.000000
1.000000 0.029289 0.000000
1.000000 0.029289 0.000000
0.003922 0.029044 0.000000
0.014522 0.030209 0.000000
0.017524 0.030209 0.000000
0.026287 0.030209 0.000000
0.038971 0.030209 0.000000
0.055576 0.030209 0.000000
0.068260 0.030209 0.000000
0.080698 0.030209 0.000000
0.097059 0.030209 0.000000
0.107904 0.030209 0.000000
0.121507 0.030209 0.000000
0.135600 0.030209 0.000000
0.148285 0.030209 0.000000
0.165074 0.030209 0.000000
0.182598 0.030209 0.000000
0.200123 0.030209 0.000000
0.217647 0.030209 0.000000
0.239032 0.030209 0.000000
0.258640 0.032966 0.000000
0.281005 0.031985 0.000000
0.306127 0.034130 0.000000
0.328493 0.034130 0.000000
0.348101 0.034130 0.000000
0.373223 0.034130 0.000000
0.397059 0.034130 0.000000
0.418505 0.034130 0.000000
0.444240 0.034130 0.000000
0.467770 0.034130 0.000000
0.492892 0.034130 0.000000
0.519179 0.034130 0.000000
0.541544 0.034130 0.000000
0.563909 0.034130 0.000000
0.586275 0.034130 0.000000
0.605760 0.034130 0.000000
0.627206 0.036888 0.000000
0.648652 0.036888 0.000000
0.665135 0.036888 0.000000
0.687623 0.036888 0.000000
0.708701 0.036888 0.000000
0.727144 0.034682 0.000000
0.748039 0.038052 0.000000
0.769485 0.038052 0.000000
0.787010 0.038052 0.000000
0.806004 0.038052 0.000000
0.829902 0.038052 0.000000
0.846813 0.038052 0.000000
0.868872 0.038052 0.000000
0.887562 0.038052 0.000000
0.907843 0.040809 0.000000
0.925368 0.040809 0.000000
0.942892 0.040809 0.000000
0.960416 0.041789 0.000000
0.977942 0.040809 0.000000
0.993811 0.040809 0.000000
1.000000 0.040809 0.000000
1.000000 0.040809 0.000000
1.000000 0.040809 0.000000
1.000000 0.040809 0.000000
1.000000 0.040809 0.000000
1.000000 0.041973 0.000000
1.000000 0.041973 0.000000
1.000000 0.041973 0.000000
1.000000 0.041973 0.000000
1.000000 0.041973 0.000000
1.000000 0.041973 0.000000
0.007598 0.038971 0.000000
0.012684 0.038971 0.000000
0.021446 0.038971 0.000000
0.030209 0.042647 0.000000
0.038971 0.042647 0.000000
0.052328 0.042647 0.000000
0.065931 0.042647 0.000000
0.080944 0.042647 0.000000
0.093628 0.042647 0.000000
0.110233 0.042647 0.000000
0.122917 0.042647 0.000000
0.135600 0.042892 0.000000
0.148285 0.042892 0.000000
0.161397 0.042892 0.000000
0.182598 0.042892 0.000000
0.196446 0.042892 0.000000
0.217647 0.042892 0.000000
0.235171 0.042892 0.000000
0.260540 0.042892 0.000000
0.281985 0.042892 0.000000
0.302451 0.046569 0.000000
0.328493 0.046569 0.000000
0.350245 0.046569 0.000000
0.369547 0.046569 0.000000
0.395588 0.042892 0.000000
0.418505 0.046569 0.000000
0.440563 0.046569 0.000000
0.466605 0.046814 0.000000
0.492892 0.048284 0.000000
0.516054 0.046569 0.000000
0.537868 0.046814 0.000000
0.560232 0.046814 0.000000
0.582598 0.046814 0.000000
0.605760 0.046814 0.000000
0.627328 0.046814 0.000000
0.645527 0.046814 0.000000
0.666176 0.046814 0.000000
0.687623 0.050490 0.000000
0.705147 0.050490 0.000000
0.726593 0.050490 0.000000
0.748039 0.050490 0.000000
0.767953 0.050735 0.000000
0.787010 0.050735 0.000000
0.808456 0.050735 0.000000
0.829902 0.048039 0.000000
0.847426 0.050735 0.000000
0.868872 0.050735 0.000000
0.886398 0.050735 0.000000
0.901226 0.050735 0.000000
0.925368 0.050735 0.000000
0.942892 0.050735 0.000000
0.960416 0.050735 0.000000
0.974265 0.054412 0.000000
0.987868 0.054412 0.000000
1.000000 0.054412 0.000000
1.000000 0.054412 0.000000
1.000000 0.054412 0.000000
1.000000 0.054412 0.000000
1.000000 0.054412 0.000000
1.000000 0.054412 0.000000
1.000000 0.054657 0.000000
1.000000 0.054657 0.000000
1.000000 0.054657 0.000000
1.000000 0.054657 0.000000
1.000000 0.054412 0.000000
0.011765 0.052328 0.000000
0.016360 0.052328 0.000000
0.025367 0.052328 0.000000
0.034130 0.052328 0.000000
0.039644 0.052328 0.000000
0.051654 0.052328 0.000000
0.064338 0.055576 0.000000
0.077022 0.055576 0.000000
0.089706 0.055576 0.000000
0.106311 0.055576 0.000000
0.118995 0.055576 0.000000
0.131679 0.055576 0.000000
0.144363 0.055576 0.000000
0.161152 0.055576 0.000000
0.178677 0.055576 0.000000
0.196201 0.055576 0.000000
0.213725 0.055576 0.000000
0.235171 0.055576 0.000000
0.257476 0.056434 0.000000
0.279841 0.056250 0.000000
0.303431 0.056250 0.000000
0.324877 0.059498 0.000000
0.346936 0.059498 0.000000
0.372549 0.059498 0.000000
0.393137 0.056250 0.000000
0.417954 0.056250 0.000000
0.440319 0.059498 0.000000
0.466605 0.059498 0.000000
0.490687 0.059498 0.000000
0.515257 0.059498 0.000000
0.537623 0.059498 0.000000
0.562867 0.059498 0.000000
0.585600 0.059498 0.000000
0.604718 0.059498 0.000000
0.623284 0.063297 0.000000
0.644730 0.060172 0.000000
0.667218 0.060172 0.000000
0.683701 0.060172 0.000000
0.708026 0.060172 0.000000
0.726593 0.060172 0.000000
0.744117 0.060172 0.000000
0.765563 0.063419 0.000000
0.789644 0.063419 0.000000
0.804841 0.063419 0.000000
0.825980 0.063419 0.000000
0.848897 0.063419 0.000000
0.864951 0.063419 0.000000
0.886398 0.063419 0.000000
0.903922 0.063419 0.000000
0.921446 0.064093 0.000000
0.938970 0.061275 0.000000
0.956495 0.063419 0.000000
0.974020 0.064093 0.000000
0.989890 0.064093 0.000000
1.001900 0.064093 0.000000
1.000000 0.064093 0.000000
1.000000 0.064093 0.000000
1.000000 0.064093 0.000000
1.000000 0.064093 0.000000
1.000000 0.067341 0.000000
1.000000 0.067341 0.000000
1.000000 0.067341 0.000000
1.000000 0.067341 0.000000
1.000000 0.067341 0.000000
1.000000 0.067341 0.000000
0.013358 0.065931 0.000000
0.020527 0.065931 0.000000
0.029289 0.065931 0.000000
0.035724 0.065931 0.000000
0.040809 0.065931 0.000000
0.053247 0.065931 0.000000
0.064338 0.065931 0.000000
0.077941 0.065931 0.000000
0.091544 0.065931 0.000000
0.102819 0.065931 0.000000
0.116421 0.065931 0.000000
0.130024 0.068260 0.000000
0.143627 0.068260 0.000000
0.161152 0.068260 0.000000
0.178677 0.068260 0.000000
0.196201 0.068260 0.000000
0.213725 0.068260 0.000000
0.237439 0.068260 0.000000
0.257476 0.068260 0.000000
0.279841 0.068260 0.000000
0.304534 0.070956 0.000000
0.324877 0.069853 0.000000
0.346936 0.069853 0.000000
0.369302 0.069853 0.000000
0.393137 0.069853 0.000000
0.417954 0.069853 0.000000
0.440319 0.069853 0.000000
0.466605 0.069547 0.000000
0.488971 0.072181 0.000000
0.515257 0.069853 0.000000
0.537623 0.072181 0.000000
0.559988 0.072181 0.000000
0.582353 0.072181 0.000000
0.601838 0.072181 0.000000
0.623284 0.072181 0.000000
0.644730 0.072181 0.000000
0.662255 0.072181 0.000000
0.683701 0.073774 0.000000
0.701226 0.073774 0.000000
0.721630 0.073774 0.000000
0.744117 0.073774 0.000000
0.766360 0.073774 0.000000
0.783089 0.073774 0.000000
0.804535 0.073774 0.000000
0.825980 0.073407 0.000000
0.843505 0.076103 0.000000
0.864951 0.076103 0.000000
0.882476 0.076103 0.000000
0.903922 0.076103 0.000000
0.921446 0.076103 0.000000
0.938970 0.076103 0.000000
0.956495 0.076103 0.000000
0.972427 0.076103 0.000000
0.989951 0.076103 0.000000
0.998652 0.076103 0.000000
1.000000 0.077696 0.000000
1.000000 0.077696 0.000000
1.000000 0.077696 0.000000
1.000000 0.077696 0.000000
1.000000 0.077696 0.000000
1.000000 0.077696 0.000000
1.000000 0.077696 0.000000
1.000000 0.080024 0.000000
1.000000 0.080024 0.000000
1.000000 0.077696 0.000000
0.018199 0.077022 0.000000
0.024448 0.077022 0.000000
0.033885 0.077022 0.000000
0.037807 0.077022 0.000000
0.046814 0.077022 0.000000
0.055576 0.077022 0.000000
0.066850 0.077022 0.000000
0.077022 0.077022 0.000000
0.089216 0.079534 0.000000
0.100306 0.079534 0.000000
0.115073 0.079534 0.000000
0.127757 0.079534 0.000000
0.143627 0.079534 0.000000
0.158640 0.079534 0.000000
0.178677 0.079534 0.000000
0.193689 0.079534 0.000000
0.213725 0.079534 0.000000
0.235110 0.079534 0.000000
0.257476 0.080944 0.000000
0.279841 0.080944 0.000000
0.302206 0.080944 0.000000
0.324877 0.080944 0.000000
0.346936 0.080944 0.000000
0.369302 0.080944 0.000000
0.393137 0.080944 0.000000
0.417954 0.080944 0.000000
0.440319 0.083456 0.000000
0.465318 0.083456 0.000000
0.488971 0.083456 0.000000
0.515257 0.083456 0.000000
0.537623 0.083456 0.000000
0.559988 0.083456 0.000000
0.579841 0.083456 0.000000
0.601838 0.084866 0.000000
0.624570 0.084866 0.000000
0.641606 0.084866 0.000000
0.662255 0.084866 0.000000
0.683824 0.084866 0.000000
0.701226 0.084866 0.000000
0.722672 0.084866 0.000000
0.744117 0.084866 0.000000
0.761520 0.087377 0.000000
0.783089 0.087377 0.000000
0.804535 0.087377 0.000000
0.823285 0.087377 0.000000
0.843505 0.087377 0.000000
0.861029 0.087377 0.000000
0.882476 0.084926 0.000000
0.900000 0.088787 0.000000
0.916912 0.088787 0.000000
0.936458 0.088787 0.000000
0.953983 0.088787 0.000000
0.970098 0.088787 0.000000
0.987623 0.088787 0.000000
0.998652 0.088787 0.000000
1.000000 0.088787 0.000000
1.000000 0.088787 0.000000
1.000000 0.088787 0.000000
1.000000 0.088787 0.000000
1.000000 0.088787 0.000000
1.000000 0.091299 0.000000
1.000000 0.091299 0.000000
1.000000 0.091299 0.000000
1.000000 0.091299 0.000000
1.000000 0.091299 0.000000
0.023039 0.089706 0.000000
0.028370 0.089706 0.000000
0.038726 0.089706 0.000000
0.041973 0.089706 0.000000
0.050735 0.089706 0.000000
0.059498 0.089706 0.000000
0.068260 0.089706 0.000000
0.077022 0.089706 0.000000
0.089216 0.089706 0.000000
0.098897 0.089706 0.000000
0.112500 0.093138 0.000000
0.126103 0.093138 0.000000
0.140196 0.093138 0.000000
0.157231 0.093138 0.000000
0.174755 0.093138 0.000000
0.192279 0.093138 0.000000
0.213725 0.093138 0.000000
0.235110 0.093138 0.000000
0.254044 0.093138 0.000000
0.279841 0.091483 0.000000
0.302206 0.093628 0.000000
0.324877 0.093628 0.000000
0.346936 0.093628 0.000000
0.369302 0.093628 0.000000
0.391666 0.093628 0.000000
0.414522 0.093628 0.000000
0.440319 0.093628 0.000000
0.465318 0.097059 0.000000
0.488971 0.097059 0.000000
0.511826 0.097059 0.000000
0.537500 0.097059 0.000000
0.558946 0.097059 0.000000
0.580392 0.097059 0.000000
0.601838 0.097059 0.000000
0.623161 0.097059 0.000000
0.640809 0.097059 0.000000
0.662255 0.097549 0.000000
0.678983 0.097549 0.000000
0.701226 0.097549 0.000000
0.722672 0.097549 0.000000
0.741667 0.097549 0.000000
0.761642 0.097549 0.000000
0.783089 0.097549 0.000000
0.804535 0.097549 0.000000
0.822059 0.097549 0.000000
0.843505 0.100981 0.000000
0.861029 0.100981 0.000000
0.882476 0.100981 0.000000
0.900000 0.100981 0.000000
0.917524 0.100981 0.000000
0.935049 0.102083 0.000000
0.952573 0.100981 0.000000
0.970098 0.101471 0.000000
0.985968 0.101471 0.000000
0.998652 0.101471 0.000000
1.000000 0.101471 0.000000
1.000000 0.101471 0.000000
1.000000 0.101471 0.000000
1.000000 0.101471 0.000000
1.000000 0.101471 0.000000
1.000000 0.101471 0.000000
1.000000 0.101471 0.000000
1.000000 0.101471 0.000000
1.000000 0.104902 0.000000
1.000000 0.101471 0.000000
0.027880 0.102390 0.003922
0.036213 0.102390 0.003922
0.041483 0.102390 0.003922
0.049816 0.102390 0.003922
0.055086 0.102390 0.003922
0.063419 0.102390 0.000429
0.072181 0.102390 0.000429
0.080944 0.102390 0.000429
0.089706 0.102390 0.000429
0.098897 0.102390 0.000429
0.111152 0.102390 0.000429
0.123836 0.102390 0.000429
0.139705 0.102390 0.000429
0.157231 0.102819 0.000429
0.174755 0.102819 0.000429
0.192279 0.102819 0.003922
0.213725 0.102819 0.003922
0.231678 0.102819 0.003922
0.257476 0.102819 0.003922
0.279841 0.102819 0.003922
0.302206 0.106311 0.003922
0.324877 0.106311 0.003922
0.346936 0.106311 0.003922
0.369302 0.106311 0.003922
0.391667 0.106311 0.000429
0.417954 0.106311 0.000429
0.440319 0.106311 0.003922
0.465318 0.106311 0.003922
0.488971 0.106311 0.003922
0.512133 0.106311 0.003922
0.537500 0.106311 0.003922
0.558946 0.106740 0.003922
0.580392 0.106740 0.003922
0.600797 0.106740 0.003922
0.619363 0.106740 0.003922
0.640809 0.106740 0.003922
0.660049 0.106740 0.003922
0.679780 0.110233 0.003922
0.700858 0.110233 0.003922
0.719301 0.110233 0.003922
0.740196 0.110233 0.003922
0.761642 0.110233 0.003922
0.782476 0.110233 0.003922
0.800490 0.110233 0.003922
0.822059 0.110233 0.003922
0.839583 0.110233 0.003922
0.861029 0.110233 0.003922
0.878186 0.110662 0.003922
0.900000 0.110662 0.003922
0.917524 0.110662 0.003922
0.935049 0.110662 0.003922
0.952573 0.110662 0.003922
0.969362 0.110662 0.003922
0.983701 0.114154 0.003922
0.998652 0.114154 0.003922
1.000000 0.114154 0.003922
1.000000 0.114154 0.003922
1.000000 0.114154 0.003922
1.000000 0.114154 0.003922
1.000000 0.114154 0.003922
1.000000 0.114154 0.003922
1.000000 0.114154 0.003922
1.000000 0.114154 0.003922
1.000000 0.114154 0.003922
1.000000 0.114154 0.003922
0.035294 0.115073 0.003922
0.040135 0.115073 0.003922
0.046323 0.115073 0.003922
0.052328 0.115073 0.003922
0.059926 0.115073 0.003922
0.067341 0.115073 0.003922
0.076103 0.115073 0.003922
0.084866 0.115073 0.003922
0.093628 0.115073 0.003922
0.102390 0.115073 0.003922
0.111152 0.115073 0.003922
0.123836 0.115073 0.003922
0.139705 0.115073 0.003922
0.157231 0.115073 0.003922
0.174755 0.115073 0.003922
0.192279 0.115073 0.003922
0.213725 0.115073 0.003922
0.235171 0.115073 0.003922
0.257476 0.115073 0.003922
0.279841 0.116850 0.003922
0.300858 0.116421 0.003922
0.324877 0.116421 0.003922
0.346936 0.116421 0.003922
0.369302 0.116421 0.003922
0.390564 0.116421 0.003922
0.417954 0.116421 0.003922
0.440319 0.118995 0.003922
0.465318 0.118995 0.003922
0.488971 0.118995 0.003922
0.512133 0.118995 0.003922
0.537500 0.118995 0.003922
0.558946 0.118995 0.003922
0.580392 0.118995 0.003922
0.600797 0.118995 0.003922
0.619363 0.118995 0.003922
0.640809 0.118995 0.003922
0.658333 0.120711 0.003922
0.679780 0.120343 0.003922
0.697304 0.120343 0.003922
0.719301 0.120343 0.003922
0.740196 0.120343 0.003922
0.762684 0.120343 0.003922
0.779167 0.122917 0.003922
0.800613 0.122917 0.003922
0.822059 0.122917 0.003922
0.839583 0.122917 0.003922
0.862745 0.122917 0.003922
0.878554 0.122917 0.005270
0.896079 0.122917 0.003922
0.916176 0.122917 0.003922
0.933701 0.122917 0.003922
0.951226 0.122917 0.003922
0.966177 0.124265 0.003922
0.983701 0.124265 0.003922
0.997303 0.124265 0.003922
1.000000 0.124265 0.005270
1.000000 0.124265 0.003922
1.000000 0.124265 0.005331
1.000000 0.124265 0.002942
1.000000 0.124265 0.003922
1.000000 0.123162 0.003922
1.000000 0.126838 0.003922
1.000000 0.126838 0.003922
1.000000 0.126838 0.003922
1.000000 0.124265 0.005270
0.041483 0.126103 0.006189
0.046323 0.126103 0.006189
0.053247 0.126103 0.006189
0.057169 0.127757 0.006189
0.064768 0.127757 0.006189
0.071262 0.127757 0.006189
0.078370 0.127757 0.006189
0.087132 0.127757 0.003677
0.092463 0.127757 0.003922
0.102390 0.127757 0.003922
0.112500 0.127757 0.003922
0.123836 0.127757 0.003922
0.139705 0.127757 0.003922
0.157231 0.127757 0.003922
0.174755 0.127757 0.003922
0.192279 0.127757 0.003922
0.213725 0.127757 0.006189
0.235171 0.127757 0.006189
0.257476 0.130024 0.006189
0.279841 0.130024 0.006189
0.303860 0.130024 0.006189
0.324877 0.130024 0.006189
0.346936 0.130024 0.006189
0.369302 0.130024 0.006189
0.393321 0.130024 0.006189
0.417954 0.130024 0.006189
0.440319 0.130024 0.006189
0.465318 0.131679 0.005209
0.488971 0.131679 0.007904
0.512133 0.131679 0.007843
0.537500 0.131679 0.007843
0.558946 0.131679 0.009068
0.578431 0.131679 0.006189
0.597917 0.131679 0.006189
0.619363 0.131679 0.006189
0.640809 0.131679 0.006189
0.658333 0.133946 0.007843
0.680147 0.133946 0.007843
0.697304 0.133946 0.006189
0.718750 0.133946 0.006189
0.740196 0.133946 0.005392
0.760110 0.133946 0.007843
0.779167 0.133946 0.007843
0.800613 0.133946 0.006189
0.817095 0.132905 0.006189
0.839583 0.135600 0.006066
0.857108 0.135600 0.007843
0.878554 0.135600 0.007843
0.896079 0.135600 0.007843
0.913603 0.135600 0.007843
0.931127 0.135600 0.007843
0.948652 0.135600 0.007843
0.966177 0.137867 0.007843
0.981434 0.137867 0.007843
0.994730 0.137867 0.007843
1.000000 0.137867 0.007843
1.000000 0.137867 0.007843
1.000000 0.137867 0.007843
1.000000 0.137867 0.007843
1.000000 0.137867 0.007843
1.000000 0.137867 0.007843
1.000000 0.137867 0.007843
1.000000 0.137867 0.007843
1.000000 0.139522 0.007843
1.000000 0.137867 0.007843
0.046324 0.143627 0.007843
0.054167 0.143627 0.007843
0.056740 0.143627 0.007843
0.061581 0.143627 0.007843
0.069608 0.143627 0.007843
0.077696 0.143627 0.007843
0.080024 0.143627 0.007843
0.088787 0.143627 0.007843
0.097549 0.143627 0.007843
0.106311 0.143627 0.007843
0.115073 0.143627 0.007843
0.126103 0.143627 0.007843
0.139705 0.143627 0.007843
0.154044 0.143627 0.007843
0.171569 0.143627 0.007843
0.192279 0.143627 0.007843
0.213725 0.143627 0.007843
0.235171 0.143627 0.007843
0.257476 0.143627 0.007843
0.279841 0.143627 0.007843
0.302206 0.143627 0.007843
0.324571 0.143627 0.007843
0.346936 0.144363 0.007843
0.369302 0.144363 0.007843
0.391667 0.144363 0.007843
0.417954 0.144363 0.007843
0.440319 0.147549 0.007843
0.465318 0.147549 0.007843
0.488971 0.147549 0.007843
0.512133 0.147549 0.007843
0.533701 0.147549 0.007843
0.556066 0.147549 0.007843
0.575245 0.147549 0.007843
0.597917 0.147549 0.007843
0.619976 0.147549 0.007843
0.634497 0.147549 0.007843
0.658333 0.147549 0.007843
0.675306 0.147549 0.007843
0.697304 0.148285 0.007843
0.718750 0.148285 0.007843
0.737745 0.148285 0.007843
0.757720 0.148285 0.007843
0.779289 0.148285 0.007843
0.796997 0.148285 0.007843
0.818137 0.151470 0.007843
0.834621 0.151470 0.007843
0.857108 0.151470 0.007843
0.871507 0.151470 0.007843
0.896079 0.151470 0.007843
0.913603 0.151470 0.007843
0.931127 0.151470 0.007843
0.948652 0.151470 0.007843
0.965441 0.151470 0.007843
0.979780 0.151470 0.007843
0.994730 0.151470 0.007843
1.000000 0.151470 0.007843
1.000000 0.151470 0.007843
1.000000 0.151470 0.007843
1.000000 0.152206 0.007843
1.000000 0.152206 0.007843
1.000000 0.152206 0.007843
1.000000 0.152206 0.007843
1.000000 0.152206 0.007843
1.000000 0.155392 0.007843
1.000000 0.152206 0.007843
0.054902 0.157231 0.007843
0.059743 0.157231 0.007843
0.064583 0.157231 0.007843
0.069424 0.157231 0.007843
0.070772 0.157231 0.007843
0.079105 0.157231 0.007843
0.084130 0.157231 0.007843
0.092709 0.157231 0.007843
0.101471 0.157231 0.007843
0.110233 0.157231 0.007843
0.118995 0.157231 0.007843
0.127941 0.157231 0.007843
0.143627 0.157231 0.007843
0.153309 0.157231 0.007843
0.170833 0.157231 0.007843
0.190380 0.157231 0.007843
0.212745 0.157231 0.007843
0.235110 0.157231 0.007843
0.256618 0.160968 0.007843
0.279841 0.160968 0.007843
0.302206 0.160968 0.007843
0.324571 0.164583 0.007843
0.346323 0.161152 0.007843
0.369302 0.161152 0.007843
0.391667 0.161152 0.007843
0.414583 0.161152 0.007843
0.440319 0.161152 0.007843
0.462684 0.161152 0.007843
0.488971 0.161152 0.007843
0.511336 0.161152 0.007843
0.533517 0.161152 0.008027
0.555024 0.161152 0.008027
0.576470 0.161152 0.007843
0.600613 0.161152 0.007843
0.615441 0.161152 0.007843
0.636887 0.161152 0.007843
0.654412 0.164890 0.009559
0.675858 0.167525 0.008027
0.693383 0.165074 0.004473
