Color/Fuji/Fuji Provia 400X 65x.cube
TITLE "Fuji Provia 400X"
LUT_3D_SIZE 9
DOMAIN_MIN 0.000000 0.000000 0.000000
DOMAIN_MAX 1.000000 1.000000 1.000000
0.000000 0.000000 0.000000
0.140196 0.000000 0.000000
0.272549 0.000000 0.000000
0.412745 0.000000 0.000000
0.578431 0.000000 0.000000
0.740196 0.000000 0.000000
0.868628 0.000000 0.000000
0.984804 0.000000 0.000000
1.000000 0.000000 0.000000
0.054412 0.140196 0.023039
0.132843 0.132843 0.019118
0.264706 0.128432 0.019118
0.412745 0.118137 0.019118
0.584313 0.104902 0.015196
0.753432 0.089216 0.007843
0.890687 0.072549 0.003922
1.000000 0.049509 0.003922
1.000000 0.019118 0.003922
0.089216 0.260784 0.074510
0.129902 0.256863 0.074510
0.256863 0.252941 0.073529
0.411274 0.245098 0.073529
0.586275 0.233333 0.067647
0.757353 0.218628 0.054902
0.896079 0.204903 0.041177
1.000000 0.182353 0.018137
1.000000 0.150980 0.011765
0.000000 0.404902 0.116176
0.094608 0.404902 0.116176
0.245588 0.400980 0.113725
0.412745 0.395588 0.113725
0.600000 0.385294 0.108333
0.771568 0.375980 0.098039
0.907843 0.361765 0.082353
1.000000 0.348039 0.054902
1.000000 0.318628 0.029902
0.000000 0.549019 0.133333
0.018627 0.549019 0.133333
0.210785 0.545098 0.133333
0.411274 0.541176 0.129412
0.613726 0.537254 0.125490
0.783333 0.529411 0.117647
0.923530 0.521568 0.105882
1.000000 0.515196 0.082353
1.000000 0.498039 0.050980
0.000000 0.664216 0.127941
0.003432 0.664216 0.127941
0.186765 0.661765 0.127941
0.423039 0.657843 0.125490
0.629412 0.653922 0.121569
0.796569 0.648529 0.113725
0.939216 0.644608 0.104902
1.000000 0.636765 0.085785
1.000000 0.628922 0.057353
0.000000 0.765686 0.097059
0.000000 0.765686 0.097059
0.187255 0.762745 0.097059
0.449020 0.761764 0.097059
0.652942 0.757843 0.093137
0.815686 0.753921 0.089216
0.959804 0.750000 0.077451
1.000000 0.743137 0.062255
1.000000 0.735294 0.050980
0.000000 0.875000 0.018628
0.000000 0.871568 0.018628
0.158333 0.871568 0.019118
0.456373 0.867647 0.022549
0.668628 0.867157 0.023039
0.842157 0.863235 0.021568
0.989706 0.859804 0.018137
1.000000 0.855392 0.015686
1.000000 0.848039 0.023039
0.000000 1.000000 0.000000
0.000000 1.000000 0.000000
0.000000 1.000000 0.000000
0.077451 1.000000 0.000000
0.545098 1.000000 0.000000
0.784804 1.000000 0.000000
0.963725 1.000000 0.000000
1.000000 1.000000 0.000000
1.000000 1.000000 0.000000
0.000000 0.000000 0.074020
0.116667 0.000000 0.073530
0.245098 0.000000 0.073530
0.389216 0.000000 0.070098
0.554902 0.000000 0.066177
0.712745 0.000000 0.054412
0.845098 0.000000 0.038726
0.970098 0.000000 0.019118
1.000000 0.000000 0.000000
0.030883 0.113235 0.109314
0.109314 0.109314 0.109314
0.241176 0.101471 0.108824
0.388235 0.093628 0.105392
0.556863 0.081373 0.100981
0.720588 0.066177 0.089216
0.852941 0.046569 0.072549
0.977451 0.026961 0.045588
1.000000 0.007353 0.007843
0.074020 0.245098 0.140686
0.121569 0.241667 0.140686
0.241176 0.237255 0.140686
0.393137 0.229412 0.139705
0.568137 0.218627 0.132843
0.732353 0.205882 0.122549
0.868628 0.190196 0.105392
0.992647 0.167157 0.077941
1.000000 0.135294 0.033823
0.000000 0.397059 0.167157
0.065687 0.396078 0.167157
0.226471 0.392647 0.167157
0.399510 0.385294 0.164216
0.583333 0.377451 0.159314
0.750981 0.365686 0.148530
0.888236 0.353922 0.132843
1.000000 0.336274 0.109314
1.000000 0.309314 0.068627
0.000000 0.545098 0.179902
0.000000 0.545098 0.179902
0.187255 0.541176 0.179902
0.396078 0.537254 0.175981
0.598040 0.533334 0.172059
0.763725 0.525490 0.160294
0.903922 0.517648 0.147549
1.000000 0.507843 0.125000
1.000000 0.492157 0.089706
0.000000 0.661765 0.187255
0.000000 0.661765 0.187255
0.156863 0.660294 0.183824
0.405392 0.656373 0.180882
0.613235 0.652451 0.175490
0.777451 0.646568 0.160294
0.919608 0.642157 0.140686
1.000000 0.634314 0.121079
1.000000 0.625000 0.086275
0.000000 0.765686 0.171078
0.000000 0.762745 0.171078
0.147549 0.761764 0.168137
0.428432 0.758824 0.164216
0.632353 0.754902 0.156373
0.796569 0.750981 0.142647
0.939216 0.747059 0.114706
1.000000 0.742647 0.092647
1.000000 0.735294 0.062255
0.000000 0.871568 0.091177
0.000000 0.871568 0.088235
0.122549 0.871078 0.087255
0.434314 0.867647 0.079412
0.647058 0.863725 0.065686
0.819117 0.862255 0.038236
0.970588 0.859314 0.030883
1.000000 0.855392 0.023039
1.000000 0.848039 0.023039
0.000000 1.000000 0.000000
0.000000 1.000000 0.000000
0.000000 1.000000 0.000000
0.128431 1.000000 0.000000
0.560784 1.000000 0.000000
0.792647 1.000000 0.000000
0.967647 1.000000 0.000000
1.000000 1.000000 0.000000
1.000000 1.000000 0.000000
0.000000 0.000000 0.159804
0.097059 0.000000 0.155883
0.222549 0.000000 0.155883
0.369608 0.000000 0.155882
0.529411 0.000000 0.151961
0.682353 0.000000 0.140196
0.812745 0.000000 0.124510
0.938235 0.000000 0.099510
1.000000 0.000000 0.057844
0.015196 0.094118 0.190686
0.089706 0.089216 0.190686
0.218627 0.081373 0.187255
0.365686 0.073530 0.186764
0.529411 0.061765 0.182843
0.686275 0.044608 0.171078
0.816667 0.027451 0.155392
0.939216 0.011275 0.127451
1.000000 0.000000 0.080882
0.061765 0.226470 0.218627
0.113725 0.225490 0.218627
0.218627 0.218627 0.218627
0.373529 0.210785 0.217647
0.543138 0.201961 0.213725
0.700980 0.186274 0.202942
0.832353 0.170588 0.187255
0.957353 0.147059 0.162255
1.000000 0.115686 0.119608
0.001961 0.381373 0.250000
0.019608 0.381373 0.250000
0.201961 0.377451 0.250000
0.376961 0.373039 0.249019
0.558824 0.361765 0.245098
0.716667 0.350000 0.236765
0.849020 0.337745 0.221078
0.976961 0.318628 0.197059
1.000000 0.290687 0.154902
0.000000 0.537254 0.273529
0.000000 0.537254 0.273529
0.150000 0.533334 0.273529
0.369118 0.529411 0.272549
0.567647 0.525490 0.268627
0.728431 0.517648 0.260784
0.864706 0.509804 0.245098
0.995098 0.498040 0.220098
1.000000 0.482353 0.174510
0.000000 0.656373 0.286765
0.000000 0.656373 0.285295
0.110784 0.653922 0.285295
0.372059 0.650980 0.284314
0.577941 0.646078 0.280392
0.738725 0.642157 0.271079
0.876471 0.636765 0.255883
1.000000 0.629902 0.228922
1.000000 0.618627 0.174510
0.000000 0.761764 0.284314
0.000000 0.758824 0.284314
0.081373 0.757843 0.284314
0.387745 0.754902 0.281373
0.591176 0.750981 0.276470
0.751961 0.747059 0.268627
0.893137 0.743137 0.251961
1.000000 0.738235 0.221078
1.000000 0.731373 0.156863
0.000000 0.871078 0.252451
0.000000 0.867647 0.252451
0.001961 0.867647 0.252451
0.376961 0.863725 0.248529
0.595098 0.863235 0.243627
0.767647 0.859314 0.232843
0.917157 0.855882 0.211275
1.000000 0.851961 0.168137
1.000000 0.845098 0.063236
0.000000 1.000000 0.034314
0.000000 1.000000 0.030392
0.000000 1.000000 0.027451
0.103921 1.000000 0.020588
0.550000 1.000000 0.006863
0.786765 1.000000 0.000000
0.972549 1.000000 0.000000
1.000000 1.000000 0.000000
1.000000 1.000000 0.000000
0.000000 0.000000 0.241667
0.075000 0.000000 0.241667
0.201961 0.000000 0.241667
0.346078 0.000000 0.241667
0.503431 0.000000 0.237745
0.650000 0.000000 0.229902
0.775980 0.000000 0.218137
0.898529 0.000000 0.194608
1.000000 0.000000 0.159314
0.003922 0.069608 0.276470
0.069608 0.063235 0.276470
0.194117 0.055392 0.276470
0.338235 0.047549 0.276470
0.498039 0.034804 0.272549
0.647549 0.020098 0.263726
0.772059 0.008823 0.249019
0.892647 0.000000 0.225490
1.000000 0.000000 0.185294
0.051960 0.203432 0.311275
0.105392 0.199510 0.311275
0.195098 0.195098 0.312255
0.350000 0.186274 0.311275
0.510294 0.175000 0.307353
0.661765 0.160294 0.301470
0.786765 0.143137 0.287745
0.907353 0.119118 0.264216
1.000000 0.081863 0.225000
0.012255 0.361765 0.350000
0.034314 0.361765 0.350000
0.171079 0.357843 0.350000
0.350000 0.350000 0.350000
0.525000 0.342157 0.346079
0.675000 0.330392 0.342157
0.801961 0.314706 0.327941
0.925980 0.295098 0.306863
1.000000 0.263726 0.270098
0.000000 0.525490 0.381373
0.000000 0.525490 0.383333
0.082843 0.521568 0.384804
0.334804 0.517648 0.384804
0.526961 0.511275 0.381373
0.682843 0.505392 0.376961
0.811275 0.494117 0.365686
0.941176 0.483823 0.346079
1.000000 0.466176 0.308824
0.000000 0.648529 0.407843
0.000000 0.648529 0.408824
0.021569 0.646078 0.408824
0.325000 0.642157 0.408824
0.528921 0.638235 0.404902
0.682843 0.632843 0.400980
0.816667 0.627941 0.389706
0.951471 0.620098 0.370588
1.000000 0.609314 0.332843
0.000000 0.753922 0.424510
0.000000 0.753922 0.424510
0.013725 0.750981 0.424510
0.322549 0.748530 0.424510
0.528921 0.746079 0.420588
0.686765 0.742156 0.416667
0.823039 0.736764 0.404902
0.967157 0.731373 0.384804
1.000000 0.723530 0.340686
0.000000 0.863725 0.414706
0.000000 0.863725 0.414706
0.000000 0.863235 0.414706
0.281373 0.859804 0.412745
0.518628 0.855882 0.410784
0.690686 0.855392 0.404412
0.839216 0.851470 0.390686
0.994117 0.847549 0.365196
1.000000 0.840196 0.308334
0.000000 1.000000 0.288235
0.000000 1.000000 0.285784
0.000000 1.000000 0.285784
0.000000 1.000000 0.281863
0.440196 1.000000 0.274019
0.693628 1.000000 0.262255
0.884314 1.000000 0.236274
1.000000 1.000000 0.181863
1.000000 1.000000 0.044608
0.000000 0.000000 0.331372
0.053922 0.000000 0.335294
0.180392 0.000000 0.335294
0.324510 0.000000 0.337255
0.472549 0.000000 0.335294
0.610784 0.000000 0.331372
0.730392 0.000000 0.321569
0.850000 0.000000 0.305392
0.988235 0.000000 0.274509
0.000000 0.034804 0.366667
0.050000 0.030883 0.368627
0.170588 0.023039 0.370098
0.314706 0.015196 0.370098
0.462746 0.009314 0.368627
0.601471 0.003922 0.362745
0.720098 0.000000 0.354412
0.834314 0.000000 0.336274
0.966666 0.000000 0.305883
0.042157 0.168627 0.404902
0.086765 0.166666 0.407844
0.178431 0.160784 0.408824
0.326471 0.150980 0.408824
0.478432 0.137255 0.408824
0.616667 0.122059 0.403922
0.733333 0.102941 0.396079
0.847549 0.075980 0.380392
0.977451 0.039216 0.351961
0.031373 0.330882 0.447549
0.050490 0.330392 0.449020
0.159313 0.326471 0.450981
0.330392 0.318628 0.451471
0.490197 0.307353 0.451471
0.630392 0.295588 0.447549
0.749020 0.279412 0.443137
0.865686 0.256373 0.427941
0.996078 0.224510 0.402451
0.000000 0.505883 0.490197
0.000000 0.505883 0.490197
0.049020 0.501961 0.490197
0.311275 0.498039 0.492157
0.492157 0.490197 0.490197
0.636275 0.482353 0.490196
0.757843 0.474510 0.485294
0.881373 0.462746 0.474509
1.000000 0.439215 0.450981
0.000000 0.636765 0.519608
0.000000 0.636275 0.519608
0.000000 0.634314 0.521078
0.293627 0.630392 0.521568
0.486274 0.626470 0.521078
0.632843 0.621078 0.519608
0.760784 0.614706 0.513726
0.889216 0.606863 0.505883
1.000000 0.595098 0.482353
0.000000 0.746079 0.540196
0.000000 0.745098 0.541176
0.000000 0.742156 0.541176
0.275490 0.739216 0.541176
0.478432 0.737255 0.541176
0.630392 0.733333 0.540196
0.764706 0.727451 0.535294
0.900980 0.722549 0.525490
1.000000 0.714706 0.501961
0.000000 0.859314 0.548529
0.000000 0.859314 0.549019
0.000000 0.855882 0.549019
0.191667 0.855392 0.549019
0.450490 0.851961 0.549019
0.620588 0.848039 0.547059
0.764706 0.844117 0.541176
0.916667 0.840196 0.528921
1.000000 0.834314 0.498040
0.000000 1.000000 0.494117
0.000000 1.000000 0.494117
0.000000 1.000000 0.494117
0.000000 1.000000 0.492157
0.270588 1.000000 0.490197
0.569117 1.000000 0.484313
0.767647 1.000000 0.471569
0.956373 1.000000 0.444608
1.000000 1.000000 0.368627
0.000000 0.000000 0.417157
0.046079 0.000000 0.421078
0.170588 0.000000 0.425000
0.310785 0.000000 0.427451
0.447059 0.000000 0.428922
0.577941 0.000000 0.426470
0.690686 0.000000 0.422549
0.803432 0.000000 0.414216
0.931863 0.000000 0.395098
0.000000 0.003922 0.448529
0.046079 0.001961 0.451961
0.159313 0.000000 0.452451
0.295098 0.000000 0.455883
0.433333 0.000000 0.455883
0.561765 0.000000 0.451961
0.671078 0.000000 0.448039
0.784804 0.000000 0.440686
0.913725 0.000000 0.426470
0.034314 0.118137 0.487745
0.077941 0.115686 0.487745
0.182353 0.110294 0.490687
0.314706 0.098530 0.491667
0.452451 0.082843 0.491667
0.577941 0.067157 0.490687
0.687255 0.046568 0.484314
0.795588 0.021078 0.475980
0.916176 0.002942 0.459314
0.063236 0.288235 0.529412
0.098039 0.284314 0.529412
0.185294 0.280392 0.530882
0.330392 0.272549 0.533333
0.474510 0.260784 0.533333
0.599020 0.246568 0.530882
0.708823 0.229412 0.527451
0.819118 0.205882 0.521079
0.943627 0.170588 0.505882
0.000000 0.478922 0.570098
0.013725 0.478922 0.570098
0.120098 0.475000 0.572059
0.318628 0.471079 0.574020
0.478431 0.463236 0.574020
0.609314 0.455392 0.574020
0.722549 0.443628 0.572059
0.840196 0.428921 0.566176
0.972549 0.404412 0.552451
0.000000 0.621078 0.601471
0.000000 0.621078 0.601471
0.028921 0.618627 0.602941
0.301470 0.614706 0.605392
0.470589 0.610784 0.605392
0.605392 0.605392 0.605392
0.725980 0.599019 0.602941
0.850490 0.590686 0.599019
0.990686 0.577941 0.587255
0.000000 0.734314 0.625000
0.000000 0.734314 0.625980
0.000981 0.731373 0.626470
0.276961 0.729902 0.628922
0.458823 0.726470 0.628922
0.599019 0.722549 0.628922
0.725980 0.718628 0.628922
0.858334 0.711765 0.622549
1.000000 0.702941 0.610784
0.000000 0.851961 0.642157
0.000000 0.851470 0.644118
0.000000 0.848039 0.644608
0.176961 0.848039 0.644608
0.419117 0.844117 0.645098
0.578922 0.842647 0.645098
0.722059 0.838726 0.644608
0.866667 0.832353 0.638235
1.000000 0.826961 0.625000
0.000000 1.000000 0.628922
0.000000 1.000000 0.628922
0.000000 1.000000 0.630392
0.000000 1.000000 0.630392
0.110294 1.000000 0.630392
0.478922 1.000000 0.630392
0.679902 1.000000 0.626470
0.866667 1.000000 0.618137
1.000000 1.000000 0.587255
0.000000 0.000000 0.495098
0.059314 0.000000 0.499019
0.180392 0.000000 0.501961
0.310785 0.000000 0.502941
0.435295 0.000000 0.506862
0.554412 0.000000 0.506863
0.659804 0.000000 0.502941
0.768627 0.000000 0.499510
0.893138 0.000000 0.491177
0.000000 0.000000 0.514706
0.053922 0.000000 0.518137
0.166666 0.000000 0.518628
0.295098 0.000000 0.522549
0.421569 0.000000 0.525980
0.539216 0.000000 0.526471
0.644117 0.000000 0.525980
0.753431 0.000000 0.522549
0.877451 0.000000 0.514706
0.045098 0.051961 0.549020
0.098529 0.048039 0.550000
0.200981 0.040196 0.551961
0.319118 0.029412 0.552941
0.439215 0.018627 0.553921
0.552451 0.009804 0.552941
0.651960 0.001961 0.550000
0.755882 0.000000 0.544608
0.870588 0.000000 0.533333
0.104412 0.227451 0.589215
0.141666 0.225981 0.590686
0.229412 0.219608 0.591666
0.346078 0.210294 0.593137
0.466667 0.198530 0.594608
0.579412 0.182843 0.593137
0.679412 0.166176 0.591666
0.784804 0.139215 0.586765
0.901961 0.096569 0.575981
0.036275 0.441176 0.634314
0.091667 0.440196 0.634314
0.202941 0.436275 0.636275
0.346078 0.432353 0.638235
0.478432 0.424510 0.638235
0.594118 0.412745 0.638235
0.700000 0.400980 0.638235
0.812255 0.381373 0.634314
0.937255 0.351961 0.625490
0.000000 0.599019 0.669118
0.022549 0.599019 0.669118
0.141667 0.597549 0.671569
0.331372 0.594118 0.673039
0.470588 0.589706 0.673039
0.591176 0.583333 0.675490
0.703922 0.575490 0.675490
0.824019 0.566667 0.671568
0.959804 0.550981 0.665196
0.000000 0.719608 0.699019
0.000000 0.718628 0.699019
0.077451 0.718628 0.699019
0.305392 0.714706 0.700000
0.457843 0.711765 0.702941
0.583333 0.707843 0.702941
0.702941 0.702941 0.702941
0.831373 0.696079 0.700000
0.976471 0.687255 0.695098
0.000000 0.840196 0.722549
0.000000 0.840196 0.722549
0.000000 0.840196 0.722549
0.216176 0.836274 0.723530
0.412745 0.835784 0.726471
0.559314 0.832353 0.726470
0.692157 0.828431 0.726961
0.835294 0.824510 0.726471
1.000000 0.816666 0.718627
0.000000 1.000000 0.727451
0.000000 1.000000 0.727451
0.000000 1.000000 0.730392
0.000000 1.000000 0.730392
0.064706 1.000000 0.731373
0.431863 1.000000 0.734314
0.629412 1.000000 0.731373
0.813236 1.000000 0.730392
1.000000 1.000000 0.714706
0.000000 0.000000 0.557353
0.093628 0.000000 0.561274
0.207353 0.000000 0.565196
0.322549 0.000000 0.569117
0.433824 0.000000 0.569117
0.542647 0.000000 0.572549
0.640196 0.000000 0.572549
0.745588 0.000000 0.569117
0.866177 0.000000 0.565196
0.016176 0.000000 0.576961
0.097059 0.000000 0.580882
0.198530 0.000000 0.584314
0.310785 0.000000 0.584804
0.420588 0.000000 0.588725
0.530882 0.000000 0.591667
0.628432 0.000000 0.592157
0.733823 0.000000 0.588725
0.850980 0.000000 0.584804
0.089706 0.000000 0.600490
0.135784 0.000000 0.602942
0.221568 0.000000 0.603432
0.323039 0.000000 0.604412
0.425490 0.000000 0.606863
0.526961 0.000000 0.606863
0.624509 0.000000 0.608333
0.726470 0.000000 0.607353
0.846569 0.000000 0.604412
0.155882 0.144118 0.642157
0.194607 0.141667 0.643627
0.270098 0.135784 0.645588
0.361765 0.124020 0.646078
0.462746 0.108823 0.647549
0.560294 0.091667 0.646078
0.651960 0.068627 0.645588
0.749510 0.037745 0.641667
0.860785 0.006373 0.633824
0.153921 0.379412 0.692647
0.198529 0.377941 0.692647
0.282843 0.374019 0.694608
0.381373 0.366176 0.696078
0.488236 0.355883 0.696569
0.585784 0.342647 0.696569
0.683334 0.325000 0.696569
0.785294 0.300981 0.692647
0.903431 0.265687 0.686765
0.099510 0.567157 0.734804
0.144117 0.567157 0.735294
0.247059 0.563235 0.735294
0.369608 0.559314 0.737745
0.482353 0.555392 0.739216
0.587255 0.547549 0.741666
0.691176 0.539706 0.741666
0.801961 0.527941 0.741666
0.930392 0.508333 0.735294
0.003922 0.699019 0.769117
0.037255 0.696079 0.769117
0.209804 0.695588 0.770098
0.346079 0.692157 0.773039
0.466667 0.691176 0.775000
0.577941 0.684314 0.774020
0.688236 0.679902 0.776961
0.808823 0.672549 0.776961
0.949510 0.660785 0.773039
0.000000 0.824510 0.800490
0.000000 0.824510 0.800490
0.081863 0.824509 0.800980
0.275000 0.824019 0.804412
0.423039 0.820588 0.804902
0.551471 0.816666 0.808333
0.675980 0.812745 0.808823
0.808823 0.808823 0.808823
0.976471 0.800490 0.804902
0.000000 1.000000 0.824019
0.000000 1.000000 0.824019
0.000000 1.000000 0.824019
0.000000 1.000000 0.827941
0.071079 1.000000 0.828431
0.400490 1.000000 0.831863
0.594118 1.000000 0.832353
0.773529 1.000000 0.832353
1.000000 1.000000 0.824510
0.000000 0.000000 0.619608
0.144118 0.000000 0.623529
0.242157 0.000000 0.627451
0.339706 0.000000 0.629902
0.437255 0.000000 0.631373
0.534804 0.000000 0.635294
0.625490 0.000000 0.635294
0.726470 0.000000 0.635294
0.843137 0.000000 0.631373
0.077941 0.000000 0.642647
0.151961 0.000000 0.643137
0.241176 0.000000 0.647059
0.334314 0.000000 0.650490
0.429412 0.000000 0.650980
0.523039 0.000000 0.654902
0.616667 0.000000 0.654902
0.714706 0.000000 0.658334
0.827941 0.000000 0.654902
0.144118 0.000000 0.658824
0.183824 0.000000 0.661765
0.256863 0.000000 0.662745
0.339706 0.000000 0.666667
0.431372 0.000000 0.668627
0.523039 0.000000 0.670588
0.612745 0.000000 0.674510
0.707844 0.000000 0.674510
0.823529 0.000000 0.674510
0.218137 0.018137 0.692647
0.245098 0.016667 0.692647
0.299510 0.010294 0.692647
0.369608 0.006373 0.696569
0.451471 0.000000 0.696569
0.533334 0.000000 0.696569
0.613726 0.000000 0.694118
0.710294 0.000000 0.694118
0.823529 0.000000 0.694118
0.270588 0.266667 0.747059
0.294118 0.266667 0.747059
0.343137 0.258823 0.747059
0.414216 0.248529 0.749020
0.496078 0.235294 0.750981
0.577941 0.218137 0.750981
0.661765 0.195098 0.750981
0.755392 0.164216 0.747059
0.860785 0.115686 0.743137
0.257353 0.506373 0.797549
0.284314 0.504902 0.800000
0.340196 0.502451 0.801471
0.418137 0.497059 0.801471
0.503922 0.488726 0.805392
0.591176 0.478922 0.805392
0.683333 0.467157 0.807843
0.786275 0.447549 0.807843
0.903431 0.417647 0.805392
0.222549 0.660785 0.843137
0.257353 0.660785 0.843137
0.320588 0.656863 0.844118
0.402451 0.656863 0.847059
0.492157 0.650980 0.848039
0.586275 0.645098 0.850980
0.683334 0.637255 0.851961
0.793137 0.629412 0.855883
0.925490 0.613726 0.854902
0.124510 0.797059 0.886765
0.170587 0.797059 0.886765
0.256862 0.797059 0.886765
0.354901 0.793137 0.890686
0.458334 0.793137 0.894118
0.561764 0.789215 0.898039
0.672059 0.781372 0.901961
0.789215 0.777451 0.902451
0.949020 0.765686 0.905882
0.000000 0.996078 0.937255
0.000000 0.996078 0.941176
0.000000 0.996078 0.941176
0.000000 0.996078 0.945098
0.184314 0.996078 0.949020
0.406863 0.996078 0.956863
0.570588 0.996078 0.964706
0.730392 0.996078 0.976471
1.000000 0.988235 0.988235
