Color/Fuji/Fuji Astia 100F 65x.cube
TITLE "Fuji Astia 100F"
LUT_3D_SIZE 9
DOMAIN_MIN 0.000000 0.000000 0.000000
DOMAIN_MAX 1.000000 1.000000 1.000000
0.000000 0.000000 0.000000
0.097549 0.000000 0.000000
0.221568 0.003922 0.000000
0.357843 0.011765 0.000000
0.490197 0.021569 0.001961
0.626470 0.039216 0.011765
0.754902 0.058824 0.039216
0.875490 0.074510 0.078431
0.984314 0.094118 0.125490
0.066177 0.124510 0.046569
0.132353 0.116667 0.038236
0.253432 0.108824 0.026961
0.386274 0.097549 0.015686
0.513725 0.081863 0.011275
0.642157 0.056372 0.007353
0.766667 0.058824 0.024510
0.886765 0.075000 0.063235
0.992157 0.094118 0.113725
0.109804 0.250000 0.124510
0.163726 0.249019 0.120588
0.280392 0.245098 0.112745
0.408824 0.237255 0.100981
0.537254 0.217647 0.089216
0.665686 0.176961 0.077451
0.782353 0.130392 0.068628
0.895098 0.078431 0.063235
0.996078 0.094118 0.113725
0.167157 0.373529 0.175000
0.228922 0.375000 0.172549
0.326961 0.375000 0.168627
0.446569 0.373529 0.163235
0.572549 0.363235 0.156863
0.700980 0.342157 0.156863
0.817647 0.304411 0.159314
0.928431 0.222059 0.139706
1.000000 0.102941 0.108333
0.237255 0.505883 0.245098
0.283824 0.505883 0.241177
0.377451 0.509804 0.224510
0.499020 0.509804 0.205392
0.631373 0.509804 0.194117
0.757843 0.498039 0.198039
0.873529 0.478432 0.213726
0.969608 0.440686 0.237255
1.000000 0.343137 0.231372
0.307353 0.632843 0.311275
0.346078 0.634314 0.307353
0.424020 0.636765 0.299510
0.539706 0.638235 0.283824
0.674509 0.642157 0.260294
0.816176 0.642157 0.231373
0.944607 0.634314 0.223529
1.000000 0.615687 0.259314
1.000000 0.561275 0.319118
0.389216 0.742156 0.365686
0.420097 0.742156 0.364706
0.490197 0.746079 0.354903
0.594117 0.752452 0.345098
0.717647 0.754902 0.326470
0.850000 0.761764 0.302941
0.986275 0.762745 0.275490
1.000000 0.757843 0.243627
1.000000 0.731373 0.304902
0.483333 0.835784 0.411765
0.506862 0.835784 0.408333
0.568138 0.839706 0.403922
0.657843 0.844117 0.392647
0.767157 0.853431 0.380392
0.889706 0.859314 0.361274
1.000000 0.867157 0.341176
1.000000 0.871078 0.314216
1.000000 0.863725 0.278921
0.556863 0.929412 0.458824
0.579902 0.933333 0.458824
0.630392 0.937255 0.451960
0.708333 0.941176 0.443137
0.811764 0.949020 0.431373
0.928431 0.956863 0.418137
1.000000 0.968627 0.400000
1.000000 0.976471 0.380392
1.000000 0.980392 0.352941
0.000000 0.000000 0.050490
0.066177 0.000000 0.062255
0.190686 0.003922 0.066177
0.320098 0.011765 0.074020
0.450981 0.021569 0.085785
0.591176 0.039216 0.099510
0.724020 0.055883 0.117157
0.851961 0.074510 0.141666
0.964706 0.094118 0.176471
0.042647 0.116667 0.113235
0.108824 0.108824 0.108824
0.229412 0.100981 0.100981
0.353922 0.093138 0.093138
0.478432 0.075490 0.085785
0.610784 0.045098 0.074020
0.739706 0.058824 0.093628
0.863725 0.075000 0.121079
0.976471 0.094118 0.160294
0.100981 0.246078 0.172059
0.152451 0.245098 0.171078
0.264706 0.241176 0.163235
0.385784 0.230393 0.159313
0.509804 0.209804 0.151471
0.639706 0.169118 0.133823
0.762745 0.122549 0.115196
0.879412 0.078431 0.106372
0.984314 0.094118 0.149020
0.154412 0.373529 0.215196
0.213725 0.373529 0.213725
0.314706 0.373529 0.209804
0.428431 0.371078 0.205882
0.552941 0.361765 0.205882
0.678431 0.339215 0.206373
0.799510 0.297059 0.200000
0.910784 0.214216 0.173039
1.000000 0.098039 0.133333
0.260784 0.505883 0.241177
0.307353 0.509804 0.237255
0.388726 0.509804 0.234804
0.493137 0.509804 0.234804
0.615687 0.505883 0.234804
0.738235 0.498039 0.242647
0.850000 0.478432 0.262255
0.953921 0.436765 0.275980
1.000000 0.337255 0.258333
0.326961 0.634314 0.311275
0.363726 0.634314 0.307353
0.439706 0.638235 0.296569
0.551471 0.642157 0.281373
0.683823 0.642157 0.258334
0.816176 0.642157 0.242647
0.925981 0.634314 0.263235
1.000000 0.612255 0.309804
1.000000 0.561275 0.352451
0.404902 0.742156 0.365686
0.435784 0.743137 0.361764
0.504902 0.747059 0.354902
0.605882 0.750981 0.342156
0.726471 0.757843 0.325490
0.857843 0.761764 0.302941
0.990196 0.762745 0.275490
1.000000 0.758333 0.260784
1.000000 0.731373 0.359314
0.498529 0.835784 0.411765
0.522059 0.836274 0.408333
0.579902 0.840196 0.401471
0.668137 0.847549 0.392157
0.776470 0.853431 0.376961
0.897059 0.859804 0.360784
1.000000 0.867157 0.340686
1.000000 0.871078 0.314216
1.000000 0.863725 0.278921
0.568627 0.933333 0.458824
0.588235 0.933333 0.458824
0.638235 0.937255 0.450980
0.718628 0.941176 0.443137
0.817647 0.949020 0.431373
0.932353 0.960784 0.418137
1.000000 0.968627 0.400000
1.000000 0.976471 0.380392
1.000000 0.980392 0.352941
0.000000 0.000000 0.128432
0.046079 0.000000 0.132353
0.174510 0.003922 0.132353
0.303921 0.011765 0.136274
0.435295 0.021569 0.140196
0.575490 0.039216 0.148039
0.711765 0.058824 0.160784
0.839706 0.074510 0.179412
0.952941 0.094118 0.207843
0.019118 0.108824 0.186764
0.089216 0.100981 0.178922
0.206373 0.093628 0.168137
0.330882 0.085294 0.156863
0.458823 0.067647 0.144118
0.591176 0.039216 0.125000
0.723530 0.058824 0.140196
0.848530 0.075000 0.161274
0.960784 0.094118 0.192157
0.081372 0.241176 0.245098
0.132843 0.241176 0.241176
0.234314 0.234314 0.234314
0.357843 0.225490 0.225490
0.486274 0.201961 0.209804
0.618627 0.161274 0.186274
0.743137 0.112745 0.161765
0.863235 0.078431 0.151961
0.972549 0.094118 0.187255
0.118137 0.371078 0.287745
0.174510 0.371078 0.287745
0.279902 0.369608 0.285295
0.393137 0.366666 0.284314
0.518138 0.357843 0.281373
0.650000 0.334314 0.272059
0.774510 0.288726 0.254902
0.890196 0.202941 0.215196
0.988235 0.094118 0.173039
0.235295 0.505883 0.304902
0.275000 0.505883 0.304902
0.356862 0.509804 0.306863
0.458824 0.509804 0.311765
0.575490 0.505883 0.319608
0.696079 0.494608 0.327451
0.814706 0.474510 0.334314
0.926470 0.432843 0.330392
1.000000 0.329412 0.298040
0.365196 0.634314 0.307353
0.397059 0.636765 0.303431
0.464706 0.638235 0.299510
0.558333 0.642157 0.301961
0.669118 0.642157 0.308824
0.777941 0.642157 0.324510
0.879412 0.633334 0.355882
0.975981 0.610294 0.386274
1.000000 0.555882 0.404412
0.437255 0.746079 0.361764
0.466667 0.746079 0.360784
0.529412 0.750000 0.353921
0.628432 0.753922 0.339706
0.745098 0.758824 0.322549
0.872059 0.762745 0.301471
0.988235 0.762745 0.299020
1.000000 0.754902 0.354412
1.000000 0.727451 0.442157
0.525980 0.839706 0.408333
0.549020 0.839706 0.404902
0.603432 0.843627 0.400000
0.688235 0.848039 0.390196
0.792647 0.855392 0.376471
0.910784 0.863235 0.359804
1.000000 0.868137 0.337745
1.000000 0.871568 0.313726
1.000000 0.863725 0.322059
0.592157 0.936274 0.458824
0.611765 0.937255 0.454902
0.660784 0.941176 0.450980
0.735784 0.945098 0.443137
0.833333 0.952941 0.431373
0.945588 0.960784 0.415686
1.000000 0.972549 0.400000
1.000000 0.980392 0.380392
1.000000 0.984314 0.352941
0.000000 0.000000 0.190686
0.034804 0.000000 0.190686
0.166666 0.003922 0.190686
0.292647 0.011765 0.188235
0.423530 0.023529 0.190686
0.563725 0.039216 0.194608
0.697549 0.058824 0.202451
0.825980 0.075000 0.218137
0.942647 0.094118 0.239216
0.007843 0.097549 0.252941
0.073530 0.093628 0.241176
0.192157 0.085785 0.229412
0.314706 0.077451 0.215196
0.440196 0.058334 0.198039
0.575490 0.039216 0.180392
0.707843 0.058824 0.190686
0.833334 0.075000 0.206373
0.949020 0.094118 0.230393
0.069608 0.234314 0.316177
0.115196 0.233333 0.311275
0.211275 0.226470 0.303431
0.335784 0.213725 0.288235
0.463236 0.190196 0.268137
0.596568 0.149510 0.239216
0.723530 0.101471 0.208334
0.844117 0.078431 0.200490
0.956863 0.094118 0.225980
0.054902 0.365686 0.373529
0.127451 0.365686 0.371078
0.241176 0.365686 0.367157
0.361765 0.361765 0.361765
0.490197 0.350000 0.350000
0.622549 0.325000 0.334314
0.750981 0.278431 0.306863
0.867647 0.188726 0.259314
0.968627 0.094118 0.218137
0.150490 0.505883 0.412255
0.202941 0.505883 0.412255
0.295098 0.505883 0.412255
0.404412 0.505883 0.412255
0.532843 0.501961 0.412255
0.657843 0.490196 0.408334
0.782353 0.470098 0.404412
0.899019 0.425000 0.388235
1.000000 0.313725 0.339706
0.306372 0.634314 0.405882
0.336274 0.635784 0.408824
0.399510 0.638235 0.412745
0.493137 0.638235 0.421568
0.602451 0.640686 0.432353
0.714216 0.638235 0.445588
0.827451 0.626961 0.457353
0.934313 0.605392 0.466667
1.000000 0.549510 0.464216
0.481863 0.747059 0.357843
0.506372 0.750000 0.359314
0.560294 0.750981 0.356863
0.638235 0.754902 0.363725
0.730882 0.758824 0.376471
0.824510 0.762745 0.402451
0.911764 0.761764 0.443137
0.994608 0.750981 0.486765
1.000000 0.723530 0.527941
0.565686 0.843627 0.404412
0.587255 0.843627 0.403922
0.638726 0.847549 0.396568
0.718628 0.851470 0.388235
0.816667 0.859314 0.373039
0.932353 0.864706 0.356863
1.000000 0.871078 0.336765
1.000000 0.871568 0.349020
1.000000 0.859804 0.482353
0.625980 0.941176 0.454902
0.645588 0.941176 0.454902
0.691667 0.945098 0.450980
0.761765 0.949020 0.443137
0.855392 0.956863 0.431373
0.963725 0.964706 0.415686
1.000000 0.976471 0.400000
1.000000 0.984314 0.380392
1.000000 0.984314 0.352941
0.000000 0.000000 0.250980
0.034804 0.000000 0.247059
0.159804 0.006863 0.245098
0.284804 0.011765 0.241177
0.411764 0.023529 0.241177
0.551961 0.039216 0.243137
0.686275 0.058824 0.248039
0.812745 0.075000 0.256863
0.931372 0.094118 0.272549
0.003922 0.085785 0.307353
0.069608 0.081863 0.296079
0.182353 0.077451 0.283824
0.302941 0.065687 0.268137
0.425000 0.044118 0.246569
0.559804 0.040686 0.237255
0.692157 0.058824 0.241177
0.818137 0.075000 0.252941
0.933333 0.094118 0.268628
0.066667 0.225490 0.379412
0.113235 0.221568 0.373530
0.201961 0.213725 0.361765
0.322549 0.200490 0.346079
0.447059 0.172549 0.320588
0.579412 0.133823 0.289706
0.703922 0.085294 0.254902
0.824510 0.078431 0.251470
0.937255 0.094118 0.268628
0.042157 0.361765 0.447549
0.095588 0.361765 0.447549
0.215686 0.357843 0.439706
0.338235 0.351961 0.431863
0.467157 0.338235 0.416177
0.601471 0.311765 0.393627
0.727941 0.261275 0.358823
0.844608 0.169608 0.304412
0.949020 0.094118 0.266667
0.060785 0.501961 0.509804
0.132353 0.501961 0.509804
0.245098 0.501961 0.505883
0.365686 0.499510 0.501961
0.494117 0.494117 0.494117
0.626470 0.482353 0.486274
0.750981 0.459804 0.470588
0.871078 0.409314 0.444608
0.976471 0.290196 0.382353
0.189216 0.632843 0.544608
0.229902 0.632843 0.545098
0.311275 0.634314 0.545098
0.420098 0.636275 0.545098
0.540686 0.636765 0.545098
0.661765 0.634314 0.545098
0.782353 0.622549 0.544608
0.895098 0.598529 0.540686
0.999510 0.537745 0.521078
0.372549 0.746079 0.518628
0.398529 0.747059 0.520588
0.452941 0.750000 0.526471
0.533333 0.753922 0.534314
0.629412 0.754902 0.545098
0.733823 0.758824 0.559314
0.836275 0.757843 0.572549
0.936765 0.747059 0.590196
1.000000 0.718627 0.602941
0.612745 0.847549 0.400490
0.633333 0.847549 0.398529
0.679902 0.851470 0.392647
0.749020 0.855392 0.389216
0.828922 0.859804 0.396569
0.908823 0.867157 0.425000
0.975000 0.869608 0.477451
1.000000 0.867647 0.542157
1.000000 0.855882 0.613235
0.668627 0.945098 0.452941
0.685785 0.945098 0.450980
0.728431 0.949020 0.447059
0.796569 0.954902 0.439216
0.882353 0.960784 0.427451
0.985784 0.970098 0.415686
1.000000 0.980392 0.400000
1.000000 0.988235 0.380392
1.000000 0.988235 0.352941
0.000000 0.000000 0.311275
0.046079 0.000000 0.303431
0.162745 0.007843 0.299510
0.280882 0.015686 0.295588
0.403922 0.023529 0.295588
0.542647 0.043137 0.291667
0.675000 0.058824 0.295588
0.800980 0.075000 0.299510
0.917647 0.094118 0.309804
0.007353 0.070098 0.361765
0.073530 0.066177 0.350000
0.182353 0.060294 0.336765
0.295098 0.048529 0.318628
0.415686 0.027451 0.295588
0.548039 0.043137 0.294118
0.678431 0.058824 0.295588
0.803432 0.077941 0.299510
0.919608 0.094118 0.309804
0.080882 0.208334 0.435785
0.125000 0.204412 0.430393
0.201961 0.194117 0.416176
0.314706 0.178431 0.396568
0.435295 0.150490 0.369117
0.563725 0.114215 0.336275
0.687255 0.064216 0.299510
0.808823 0.078431 0.302451
0.923039 0.094118 0.311275
0.053921 0.350000 0.517647
0.089706 0.350000 0.513726
0.209804 0.346079 0.505882
0.326471 0.338235 0.494118
0.454902 0.322549 0.474510
0.584314 0.292157 0.445588
0.709314 0.233824 0.401471
0.824509 0.145098 0.341667
0.933333 0.094118 0.312746
0.047059 0.494118 0.587745
0.099020 0.494117 0.587745
0.218627 0.494118 0.583823
0.342157 0.494117 0.575980
0.474510 0.486274 0.564215
0.602941 0.474510 0.549019
0.727941 0.447549 0.528921
0.848039 0.393627 0.491177
0.956863 0.259314 0.409804
0.111274 0.628922 0.642157
0.161765 0.630392 0.642157
0.256863 0.630392 0.642157
0.377451 0.630392 0.638235
0.501961 0.630392 0.634314
0.626470 0.626470 0.626470
0.750000 0.614706 0.618627
0.863725 0.588235 0.602941
0.976471 0.522059 0.567647
0.255392 0.743137 0.661765
0.289706 0.746079 0.664216
0.360294 0.747059 0.664216
0.454412 0.750981 0.665686
0.560294 0.753922 0.665686
0.673039 0.754902 0.669118
0.784804 0.753922 0.672059
0.891176 0.743137 0.673039
0.996078 0.711765 0.669118
0.489706 0.844117 0.591176
0.507353 0.847549 0.595098
0.547059 0.848039 0.599019
0.609314 0.851961 0.608333
0.688726 0.857353 0.621569
0.777451 0.863235 0.637745
0.866667 0.867157 0.657353
0.952941 0.867157 0.681372
1.000000 0.851961 0.715196
0.719118 0.949020 0.447059
0.734804 0.952941 0.447059
0.773039 0.952941 0.443137
0.835294 0.960784 0.435294
0.917157 0.968627 0.425490
1.000000 0.976471 0.411765
1.000000 0.984314 0.399019
1.000000 0.992157 0.380392
1.000000 0.992157 0.477941
0.000000 0.000000 0.368627
0.065687 0.003922 0.357843
0.172549 0.007843 0.353921
0.284804 0.015686 0.350000
0.403921 0.027451 0.346078
0.536274 0.043137 0.342156
0.667647 0.059804 0.338235
0.792647 0.078431 0.338235
0.909804 0.094118 0.345098
0.020098 0.050490 0.404902
0.097059 0.046569 0.393137
0.194607 0.039216 0.379902
0.297549 0.025980 0.360294
0.411764 0.027451 0.350000
0.546079 0.043137 0.345098
0.668628 0.062745 0.342156
0.792647 0.078431 0.342157
0.908824 0.094118 0.346079
0.104902 0.184314 0.478431
0.139705 0.178431 0.472549
0.215686 0.166666 0.457843
0.318628 0.147059 0.434314
0.434314 0.120589 0.406863
0.555882 0.086765 0.371569
0.678431 0.062745 0.346078
0.797058 0.078431 0.346078
0.909804 0.094118 0.350000
0.074510 0.334314 0.568137
0.122059 0.334314 0.564215
0.223529 0.330392 0.555392
0.332843 0.318628 0.540686
0.454902 0.299020 0.516667
0.579412 0.263726 0.481862
0.700000 0.198530 0.431373
0.810784 0.112255 0.369118
0.920098 0.094118 0.352941
0.078432 0.486274 0.650000
0.118627 0.486274 0.650000
0.225490 0.486274 0.641177
0.342157 0.482353 0.634314
0.466667 0.474510 0.618627
0.595588 0.458823 0.599019
0.715687 0.428431 0.570588
0.832353 0.367157 0.525000
0.941176 0.216666 0.425490
0.086275 0.625000 0.720098
0.143628 0.625490 0.720098
0.239706 0.626470 0.716177
0.361765 0.626470 0.709804
0.486274 0.625000 0.700490
0.606863 0.618627 0.688726
0.727941 0.603431 0.673529
0.844117 0.575000 0.650000
0.959804 0.502451 0.602941
0.186275 0.743137 0.766667
0.228921 0.743137 0.765686
0.309804 0.746079 0.762745
0.411274 0.747059 0.761764
0.521568 0.750981 0.758824
0.634314 0.750981 0.753922
0.747059 0.747059 0.747059
0.859314 0.735294 0.739216
0.972549 0.700000 0.719608
0.364216 0.843627 0.765686
0.384804 0.844117 0.766177
0.435784 0.847549 0.766177
0.510784 0.851470 0.766667
0.599510 0.855392 0.770098
0.696079 0.859804 0.774020
0.793627 0.863235 0.778432
0.894118 0.863235 0.785294
0.996078 0.848039 0.789706
0.780392 0.956863 0.444117
0.792157 0.956863 0.444118
0.824510 0.960784 0.442157
0.875490 0.964706 0.440196
0.930392 0.968627 0.460784
0.984313 0.976471 0.497059
1.000000 0.984314 0.559804
1.000000 0.988235 0.632843
1.000000 0.988235 0.735294
0.000000 0.000000 0.415686
0.098039 0.003922 0.404412
0.195588 0.011765 0.400490
0.299020 0.019608 0.396078
0.415686 0.031373 0.388725
0.540196 0.047059 0.384314
0.664706 0.062745 0.376961
0.785294 0.078431 0.376471
0.901961 0.094118 0.376471
0.058824 0.026470 0.434804
0.132353 0.022549 0.423039
0.215196 0.015196 0.407843
0.312745 0.019608 0.400490
0.423530 0.031373 0.396078
0.548039 0.047059 0.388725
0.668628 0.062745 0.384314
0.785294 0.078431 0.380392
0.901961 0.094118 0.380392
0.132353 0.147059 0.503921
0.168627 0.142647 0.497059
0.245588 0.130882 0.481372
0.338725 0.113235 0.457843
0.443137 0.087745 0.430392
0.559804 0.050980 0.395098
0.676471 0.063726 0.388235
0.792647 0.078921 0.384804
0.901961 0.094118 0.384314
0.145588 0.312745 0.600981
0.186764 0.310785 0.597059
0.262255 0.302941 0.586765
0.357843 0.290687 0.567647
0.471079 0.265686 0.540196
0.583823 0.221078 0.499020
0.696079 0.154902 0.447059
0.802941 0.082353 0.388725
0.909804 0.098039 0.388235
0.142156 0.474509 0.694117
0.185294 0.472059 0.692157
0.266177 0.470589 0.684804
0.365686 0.466666 0.672549
0.482353 0.454902 0.656863
0.599019 0.435294 0.631373
0.715687 0.400980 0.599019
0.825980 0.327941 0.540686
0.929412 0.164216 0.431372
0.151471 0.618627 0.774510
0.193627 0.618627 0.774020
0.276470 0.618627 0.770098
0.381373 0.616177 0.762255
0.494118 0.614216 0.750490
0.610784 0.606373 0.734804
0.723530 0.587255 0.715687
0.836274 0.552941 0.681372
0.949020 0.470588 0.622549
0.209314 0.739216 0.836765
0.244118 0.742157 0.836765
0.317648 0.743137 0.832844
0.411764 0.743137 0.828922
0.516667 0.746079 0.823039
0.626470 0.746079 0.813235
0.734314 0.739216 0.804412
0.843627 0.724020 0.786275
0.953431 0.684314 0.754902
0.318627 0.844117 0.875000
0.342156 0.844117 0.875000
0.396078 0.847549 0.875000
0.473529 0.851470 0.871568
0.563235 0.855392 0.867647
0.657843 0.859314 0.867157
0.757843 0.859804 0.863235
0.859314 0.859314 0.859314
0.968627 0.840196 0.847549
0.535784 0.952941 0.797549
0.548039 0.952941 0.798039
0.581863 0.956863 0.801471
0.632353 0.960784 0.805393
0.695098 0.964706 0.813235
0.769117 0.972549 0.821079
0.847549 0.980392 0.836765
0.929412 0.988235 0.852451
1.000000 0.992157 0.879412
0.007843 0.003922 0.454902
0.144608 0.007843 0.443137
0.230392 0.015686 0.439216
0.326471 0.023529 0.435294
0.435295 0.035294 0.427451
0.554412 0.050980 0.419608
0.672549 0.066667 0.411765
0.785294 0.078921 0.407843
0.898039 0.094118 0.403922
0.117157 0.007843 0.454902
0.179412 0.011765 0.450980
0.253922 0.018627 0.447549
0.343627 0.026961 0.439216
0.447059 0.037255 0.431373
0.565686 0.050980 0.429412
0.676471 0.066667 0.419608
0.788725 0.082353 0.411765
0.898039 0.094118 0.411275
0.191176 0.100000 0.508824
0.225980 0.096078 0.504902
0.289216 0.085295 0.489216
0.369608 0.065687 0.467157
0.466666 0.042157 0.439216
0.575490 0.054902 0.431373
0.687255 0.067647 0.423529
0.793137 0.082353 0.419608
0.901961 0.097059 0.415686
0.233824 0.274019 0.612745
0.261275 0.270098 0.606373
0.323039 0.259804 0.594608
0.400981 0.240196 0.573529
0.500000 0.207843 0.540196
0.602941 0.158823 0.495098
0.705392 0.098039 0.447059
0.806863 0.084804 0.423529
0.909804 0.098039 0.419608
0.250980 0.450981 0.717647
0.278431 0.449019 0.715686
0.336275 0.445098 0.707843
0.418137 0.437255 0.694117
0.519608 0.423530 0.672549
0.625000 0.396569 0.645588
0.727451 0.350000 0.602942
0.829902 0.255883 0.530882
0.921569 0.103921 0.427451
0.270588 0.602941 0.809314
0.297549 0.602941 0.805392
0.351961 0.602941 0.801471
0.435295 0.599019 0.793627
0.532843 0.595098 0.777941
0.634314 0.580882 0.759804
0.738235 0.560294 0.735294
0.839706 0.517648 0.696569
0.945098 0.409804 0.620098
0.310785 0.735294 0.883333
0.336765 0.735294 0.883333
0.387255 0.735294 0.879412
0.462256 0.735294 0.870098
0.552941 0.735294 0.863725
0.646078 0.731373 0.855882
0.742156 0.723530 0.840196
0.843627 0.703922 0.816666
0.949020 0.650000 0.778432
0.380882 0.844117 0.941666
0.400490 0.844117 0.941666
0.442648 0.847549 0.941176
0.504902 0.848039 0.937745
0.582353 0.853431 0.933823
0.665686 0.851961 0.925980
0.753922 0.851960 0.921079
0.847549 0.848039 0.910294
0.952941 0.825000 0.891176
0.466667 0.956863 0.984314
0.481863 0.956863 0.984314
0.512745 0.960784 0.980392
0.563235 0.963235 0.980392
0.625490 0.968627 0.980392
0.699510 0.972549 0.984314
0.777451 0.980392 0.984314
0.859314 0.988235 0.988235
1.000000 0.996078 0.996078
