Color/Fuji/Fuji Astia 100F 65x.cube
TITLE "Fuji Astia 100F"
LUT_3D_SIZE 65
DOMAIN_MIN 0.000000 0.000000 0.000000
DOMAIN_MAX 1.000000 1.000000 1.000000
0.000000 0.000000 0.000000
0.008762 0.000000 0.000000
0.019362 0.000000 0.000000
0.032966 0.000000 0.000000
0.046569 0.000000 0.000000
0.059498 0.000000 0.000000
0.072181 0.000000 0.000000
0.084866 0.000000 0.000000
0.097549 0.000000 0.000000
0.114154 0.000000 0.000000
0.126838 0.000000 0.000000
0.139522 0.000000 0.000000
0.155392 0.000000 0.000000
0.168995 0.000000 0.000000
0.186520 0.000000 0.000000
0.204044 0.003922 0.000000
0.221568 0.003922 0.000000
0.239093 0.003922 0.000000
0.256618 0.003922 0.000000
0.272365 0.003922 0.000000
0.287745 0.007843 0.000000
0.305269 0.007843 0.000000
0.322794 0.008456 0.000000
0.340319 0.011765 0.000000
0.357843 0.011765 0.000000
0.375368 0.011765 0.000000
0.388970 0.011765 0.000000
0.406495 0.011765 0.000000
0.424020 0.015686 0.000000
0.441544 0.015686 0.000000
0.455147 0.019608 0.000000
0.472671 0.019608 0.000000
0.490197 0.021569 0.001961
0.507721 0.023529 0.003922
0.525245 0.023529 0.003922
0.542769 0.027451 0.003922
0.556372 0.027451 0.003922
0.573897 0.031373 0.007843
0.591422 0.034926 0.007843
0.608946 0.035294 0.011765
0.626470 0.039216 0.011765
0.640073 0.039216 0.014154
0.657598 0.043137 0.015686
0.675123 0.043443 0.019914
0.688726 0.047059 0.023529
0.706250 0.050980 0.027451
0.723774 0.050980 0.031373
0.737378 0.054902 0.035294
0.754902 0.058824 0.039216
0.768505 0.060723 0.043137
0.786029 0.062745 0.047059
0.799632 0.062745 0.050980
0.816421 0.066667 0.058824
0.830760 0.068321 0.062745
0.845711 0.070588 0.066667
0.861887 0.074081 0.070588
0.875490 0.074510 0.078431
0.889094 0.078431 0.082353
0.904289 0.078431 0.088603
0.920221 0.082353 0.093444
0.933578 0.082598 0.098284
0.946262 0.086275 0.107046
0.958946 0.088358 0.111887
0.971630 0.090196 0.117647
0.984314 0.094118 0.125490
0.000000 0.012684 0.003922
0.014522 0.012684 0.000000
0.031127 0.009681 0.000000
0.042893 0.009681 0.000000
0.055576 0.009681 0.000000
0.068015 0.009681 0.000000
0.080944 0.008762 0.000000
0.093627 0.008762 0.000000
0.106312 0.008762 0.000000
0.122917 0.008762 0.000000
0.135600 0.008762 0.000000
0.148284 0.008762 0.000000
0.160969 0.008762 0.000000
0.177758 0.008762 0.000000
0.195282 0.008762 0.000000
0.212806 0.005760 0.000000
0.229412 0.005760 0.000000
0.243934 0.004841 0.000000
0.261459 0.004841 0.000000
0.277206 0.004841 0.000000
0.295588 0.008762 0.000000
0.313113 0.008762 0.000000
0.330944 0.008456 0.000000
0.345159 0.011765 0.000000
0.362684 0.011765 0.000000
0.376838 0.011765 0.000000
0.396813 0.011765 0.000000
0.414338 0.013052 0.000000
0.428860 0.015686 0.000000
0.443260 0.015686 0.000000
0.462990 0.019608 0.000000
0.480515 0.019608 0.000000
0.498039 0.021569 0.000000
0.512561 0.023529 0.000000
0.530086 0.023529 0.000000
0.547610 0.027451 0.000000
0.563419 0.029167 0.000000
0.581741 0.031373 0.005638
0.599265 0.034926 0.003922
0.613787 0.036213 0.003554
0.631311 0.039216 0.008394
0.647916 0.041605 0.007843
0.665442 0.043137 0.014155
0.679044 0.047059 0.014767
0.696569 0.047059 0.015686
0.708946 0.050980 0.019608
0.727696 0.050980 0.025673
0.741299 0.054902 0.027451
0.758824 0.058824 0.031434
0.771446 0.060723 0.035294
0.789951 0.062745 0.041116
0.807475 0.062745 0.045955
0.821262 0.066667 0.050980
0.834682 0.068321 0.054902
0.852206 0.070588 0.060479
0.865809 0.074081 0.065318
0.879412 0.075000 0.070159
0.892524 0.078431 0.074510
0.908211 0.080760 0.080760
0.924142 0.082353 0.088604
0.933823 0.082598 0.093444
0.950184 0.086275 0.099203
0.959866 0.088358 0.107046
0.972549 0.090196 0.112806
0.988235 0.094118 0.117647
0.005760 0.027206 0.005760
0.022365 0.025367 0.003922
0.035049 0.025367 0.003922
0.047732 0.023284 0.001838
0.060416 0.023284 0.001838
0.071936 0.023284 0.001838
0.085539 0.023284 0.001838
0.098468 0.020772 0.001838
0.111151 0.021446 0.001838
0.127757 0.021446 0.000000
0.139951 0.021446 0.000000
0.153125 0.021446 0.000000
0.165808 0.019362 0.000000
0.182598 0.019362 0.000000
0.200122 0.019362 0.000000
0.217647 0.019362 0.000000
0.233333 0.016422 0.000000
0.248774 0.017524 0.000000
0.266299 0.017524 0.000000
0.281985 0.017524 0.000000
0.299510 0.017524 0.000000
0.317034 0.017524 0.000000
0.332475 0.017524 0.000000
0.350000 0.015686 0.000000
0.365073 0.013603 0.000000
0.383211 0.013603 0.000000
0.402206 0.013603 0.000000
0.416176 0.013052 0.000000
0.431863 0.015686 0.000000
0.449387 0.018811 0.000000
0.468628 0.019608 0.000000
0.482353 0.019608 0.000000
0.499877 0.021569 0.000000
0.515564 0.023529 0.000000
0.533088 0.023529 0.000000
0.550613 0.027451 0.000000
0.568137 0.029167 0.000000
0.585662 0.031373 0.000000
0.603187 0.034926 0.003922
0.616789 0.035846 0.003922
0.634314 0.039216 0.003922
0.651838 0.041605 0.008394
0.663971 0.043137 0.007843
0.682966 0.047059 0.011765
0.696569 0.047059 0.015686
0.714093 0.050980 0.017831
0.731617 0.050980 0.019608
0.745221 0.056740 0.021752
0.758824 0.058824 0.026593
0.776348 0.060723 0.031373
0.788971 0.062745 0.035294
0.807475 0.062745 0.039216
0.821079 0.066667 0.045956
0.836949 0.068321 0.050796
0.852206 0.070588 0.054902
0.864155 0.074081 0.062316
0.879412 0.075000 0.067157
0.895527 0.078431 0.071997
0.910539 0.080760 0.078921
0.924142 0.082353 0.085601
0.937500 0.082598 0.090441
0.950184 0.086275 0.098039
0.962868 0.088358 0.104044
0.975552 0.090196 0.110968
0.988235 0.094118 0.117647
0.014522 0.040809 0.010601
0.027206 0.040809 0.007843
0.039889 0.040809 0.006679
0.052574 0.040809 0.003922
0.066177 0.038052 0.003922
0.075858 0.036888 0.003922
0.089461 0.036888 0.003922
0.103063 0.036888 0.003922
0.115993 0.036888 0.003922
0.132599 0.034130 0.003922
0.145282 0.034130 0.003922
0.157965 0.034130 0.003922
0.171078 0.034130 0.003922
0.187439 0.032966 0.002758
0.204964 0.032966 0.002758
0.219730 0.032966 0.002758
0.237255 0.032966 0.000000
0.253615 0.029106 0.000000
0.268383 0.030209 0.000000
0.285907 0.030209 0.000000
0.303431 0.030209 0.000000
0.320956 0.030209 0.000000
0.334558 0.029044 0.000000
0.352084 0.026287 0.000000
0.369608 0.026287 0.000000
0.387132 0.025123 0.000000
0.400735 0.022365 0.000000
0.418259 0.022365 0.000000
0.435785 0.019608 0.000000
0.449019 0.019608 0.000000
0.466912 0.019608 0.000000
0.484436 0.019608 0.000000
0.501961 0.021569 0.000000
0.519486 0.023529 0.000000
0.537010 0.023529 0.000000
0.553370 0.027451 0.000000
0.570895 0.029167 0.000000
0.585662 0.031373 0.000000
0.603187 0.034926 0.000000
0.620711 0.035846 0.003922
0.634314 0.039216 0.003922
0.651838 0.041605 0.006311
0.669363 0.043137 0.007843
0.682966 0.047059 0.011765
0.700490 0.047059 0.010233
0.714093 0.050980 0.015686
0.731617 0.054044 0.019608
0.745221 0.054963 0.023529
0.762745 0.058824 0.027451
0.776348 0.060723 0.031373
0.793872 0.062745 0.035355
0.807475 0.062745 0.040197
0.824264 0.066667 0.043872
0.838603 0.068321 0.050980
0.852206 0.070588 0.054902
0.869730 0.074081 0.058824
0.882843 0.075000 0.066667
0.896937 0.078431 0.071997
0.910539 0.080760 0.076838
0.924142 0.082353 0.082353
0.937745 0.082598 0.087683
0.951348 0.086275 0.095282
0.964951 0.088358 0.101287
0.978554 0.090196 0.108885
0.988235 0.094118 0.117647
0.023284 0.058334 0.015441
0.035969 0.054657 0.011765
0.042892 0.056495 0.011520
0.057415 0.054412 0.007843
0.070098 0.054412 0.007843
0.079779 0.054412 0.007843
0.093382 0.050735 0.007843
0.106985 0.050735 0.007843
0.120834 0.050490 0.007598
0.133762 0.050490 0.007598
0.146446 0.050490 0.007598
0.159130 0.050490 0.007598
0.175490 0.050490 0.007598
0.188603 0.046814 0.003922
0.206128 0.049387 0.003922
0.223652 0.046569 0.003922
0.240931 0.046569 0.003922
0.254779 0.046569 0.003922
0.272304 0.046569 0.003677
0.289829 0.046569 0.003677
0.307108 0.046569 0.000000
0.320956 0.042892 0.000000
0.338480 0.045956 0.000000
0.356005 0.042647 0.000000
0.374755 0.038971 0.000000
0.390809 0.038726 0.000000
0.404657 0.035049 0.000000
0.422181 0.034804 0.000000
0.435785 0.034804 0.000000
0.453309 0.031128 0.000000
0.470833 0.027206 0.000000
0.488113 0.027206 0.000000
0.501961 0.023529 0.000000
0.519486 0.023529 0.000000
0.537010 0.023529 0.000000
0.554534 0.027451 0.000000
0.572059 0.029167 0.000000
0.589584 0.031373 0.000000
0.606863 0.034926 0.000000
0.620711 0.035846 0.003922
0.638235 0.039216 0.003922
0.651838 0.041605 0.003922
0.669363 0.043137 0.007843
0.690258 0.047059 0.008149
0.700490 0.047059 0.011765
0.719547 0.050980 0.015686
0.731617 0.054044 0.018750
0.749081 0.054963 0.023529
0.762745 0.058824 0.024510
0.778370 0.060723 0.029351
0.793872 0.062745 0.034191
0.807659 0.062745 0.039032
0.827941 0.066667 0.043872
0.838603 0.068321 0.048713
0.853554 0.070588 0.053554
0.869730 0.074081 0.058824
0.883333 0.075000 0.066667
0.896937 0.078431 0.070588
0.910539 0.080760 0.076838
0.924816 0.082353 0.081679
0.937745 0.082598 0.090196
0.951348 0.086275 0.095282
0.964951 0.088358 0.101961
0.978554 0.090196 0.108885
0.991912 0.094118 0.113725
0.032047 0.071936 0.020282
0.044730 0.071936 0.019608
0.053493 0.071936 0.016360
0.062256 0.071936 0.013602
0.071018 0.071262 0.012439
0.083701 0.068015 0.012439
0.097304 0.068015 0.012439
0.110906 0.068015 0.012439
0.124510 0.064583 0.012439
0.137684 0.064093 0.011765
0.150368 0.064093 0.011765
0.165318 0.064093 0.011765
0.178921 0.064093 0.011765
0.193199 0.064093 0.008517
0.210723 0.063419 0.008517
0.227574 0.063419 0.006495
0.245098 0.060172 0.007843
0.259375 0.060172 0.007843
0.276226 0.060172 0.004596
0.293750 0.060172 0.004596
0.308028 0.060172 0.004596
0.321936 0.060172 0.003922
0.342402 0.059498 0.003922
0.359927 0.056250 0.003922
0.377451 0.053799 0.003922
0.391728 0.055576 0.003922
0.408578 0.051654 0.000674
0.426103 0.051654 0.000674
0.438174 0.048407 0.000674
0.457231 0.045282 0.000674
0.475307 0.043811 0.000000
0.489032 0.040564 0.000000
0.505883 0.038603 0.000000
0.523407 0.036642 0.000000
0.540931 0.035968 0.000000
0.558456 0.032047 0.000000
0.571017 0.028125 0.000000
0.589584 0.032047 0.000000
0.607108 0.032047 0.000000
0.624755 0.035846 0.003922
0.638235 0.039216 0.003922
0.655760 0.041605 0.003922
0.673285 0.043137 0.007843
0.686888 0.047059 0.007843
0.703186 0.047059 0.011765
0.718015 0.050980 0.013909
0.735539 0.054044 0.018750
0.749143 0.054963 0.019669
0.762438 0.058824 0.024510
0.780270 0.060723 0.027451
0.791727 0.062745 0.034191
0.811397 0.062745 0.039032
0.825000 0.066667 0.043137
0.837622 0.068321 0.048713
0.856128 0.070588 0.053554
0.869730 0.074510 0.058395
0.883333 0.075000 0.063235
0.896201 0.078431 0.070588
0.912132 0.080760 0.076838
0.924816 0.082353 0.081679
0.937745 0.082598 0.086520
0.950858 0.086275 0.095282
0.963541 0.086949 0.100123
0.978554 0.090196 0.108885
0.992157 0.094118 0.113725
0.042402 0.089461 0.029044
0.053493 0.089461 0.025122
0.062255 0.089461 0.023284
0.071018 0.087868 0.021201
0.076103 0.085539 0.021201
0.088542 0.085539 0.021201
0.101225 0.085539 0.019608
0.114828 0.083946 0.017279
0.128432 0.081618 0.017279
0.138113 0.081618 0.017279
0.151716 0.081618 0.017279
0.164644 0.081618 0.017279
0.182843 0.080024 0.014093
0.196446 0.077696 0.017095
0.213971 0.077696 0.013358
0.231495 0.077696 0.013358
0.243750 0.077696 0.010417
0.262622 0.077696 0.011765
0.280882 0.076103 0.009436
0.295343 0.076103 0.009436
0.311275 0.073774 0.009436
0.328799 0.073774 0.007843
0.346323 0.072181 0.007843
0.363909 0.072243 0.007904
0.376593 0.069853 0.005515
0.394975 0.066483 0.005515
0.413726 0.065931 0.003922
0.426103 0.064338 0.003922
0.443628 0.064338 0.003922
0.461152 0.062010 0.003922
0.474755 0.058088 0.003922
0.492279 0.056495 0.003922
0.509804 0.054167 0.003922
0.527329 0.052573 0.001593
0.542524 0.046446 0.001593
0.558456 0.045527 0.001593
0.575980 0.040686 -0.000123
0.593505 0.035846 0.000000
0.605147 0.036887 0.000000
0.624632 0.035846 0.003922
0.642280 0.039216 0.003922
0.655760 0.041605 0.003922
0.673285 0.043137 0.007230
0.686888 0.047059 0.007843
0.704412 0.048284 0.011765
0.718015 0.050980 0.013909
0.735539 0.054044 0.018750
0.749143 0.054963 0.019669
0.767280 0.058824 0.022916
0.780270 0.060723 0.027451
0.794975 0.062745 0.034191
0.811397 0.062745 0.039032
0.825000 0.066667 0.043137
0.840870 0.068321 0.048713
0.856128 0.070588 0.053554
0.869730 0.074510 0.058395
0.883333 0.075000 0.063235
0.899448 0.078431 0.070588
0.912132 0.080760 0.074510
0.928064 0.082353 0.081679
0.941421 0.082598 0.086520
0.954105 0.086275 0.095282
0.966789 0.090196 0.100123
0.979473 0.090196 0.108885
0.992157 0.094118 0.113725
0.053493 0.106985 0.037807
0.062256 0.106985 0.033885
0.071018 0.106985 0.033885
0.077022 0.103063 0.029964
0.084620 0.103063 0.029964
0.093382 0.103063 0.029964
0.103554 0.101471 0.028370
0.114828 0.099142 0.026042
0.127513 0.099142 0.026042
0.144118 0.099142 0.026042
0.156801 0.096630 0.026042
0.169485 0.095220 0.023774
0.182170 0.095220 0.022120
0.200368 0.095220 0.022120
0.217892 0.095220 0.022120
0.231495 0.092709 0.020098
0.249019 0.092709 0.018199
0.266544 0.091299 0.018199
0.282659 0.091299 0.015686
0.297672 0.091299 0.016421
0.315196 0.088603 0.014277
0.332720 0.088787 0.014277
0.348836 0.087377 0.011765
0.363848 0.087377 0.012745
0.381373 0.084927 0.010356
0.398897 0.083456 0.010356
0.412500 0.083088 0.010356
0.430024 0.079534 0.007843
0.446140 0.077022 0.007843
0.461152 0.077022 0.007843
0.478676 0.073101 0.010232
0.496201 0.071691 0.006434
0.512316 0.069730 0.003922
0.527329 0.064890 0.003922
0.544853 0.063848 0.003922
0.564093 0.059926 0.003922
0.578493 0.056005 0.003922
0.593505 0.053493 0.003922
0.611030 0.049571 0.003922
0.624632 0.045097 0.003922
0.642157 0.041728 0.003922
0.657292 0.041605 0.003922
0.673285 0.043137 0.007843
0.693014 0.047059 0.007843
0.704412 0.048284 0.011765
0.719792 0.050980 0.013909
0.735539 0.054044 0.018750
0.749143 0.054963 0.019669
0.766667 0.058824 0.024510
0.780270 0.060723 0.027451
0.797794 0.062745 0.034191
0.811397 0.062745 0.039032
0.828186 0.066667 0.043137
0.842525 0.068321 0.048713
0.856128 0.070588 0.053554
0.870159 0.074510 0.058395
0.886765 0.075000 0.063235
0.899448 0.078431 0.070588
0.914461 0.080760 0.076838
0.928064 0.082353 0.081679
0.941421 0.082598 0.086520
0.954105 0.086275 0.095282
0.966789 0.090196 0.100123
0.979473 0.090196 0.108885
0.992157 0.094118 0.113725
0.066177 0.124510 0.046569
0.071018 0.124510 0.042647
0.079780 0.124510 0.042647
0.085785 0.120588 0.042647
0.093383 0.120589 0.042647
0.102144 0.120588 0.042157
0.110906 0.122426 0.038726
0.119669 0.116667 0.038726
0.132353 0.116667 0.038236
0.142034 0.116667 0.034804
0.155637 0.118750 0.034804
0.174326 0.112745 0.034804
0.186764 0.112745 0.035049
0.204290 0.112745 0.030883
0.221324 0.112745 0.030883
0.235417 0.108824 0.028860
0.253432 0.108824 0.026961
0.269975 0.108824 0.026961
0.284069 0.108824 0.023039
0.301593 0.107046 0.023039
0.318628 0.104902 0.023039
0.332536 0.104902 0.019424
0.350245 0.101471 0.019118
0.367770 0.100981 0.019118
0.386274 0.097549 0.015686
0.398897 0.097610 0.015196
0.416421 0.097059 0.015196
0.430024 0.093628 0.015196
0.447549 0.093138 0.011765
0.465380 0.089706 0.011765
0.478676 0.085785 0.015074
0.496201 0.088175 0.011275
0.513725 0.081863 0.011275
0.531250 0.081373 0.011275
0.548285 0.077941 0.007843
0.562377 0.076654 0.007843
0.579902 0.071814 0.007843
0.597427 0.066177 0.007843
0.614461 0.062132 0.007353
0.628554 0.061214 0.007353
0.642157 0.056372 0.007353
0.659681 0.047059 0.006311
0.673285 0.046569 0.007843
0.690809 0.047059 0.007843
0.704412 0.048284 0.011765
0.721936 0.050980 0.013909
0.735539 0.054044 0.018750
0.753002 0.054963 0.019669
0.766667 0.058824 0.024510
0.782292 0.060723 0.029351
0.797794 0.062745 0.034191
0.811091 0.062745 0.039032
0.828186 0.066667 0.043137
0.842525 0.070588 0.048713
0.856128 0.070588 0.053554
0.870159 0.074510 0.058334
0.886765 0.075000 0.063235
0.899448 0.078431 0.070588
0.914461 0.080760 0.076838
0.928064 0.082353 0.081679
0.941421 0.082598 0.086520
0.954105 0.086275 0.095282
0.966789 0.090196 0.100123
0.979473 0.090196 0.108885
0.992157 0.094118 0.113725
0.074939 0.141605 0.059253
0.082782 0.138113 0.055760
0.088542 0.138113 0.053922
0.093382 0.138113 0.055331
0.098468 0.134436 0.055331
0.106985 0.134191 0.051838
0.115747 0.134191 0.050245
0.124510 0.134191 0.051409
0.133273 0.130760 0.051409
0.145956 0.130270 0.047488
0.159559 0.130270 0.047488
0.171323 0.130270 0.047488
0.190686 0.130270 0.040809
0.208211 0.126348 0.043566
0.225735 0.126348 0.040074
0.239338 0.126348 0.039645
0.256863 0.123407 0.039645
0.270894 0.122427 0.032292
0.287991 0.122427 0.035723
0.305515 0.120650 0.030454
0.319547 0.118505 0.031802
0.333456 0.118505 0.031802
0.354166 0.118076 0.027880
0.371691 0.114583 0.026348
0.385723 0.112132 0.023958
0.402819 0.110662 0.023958
0.420405 0.110233 0.023590
0.433946 0.106740 0.020037
0.451471 0.104534 0.020037
0.462378 0.106311 0.020037
0.482598 0.102696 0.019608
0.500122 0.097855 0.016115
0.517648 0.098468 0.016115
0.531679 0.094547 0.013235
0.548775 0.087255 0.015686
0.566299 0.086336 0.015686
0.580331 0.083211 0.012194
0.597427 0.082782 0.012194
0.614951 0.078860 0.012194
0.628431 0.070894 0.012194
0.646078 0.066054 0.012194
0.657720 0.061213 0.012194
0.677206 0.059253 0.012194
0.690809 0.051409 0.011765
0.708333 0.050980 0.012990
0.721936 0.050980 0.015686
0.736397 0.054044 0.019608
0.753064 0.054963 0.023529
0.766667 0.058824 0.027451
0.784191 0.062745 0.029351
0.797794 0.062745 0.031802
0.811581 0.066483 0.039216
0.828922 0.066667 0.043872
0.842525 0.070588 0.048713
0.857476 0.070588 0.054902
0.873652 0.074510 0.062316
0.886765 0.075000 0.063235
0.900858 0.078431 0.071997
0.914461 0.080760 0.076838
0.928064 0.082353 0.078860
0.941421 0.086275 0.090625
0.954105 0.086275 0.095282
0.966789 0.090196 0.098468
0.979473 0.090196 0.108885
0.992157 0.094118 0.117647
0.083701 0.155637 0.069363
0.091544 0.155637 0.068015
0.095466 0.154289 0.068015
0.102144 0.151716 0.068015
0.106986 0.151716 0.068015
0.115747 0.151716 0.065441
0.123162 0.151716 0.064093
0.131924 0.149203 0.064093
0.140686 0.147794 0.061520
0.150797 0.147794 0.060172
0.163480 0.147794 0.060172
0.177083 0.147794 0.057598
0.194607 0.146446 0.054412
0.212133 0.143872 0.053676
0.225735 0.143872 0.052328
0.243260 0.143872 0.052328
0.255270 0.139951 0.049755
0.274387 0.139951 0.048407
0.292402 0.138603 0.045833
0.305086 0.136029 0.044485
0.323039 0.136029 0.044485
0.340563 0.134681 0.038296
0.355515 0.132108 0.041299
0.371507 0.130760 0.036642
0.389216 0.128186 0.036642
0.406740 0.124816 0.032721
0.420343 0.124265 0.033701
0.437867 0.122978 0.028799
0.450613 0.120343 0.028799
0.468995 0.118995 0.028799
0.482598 0.116298 0.024877
0.500122 0.111152 0.024877
0.517648 0.111152 0.022916
0.535172 0.105699 0.020956
0.552696 0.100858 0.020956
0.566299 0.099387 0.020956
0.583823 0.096814 0.020956
0.601348 0.095466 0.020956
0.612745 0.091544 0.020956
0.632476 0.083701 0.020956
0.645956 0.079657 0.020956
0.663603 0.074816 0.020956
0.677206 0.069976 0.017647
0.695773 0.064093 0.017034
0.708333 0.060294 0.017034
0.721139 0.056250 0.017034
0.739460 0.054902 0.019608
0.753064 0.054963 0.023590
0.766667 0.058824 0.027451
0.784191 0.062745 0.028799
0.797794 0.062745 0.035294
0.815318 0.066483 0.042953
0.828922 0.066667 0.043872
0.842525 0.070588 0.050980
0.857476 0.070588 0.057476
0.873652 0.074510 0.062316
0.887255 0.078431 0.068015
0.900858 0.078431 0.071997
0.914461 0.080760 0.078431
0.926165 0.082353 0.082353
0.941421 0.086275 0.090441
0.954105 0.086275 0.098039
0.968873 0.090196 0.104044
0.979473 0.090196 0.108885
0.992157 0.094118 0.117647
0.094730 0.173162 0.080698
0.100306 0.172242 0.080698
0.106066 0.169240 0.080698
0.110906 0.169240 0.079044
0.115748 0.169240 0.079044
0.123836 0.169240 0.076777
0.129350 0.169240 0.076777
0.138112 0.165318 0.076777
0.146875 0.165318 0.075122
0.155637 0.165318 0.072855
0.166054 0.165318 0.073774
0.181005 0.165318 0.071201
0.198529 0.162132 0.068934
0.214399 0.161397 0.067279
0.229657 0.161397 0.065012
0.245527 0.161397 0.065012
0.260784 0.157475 0.060417
0.278308 0.157475 0.061091
0.291912 0.158884 0.057169
0.309436 0.153554 0.057169
0.326961 0.153554 0.055515
0.342831 0.149939 0.051899
0.358088 0.149632 0.051593
0.375613 0.145711 0.049326
0.393137 0.145711 0.045221
0.405637 0.142340 0.045404
0.424264 0.141789 0.041483
0.437867 0.137867 0.041483
0.455392 0.135662 0.039828
0.472917 0.133946 0.037561
0.486520 0.130024 0.039706
0.504044 0.128983 0.033640
0.521568 0.123836 0.033640
0.537439 0.122181 0.031985
0.552696 0.119914 0.029718
0.570220 0.114338 0.029718
0.586091 0.112622 0.029718
0.601348 0.108149 0.029718
0.618873 0.102941 0.029718
0.632476 0.102022 0.029718
0.650000 0.094730 0.027451
0.663481 0.090809 0.025796
0.681128 0.083579 0.027451
0.694731 0.082659 0.025796
0.708333 0.072855 0.025796
0.725981 0.069056 0.025796
0.739460 0.061948 0.022732
0.753064 0.058824 0.023590
0.771875 0.058824 0.027451
0.784191 0.062745 0.031373
0.798897 0.062745 0.035294
0.815318 0.066483 0.042953
0.828922 0.066667 0.047059
0.844792 0.070588 0.050980
0.860049 0.070588 0.057476
0.873652 0.074510 0.062316
0.887255 0.078431 0.067157
0.900858 0.078431 0.071997
0.914461 0.080760 0.078431
0.928738 0.082353 0.085601
0.941666 0.086275 0.090441
0.955269 0.086275 0.098039
0.968873 0.090196 0.104044
0.979473 0.090196 0.108149
0.992157 0.094118 0.117647
0.105147 0.190686 0.092647
0.109987 0.186764 0.089461
0.114829 0.186764 0.089461
0.119669 0.186764 0.089461
0.124019 0.186764 0.089461
0.132598 0.186764 0.089461
0.138112 0.186764 0.088725
0.146875 0.187438 0.085540
0.155638 0.186029 0.085540
0.164399 0.182843 0.085540
0.173162 0.182843 0.081618
0.185845 0.182843 0.081618
0.201716 0.182843 0.081618
0.216054 0.182108 0.077696
0.235662 0.178921 0.077696
0.247181 0.178921 0.076960
0.264706 0.178921 0.073775
0.282230 0.178186 0.073775
0.295834 0.175000 0.069853
0.313358 0.176409 0.071262
0.330147 0.171078 0.069117
0.344056 0.171078 0.065932
0.362009 0.167156 0.062010
0.381189 0.167156 0.063664
0.396324 0.163235 0.058089
0.410662 0.163235 0.058089
0.427450 0.159313 0.054167
0.441789 0.161213 0.056066
0.460294 0.155392 0.050245
0.472917 0.151470 0.050245
0.490441 0.147549 0.046324
0.507231 0.143627 0.048468
0.524755 0.141666 0.042402
0.539093 0.139705 0.042402
0.556618 0.135784 0.042402
0.573406 0.131862 0.038481
0.587745 0.127941 0.038481
0.605270 0.124019 0.038481
0.622059 0.120098 0.038481
0.636397 0.115625 0.038481
0.653187 0.110784 0.034559
0.667524 0.105943 0.034559
0.681005 0.101103 0.034436
0.701531 0.093383 0.034559
0.712255 0.091422 0.034559
0.729044 0.086581 0.034559
0.743505 0.077818 0.034559
0.760111 0.069853 0.027512
0.770588 0.065932 0.031373
0.786213 0.062745 0.031373
0.801716 0.062745 0.035294
0.814767 0.066483 0.039216
0.828922 0.066667 0.043872
0.847977 0.070588 0.050980
0.860049 0.070588 0.054289
0.873346 0.074510 0.062316
0.887255 0.078431 0.063971
0.903370 0.078431 0.071997
0.916054 0.082353 0.078431
0.931985 0.082353 0.082353
0.941666 0.086275 0.090441
0.955269 0.086275 0.098039
0.968873 0.090196 0.100858
0.982476 0.090196 0.108885
0.995343 0.094118 0.117647
0.109804 0.204290 0.101961
0.114644 0.204290 0.098223
0.119485 0.204290 0.098223
0.124326 0.201532 0.098223
0.125674 0.204106 0.098223
0.137929 0.204106 0.098223
0.142769 0.200368 0.098223
0.151532 0.200368 0.095710
0.160294 0.200368 0.094302
0.169056 0.200368 0.094302
0.179167 0.200368 0.094302
0.192769 0.200368 0.092035
0.203370 0.200184 0.090380
0.220159 0.196446 0.090380
0.237500 0.196446 0.086459
0.251287 0.196446 0.086459
0.268627 0.196446 0.086459
0.286152 0.196262 0.078861
0.299755 0.192525 0.082537
0.317280 0.192525 0.080760
0.334804 0.192341 0.078615
0.348590 0.188603 0.078615
0.365931 0.188419 0.074694
0.383456 0.184682 0.074694
0.397243 0.182230 0.070772
0.414583 0.180760 0.070772
0.432108 0.176839 0.066851
0.445710 0.176839 0.066851
0.463236 0.172917 0.062929
0.477022 0.169792 0.062929
0.494363 0.165074 0.059008
0.511887 0.164032 0.059008
0.525674 0.159191 0.055086
0.540319 0.157231 0.051348
0.560539 0.153309 0.051164
0.578064 0.148591 0.051164
0.590134 0.143750 0.047427
0.609192 0.138909 0.047243
0.626716 0.134068 0.047243
