Color/Fuji/Fuji FP-100c 4 Alt 65x.cube
TITLE "Fuji FP-100c 4 Alt"
LUT_3D_SIZE 9
DOMAIN_MIN 0.000000 0.000000 0.000000
DOMAIN_MAX 1.000000 1.000000 1.000000
0.000000 0.000000 0.000000
0.030883 0.000000 0.000000
0.089216 0.000000 0.000000
0.165686 0.000000 0.000000
0.268628 0.000000 0.000000
0.418627 0.000000 0.000000
0.582353 0.000000 0.000000
0.722549 0.000000 0.000000
0.831373 0.000000 0.000000
0.042647 0.074020 0.011275
0.077941 0.066177 0.007353
0.139705 0.054412 0.003432
0.217647 0.038726 0.000000
0.319118 0.021079 0.000000
0.461765 0.005883 0.000000
0.613726 0.000000 0.000000
0.738235 0.000000 0.000000
0.835294 0.000000 0.000000
0.108823 0.171568 0.053921
0.131862 0.167647 0.047059
0.178431 0.155883 0.035294
0.260294 0.143137 0.019608
0.367647 0.121569 0.003922
0.511764 0.086765 0.000000
0.651961 0.045097 0.000000
0.769117 0.010784 0.000000
0.857843 0.000000 0.000000
0.126961 0.305392 0.094118
0.158823 0.302941 0.092647
0.225000 0.293628 0.082353
0.313235 0.279412 0.065196
0.429902 0.255883 0.035294
0.574019 0.224510 0.007843
0.702451 0.190687 0.000000
0.810784 0.145588 0.000000
0.890196 0.087255 0.000000
0.178431 0.488235 0.129412
0.213235 0.484314 0.125490
0.283333 0.478431 0.117647
0.382843 0.466667 0.101471
0.511764 0.447059 0.078431
0.644118 0.421569 0.051470
0.760784 0.393137 0.024509
0.857353 0.356373 0.007843
0.935294 0.301961 0.001961
0.304902 0.650000 0.124020
0.332353 0.646078 0.121569
0.394118 0.642157 0.116176
0.490196 0.631863 0.103431
0.605392 0.618627 0.090196
0.716667 0.602941 0.073039
0.814216 0.583333 0.058824
0.900000 0.564705 0.048529
0.972549 0.529902 0.043137
0.493137 0.750000 0.085295
0.515197 0.750000 0.082353
0.557843 0.746079 0.078431
0.627941 0.738235 0.073529
0.708824 0.730392 0.064706
0.790686 0.722549 0.058824
0.864706 0.710784 0.054902
0.934804 0.699510 0.050980
1.000000 0.680392 0.054902
0.687255 0.816176 0.027451
0.695589 0.816176 0.027451
0.725490 0.812255 0.026961
0.764216 0.811765 0.026961
0.814216 0.804412 0.023529
0.868628 0.800490 0.023039
0.923040 0.792647 0.019608
0.977451 0.788235 0.023529
1.000000 0.776961 0.027451
0.858824 0.878431 0.000000
0.862745 0.878431 0.000000
0.874510 0.874510 0.000000
0.896569 0.874510 0.000000
0.923530 0.870588 0.000000
0.958333 0.866667 0.000000
0.996078 0.862745 0.000000
1.000000 0.858824 0.000000
1.000000 0.850980 0.000000
0.000000 0.000000 0.054412
0.031373 0.000000 0.038726
0.093137 0.000000 0.027941
0.169608 0.000000 0.015686
0.274509 0.000000 0.003922
0.426470 0.000000 0.000000
0.586275 0.000000 0.000000
0.722549 0.000000 0.000000
0.827451 0.000000 0.000000
0.042647 0.081863 0.081863
0.074020 0.074020 0.074020
0.139706 0.062745 0.062255
0.217647 0.047549 0.046079
0.323039 0.026961 0.019118
0.469118 0.007353 0.000000
0.617647 0.000000 0.000000
0.741176 0.000000 0.000000
0.831373 0.000000 0.000000
0.112745 0.179412 0.113235
0.132353 0.174510 0.108333
0.178431 0.163725 0.097549
0.260294 0.150980 0.078431
0.371569 0.127941 0.051470
0.515687 0.093137 0.015196
0.654902 0.053431 0.000000
0.768137 0.014706 0.000000
0.854902 0.000000 0.000000
0.123039 0.310785 0.143137
0.155392 0.306863 0.139706
0.225000 0.299020 0.128922
0.314706 0.287255 0.113235
0.433824 0.263726 0.086275
0.574019 0.232353 0.050490
0.702451 0.197059 0.018137
0.808333 0.152941 0.003432
0.888726 0.094608 0.000000
0.174510 0.493627 0.164706
0.209804 0.492157 0.164216
0.283334 0.484314 0.156373
0.384804 0.472549 0.140686
0.511764 0.454412 0.121079
0.644118 0.429412 0.094118
0.759804 0.400490 0.070098
0.855882 0.362745 0.048529
0.931372 0.307843 0.032843
0.304902 0.653922 0.167647
0.331863 0.652451 0.162745
0.394118 0.646078 0.152451
0.490196 0.638235 0.137255
0.604902 0.626470 0.123039
0.714216 0.610784 0.109314
0.810784 0.591176 0.097549
0.896079 0.568628 0.089706
0.970098 0.537745 0.085785
0.493137 0.753922 0.118627
0.512745 0.753922 0.112255
0.557843 0.750000 0.104902
0.624020 0.742156 0.100490
0.705882 0.734314 0.094118
0.786765 0.726470 0.088726
0.860785 0.715687 0.085785
0.930883 0.703431 0.085294
0.997058 0.687255 0.090196
0.683824 0.820098 0.046078
0.695589 0.820098 0.043137
0.721569 0.819118 0.043137
0.761764 0.815686 0.042647
0.810294 0.809804 0.042647
0.864706 0.804412 0.042157
0.919118 0.800490 0.042157
0.973529 0.792647 0.046078
1.000000 0.781372 0.053921
0.862745 0.878431 0.000000
0.866667 0.878431 0.000000
0.878431 0.878431 0.000000
0.898039 0.874510 0.000000
0.927451 0.870588 0.000000
0.960784 0.870588 0.000000
0.996078 0.866667 0.000000
1.000000 0.862745 0.000000
1.000000 0.854902 0.000000
0.000000 0.000000 0.132353
0.031373 0.000000 0.120589
0.093137 0.000000 0.108823
0.171078 0.000000 0.093137
0.278431 0.000000 0.069608
0.430392 0.000000 0.032843
0.590196 0.000000 0.005883
0.722549 0.000000 0.000000
0.827451 0.000000 0.000000
0.042647 0.093628 0.162745
0.077451 0.085785 0.155392
0.139706 0.074020 0.144118
0.220588 0.058334 0.127941
0.326961 0.036275 0.100981
0.473039 0.011275 0.059804
0.619608 0.000000 0.021078
0.738235 0.000000 0.002942
0.831373 0.000000 0.000000
0.112745 0.190196 0.190196
0.132353 0.183334 0.186274
0.175490 0.174510 0.174510
0.260294 0.159804 0.158823
0.375490 0.137255 0.133333
0.516667 0.103921 0.094608
0.655882 0.063726 0.055883
0.765686 0.022549 0.025490
0.850980 0.000000 0.010784
0.113725 0.322549 0.225000
0.148530 0.318628 0.221078
0.221078 0.310785 0.210785
0.314706 0.299020 0.195098
0.437745 0.275490 0.170588
0.577941 0.244118 0.137255
0.702451 0.208824 0.106373
0.804902 0.164215 0.079902
0.884804 0.106863 0.059314
0.162745 0.507844 0.259804
0.201961 0.503922 0.255883
0.279412 0.496078 0.248039
0.383333 0.484804 0.232353
0.511764 0.466666 0.205882
0.644118 0.441177 0.178431
0.756863 0.413726 0.156863
0.850490 0.375980 0.140686
0.925490 0.322549 0.129412
0.298530 0.665686 0.269608
0.327941 0.661765 0.265686
0.390196 0.657843 0.257844
0.487745 0.650000 0.242647
0.601470 0.638235 0.223529
0.708824 0.622549 0.202942
0.806373 0.603431 0.186764
0.888236 0.583333 0.178431
0.960784 0.549510 0.177451
0.489216 0.765686 0.242157
0.508823 0.764706 0.240196
0.553921 0.760784 0.232353
0.620098 0.753922 0.223039
0.700000 0.746079 0.209804
0.778922 0.738235 0.200000
0.852941 0.727451 0.194117
0.922059 0.715687 0.194117
0.988235 0.700000 0.201961
0.679412 0.831863 0.160784
0.687745 0.831863 0.160294
0.714706 0.827941 0.156863
0.753431 0.826470 0.152941
0.802451 0.821078 0.145098
0.852941 0.816176 0.145098
0.907353 0.812255 0.145588
0.961764 0.804412 0.155882
1.000000 0.796568 0.176961
0.858824 0.886275 0.000000
0.862745 0.886275 0.000000
0.874510 0.886275 0.000000
0.894118 0.882843 0.000000
0.919608 0.882353 0.000000
0.950490 0.879902 0.003922
0.988235 0.878431 0.003922
1.000000 0.874510 0.003922
1.000000 0.869608 0.007843
0.000000 0.003922 0.222059
0.030883 0.000000 0.209314
0.093137 0.000000 0.200981
0.175000 0.000000 0.186765
0.282353 0.000000 0.163725
0.434314 0.000000 0.128921
0.590196 0.000000 0.094118
0.722059 0.000000 0.067647
0.821078 0.000000 0.059804
0.042647 0.105392 0.259804
0.077451 0.097549 0.251961
0.136274 0.085785 0.244608
0.220588 0.070098 0.228432
0.329411 0.047059 0.202941
0.476961 0.019118 0.167647
0.620098 0.000000 0.129412
0.735294 0.000000 0.099020
0.823529 0.000000 0.080392
0.106372 0.201961 0.294118
0.129412 0.198039 0.291177
0.175490 0.187255 0.282353
0.260294 0.171569 0.267647
0.375490 0.150980 0.242157
0.519608 0.117647 0.208824
0.652941 0.078922 0.175490
0.761764 0.032843 0.149019
0.843137 0.000000 0.129412
0.095588 0.338235 0.336764
0.136765 0.334314 0.334314
0.213235 0.326471 0.326471
0.313235 0.310785 0.310785
0.437745 0.291177 0.287745
0.575490 0.259804 0.258333
0.700000 0.224510 0.229902
0.799019 0.180883 0.207353
0.874510 0.122549 0.191667
0.145098 0.523529 0.383333
0.189706 0.519608 0.380392
0.271569 0.513235 0.373529
0.379412 0.501961 0.359804
0.511764 0.484314 0.338235
0.638725 0.460784 0.316667
0.750981 0.430882 0.297059
0.841667 0.395588 0.281373
0.915686 0.341176 0.269608
0.285294 0.681372 0.411274
0.316177 0.680392 0.408824
0.382353 0.674510 0.402451
0.479902 0.665686 0.390686
0.593137 0.653922 0.375980
0.700000 0.639216 0.361765
0.794118 0.622549 0.351471
0.875000 0.601470 0.344608
0.948040 0.569118 0.343628
0.477451 0.781373 0.407353
0.497059 0.781373 0.406373
0.542157 0.777451 0.400980
0.608333 0.772059 0.394608
0.685294 0.765686 0.387745
0.763235 0.756373 0.379902
0.836274 0.747059 0.378431
0.904902 0.735294 0.379902
0.971078 0.719608 0.387745
0.663725 0.851470 0.359804
0.673039 0.849510 0.359804
0.699019 0.847549 0.356863
0.736765 0.843627 0.355882
0.782843 0.839706 0.355882
0.834804 0.835784 0.355882
0.887255 0.831863 0.359804
0.941666 0.824019 0.368137
1.000000 0.816176 0.383823
0.843137 0.904412 0.133823
0.847059 0.904412 0.133823
0.858824 0.904412 0.133823
0.878431 0.901961 0.137745
0.901961 0.901961 0.141667
0.933333 0.899020 0.145588
0.968627 0.898039 0.157353
1.000000 0.894118 0.175000
1.000000 0.890196 0.209804
0.000000 0.009804 0.333334
0.027451 0.003922 0.325491
0.093137 0.003922 0.317647
0.175000 0.000000 0.305883
0.286274 0.000000 0.286274
0.438235 0.000000 0.253431
0.590196 0.000000 0.222549
0.718137 0.000000 0.200000
0.815686 0.000000 0.192157
0.038726 0.121079 0.383823
0.074020 0.113235 0.376471
0.131862 0.101471 0.368627
0.218137 0.085785 0.357843
0.332843 0.062255 0.334804
0.477451 0.030883 0.301470
0.617647 0.006373 0.267647
0.729902 0.000000 0.242157
0.815686 0.000000 0.223529
0.094118 0.217647 0.429412
0.122059 0.213725 0.426471
0.171569 0.204902 0.418627
0.255883 0.189216 0.405883
0.376471 0.166666 0.383333
0.519608 0.133823 0.351961
0.650000 0.096078 0.320588
0.753921 0.051471 0.297059
0.835294 0.006863 0.280392
0.074510 0.356372 0.484804
0.115686 0.353922 0.480883
0.201471 0.344608 0.475980
0.306863 0.330392 0.461275
0.433824 0.306863 0.441667
0.574019 0.277941 0.414216
0.693627 0.241667 0.386765
0.788725 0.199020 0.367157
0.865196 0.140196 0.347549
0.123530 0.543138 0.547059
0.166176 0.539215 0.543138
0.255883 0.535294 0.535294
0.371569 0.523529 0.523529
0.503922 0.503922 0.503922
0.630882 0.480393 0.480883
0.740196 0.452941 0.461765
0.828431 0.415196 0.445098
0.903922 0.360784 0.431372
0.265196 0.700980 0.585784
0.297059 0.700980 0.582353
0.367647 0.697059 0.577941
0.468628 0.685784 0.566176
0.581373 0.673529 0.550980
0.685294 0.661765 0.538725
0.778432 0.644118 0.526961
0.859314 0.622549 0.515686
0.932843 0.588726 0.511274
0.459804 0.802941 0.594117
0.479902 0.801961 0.592156
0.525490 0.799019 0.588236
0.592647 0.793137 0.581373
0.669608 0.786275 0.573529
0.745588 0.777451 0.566666
0.816667 0.769607 0.561765
0.885785 0.757843 0.558824
0.952941 0.739216 0.557843
0.640196 0.873039 0.570098
0.651961 0.871078 0.570098
0.675490 0.871078 0.566666
0.714706 0.867157 0.566176
0.759314 0.863235 0.564705
0.811765 0.859314 0.562745
0.863725 0.855392 0.564705
0.918137 0.847549 0.566666
0.980392 0.837745 0.572549
0.815686 0.931372 0.419608
0.819608 0.931372 0.423530
0.831373 0.931372 0.423530
0.850980 0.929412 0.427451
0.874510 0.929412 0.431372
0.905392 0.927451 0.435294
0.940196 0.925490 0.443137
0.978922 0.923530 0.454902
1.000000 0.917647 0.476471
0.000000 0.021078 0.473529
0.023039 0.011765 0.465686
0.089216 0.010294 0.457843
0.175000 0.006863 0.449020
0.290196 0.001471 0.426470
0.442157 0.000000 0.395098
0.590196 0.000000 0.366667
0.710784 0.000000 0.344117
0.807843 0.000000 0.336274
0.038726 0.138235 0.532353
0.074020 0.130392 0.527941
0.124510 0.120589 0.520098
0.216667 0.106372 0.504902
0.334804 0.079412 0.481372
0.480882 0.046569 0.449510
0.616176 0.015196 0.417157
0.722549 0.000000 0.389216
0.807843 0.000000 0.367647
0.081372 0.235785 0.582353
0.107843 0.231863 0.578432
0.163725 0.221568 0.570588
0.256373 0.205882 0.556372
0.379412 0.182353 0.533334
0.520588 0.149510 0.498530
0.647059 0.111764 0.467647
0.748530 0.066667 0.440686
0.827451 0.014706 0.417647
0.057353 0.373529 0.636765
0.107843 0.369608 0.634314
0.198039 0.361765 0.626470
0.306863 0.346079 0.610784
0.437745 0.322549 0.587745
0.572549 0.295098 0.556863
0.689216 0.258333 0.529412
0.782353 0.214706 0.503431
0.857353 0.153922 0.479902
0.119608 0.562745 0.695098
0.158334 0.558824 0.691177
0.251961 0.550981 0.683333
0.371569 0.539215 0.669118
0.503922 0.521568 0.646568
0.628431 0.498530 0.623039
0.732353 0.469118 0.600980
0.820098 0.433334 0.580882
0.894118 0.376470 0.557843
0.259314 0.720588 0.732353
0.292647 0.716667 0.730392
0.365686 0.712745 0.724510
0.466667 0.704902 0.710294
0.575980 0.693137 0.693137
0.677451 0.677451 0.677451
0.769607 0.661765 0.662255
0.847549 0.639216 0.650000
0.921569 0.604412 0.634314
0.453921 0.820588 0.744117
0.473529 0.820588 0.744117
0.518628 0.816667 0.738725
0.583824 0.810294 0.729902
0.657843 0.804902 0.720588
0.731863 0.794608 0.708823
0.804902 0.786275 0.700980
0.871078 0.774020 0.693137
0.941176 0.754902 0.684804
0.627451 0.892157 0.736274
0.636274 0.890686 0.736274
0.659804 0.890686 0.732353
0.697059 0.886765 0.729902
0.743627 0.882843 0.724510
0.793627 0.878921 0.720588
0.847059 0.872549 0.716667
0.902451 0.867157 0.712745
0.964706 0.855392 0.708824
0.786765 0.960784 0.665686
0.790686 0.960784 0.665686
0.801471 0.960784 0.667157
0.819608 0.958333 0.667157
0.843627 0.956863 0.667157
0.874510 0.956863 0.669608
0.909804 0.952941 0.671078
0.951961 0.950490 0.673529
1.000000 0.945098 0.677451
0.000000 0.035294 0.613726
0.023039 0.025000 0.602451
0.093137 0.019608 0.594118
0.178922 0.015686 0.579902
0.298039 0.007843 0.556863
0.450000 0.000000 0.522549
0.594118 0.000000 0.491177
0.710294 0.000000 0.468137
0.803922 0.000000 0.451960
0.042647 0.152451 0.664706
0.077941 0.144608 0.656863
0.128432 0.132843 0.647549
0.225490 0.118137 0.629412
0.344608 0.091666 0.601961
0.488726 0.060295 0.566667
0.617647 0.023039 0.533823
0.721569 0.000000 0.502451
0.803922 0.000000 0.479411
0.085294 0.249019 0.703922
0.105392 0.243137 0.700000
0.166666 0.233333 0.690196
0.263726 0.215686 0.672059
0.391176 0.191176 0.645098
0.527451 0.161275 0.608823
0.649020 0.122549 0.576471
0.745588 0.075980 0.546569
0.822549 0.018627 0.519608
0.072549 0.385294 0.750981
0.122058 0.381373 0.746078
0.206373 0.373529 0.736764
0.319608 0.357843 0.719608
0.449510 0.334804 0.692157
0.580393 0.302941 0.660785
0.689706 0.269118 0.630883
0.779412 0.224510 0.603432
0.850980 0.161765 0.575981
0.125490 0.574510 0.802941
0.174020 0.570588 0.799019
0.268627 0.564705 0.789215
0.383824 0.550980 0.773529
0.514706 0.533334 0.750000
0.631373 0.510294 0.724510
0.732353 0.480393 0.700980
0.816176 0.442647 0.677451
0.890196 0.384314 0.650000
0.278922 0.732353 0.836275
0.313235 0.728431 0.832353
0.381372 0.724510 0.824509
0.476961 0.716667 0.812745
0.581863 0.704902 0.793628
0.677451 0.689216 0.777451
0.765686 0.673529 0.759314
0.841177 0.650981 0.743627
0.914215 0.616177 0.724020
0.465686 0.832353 0.848039
0.483824 0.832353 0.845098
0.526470 0.828432 0.840196
0.588725 0.821569 0.832353
0.657843 0.816667 0.820588
0.730882 0.808823 0.808823
0.798039 0.798039 0.798039
0.863725 0.785784 0.786275
0.933333 0.766667 0.774510
0.625490 0.906372 0.848039
0.636274 0.906372 0.848039
0.658824 0.902451 0.844117
0.693137 0.899510 0.840196
0.737745 0.897549 0.832844
0.786275 0.890686 0.828432
0.836765 0.886765 0.820588
0.891176 0.878921 0.812745
0.956863 0.867157 0.804902
0.772549 0.980392 0.821569
0.776471 0.980392 0.821569
0.787255 0.980392 0.820588
0.803922 0.980392 0.817647
0.827451 0.977451 0.817647
0.858824 0.976471 0.813726
0.894118 0.972549 0.812745
0.933823 0.969607 0.809804
0.999019 0.961765 0.804902
0.000000 0.047059 0.718137
0.030883 0.039216 0.706372
0.104902 0.031373 0.694608
0.194608 0.023529 0.675000
0.314216 0.011765 0.649510
0.462255 0.003922 0.614706
0.600980 0.000000 0.580882
0.710294 0.000000 0.557353
0.800000 0.000000 0.537745
0.054412 0.160294 0.757353
0.090196 0.152451 0.749510
0.143627 0.141176 0.738235
0.241176 0.121079 0.719118
0.361275 0.099020 0.686765
0.500980 0.062255 0.653431
0.621569 0.026961 0.612255
0.721569 0.003432 0.583824
0.803922 0.000000 0.560294
0.097059 0.252941 0.788725
0.118137 0.249019 0.783824
0.182353 0.238236 0.772059
0.286274 0.221568 0.752451
0.408334 0.195098 0.722059
0.540686 0.162745 0.688236
0.652941 0.126471 0.651470
0.745588 0.079902 0.623039
0.819608 0.022549 0.592647
0.116667 0.389216 0.827941
0.157353 0.385294 0.824019
0.237255 0.377451 0.812255
0.344608 0.361765 0.792647
0.469118 0.338725 0.765196
0.591666 0.306863 0.734804
0.697549 0.271569 0.704412
0.780882 0.227941 0.676961
0.850980 0.164216 0.646078
0.180883 0.580392 0.875000
0.225490 0.575490 0.871078
0.307353 0.570588 0.861275
0.414706 0.556372 0.843137
0.533824 0.539215 0.820098
0.642647 0.515686 0.794608
0.738235 0.487745 0.771078
0.816176 0.449020 0.747549
0.888235 0.388235 0.720098
0.325000 0.736274 0.906372
0.355392 0.736274 0.900491
0.414216 0.729902 0.893138
0.502451 0.722059 0.882843
0.597549 0.711275 0.867157
0.688236 0.697059 0.847549
0.766667 0.681373 0.832353
0.841177 0.657843 0.813235
0.913725 0.620098 0.793627
0.492647 0.840196 0.922059
0.508333 0.840196 0.918137
0.549019 0.836275 0.914215
0.603921 0.832353 0.900981
0.669608 0.824510 0.894608
0.734804 0.816667 0.882843
0.798039 0.805883 0.871078
0.863235 0.794118 0.859314
0.929412 0.774510 0.843627
0.636765 0.914215 0.925980
0.648039 0.914215 0.925980
0.667647 0.911765 0.922059
0.699019 0.910294 0.918137
0.739706 0.906372 0.910294
0.786275 0.902451 0.902941
0.835784 0.894608 0.898039
0.887255 0.887255 0.887255
0.952941 0.875490 0.875490
0.768627 0.996078 0.918627
0.772549 0.996078 0.918627
0.784314 0.996078 0.918137
0.800000 0.992647 0.918137
0.823529 0.992157 0.914215
0.852451 0.992157 0.910784
0.887255 0.988235 0.906862
0.925980 0.984804 0.902451
0.996078 0.976961 0.894608
0.000000 0.054902 0.792157
0.050490 0.043137 0.776471
0.127451 0.036275 0.761764
0.218137 0.027451 0.745098
0.341176 0.015686 0.715687
0.485294 0.006373 0.680882
0.612745 0.000000 0.650000
0.714706 0.000000 0.623529
0.800000 0.000000 0.603922
0.074020 0.160294 0.823529
0.112745 0.152451 0.811765
0.171569 0.136765 0.800490
0.267647 0.121079 0.776471
0.388235 0.095589 0.747059
0.522549 0.064216 0.709804
0.635785 0.025980 0.674510
0.722549 0.000000 0.643137
0.803922 0.000000 0.623529
0.117647 0.252941 0.850000
0.148040 0.246079 0.843137
0.221568 0.234314 0.830392
0.319118 0.217647 0.807843
0.438235 0.191176 0.781372
0.559804 0.161274 0.746569
0.666666 0.126471 0.712746
0.749510 0.079902 0.684804
0.819608 0.022549 0.653922
0.175000 0.389216 0.884804
0.209804 0.385294 0.878431
0.287745 0.373529 0.866667
0.383823 0.357843 0.847059
0.500490 0.334314 0.820098
0.611764 0.302941 0.790686
0.703922 0.270588 0.762254
0.783333 0.226471 0.735294
0.849510 0.161765 0.701961
0.262745 0.578431 0.927451
0.295588 0.576470 0.923530
0.364706 0.570588 0.913725
0.457843 0.556372 0.898039
0.564705 0.539215 0.874510
0.662255 0.515686 0.851470
0.748039 0.489216 0.828432
0.820098 0.448529 0.801961
0.888235 0.386274 0.774510
0.391176 0.740196 0.960784
0.414216 0.736274 0.956863
0.464706 0.732353 0.949020
0.538725 0.724510 0.937255
0.623039 0.712745 0.921569
0.703431 0.700980 0.905882
0.777451 0.685784 0.887745
0.843627 0.662746 0.870588
0.913725 0.624020 0.848529
0.535294 0.844118 0.976471
0.547059 0.844118 0.973530
0.581372 0.840196 0.968627
0.630882 0.836275 0.959313
0.685294 0.828431 0.952941
0.746569 0.820098 0.940686
0.804902 0.812745 0.930392
0.863235 0.801471 0.918628
0.929412 0.778432 0.902941
0.663235 0.922059 0.988235
0.671078 0.922059 0.988235
0.689707 0.918137 0.984804
0.716667 0.918137 0.980882
0.751471 0.914215 0.976471
0.792647 0.910294 0.969117
0.840196 0.902451 0.964706
0.887255 0.894608 0.956863
0.949510 0.882843 0.945588
0.784314 1.000000 1.000000
0.788235 1.000000 1.000000
0.796078 1.000000 1.000000
0.811765 1.000000 1.000000
0.831373 1.000000 1.000000
0.856373 1.000000 1.000000
0.887255 1.000000 1.000000
0.925490 1.000000 1.000000
1.000000 0.996078 0.996078
