Color/Kodak/Kodak Kodachrome 64 65x.cube
TITLE "Kodak Kodachrome 64"
LUT_3D_SIZE 5
DOMAIN_MIN 0.000000 0.000000 0.000000
DOMAIN_MAX 1.000000 1.000000 1.000000
0.000000 0.000000 0.000000
0.177451 0.003922 0.000000
0.554902 0.049019 0.000000
0.816667 0.094118 0.000000
0.992157 0.125490 0.000000
0.105882 0.205882 0.085295
0.251961 0.220588 0.081372
0.602941 0.245098 0.065687
0.839215 0.232353 0.041177
0.996078 0.199020 0.011765
0.188236 0.554902 0.252941
0.417647 0.572549 0.249020
0.678432 0.596078 0.235295
0.908823 0.611765 0.210784
1.000000 0.600000 0.160784
0.451960 0.777451 0.471569
0.533334 0.782353 0.468628
0.713726 0.800981 0.463726
0.911765 0.821569 0.448039
1.000000 0.836274 0.409804
0.603922 0.980392 0.654902
0.650000 0.984314 0.654902
0.770588 1.000000 0.650980
0.947059 1.000000 0.646079
1.000000 1.000000 0.627451
0.000000 0.000000 0.076470
0.139215 0.000000 0.073529
0.517648 0.019608 0.065687
0.775490 0.062745 0.048039
0.960784 0.099020 0.026471
0.066667 0.182353 0.217647
0.208824 0.194117 0.213725
0.556863 0.221568 0.200981
0.787255 0.202941 0.173530
0.952941 0.171568 0.131372
0.058824 0.522549 0.412745
0.356863 0.541176 0.410784
0.614706 0.564705 0.403922
0.840196 0.576470 0.385294
1.000000 0.564705 0.348039
0.414706 0.758824 0.556863
0.499020 0.766667 0.553921
0.677451 0.784314 0.549020
0.875490 0.801961 0.541176
1.000000 0.812745 0.521569
0.584314 0.972549 0.705882
0.630392 0.976471 0.704902
0.750981 0.992157 0.704902
0.923530 1.000000 0.698039
1.000000 1.000000 0.685294
0.000000 0.000000 0.298040
0.041176 0.000000 0.298040
0.415686 0.000000 0.294118
0.670588 0.003922 0.288235
0.852941 0.027451 0.270589
0.002942 0.135294 0.428432
0.135294 0.150000 0.426471
0.467647 0.171569 0.416667
0.691176 0.148039 0.400000
0.847059 0.103921 0.371569
0.033334 0.496078 0.566666
0.301961 0.513726 0.564705
0.552941 0.533334 0.560785
0.773529 0.541176 0.552941
0.941176 0.525490 0.533334
0.366667 0.737255 0.677451
0.452941 0.743137 0.676470
0.629412 0.758824 0.673529
0.825490 0.777451 0.668628
0.992157 0.784314 0.657843
0.549020 0.960784 0.798039
0.596078 0.964706 0.796078
0.715687 0.976471 0.796078
0.883333 0.997059 0.794118
1.000000 1.000000 0.784314
0.000000 0.000000 0.463726
0.003922 0.000000 0.463726
0.349019 0.000000 0.459804
0.593137 0.000000 0.455882
0.772549 0.000000 0.451960
0.000000 0.111764 0.572549
0.120588 0.130392 0.571568
0.419608 0.143137 0.564706
0.632353 0.117647 0.548040
0.782353 0.060784 0.525490
0.082353 0.478432 0.695098
0.270588 0.490197 0.693137
0.509804 0.509804 0.693137
0.722549 0.516667 0.685294
0.886275 0.498039 0.673529
0.331373 0.715687 0.793137
0.415686 0.722549 0.793137
0.587255 0.738235 0.793137
0.778432 0.753922 0.789215
0.941176 0.757843 0.782353
0.516667 0.949020 0.899020
0.562745 0.952941 0.899020
0.680392 0.964706 0.901961
0.844118 0.984314 0.899020
1.000000 1.000000 0.895098
0.000000 0.000000 0.549020
0.002942 0.000000 0.549020
0.317647 0.000000 0.545098
0.554902 0.000000 0.545098
0.733333 0.000000 0.541176
0.000000 0.102941 0.654902
0.133333 0.122549 0.653922
0.399020 0.127451 0.646079
0.603921 0.101961 0.634314
0.745098 0.034314 0.610784
0.103921 0.470588 0.774510
0.262745 0.478431 0.774510
0.486274 0.494117 0.774510
0.695098 0.501961 0.768627
0.852941 0.482353 0.758823
0.322549 0.703922 0.870588
0.403921 0.710784 0.870588
0.563725 0.723530 0.871568
0.750981 0.738235 0.870588
0.910784 0.742156 0.866667
0.501961 0.941176 0.980392
0.545098 0.945098 0.980392
0.656863 0.956863 0.984314
0.816667 0.976471 0.988235
1.000000 0.996078 0.996078
