Color/Kodak/Kodak Portra 160 1 - 65x.cube
TITLE "Kodak Portra 160 1 -"
LUT_3D_SIZE 5
DOMAIN_MIN 0.000000 0.000000 0.000000
DOMAIN_MAX 1.000000 1.000000 1.000000
0.000000 0.000000 0.000000
0.232353 0.000000 0.000000
0.619607 0.000000 0.000000
0.837255 0.000000 0.000000
1.000000 0.172549 0.000000
0.000000 0.227451 0.000000
0.204902 0.249019 0.000000
0.647058 0.287255 0.000000
0.845098 0.281372 0.000000
1.000000 0.330392 0.000000
0.000000 0.511764 0.000000
0.201961 0.499020 0.000000
0.507843 0.535294 0.000000
0.797058 0.573529 0.000000
1.000000 0.558824 0.000000
0.290196 0.681372 0.175490
0.340196 0.672549 0.162745
0.491177 0.674510 0.153921
0.692157 0.715687 0.187255
0.960784 0.778432 0.147059
0.525490 0.921569 0.443137
0.550000 0.918627 0.440196
0.627451 0.917647 0.439216
0.772549 0.945098 0.454902
0.949020 0.976471 0.482353
0.000000 0.011765 0.263726
0.251961 0.000000 0.267647
0.631373 0.000000 0.266667
0.811765 0.085294 0.256863
0.991177 0.229412 0.259804
0.000000 0.295098 0.270588
0.275490 0.291177 0.275490
0.622549 0.287255 0.267647
0.813726 0.300000 0.251961
0.994117 0.352941 0.253922
0.209804 0.550980 0.301961
0.306863 0.531373 0.281373
0.531373 0.547059 0.284314
0.798039 0.571569 0.247059
1.000000 0.560785 0.210784
0.350000 0.696079 0.337255
0.390196 0.687255 0.324510
0.501961 0.676471 0.304902
0.697059 0.718628 0.341176
0.964706 0.780392 0.328431
0.525490 0.925490 0.490196
0.549020 0.922549 0.486275
0.626470 0.921569 0.481372
0.767647 0.942157 0.494118
0.951961 0.976471 0.521569
0.000000 0.084314 0.601961
0.291177 0.115686 0.605882
0.619607 0.203922 0.613725
0.826470 0.334313 0.591176
0.984314 0.374510 0.574510
0.124510 0.336274 0.591176
0.350981 0.359804 0.600000
0.608824 0.400981 0.604902
0.804902 0.448039 0.593137
0.975491 0.437255 0.567647
0.243138 0.603921 0.582353
0.387255 0.600000 0.584313
0.580392 0.582353 0.578431
0.765686 0.570588 0.558823
0.968627 0.568628 0.541176
0.425490 0.746079 0.559804
0.471569 0.740196 0.561765
0.551961 0.706863 0.536274
0.711765 0.731373 0.549019
0.980392 0.776471 0.540196
0.523529 0.939215 0.605882
0.549020 0.937255 0.601961
0.621568 0.933333 0.586275
0.761764 0.946079 0.586275
0.952941 0.980392 0.615686
0.307843 0.275490 0.793137
0.425490 0.300980 0.793137
0.618627 0.369607 0.793137
0.800981 0.444117 0.794118
0.988235 0.514706 0.797058
0.371569 0.430392 0.782353
0.456863 0.441176 0.782353
0.624510 0.483333 0.790196
0.796078 0.527451 0.792157
0.983333 0.573530 0.799020
0.367647 0.582353 0.752941
0.453921 0.594117 0.760784
0.613725 0.619607 0.770588
0.783333 0.651961 0.784314
0.983334 0.681372 0.800981
0.437255 0.787255 0.766667
0.489216 0.790196 0.769607
0.604902 0.782353 0.766667
0.765686 0.765686 0.761764
0.984314 0.750981 0.743137
0.550000 0.972549 0.769607
0.575490 0.970588 0.770588
0.639215 0.968627 0.763725
0.754902 0.957843 0.738235
0.971569 0.988235 0.765686
0.533333 0.517647 0.980392
0.572549 0.525490 0.977451
0.680392 0.552941 0.980392
0.816667 0.596078 0.976471
0.976471 0.627451 0.976471
0.545098 0.579412 0.979412
0.583333 0.584314 0.976471
0.685294 0.602942 0.976471
0.823530 0.635295 0.976471
0.976471 0.661765 0.976471
0.541176 0.680392 0.976471
0.575490 0.678432 0.976471
0.680392 0.692157 0.976471
0.819608 0.715687 0.976471
0.980392 0.739216 0.980392
0.487255 0.805883 0.973530
0.524510 0.804902 0.976471
0.625490 0.793137 0.980392
0.817647 0.816667 0.981372
0.985294 0.852941 0.985294
0.549020 1.000000 0.984314
0.584314 1.000000 0.984314
0.682353 1.000000 0.988235
0.829412 1.000000 0.989216
1.000000 1.000000 1.000000
