Color/Kodak/Kodak Elite Color 400 65x.cube
TITLE "Kodak Elite Color 400"
LUT_3D_SIZE 65
DOMAIN_MIN 0.000000 0.000000 0.000000
DOMAIN_MAX 1.000000 1.000000 1.000000
0.000000 0.000000 0.000000
0.004841 0.000000 0.000000
0.009681 0.000000 0.000000
0.015686 0.000000 0.000000
0.023284 0.000000 0.000000
0.032047 0.000000 0.000000
0.044730 0.000000 0.000000
0.053493 0.000000 0.000000
0.065687 0.000000 0.000000
0.074939 0.000000 0.000000
0.087623 0.000000 0.000000
0.096385 0.000000 0.000000
0.105147 0.000000 0.000000
0.117831 0.000000 0.000000
0.130515 0.000000 0.000000
0.143198 0.000000 0.000000
0.154902 0.000000 0.000000
0.168504 0.000000 0.000000
0.178187 0.000000 0.000000
0.191789 0.000000 0.000000
0.205392 0.000000 0.000000
0.218995 0.000000 0.000000
0.228676 0.000000 0.000000
0.242280 0.000000 0.000000
0.255883 0.000000 0.000000
0.269485 0.000000 0.000000
0.282721 0.000000 0.000000
0.295405 0.000000 0.000000
0.310294 0.000000 0.000000
0.323897 0.000000 0.000000
0.341421 0.000000 0.000000
0.355024 0.000000 0.000000
0.372549 0.000000 0.000000
0.390074 0.000000 0.000000
0.407598 0.000000 0.000000
0.425122 0.000000 0.000000
0.442647 0.000000 0.000000
0.460172 0.000000 0.000000
0.481618 0.000000 0.000000
0.499142 0.000000 0.000000
0.516667 0.000000 0.000000
0.534191 0.000000 0.000000
0.551716 0.000000 0.000000
0.569240 0.000000 0.000000
0.587990 0.000000 0.000000
0.608211 0.000000 0.000000
0.625735 0.000000 0.000000
0.643260 0.000000 0.000000
0.660785 0.000000 0.000000
0.678309 0.000000 0.000000
0.695833 0.000000 0.000000
0.713358 0.000000 0.000000
0.734068 0.000000 0.000000
0.748407 0.000000 0.003922
0.765931 0.003922 0.003922
0.783456 0.003922 0.003922
0.800980 0.000000 0.003922
0.818505 0.000000 0.003922
0.833701 0.000000 0.003922
0.849632 0.000000 0.003922
0.867157 0.000000 0.003922
0.880760 0.001164 0.003922
0.898285 0.003922 0.003922
0.912806 0.003922 0.003922
0.929412 0.003922 0.003922
0.000000 0.004841 0.000000
0.009681 0.003922 0.000000
0.018443 0.003922 0.000000
0.027206 0.000919 0.000000
0.035969 0.000919 0.000000
0.044730 0.000919 0.000000
0.058088 0.000919 0.000000
0.066176 0.000000 0.000000
0.074938 0.000000 0.000000
0.087623 0.000000 0.000000
0.096385 0.000000 0.000000
0.109068 0.000000 0.000000
0.117831 0.000000 0.000000
0.130515 0.000000 0.000000
0.143382 0.000000 0.000000
0.153983 0.000000 0.000000
0.164644 0.000000 0.000000
0.177328 0.000000 0.000000
0.189951 0.000000 0.000000
0.202696 0.000000 0.000000
0.217157 0.000000 0.000000
0.227758 0.000000 0.000000
0.240748 0.000000 0.000000
0.254044 0.000000 0.000000
0.262194 0.000000 0.000000
0.274877 0.000000 0.000000
0.291483 0.000000 0.000000
0.304167 0.000000 0.000000
0.316851 0.000000 0.000000
0.332659 0.000000 0.000000
0.349265 0.000000 0.000000
0.366789 0.000000 0.000000
0.381311 0.000000 0.000000
0.398836 0.000000 0.000000
0.416360 0.000000 0.000000
0.433885 0.000000 0.000000
0.451410 0.000000 0.000000
0.468934 0.000000 0.000000
0.486458 0.000000 0.000000
0.503983 0.000000 0.000000
0.521507 0.000000 0.000000
0.539032 0.000000 0.000000
0.556557 0.000000 0.000000
0.577084 0.000000 0.000000
0.594608 0.000000 0.000000
0.612132 0.000000 0.000000
0.629657 0.000000 0.000000
0.648101 0.000000 0.000000
0.665625 0.000000 0.000000
0.683149 0.000000 0.000000
0.700674 0.000000 0.000000
0.718199 0.000000 0.000000
0.735723 0.000000 0.000000
0.752329 0.000000 0.003922
0.769853 0.003922 0.003922
0.787377 0.003922 0.003922
0.805331 0.000000 0.003922
0.818014 0.000000 0.003922
0.836030 0.000000 0.003922
0.853554 0.000000 0.003922
0.867157 0.000000 0.003922
0.884681 0.001164 0.003922
0.897121 0.003922 0.003922
0.915809 0.003922 0.003922
0.929412 0.003922 0.003922
0.005760 0.013603 0.000000
0.012684 0.009681 0.000000
0.023284 0.009681 0.000000
0.032046 0.006924 0.000000
0.040808 0.007843 0.000000
0.051654 0.005760 0.000000
0.062255 0.005760 0.000000
0.071018 0.005760 0.000000
0.085294 0.003922 0.000000
0.091054 0.003922 0.000000
0.105147 0.003922 0.000000
0.113909 0.001838 0.000000
0.122671 0.001838 0.000000
0.133701 0.001838 0.000000
0.147304 0.000000 0.000000
0.160723 0.000000 0.000000
0.174510 0.000000 0.000000
0.182170 0.000000 0.000000
0.196936 0.000000 0.000000
0.207537 0.000000 0.000000
0.221078 0.000000 0.000000
0.234681 0.000000 0.000000
0.245588 0.000000 0.000000
0.258272 0.000000 0.000000
0.267034 0.000000 0.000000
0.279718 0.000000 0.000000
0.296324 0.000000 0.000000
0.308456 0.000000 0.000000
0.321691 0.000000 0.000000
0.339583 0.000000 0.000000
0.353186 0.000000 0.000000
0.371507 0.000000 0.000000
0.386152 0.000000 0.000000
0.403676 0.000000 0.000000
0.417402 0.000000 0.000000
0.436887 0.000000 0.000000
0.454412 0.000000 0.000000
0.471937 0.000000 0.000000
0.489461 0.000000 0.000000
0.506985 0.000000 0.000000
0.524510 0.000000 0.000000
0.542034 0.000000 0.000000
0.559559 0.000000 0.000000
0.578922 0.000000 0.000000
0.596446 0.000000 0.000000
0.613971 0.000000 0.000000
0.633578 0.000000 0.000000
0.651103 0.000000 0.000000
0.668628 0.000000 0.000000
0.686152 0.000000 0.000000
0.703676 0.000000 0.000000
0.721201 0.000000 0.000000
0.738726 0.000000 0.000000
0.756250 0.000000 0.003922
0.769118 0.003922 0.003922
0.787377 0.003922 0.003922
0.804902 0.000000 0.003922
0.822427 0.000000 0.003922
0.835540 0.000000 0.003922
0.853554 0.000000 0.003922
0.867157 0.000000 0.003922
0.884681 0.003922 0.003922
0.900123 0.003922 0.003922
0.915809 0.003922 0.003922
0.933333 0.003922 0.003922
0.010601 0.018444 0.000000
0.019362 0.018444 0.000000
0.028125 0.016605 0.000000
0.036888 0.014522 0.000000
0.045650 0.014522 0.000000
0.055576 0.011765 0.000000
0.067095 0.012929 0.000000
0.075612 0.010601 0.000000
0.089216 0.010601 0.000000
0.098468 0.007843 0.000000
0.109987 0.007843 0.000000
0.118750 0.008333 0.000000
0.128677 0.006679 0.000000
0.137623 0.006679 0.000000
0.151226 0.003922 0.000000
0.165563 0.003922 0.000000
0.178431 0.003922 0.000000
0.187009 0.002758 0.000000
0.200858 0.002758 0.000000
0.212377 0.000000 0.000000
0.225061 0.000000 0.000000
0.234988 0.000000 0.000000
0.247672 0.000000 0.000000
0.257966 0.000000 0.000000
0.271569 0.000000 0.000000
0.284559 0.000000 0.000000
0.298407 0.000000 0.000000
0.313848 0.000000 0.000000
0.325981 0.000000 0.000000
0.339215 0.000000 0.000000
0.359743 0.000000 0.000000
0.373468 0.000000 0.000000
0.388235 0.000000 0.000000
0.405760 0.000000 0.000000
0.423284 0.000000 0.000000
0.440809 0.000000 0.000000
0.458333 0.000000 0.000000
0.475858 0.000000 0.000000
0.493383 0.000000 0.000000
0.510907 0.000000 0.000000
0.528431 0.000000 0.000000
0.545956 0.000000 0.000000
0.563481 0.000000 0.000000
0.581005 0.000000 0.000000
0.598529 0.000000 0.000000
0.616054 0.000000 0.000000
0.633578 0.000000 0.000000
0.651103 0.000000 0.000000
0.668628 0.000000 0.000000
0.686152 0.000000 0.000000
0.703676 0.000000 0.000000
0.721201 0.000000 0.000000
0.738726 0.000000 0.000000
0.756250 0.000000 0.003922
0.773775 0.003922 0.003922
0.790135 0.003922 0.003922
0.804902 0.000000 0.003922
0.822427 0.000000 0.003922
0.840380 0.000000 0.003922
0.853554 0.000000 0.003922
0.873590 0.000000 0.003922
0.884681 0.003922 0.003922
0.902206 0.003922 0.003922
0.915809 0.003922 0.003922
0.933333 0.003922 0.003922
0.015686 0.027206 0.000000
0.024204 0.023529 0.000000
0.032965 0.023284 0.000000
0.041728 0.023284 0.000000
0.050490 0.023284 0.000000
0.059498 0.019363 0.000000
0.071937 0.019363 0.000000
0.079534 0.019363 0.000000
0.093383 0.015686 0.000000
0.098897 0.015441 0.000000
0.111152 0.015441 0.000000
0.123590 0.011765 0.000000
0.132598 0.012255 0.000000
0.141544 0.011520 0.000000
0.155147 0.011520 0.000000
0.170405 0.007843 0.000000
0.179412 0.007843 0.000000
0.191851 0.007598 0.000000
0.201716 0.003922 0.000000
0.217219 0.003922 0.000000
0.226225 0.003922 0.000000
0.238603 0.003983 0.000000
0.248284 0.003677 0.000000
0.261888 0.003677 0.000000
0.276715 0.000000 0.000000
0.289399 0.000000 0.000000
0.298774 0.000000 0.000000
0.312377 0.000000 0.000000
0.331372 0.000000 0.000000
0.343505 0.000000 0.000000
0.357108 0.000000 0.000000
0.374632 0.000000 0.000000
0.392157 0.000000 0.000000
0.410478 0.000000 0.000000
0.426961 0.000000 0.000000
0.440809 0.000000 0.000000
0.458333 0.000000 0.000000
0.475858 0.000000 0.000000
0.493383 0.000000 0.000000
0.510907 0.000000 0.000000
0.528431 0.000000 0.000000
0.545956 0.000000 0.000000
0.563481 0.000000 0.000000
0.584682 0.000000 0.000000
0.602205 0.000000 0.000000
0.619730 0.000000 0.000000
0.636642 0.000000 0.000000
0.655025 0.000000 0.000000
0.672549 0.000000 0.000000
0.690074 0.000000 0.000000
0.707598 0.000000 0.000000
0.725122 0.000000 0.000000
0.738726 0.000000 0.000000
0.756250 0.000000 0.003922
0.773775 0.003922 0.003922
0.791299 0.000245 0.003922
0.804902 0.000000 0.003922
0.822427 0.000000 0.003922
0.839951 0.000000 0.003922
0.853554 0.000000 0.003922
0.871078 0.000000 0.003922
0.884681 0.003922 0.003922
0.902206 0.003922 0.003922
0.915809 0.003922 0.003922
0.933333 0.003922 0.003922
0.023529 0.039890 0.000000
0.029044 0.035968 0.000000
0.037132 0.035968 0.000000
0.045895 0.032721 0.000000
0.054657 0.032047 0.000000
0.064093 0.032047 0.000000
0.072855 0.028125 0.000000
0.087377 0.028125 0.000000
0.094301 0.024877 0.000000
0.106985 0.024203 0.000000
0.115747 0.024203 0.000000
0.127757 0.018689 0.000674
0.139705 0.020282 0.000674
0.149878 0.020282 0.000674
0.162990 0.016360 0.000674
0.171323 0.016360 0.000674
0.186274 0.013419 0.000674
0.196017 0.012439 0.000674
0.208701 0.012439 0.000674
0.218137 0.011765 0.000674
0.232843 0.008517 0.000674
0.242831 0.008517 0.000674
0.255515 0.007843 0.000674
0.264951 0.007843 0.000674
0.277635 0.004596 0.000674
0.293015 0.004596 0.003922
0.302696 0.003922 0.003922
0.320220 0.003922 0.003922
0.333824 0.003922 0.003922
0.347427 0.000674 0.003922
0.361703 0.000000 0.003922
0.378554 0.000000 0.000674
0.396079 0.000000 0.000674
0.410356 0.000000 0.000674
0.424081 0.000000 0.000674
0.444730 0.000000 0.000674
0.462255 0.000000 0.000674
0.479780 0.000000 0.000674
0.497304 0.000000 0.000000
0.514829 0.000000 0.000000
0.532353 0.000000 0.000000
0.549877 0.000000 0.000000
0.567402 0.000000 0.000000
0.584927 0.000000 0.000000
0.602451 0.000000 0.000000
0.619975 0.000000 0.000000
0.637500 0.000000 0.000000
0.655025 0.000000 0.000000
0.672549 0.000000 0.000000
0.690074 0.000000 0.000000
0.707598 0.000000 0.000000
0.725122 0.000000 0.000000
0.742647 0.000000 0.000000
0.760172 0.000000 0.003922
0.771875 0.003922 0.003922
0.791299 0.000429 0.003922
0.808823 0.000000 0.003922
0.824938 0.000000 0.003922
0.839951 0.000000 0.003922
0.857476 0.000000 0.003922
0.871078 0.000000 0.003922
0.888603 0.003922 0.003922
0.902206 0.003922 0.003922
0.919731 0.003922 0.003922
0.933333 0.003922 0.003922
0.029044 0.050245 0.003922
0.036887 0.048652 0.003922
0.042647 0.046323 0.003922
0.048652 0.044730 0.003922
0.058579 0.044730 0.003922
0.068934 0.040809 0.003922
0.077696 0.040809 0.003922
0.088787 0.038480 0.003922
0.099143 0.036887 0.003922
0.110233 0.034559 0.003922
0.120588 0.032966 0.003922
0.129350 0.032966 0.003922
0.143627 0.027451 0.003922
0.154718 0.029044 0.003922
0.167402 0.025122 0.003922
0.176164 0.025122 0.003922
0.190196 0.025122 0.003922
0.197611 0.021201 0.003922
0.209559 0.021201 0.003922
0.223162 0.017279 0.003922
0.234069 0.017279 0.003922
0.244424 0.013664 0.003922
0.256127 0.013358 0.003922
0.269731 0.013358 0.003922
0.283334 0.011765 0.003922
0.296936 0.009436 0.003922
0.306617 0.007843 0.003922
0.320220 0.007843 0.003922
0.337745 0.005515 0.003922
0.351348 0.002390 0.003922
0.364951 0.005393 0.003922
0.382475 0.000000 0.003922
0.397672 0.000000 0.003922
0.413603 0.000000 0.003922
0.431128 0.000000 0.003922
0.449449 0.000000 0.003922
0.463848 0.000000 0.003922
0.481373 0.000000 0.003922
0.498897 0.000000 0.003922
0.516422 0.000000 0.003922
0.533946 0.000000 0.004045
0.551471 0.000000 0.001593
0.568995 0.000000 0.000000
0.586520 0.000000 0.000000
0.604044 0.000000 0.000000
0.623897 0.000000 0.000000
0.641421 0.000000 0.000000
0.658947 0.000000 0.000000
0.676471 0.000000 0.000000
0.693995 0.000000 0.000000
0.709192 0.000000 0.000000
0.722978 0.000000 0.000000
0.742647 0.000000 0.000000
0.760172 0.000000 0.003922
0.777696 0.003922 0.003922
0.789400 0.000429 0.003922
0.808823 0.000000 0.003922
0.826348 0.000000 0.003922
0.839951 0.000000 0.003922
0.857476 0.000000 0.003922
0.871078 0.000000 0.003922
0.888603 0.003922 0.003922
0.902206 0.003922 0.003922
0.919731 0.003922 0.003922
0.933333 0.000000 0.003922
0.037807 0.061336 0.003922
0.042648 0.059926 0.003922
0.048897 0.057415 0.003922
0.056250 0.057415 0.003922
0.061336 0.056005 0.003922
0.073774 0.053493 0.003922
0.081618 0.052083 0.003922
0.092709 0.049571 0.003922
0.103982 0.049571 0.003922
0.114154 0.045650 0.003922
0.125429 0.045650 0.003922
0.134191 0.041728 0.003922
0.147549 0.041728 0.003922
0.159559 0.037807 0.003922
0.169730 0.037807 0.003922
0.181005 0.036397 0.003922
0.191176 0.033885 0.003922
0.202451 0.033885 0.003922
0.215135 0.029964 0.003922
0.225306 0.026042 0.003922
0.236581 0.026042 0.006618
0.250367 0.022426 0.006434
0.261949 0.022120 0.003922
0.274632 0.020589 0.003922
0.284804 0.018199 0.003922
0.297488 0.014828 0.003922
0.312684 0.014277 0.006434
0.324142 0.014277 0.003922
0.337745 0.012071 0.003922
0.355270 0.010356 0.003922
0.368872 0.010232 0.003922
0.384988 0.003922 0.003922
0.400000 0.004474 0.003922
0.417525 0.002513 0.003922
0.435049 -0.001287 0.003922
0.448652 0.000000 0.003922
0.466176 0.000000 0.003922
0.483701 0.000000 0.003922
0.501226 0.000000 0.003922
0.518750 0.000000 0.003922
0.536274 0.000000 0.003922
0.553799 0.000000 0.003922
0.571324 0.000000 0.003922
0.588848 0.000000 0.002513
0.606373 0.000000 0.002513
0.623897 0.000000 0.002513
0.641421 0.000000 0.000000
0.658947 0.000000 0.000000
0.676471 0.000000 0.000000
0.693995 0.000000 0.000000
0.711520 0.000000 0.000000
0.729044 0.000000 0.000000
0.745159 0.000000 0.000000
0.760172 0.001655 0.003922
0.777696 0.003922 0.003922
0.795220 0.000429 0.003922
0.808823 0.000000 0.003922
0.826348 0.000000 0.003922
0.844057 0.000000 0.003922
0.857476 0.000000 0.003922
0.874755 0.000000 0.003922
0.888603 0.003922 0.003922
0.904044 0.003922 0.003922
0.919731 0.003922 0.003922
0.933333 0.000000 0.003922
0.046569 0.074020 0.007353
0.051410 0.070098 0.007353
0.058334 0.070098 0.007353
0.062255 0.070772 0.007353
0.069853 0.069608 0.007353
0.078616 0.066177 0.007353
0.085539 0.065687 0.007353
0.096630 0.062255 0.007353
0.108824 0.062255 0.007353
0.118076 0.058334 0.007353
0.126838 0.060417 0.007353
0.139031 0.054412 0.007843
0.148285 0.054412 0.007843
0.164399 0.050490 0.007843
0.170833 0.052819 0.007843
0.185845 0.046569 0.007843
0.194117 0.047059 0.007843
0.207720 0.042218 0.007843
0.219975 0.038726 0.007843
0.229228 0.038726 0.007843
0.241421 0.034804 0.007843
0.250674 0.034804 0.007843
0.266789 0.030883 0.007843
0.276042 0.032782 0.007843
0.287255 0.026961 0.007843
0.300858 0.026961 0.007843
0.317525 0.023039 0.007843
0.330208 0.021753 0.007843
0.341667 0.019118 0.007843
0.355270 0.015992 0.007843
0.376102 0.015074 0.007843
0.386397 0.011275 0.007843
0.403921 0.009313 0.007843
0.421997 0.007353 0.007843
0.434681 0.003922 0.007843
0.452573 0.006557 0.007843
0.470098 0.000000 0.007843
0.487132 0.000000 0.007843
0.504657 0.000000 0.007843
0.522182 0.000000 0.007353
0.539706 0.000000 0.007353
0.557230 0.000000 0.003922
0.574755 0.000000 0.003922
0.592279 0.000000 0.003922
0.609804 0.000000 0.003922
0.627329 0.000000 0.003922
0.644853 0.000000 0.003922
0.662377 0.000000 0.003432
0.679902 0.000000 0.003432
0.693995 0.000000 0.000000
0.711520 0.000000 0.000000
0.729044 0.000000 0.000000
0.746569 0.000000 0.000735
0.765869 0.001655 0.003922
0.777696 0.003922 0.003922
0.795220 0.000429 0.003922
0.815687 0.000000 0.003922
0.826348 0.000000 0.003922
0.843873 0.000000 0.003922
0.857476 0.000000 0.003922
0.875000 0.000000 0.003922
0.888603 0.003922 0.003922
0.906128 0.003922 0.003922
0.919731 0.003922 0.003922
0.937255 0.000000 0.003922
0.055331 0.086704 0.008272
0.059253 0.082292 0.008272
0.063174 0.082782 0.008272
0.069854 0.082782 0.008272
0.074693 0.075612 0.008272
0.083027 0.078860 0.008272
0.093382 0.075368 0.008272
0.100980 0.074939 0.008272
0.113235 0.074939 0.008272
0.121998 0.071017 0.008272
0.131189 0.071017 0.008272
0.143443 0.065257 0.008272
0.152635 0.067096 0.008272
0.165074 0.063174 0.011765
0.177574 0.063174 0.011765
0.186765 0.057660 0.011765
0.199020 0.059253 0.011765
0.208212 0.051900 0.011765
0.221324 0.050980 0.011765
0.233150 0.051409 0.011765
0.244608 0.045220 0.011765
0.254596 0.047488 0.011765
0.267892 0.043566 0.011765
0.279963 0.038542 0.011765
0.289155 0.039645 0.011765
0.301838 0.035723 0.011765
0.318444 0.031802 0.011765
0.331985 0.030515 0.011765
0.343811 0.027880 0.011765
0.356495 0.023958 0.011765
0.377022 0.020037 0.011765
0.389705 0.016115 0.011765
0.407844 0.015686 0.011765
0.425368 0.012194 0.011765
0.435601 0.011765 0.011765
0.456495 0.007843 0.011765
0.474019 0.004351 0.011765
0.488051 0.003922 0.011765
0.505576 0.000429 0.008272
0.522672 0.000000 0.008272
0.540196 0.000000 0.008272
0.557720 0.000000 0.008272
0.575245 0.000000 0.004963
0.592770 0.000000 0.007843
0.610294 0.000000 0.007843
0.627819 0.000000 0.007843
0.645343 0.000000 0.004351
0.662868 0.000000 0.003922
0.680392 0.000000 0.003922
0.697917 0.000000 0.003922
0.715441 0.000000 0.003922
0.732965 0.000000 0.003922
0.746262 0.000000 0.003922
0.764093 0.003922 0.003922
0.781618 0.003922 0.003922
0.792156 0.000000 0.003922
0.812745 0.000000 0.003922
0.830270 0.000000 0.003922
0.843873 0.000000 0.003922
0.861397 0.000000 0.003922
0.875000 0.000429 0.003922
0.891360 0.003922 0.003922
0.906128 0.003922 0.003922
0.920650 0.003922 0.003922
0.937255 0.003922 0.003922
0.064093 0.096814 0.013113
0.068015 0.095466 0.013113
0.071936 0.095466 0.013113
0.075858 0.092892 0.013113
0.079779 0.089216 0.013113
0.088297 0.092218 0.013113
0.097059 0.088971 0.013113
0.105821 0.087623 0.013113
0.114584 0.085049 0.013113
0.125919 0.083701 0.013113
0.136029 0.081127 0.013113
0.144792 0.079779 0.013113
0.159313 0.079779 0.013113
0.170159 0.075858 0.013113
0.181495 0.073284 0.013113
0.190257 0.071936 0.013113
0.200368 0.069363 0.015686
0.215563 0.068015 0.015686
0.224387 0.064093 0.015686
0.234498 0.064093 0.015686
0.245833 0.060172 0.015686
0.255944 0.057598 0.015686
0.267892 0.056986 0.015686
0.281311 0.052328 0.015686
0.295098 0.047304 0.015686
0.308701 0.048407 0.013113
0.318382 0.045465 0.015686
0.335968 0.040564 0.015686
0.349510 0.035784 0.015686
0.361336 0.030944 0.015686
0.376716 0.028799 0.015686
0.394240 0.024877 0.015992
0.411764 0.020956 0.013113
0.423836 0.018076 0.013113
0.442892 0.017034 0.013113
0.457843 0.013113 0.013113
0.473652 0.011765 0.013113
0.491545 0.006556 0.013113
0.509069 0.001716 0.013113
0.526593 0.004719 0.011765
0.544118 0.000000 0.011765
0.561642 0.000000 0.011765
0.576593 0.000000 0.011765
0.594118 0.000000 0.009191
0.611642 0.000000 0.009191
0.629166 0.000000 0.009191
0.646691 0.000000 0.006127
0.664216 0.000000 0.007843
0.680392 0.000000 0.007843
0.697917 0.000000 0.005270
0.715441 0.000000 0.002452
0.732965 0.000000 0.003922
0.750491 0.000000 0.003922
0.763786 0.003922 0.003922
0.781618 0.003922 0.003922
0.799142 0.000000 0.003922
0.812745 0.000000 0.003922
0.830270 0.000000 0.003922
0.845466 0.000000 0.003922
0.861397 0.000000 0.003922
0.875000 0.000245 0.003922
0.892524 0.003922 0.003922
0.906128 0.003922 0.003922
0.923652 0.003922 0.003922
0.937255 0.003922 0.003922
0.072855 0.110416 0.017953
0.076777 0.108149 0.017953
0.080698 0.108149 0.017953
0.084620 0.106495 0.017953
0.088542 0.106495 0.017953
0.096385 0.105821 0.017953
0.101899 0.102573 0.017953
0.110661 0.100306 0.017953
0.119424 0.098652 0.017953
0.129841 0.096385 0.017953
0.140870 0.097304 0.017953
0.149632 0.094730 0.017953
0.163235 0.092463 0.017953
0.175000 0.088542 0.017953
0.183762 0.086887 0.017953
0.194179 0.084620 0.017953
0.205208 0.082966 0.017953
0.215625 0.080698 0.017953
0.225245 0.076777 0.016544
0.239338 0.075122 0.019608
0.249755 0.072855 0.019608
0.260784 0.067586 0.019608
0.271813 0.067279 0.019608
0.286152 0.065748 0.019608
0.299020 0.061091 0.017953
0.312623 0.059436 0.017953
0.322304 0.055515 0.016054
0.335906 0.054228 0.019608
0.353493 0.049387 0.019608
0.367034 0.045404 0.019608
0.380637 0.041361 0.019608
0.398162 0.036519 0.020834
0.414032 0.031679 0.017953
0.429289 0.026838 0.017953
0.446814 0.025796 0.017953
0.460417 0.021079 0.017953
0.477941 0.015686 0.017953
0.495466 0.014032 0.017953
0.512991 0.010110 0.017953
0.528860 0.009558 0.015686
0.546384 0.003922 0.015686
0.561642 0.002267 0.015686
0.579167 0.000000 0.015686
0.596691 0.000000 0.014032
0.614216 0.000000 0.011765
0.631740 0.000000 0.011765
0.649264 0.000000 0.011765
0.666790 0.000000 0.011765
0.684314 0.000000 0.010110
0.701838 0.000000 0.007843
0.717709 0.000000 0.007843
0.731495 0.000000 0.007843
0.750491 0.000000 0.003922
0.768015 0.003922 0.003922
0.781312 0.001348 0.003922
0.799142 0.000000 0.003922
0.818443 0.000000 0.003922
0.830270 0.000000 0.003922
0.847794 0.000000 0.003922
0.860416 0.000000 0.003922
0.880944 0.000245 0.003922
0.892524 0.003922 0.003922
0.907966 0.003922 0.003922
0.923652 0.003922 0.003922
0.937255 0.003922 0.003922
0.081618 0.124019 0.019608
0.085540 0.124019 0.019608
0.089461 0.120834 0.019608
0.093383 0.121263 0.019608
0.097304 0.120098 0.019608
0.105147 0.116912 0.019608
0.110661 0.118505 0.019608
0.115503 0.116176 0.019608
0.124264 0.112990 0.019608
0.133762 0.112254 0.019608
0.145711 0.109069 0.019608
0.153554 0.108333 0.019608
0.167156 0.105147 0.019608
0.176655 0.104411 0.022794
0.188603 0.101226 0.022794
0.198100 0.100490 0.022794
0.210049 0.097549 0.022794
0.219547 0.096568 0.022794
0.231495 0.092647 0.022794
0.244179 0.090870 0.022794
0.252451 0.085540 0.022794
0.266054 0.084804 0.022794
0.278309 0.080882 0.023529
0.290993 0.079350 0.022794
0.303676 0.073775 0.022794
0.316544 0.073039 0.022794
0.326225 0.069117 0.022794
0.339828 0.067831 0.022794
0.358333 0.062990 0.022794
0.370956 0.058150 0.022794
0.384559 0.050245 0.022794
0.404228 0.046324 0.022794
0.415686 0.042402 0.022794
0.433211 0.038481 0.022794
0.450000 0.033946 0.022794
0.464338 0.030638 0.022794
0.481863 0.026716 0.019608
0.499939 0.022794 0.019608
0.516176 0.018873 0.019608
0.530515 0.014400 0.019608
0.548039 0.007843 0.019608
0.565563 0.007108 0.019608
0.583089 0.003922 0.018873
0.600613 0.000000 0.015686
0.618137 0.000000 0.015686
0.634927 0.000000 0.015686
0.652451 0.000000 0.015809
0.669975 0.000000 0.011765
0.684314 0.000000 0.011765
0.701838 0.000000 0.011765
0.719363 0.000000 0.012133
0.736887 0.000000 0.007291
0.750491 0.000000 0.007843
0.768015 0.003922 0.009375
0.785539 0.001348 0.003922
0.802329 0.000000 0.003922
0.816666 0.000000 0.003922
0.835969 0.000000 0.003922
0.847794 0.000000 0.003922
0.865319 0.000000 0.003922
0.878921 0.000245 0.003922
0.892524 0.003922 0.003922
0.910049 0.003922 0.003922
0.923652 0.003922 0.003922
0.941176 0.003922 0.003922
0.090380 0.137439 0.023529
0.095221 0.137439 0.023713
0.098223 0.133701 0.023713
0.102145 0.130944 0.023713
0.106066 0.133517 0.023713
0.110662 0.129780 0.023713
0.119240 0.129780 0.023713
0.121753 0.129596 0.023713
0.129105 0.129596 0.023713
0.137868 0.125429 0.023713
0.146630 0.125674 0.023713
0.159314 0.121937 0.023713
0.171814 0.121753 0.023713
0.180760 0.117831 0.023713
0.193260 0.117831 0.023713
0.204044 0.112070 0.023713
0.210968 0.110172 0.023713
0.223468 0.106311 0.023713
0.232415 0.105392 0.023713
0.246691 0.102329 0.023713
0.257598 0.102145 0.027451
0.266544 0.094792 0.027451
0.279228 0.093873 0.027451
0.291911 0.090564 0.027451
0.306863 0.090380 0.027451
0.320466 0.083272 0.023713
0.329963 0.082537 0.023713
0.347671 0.077512 0.023713
0.361275 0.072672 0.023713
0.371936 0.067831 0.023713
0.388664 0.066912 0.027451
0.406005 0.062929 0.023713
0.419791 0.059008 0.023713
0.434437 0.055086 0.023713
0.454657 0.047364 0.023713
0.468444 0.043321 0.023713
0.485784 0.037684 0.023713
0.503309 0.032843 0.023529
0.520834 0.024265 0.023529
