Color/Kodak/Kodak Elite Chrome 400 65x.cube
TITLE "Kodak Elite Chrome 400"
LUT_3D_SIZE 9
DOMAIN_MIN 0.000000 0.000000 0.000000
DOMAIN_MAX 1.000000 1.000000 1.000000
0.000000 0.000000 0.000000
0.054412 0.000000 0.000000
0.132353 0.000000 0.000000
0.236275 0.003922 0.000000
0.372549 0.011765 0.000000
0.540196 0.027451 0.000000
0.663725 0.044117 0.000000
0.785294 0.062745 0.000000
0.913725 0.082353 0.000000
0.046569 0.085295 0.015686
0.097059 0.077941 0.011275
0.175000 0.074020 0.007353
0.279412 0.070098 0.000000
0.415686 0.061765 0.000000
0.565686 0.038726 0.000000
0.676471 0.047059 0.000000
0.797059 0.063235 0.000000
0.917647 0.082353 0.000000
0.120589 0.194117 0.062745
0.148040 0.190196 0.058824
0.213725 0.182353 0.050000
0.323039 0.174510 0.035784
0.457843 0.159804 0.015686
0.591176 0.141667 0.000000
0.700000 0.106863 0.000000
0.808823 0.066667 0.000000
0.929412 0.082353 0.000000
0.131863 0.340686 0.112255
0.178431 0.338235 0.108333
0.264216 0.334314 0.100490
0.375980 0.326471 0.086275
0.509804 0.315196 0.063235
0.626470 0.284314 0.032353
0.731373 0.237746 0.003922
0.846078 0.173039 0.000000
0.945098 0.086275 0.000000
0.219608 0.509804 0.160784
0.254902 0.509804 0.155393
0.337255 0.509804 0.149020
0.443628 0.509804 0.132843
0.556863 0.505883 0.111765
0.661765 0.486765 0.082843
0.771568 0.450000 0.040197
0.884804 0.383824 0.000000
0.986274 0.260784 0.000000
0.363725 0.640686 0.242157
0.387255 0.642157 0.240686
0.441177 0.642157 0.228922
0.516177 0.642157 0.209314
0.599510 0.642157 0.173530
0.697059 0.638235 0.129412
0.802451 0.630392 0.089216
0.910784 0.611764 0.034804
1.000000 0.547059 0.000000
0.472549 0.765686 0.343137
0.487255 0.766667 0.342156
0.521568 0.766667 0.331373
0.575980 0.769607 0.314706
0.650000 0.770588 0.282353
0.735784 0.770588 0.239706
0.832353 0.770588 0.165686
0.938726 0.762745 0.070098
1.000000 0.735294 0.007843
0.573039 0.879412 0.455392
0.581372 0.879411 0.451960
0.611274 0.882843 0.447549
0.653922 0.883333 0.436274
0.712255 0.887255 0.416666
0.782353 0.891176 0.385294
0.863725 0.895098 0.325980
0.957843 0.898529 0.216176
1.000000 0.895098 0.000000
0.709804 0.996078 0.564706
0.717157 0.996078 0.564706
0.733333 1.000000 0.560784
0.760784 1.000000 0.554412
0.800000 1.000000 0.545098
0.852451 1.000000 0.527941
0.914706 1.000000 0.498039
0.988725 1.000000 0.446569
1.000000 1.000000 0.258824
0.000000 0.000000 0.050490
0.038726 0.000000 0.034804
0.116667 0.000000 0.023529
0.225000 0.000000 0.011765
0.368627 0.011765 0.003432
0.540196 0.027451 0.000000
0.667157 0.044117 0.000000
0.789215 0.062745 0.000000
0.917647 0.082353 0.000000
0.038726 0.085295 0.089216
0.081373 0.081373 0.081373
0.162745 0.074020 0.069608
0.271079 0.070098 0.053922
0.407353 0.062255 0.030883
0.559804 0.042647 0.007843
0.680392 0.047059 0.000000
0.800980 0.063235 0.000000
0.921569 0.082353 0.000000
0.112745 0.194117 0.124019
0.140196 0.191176 0.120098
0.201961 0.186274 0.108823
0.314216 0.175490 0.092647
0.450000 0.162745 0.069608
0.587255 0.140196 0.034804
0.698039 0.106863 0.003922
0.812745 0.066667 0.000000
0.932843 0.082353 0.000000
0.112255 0.342157 0.162745
0.162745 0.341176 0.158823
0.255883 0.336764 0.150980
0.368137 0.330392 0.132843
0.504412 0.315196 0.109314
0.622549 0.285294 0.075490
0.728921 0.239216 0.032353
0.842647 0.176961 0.000000
0.945098 0.086275 0.000000
0.204412 0.505883 0.213235
0.246568 0.509804 0.209314
0.325981 0.509804 0.201471
0.435785 0.509804 0.181863
0.552941 0.505883 0.152451
0.657843 0.488235 0.121079
0.766667 0.452941 0.078921
0.879412 0.387255 0.021078
0.988235 0.266667 0.000000
0.355882 0.638235 0.292647
0.379412 0.638235 0.288726
0.433824 0.640686 0.279412
0.509804 0.642157 0.262745
0.595588 0.640686 0.232353
0.689216 0.638235 0.185294
0.795098 0.630392 0.125490
0.907843 0.610294 0.067647
1.000000 0.547059 0.001471
0.465196 0.762745 0.388725
0.480392 0.762745 0.384804
0.514706 0.765686 0.376961
0.571078 0.766667 0.361274
0.642157 0.766667 0.333823
0.728431 0.769607 0.294118
0.825490 0.766667 0.230393
0.930392 0.758824 0.110294
1.000000 0.735294 0.023039
0.569117 0.879412 0.482353
0.577451 0.879412 0.478921
0.604902 0.879412 0.474510
0.650000 0.883333 0.463725
0.708333 0.886765 0.448039
0.777941 0.887255 0.422549
0.856373 0.891176 0.375490
0.950000 0.895098 0.278431
1.000000 0.891176 0.004412
0.705882 0.996078 0.587745
0.713726 0.996078 0.584314
0.729412 0.996078 0.580392
0.759314 1.000000 0.575981
0.798039 1.000000 0.564706
0.848529 1.000000 0.549020
0.910784 1.000000 0.524020
0.984804 1.000000 0.477451
1.000000 1.000000 0.320589
0.000000 0.000000 0.120589
0.026961 0.000000 0.104902
0.104902 0.000000 0.093137
0.214216 0.000000 0.073529
0.360784 0.007843 0.051960
0.532353 0.019608 0.019608
0.664706 0.043137 0.000000
0.793137 0.062745 0.000000
0.921569 0.082353 0.000000
0.026961 0.085785 0.166666
0.069608 0.081373 0.155883
0.148039 0.074020 0.144118
0.259804 0.070098 0.127941
0.399510 0.062255 0.100981
0.551961 0.042647 0.065686
0.672549 0.037255 0.021569
0.800980 0.062745 0.000000
0.925490 0.082353 0.000000
0.098039 0.198039 0.201961
0.128432 0.194117 0.198039
0.187255 0.186274 0.186274
0.302941 0.178431 0.170588
0.442157 0.163725 0.144118
0.579412 0.140196 0.106372
0.691176 0.104902 0.057844
0.808823 0.058824 0.006373
0.936274 0.082353 0.000000
0.079902 0.344608 0.249019
0.135294 0.342157 0.245098
0.236765 0.338235 0.236765
0.353432 0.330392 0.221078
0.493627 0.318628 0.193627
0.612745 0.288235 0.156863
0.721078 0.241667 0.106373
0.836274 0.176961 0.040686
0.949020 0.088726 0.000000
0.179412 0.505883 0.306863
0.223039 0.505883 0.305882
0.306863 0.505883 0.295098
0.422059 0.505883 0.279412
0.537254 0.501961 0.252941
0.643628 0.488235 0.212745
0.754902 0.454902 0.158823
0.871568 0.391177 0.094118
0.986274 0.272549 0.006863
0.336274 0.634314 0.382353
0.363235 0.634314 0.379902
0.418627 0.636765 0.372059
0.494118 0.638235 0.356373
0.581373 0.636765 0.329902
0.677451 0.632843 0.292157
0.782843 0.625490 0.235294
0.899019 0.606373 0.143627
1.000000 0.549510 0.047549
0.452941 0.758824 0.458824
0.467647 0.758824 0.455882
0.502941 0.761764 0.450980
0.557353 0.762745 0.439216
0.630392 0.762745 0.421569
0.716177 0.762745 0.392157
0.813726 0.762745 0.340196
0.918627 0.754412 0.250000
1.000000 0.728431 0.086275
0.561274 0.875490 0.530392
0.570098 0.875490 0.528922
0.597058 0.878921 0.525000
0.642157 0.879412 0.517157
0.700490 0.883333 0.505392
0.767647 0.886765 0.485785
0.848039 0.887255 0.454412
0.938235 0.887255 0.390686
1.000000 0.883333 0.210294
0.701961 0.992157 0.627451
0.709804 0.992157 0.626470
0.725490 0.996078 0.623529
0.752941 0.996078 0.618627
0.792157 1.000000 0.608823
0.843137 1.000000 0.595098
0.903922 1.000000 0.571568
0.976961 1.000000 0.531863
1.000000 1.000000 0.421568
0.000000 0.000000 0.210294
0.015196 0.000000 0.193137
0.086765 0.000000 0.178922
0.198529 0.000000 0.163235
0.349020 0.003922 0.136274
0.524510 0.013235 0.097549
0.656863 0.031373 0.049510
0.793137 0.058824 0.003922
0.925490 0.082353 0.000000
0.015686 0.085294 0.263726
0.053922 0.077941 0.255883
0.129412 0.073530 0.244118
0.244118 0.066177 0.228432
0.384313 0.058334 0.201961
0.540196 0.042647 0.162745
0.660785 0.027451 0.109804
0.793137 0.052941 0.040686
0.929412 0.082353 0.000000
0.081373 0.198039 0.306863
0.109804 0.194117 0.302941
0.170588 0.187255 0.291667
0.283334 0.178431 0.275980
0.426471 0.163725 0.252941
0.564215 0.137745 0.214216
0.678431 0.102941 0.160784
0.797058 0.050980 0.087255
0.933333 0.078431 0.003922
0.056373 0.346078 0.357843
0.093628 0.344608 0.353922
0.206863 0.340686 0.346078
0.332843 0.332843 0.332843
0.476961 0.318628 0.309314
0.597549 0.289706 0.274019
0.707843 0.241667 0.222059
0.824510 0.176961 0.148039
0.941176 0.083334 0.038726
0.136764 0.500000 0.418627
0.187745 0.501961 0.416177
0.281863 0.501961 0.410784
0.400490 0.501961 0.396569
0.519118 0.498039 0.375490
0.626470 0.486274 0.342647
0.739216 0.455882 0.294118
0.855882 0.391667 0.219608
0.974510 0.274510 0.104902
0.311765 0.630392 0.478431
0.339706 0.630392 0.478431
0.396568 0.630392 0.473039
0.474510 0.632843 0.462745
0.564215 0.630392 0.447549
0.657843 0.626470 0.422059
0.766667 0.617647 0.380392
0.879412 0.598529 0.306373
1.000000 0.545588 0.167157
0.436275 0.757843 0.532843
0.451960 0.757843 0.532843
0.487255 0.758824 0.528921
0.544608 0.758824 0.521079
0.616176 0.758824 0.509804
0.702451 0.758824 0.493627
0.797058 0.754902 0.463726
0.899019 0.743137 0.409314
1.000000 0.719608 0.271078
0.549510 0.875000 0.595098
0.558824 0.875000 0.595098
0.585785 0.875490 0.591176
0.630392 0.878921 0.583333
0.688726 0.879412 0.575490
0.758824 0.882843 0.559804
0.836765 0.883333 0.536274
0.926470 0.879412 0.496569
1.000000 0.871568 0.392157
0.698039 0.992157 0.684804
0.702941 0.992157 0.680882
0.720589 0.992157 0.680882
0.747549 0.996078 0.674510
0.786274 0.998039 0.669118
0.835294 1.000000 0.655882
0.895098 1.000000 0.636765
0.969117 1.000000 0.601961
1.000000 1.000000 0.516177
0.000000 0.000000 0.319608
0.003922 0.000000 0.305883
0.065687 0.000000 0.294118
0.175490 0.000000 0.278431
0.329411 0.000000 0.254902
0.504902 0.005392 0.215687
0.641177 0.019608 0.163725
0.779412 0.045588 0.089706
0.921569 0.076470 0.003922
0.003922 0.081863 0.379902
0.032353 0.077451 0.372549
0.103921 0.070098 0.364215
0.220588 0.062255 0.349019
0.364706 0.054412 0.326961
0.522059 0.037255 0.292157
0.641177 0.011765 0.243628
0.775490 0.035294 0.167647
0.917647 0.067157 0.054412
0.058824 0.198039 0.427451
0.089706 0.194117 0.423039
0.150980 0.190196 0.418627
0.256863 0.178431 0.406863
0.403922 0.162745 0.387255
0.545098 0.136274 0.353432
0.657843 0.097059 0.307843
0.778432 0.040686 0.236765
0.915686 0.060784 0.118627
0.042647 0.350000 0.475000
0.056373 0.348039 0.474510
0.168627 0.343628 0.470589
0.303431 0.334314 0.461275
0.453432 0.319118 0.445588
0.575490 0.291177 0.420588
0.684804 0.241667 0.379902
0.801471 0.171079 0.313235
0.921569 0.075490 0.196569
0.082353 0.498039 0.521568
0.140686 0.498039 0.518138
0.248039 0.499020 0.517648
0.375490 0.501961 0.509804
0.498039 0.498039 0.498039
0.603431 0.482843 0.478431
0.715687 0.455882 0.449019
0.832353 0.391667 0.395588
0.952941 0.270588 0.286274
0.281372 0.628922 0.564215
0.312255 0.630392 0.564215
0.373039 0.630392 0.560294
0.454902 0.630392 0.554902
0.544608 0.628922 0.544608
0.642157 0.622549 0.529411
0.747059 0.613726 0.506373
0.858824 0.591176 0.467647
0.979902 0.537745 0.372059
0.416666 0.754902 0.611765
0.432353 0.754902 0.610784
0.469608 0.754902 0.607843
0.526961 0.756863 0.602941
0.602941 0.757843 0.595098
0.688726 0.754902 0.579902
0.782353 0.750981 0.560785
0.883333 0.739216 0.525981
0.998039 0.707843 0.455882
0.534313 0.871078 0.669118
0.545588 0.871568 0.668627
0.572059 0.871568 0.665196
0.617157 0.875000 0.661275
0.676961 0.875490 0.653431
0.747059 0.878921 0.641667
0.825000 0.879412 0.622059
0.914705 0.875490 0.590196
1.000000 0.863725 0.522059
0.690196 0.988235 0.743137
0.698039 0.988235 0.743137
0.713726 0.988235 0.741176
0.741176 0.992157 0.739216
0.778431 0.996078 0.731372
0.827451 1.000000 0.723530
0.887255 1.000000 0.707843
0.957353 1.000000 0.681863
1.000000 1.000000 0.609804
0.000000 0.000000 0.446078
0.000000 0.000000 0.438235
0.034314 0.000000 0.430392
0.146079 0.000000 0.422549
0.300000 0.000000 0.400980
0.479902 0.000000 0.367647
0.616176 0.007353 0.324510
0.756373 0.023529 0.254412
0.904412 0.057353 0.133823
0.000000 0.085785 0.499020
0.015196 0.077941 0.497059
0.071569 0.070098 0.493627
0.191176 0.063235 0.486275
0.339216 0.050490 0.471569
0.497059 0.030883 0.449510
0.613726 0.006373 0.413235
0.748530 0.014706 0.350981
0.892647 0.041667 0.239216
0.028431 0.205882 0.534804
0.059314 0.201961 0.533824
0.125980 0.198039 0.529902
0.228431 0.186274 0.524510
0.378431 0.168627 0.512745
0.522059 0.137745 0.495588
0.633334 0.093137 0.469608
0.753431 0.033824 0.421078
0.887255 0.031373 0.317157
0.020098 0.357843 0.571569
0.035784 0.357843 0.570098
0.116667 0.353922 0.567647
0.272549 0.346079 0.562255
0.429902 0.330882 0.552941
0.555882 0.300000 0.538725
0.665686 0.249510 0.517647
0.779412 0.171079 0.480882
0.894118 0.063726 0.399019
0.022059 0.498039 0.607353
0.076470 0.500000 0.607353
0.208333 0.501961 0.605392
0.348039 0.501961 0.599510
0.478431 0.500000 0.591666
0.585784 0.488726 0.579902
0.699019 0.463236 0.560294
0.814216 0.401470 0.531863
0.927451 0.274510 0.471569
0.242157 0.628922 0.650000
0.276961 0.630392 0.650000
0.345588 0.630392 0.646078
0.432353 0.630392 0.642157
0.525490 0.630392 0.634314
0.622549 0.622549 0.622549
0.731373 0.613726 0.606863
0.841177 0.590686 0.579412
0.960784 0.533824 0.528431
0.392647 0.750981 0.693137
0.408824 0.753922 0.692647
0.447059 0.753922 0.692647
0.507843 0.754902 0.688726
0.583333 0.754902 0.680882
0.672059 0.754902 0.672059
0.766667 0.750981 0.656373
0.868137 0.738726 0.629902
0.984314 0.703922 0.578922
0.514706 0.867647 0.743137
0.526470 0.867647 0.743137
0.555392 0.869118 0.739216
0.600980 0.871568 0.738725
0.661275 0.875000 0.731373
0.731373 0.875490 0.723530
0.812255 0.875490 0.711275
0.899019 0.871568 0.685294
1.000000 0.858824 0.633334
0.682353 0.984314 0.805392
0.689706 0.984314 0.805392
0.705882 0.984314 0.805392
0.733333 0.988235 0.801471
0.770588 0.992157 0.797549
0.819608 0.996078 0.792157
0.875490 1.000000 0.781863
0.945588 1.000000 0.762255
1.000000 1.000000 0.708824
0.000000 0.000000 0.550981
0.000000 0.000000 0.547059
0.011765 0.000000 0.546079
0.117647 0.000000 0.538235
0.270589 0.000000 0.530392
0.452941 0.000000 0.511765
0.586275 0.000000 0.488236
0.725490 0.004412 0.448530
0.873530 0.026471 0.349019
0.000000 0.098529 0.594118
0.003922 0.093138 0.592647
0.048529 0.082353 0.590196
0.164216 0.071078 0.586275
0.316177 0.057843 0.576961
0.478432 0.034804 0.562745
0.594118 0.007353 0.543137
0.722059 0.003922 0.511275
0.859314 0.015686 0.448529
0.013725 0.221568 0.627451
0.029902 0.217647 0.625490
0.094118 0.211765 0.623529
0.197059 0.201961 0.619608
0.356863 0.182353 0.611765
0.505392 0.150980 0.600000
0.616667 0.100981 0.581373
0.734313 0.036765 0.553431
0.858824 0.011765 0.502941
0.001471 0.369608 0.662255
0.005883 0.369608 0.660785
0.052941 0.365686 0.658334
0.233824 0.360294 0.655883
0.405392 0.347059 0.649020
0.537254 0.315686 0.637255
0.649020 0.267647 0.623039
0.763725 0.183824 0.597549
0.874510 0.066176 0.552451
0.000000 0.501961 0.699019
0.010784 0.501961 0.697059
0.149020 0.503922 0.695098
0.312745 0.505883 0.693137
0.451961 0.503922 0.687255
0.563725 0.494117 0.677451
0.680392 0.471569 0.664706
0.798039 0.417647 0.642157
0.911764 0.290196 0.600000
0.181373 0.630392 0.735784
0.226471 0.630392 0.735784
0.306863 0.630392 0.735294
0.405392 0.632843 0.731863
0.501470 0.630392 0.727451
0.602941 0.626470 0.719608
0.712255 0.614706 0.706863
0.824509 0.591176 0.685294
0.942647 0.537745 0.649020
0.358824 0.750981 0.774510
0.378432 0.750981 0.774510
0.419608 0.753922 0.773529
0.481863 0.753922 0.770588
0.562745 0.754902 0.766667
0.653431 0.754902 0.758824
0.750981 0.750000 0.750981
0.851961 0.738726 0.731373
0.968627 0.703922 0.696079
0.494118 0.866667 0.817157
0.505882 0.867157 0.816666
0.534313 0.867647 0.816666
0.582843 0.867647 0.813236
0.641667 0.871568 0.809314
0.715687 0.871568 0.804902
0.797058 0.874510 0.794118
0.886275 0.871078 0.778432
0.992157 0.854902 0.743627
0.673530 0.980392 0.870588
0.678431 0.980392 0.868137
0.694118 0.982353 0.867647
0.723039 0.984314 0.867647
0.760784 0.988235 0.863726
0.809314 0.992157 0.859804
0.867647 0.996078 0.855883
0.933823 1.000000 0.840196
1.000000 1.000000 0.804902
0.000000 0.000000 0.644117
0.000000 0.000000 0.643627
0.000000 0.000000 0.640196
0.090687 0.000000 0.639706
0.247058 0.000000 0.631863
0.427451 0.000000 0.620098
0.565686 0.000000 0.603922
0.702941 0.000000 0.576961
0.843137 0.007843 0.530392
0.000000 0.117647 0.687255
0.000000 0.112745 0.686765
0.025490 0.101961 0.686275
0.128431 0.089216 0.683824
0.288236 0.073530 0.675490
0.456862 0.048529 0.666667
0.574510 0.014216 0.654411
0.702451 0.000000 0.628431
0.839216 0.003922 0.588725
0.003922 0.241176 0.718627
0.014706 0.237255 0.718627
0.053921 0.230883 0.718137
0.161275 0.221568 0.714706
0.328431 0.205882 0.710294
0.483823 0.173529 0.701471
0.598039 0.119117 0.689706
0.718137 0.048529 0.670098
0.839216 0.003922 0.631373
0.000000 0.381373 0.751961
0.000000 0.381373 0.751961
0.002941 0.381373 0.751961
0.177941 0.377451 0.749510
0.370588 0.368137 0.744117
0.512745 0.338725 0.737745
0.629412 0.292648 0.726470
0.748039 0.210784 0.710294
0.858824 0.079412 0.677451
0.000000 0.505883 0.785294
0.000000 0.505883 0.785294
0.033824 0.509804 0.784804
0.263235 0.512255 0.782843
0.421569 0.509804 0.778922
0.540196 0.501961 0.773529
0.658334 0.482353 0.766177
0.780882 0.440686 0.751471
0.898039 0.314216 0.722549
0.074510 0.632843 0.820098
0.145589 0.634314 0.820098
0.250000 0.634314 0.817647
0.366176 0.637255 0.816666
0.474019 0.634314 0.813726
0.579412 0.630392 0.808823
0.692647 0.622059 0.801961
0.805883 0.599019 0.790196
0.925490 0.545588 0.765686
0.315687 0.750981 0.852451
0.338235 0.753922 0.852451
0.382353 0.753922 0.852451
0.450981 0.754902 0.851961
0.535784 0.754902 0.848530
0.629902 0.754902 0.844608
0.730882 0.750981 0.839706
0.835784 0.739216 0.828922
0.952941 0.707843 0.805393
0.463725 0.863725 0.890686
0.475490 0.863725 0.890686
0.506863 0.867157 0.890686
0.555882 0.867647 0.887255
0.622059 0.871078 0.887255
0.696079 0.871568 0.883333
0.777942 0.871568 0.879412
0.871078 0.871078 0.867647
0.980392 0.851961 0.848039
0.658824 0.976471 0.933823
0.666667 0.976471 0.933823
0.682353 0.976471 0.933823
0.711765 0.980392 0.933823
0.750490 0.984314 0.933823
0.797549 0.988235 0.929902
0.855883 0.992157 0.925980
0.925980 1.000000 0.922059
1.000000 1.000000 0.895098
0.000000 0.003922 0.741176
0.000000 0.000000 0.741176
0.000000 0.000000 0.737255
0.055883 0.000000 0.737255
0.217647 0.000000 0.733333
0.402941 0.000000 0.725490
0.539216 0.000000 0.713726
0.679412 0.000000 0.694118
0.823529 0.000000 0.662745
0.000000 0.148040 0.779902
0.000000 0.140686 0.779902
0.006863 0.132353 0.779902
0.092157 0.117157 0.776471
0.258333 0.100981 0.775981
0.434314 0.070098 0.770587
0.557843 0.029411 0.760294
0.679412 0.000000 0.744608
0.815686 0.000000 0.717157
0.000000 0.272549 0.807843
0.003922 0.268627 0.807843
0.030392 0.260784 0.807843
0.106863 0.252941 0.807843
0.287255 0.237255 0.803922
0.457843 0.208333 0.800000
0.578432 0.153922 0.792157
0.699019 0.072059 0.779412
0.815686 0.000000 0.755882
0.000000 0.398529 0.839216
0.000000 0.398529 0.839216
0.000000 0.398529 0.839216
0.090686 0.398529 0.837745
0.323530 0.393137 0.835294
0.481372 0.373530 0.831373
0.605883 0.331862 0.825980
0.730392 0.249999 0.815686
0.845588 0.106863 0.796078
0.000000 0.515686 0.870588
0.000000 0.517648 0.870588
0.000000 0.517648 0.870588
0.182353 0.521568 0.868627
0.378432 0.523529 0.866667
0.508824 0.517648 0.864706
0.633334 0.501961 0.858824
0.759804 0.468137 0.850980
0.882353 0.356863 0.835294
0.000000 0.638235 0.901961
0.013726 0.638235 0.901961
0.147549 0.642157 0.899510
0.309804 0.646078 0.899510
0.432843 0.646078 0.898039
0.545588 0.642157 0.898039
0.664706 0.634314 0.894118
0.785294 0.614216 0.886275
0.909804 0.563725 0.874510
0.238235 0.754902 0.933333
0.265686 0.754902 0.933333
0.326470 0.757843 0.933333
0.404412 0.758824 0.933333
0.497059 0.761764 0.930392
0.596079 0.761764 0.930392
0.703922 0.758824 0.929412
0.813236 0.750490 0.922549
0.933333 0.719608 0.910784
0.413235 0.863725 0.965196
0.425000 0.863725 0.965196
0.462745 0.867157 0.965196
0.517157 0.867647 0.965196
0.586765 0.871568 0.965196
0.664706 0.875000 0.965196
0.750491 0.875490 0.964706
0.848039 0.871568 0.961274
0.960784 0.855882 0.952941
0.635294 0.968627 1.000000
0.643137 0.968627 1.000000
0.661765 0.968627 1.000000
0.690196 0.972549 1.000000
0.731372 0.976471 1.000000
0.781863 0.980392 1.000000
0.840196 0.985294 1.000000
0.910294 0.992157 1.000000
1.000000 1.000000 1.000000
