Color/Kodak/Kodak Elite Chrome 200 65x.cube
TITLE "Kodak Elite Chrome 200"
LUT_3D_SIZE 65
DOMAIN_MIN 0.000000 0.000000 0.000000
DOMAIN_MAX 1.000000 1.000000 1.000000
0.000000 0.000000 0.000000
0.003922 0.000000 0.000000
0.009681 0.000000 0.000000
0.014522 0.000000 0.000000
0.019608 0.000000 0.000000
0.028125 0.000000 0.000000
0.036887 0.000000 0.000000
0.049571 0.000000 0.000000
0.058334 0.000000 0.000000
0.067525 0.000000 0.000000
0.079779 0.000000 0.000000
0.088542 0.000000 0.000000
0.097304 0.000000 0.000000
0.109988 0.000000 0.000000
0.123775 0.000000 0.000000
0.137377 0.000000 0.000000
0.150980 0.000000 0.000000
0.164583 0.000000 0.000000
0.178187 0.000000 0.000000
0.193934 0.000000 0.000000
0.209314 0.000000 0.000000
0.222916 0.000000 0.000000
0.236519 0.000000 0.000000
0.252512 0.000000 0.000000
0.267647 0.000000 0.000000
0.285172 0.000000 0.000000
0.298774 0.000000 0.000000
0.316299 0.000000 0.000000
0.333824 0.000000 0.000000
0.351348 0.000000 0.000000
0.372794 0.000000 0.000000
0.390318 0.000000 0.000000
0.407844 0.000000 0.000000
0.428248 0.000000 0.000000
0.446814 0.000000 0.000000
0.464338 0.000000 0.000000
0.481863 0.000000 0.000000
0.499388 0.000000 0.000000
0.516912 0.000000 0.000000
0.534436 0.000000 0.000000
0.551961 0.000000 0.000000
0.567095 0.000000 0.000000
0.583089 0.000000 0.000000
0.600613 0.000000 0.000000
0.614216 0.000000 0.000000
0.631740 0.000000 0.000000
0.649264 0.000000 0.000000
0.666728 0.000000 0.000000
0.680392 0.000000 0.000000
0.697917 0.000000 0.000000
0.712623 0.000000 0.000000
0.729044 0.000000 0.000000
0.745833 0.000000 0.000000
0.760172 0.000000 0.000000
0.777696 0.000000 0.000000
0.791299 0.000000 0.000000
0.808333 0.000000 0.000000
0.822427 0.000000 0.000000
0.837623 0.000000 0.000000
0.853554 0.000000 0.000000
0.867157 0.000000 0.000000
0.880760 0.000000 0.000000
0.896201 0.000000 0.000000
0.911887 0.000000 0.000000
0.925490 0.000000 0.000000
0.000919 0.008762 0.000000
0.009681 0.008762 0.000000
0.018443 0.004841 0.000000
0.026287 0.004841 0.000000
0.032046 0.004841 0.000000
0.044730 0.004841 0.000000
0.053493 0.004841 0.000000
0.062256 0.004841 0.000000
0.071018 0.003922 0.000000
0.079779 0.003922 0.000000
0.092892 0.000919 0.000000
0.101225 0.000919 0.000000
0.109987 0.000919 0.000000
0.122672 0.000919 0.000000
0.132537 0.000919 0.000000
0.149142 0.000919 0.000000
0.162745 0.000000 0.000000
0.173346 0.000000 0.000000
0.186949 0.000000 0.000000
0.203554 0.000000 0.000000
0.217157 0.000000 0.000000
0.228064 0.000000 0.000000
0.244669 0.000000 0.000000
0.257353 0.000000 0.000000
0.272488 0.000000 0.000000
0.289093 0.000000 0.000000
0.302696 0.000000 0.000000
0.320220 0.000000 0.000000
0.334743 0.000000 0.000000
0.352267 0.000000 0.000000
0.372794 0.000000 0.000000
0.390318 0.000000 0.000000
0.407844 0.000000 0.000000
0.425368 0.000000 0.000000
0.442892 0.000000 0.000000
0.460417 0.000000 0.000000
0.477941 0.000000 0.000000
0.495466 0.000000 0.000000
0.512991 0.000000 0.000000
0.530515 0.000000 0.000000
0.548039 0.000000 0.000000
0.565563 0.000000 0.000000
0.582169 0.000000 0.000000
0.596691 0.000000 0.000000
0.612990 0.000000 0.000000
0.627819 0.000000 0.000000
0.645343 0.000000 0.000000
0.661949 0.000000 0.000000
0.676471 0.000000 0.000000
0.693995 0.000000 0.000000
0.708701 0.000000 0.000000
0.728125 0.000000 0.000000
0.742647 0.000000 0.000000
0.756250 0.000000 0.000000
0.773775 0.000000 0.000000
0.790380 0.000000 0.000000
0.803983 0.000000 0.000000
0.818505 0.000000 0.000000
0.833701 0.000000 0.000000
0.849632 0.000000 0.000000
0.863235 0.000000 0.000000
0.879840 0.000000 0.000000
0.892280 0.000000 0.000000
0.907966 0.000000 0.000000
0.921569 0.000000 0.000000
0.005760 0.017524 0.000000
0.014522 0.017524 0.000000
0.023284 0.017524 0.000000
0.032046 0.012684 0.000000
0.040808 0.013603 0.000000
0.049571 0.013603 0.000000
0.058333 0.013603 0.000000
0.069179 0.013603 0.000000
0.077941 0.009681 0.000000
0.088542 0.009681 0.000000
0.097304 0.009681 0.000000
0.106066 0.009681 0.000000
0.116912 0.009681 0.000000
0.125858 0.007843 0.000000
0.139461 0.005760 0.000000
0.152880 0.005760 0.000000
0.165563 0.005760 0.000000
0.178247 0.005760 0.000000
0.193873 0.003922 0.000000
0.207476 0.003922 0.000000
0.220220 0.003922 0.000000
0.236520 0.001838 0.000000
0.250123 0.001838 0.000000
0.263726 0.001838 0.000000
0.279412 0.001838 0.000000
0.291483 -0.001532 0.000000
0.308455 0.000000 0.000000
0.325980 0.000000 0.000000
0.343505 0.000000 0.000000
0.361029 0.000000 0.000000
0.378554 0.000000 0.000000
0.396079 0.000000 0.000000
0.413603 0.000000 0.000000
0.431127 0.000000 0.000000
0.448652 0.000000 0.000000
0.464338 0.000000 0.000000
0.481863 0.000000 0.000000
0.499388 0.000000 0.000000
0.511275 0.000000 0.000000
0.530515 0.000000 0.000000
0.548039 0.000000 0.000000
0.563174 0.000000 0.000000
0.579167 0.000000 0.000000
0.596691 0.000000 0.000000
0.612990 0.000000 0.000000
0.627819 0.000000 0.000000
0.645343 0.000000 0.000000
0.658947 0.000000 0.000000
0.676471 0.000000 0.000000
0.692096 0.000000 0.000000
0.707598 0.000000 0.000000
0.725122 0.000000 0.000000
0.741911 0.000000 0.000000
0.756250 0.000000 0.000000
0.771201 0.000000 0.000000
0.787377 0.000000 0.000000
0.804412 0.000000 0.000000
0.818505 0.000000 0.000000
0.834191 0.000000 0.000000
0.846385 0.000000 0.000000
0.861397 0.000000 0.000000
0.876838 0.000000 0.000000
0.890442 0.000000 0.000000
0.904963 0.000000 0.000000
0.919731 0.000000 0.000000
0.014522 0.030209 0.002758
0.022365 0.026287 0.000000
0.028125 0.026287 0.000000
0.036888 0.026287 0.000000
0.045650 0.025123 0.000000
0.054412 0.022365 0.000000
0.064338 0.022365 0.000000
0.073101 0.022365 0.000000
0.085295 0.022365 0.000000
0.093382 0.018444 0.000000
0.102144 0.018444 0.000000
0.112071 0.018444 0.000000
0.120834 0.018444 0.000000
0.136274 0.014522 0.000000
0.148958 0.014522 0.000000
0.161642 0.014522 0.000000
0.174510 0.011765 0.000000
0.188112 0.010601 0.000000
0.197794 0.010601 0.000000
0.211397 0.010601 0.000000
0.227758 0.007843 0.000000
0.242524 0.007843 0.000000
0.254963 0.006679 0.000000
0.270956 0.006679 0.000000
0.283334 0.006679 0.000000
0.299694 0.003309 0.000000
0.316851 0.003922 0.000000
0.330821 0.003922 0.000000
0.348345 0.003922 0.000000
0.365870 0.002758 0.000000
0.383395 0.000000 0.000000
0.400919 0.000000 0.000000
0.418443 0.000000 0.000000
0.435968 0.000000 0.000000
0.453493 0.000000 0.000000
0.468260 0.000000 0.000000
0.485784 0.000000 0.000000
0.503431 0.000000 0.000000
0.519669 0.000000 0.000000
0.536641 0.000000 0.000000
0.548039 0.000000 0.000000
0.565563 0.000000 0.000000
0.578615 0.000000 0.000000
0.596384 0.000000 0.000000
0.610294 0.000000 0.000000
0.627819 0.000000 0.000000
0.642279 0.000000 0.000000
0.658947 0.000000 0.000000
0.676471 0.000000 0.000000
0.690074 0.000000 0.000000
0.707598 0.000000 0.000000
0.725122 0.000000 0.000000
0.738726 0.000000 0.000000
0.756250 0.000000 0.000000
0.769853 0.000000 0.000000
0.787377 0.000000 0.000000
0.800980 0.000000 0.000000
0.815748 0.000000 0.000000
0.832108 0.000000 0.000000
0.846875 0.000000 0.000000
0.862990 0.000000 0.000000
0.874081 0.000000 0.000000
0.890442 0.000000 0.000000
0.904044 0.000000 0.000000
0.917647 0.000000 0.000000
0.019363 0.042647 0.003922
0.028125 0.038971 0.003922
0.035049 0.040809 0.003922
0.041728 0.038726 0.003677
0.050490 0.035049 0.003677
0.059252 0.035049 0.000000
0.068260 0.034804 0.000000
0.077022 0.031128 0.000000
0.089461 0.031128 0.000000
0.098224 0.034376 0.000000
0.106986 0.027206 0.000000
0.114338 0.027206 0.000000
0.128432 0.027206 0.000000
0.141116 0.023284 0.000000
0.153800 0.023284 0.000000
0.166482 0.023284 0.000000
0.179166 0.020343 0.000000
0.192034 0.019363 0.000000
0.205393 0.019363 0.000000
0.221139 0.015686 0.000000
0.233823 0.015441 0.000000
0.246508 0.015441 0.000000
0.263114 0.011765 0.000000
0.273652 0.011765 0.000000
0.287255 0.011520 0.000000
0.304534 0.011520 0.000000
0.321691 0.011520 0.000000
0.335661 0.007843 0.000000
0.353187 0.009313 0.000000
0.370711 0.007598 0.000000
0.388235 0.003922 0.000000
0.405760 0.003677 0.000000
0.423284 0.003677 0.000000
0.440809 0.003677 0.000000
0.458334 -0.000123 0.000000
0.472181 0.000000 0.000000
0.489706 0.000000 0.000000
0.508272 0.000000 0.000000
0.524510 0.000000 0.000000
0.541483 0.000000 0.000000
0.551961 0.000000 0.000000
0.570772 0.000000 0.000000
0.583089 0.000000 0.000000
0.596691 0.000000 0.000000
0.616667 0.000000 0.000000
0.627819 0.000000 0.000000
0.642279 0.000000 0.000000
0.658947 0.000000 0.000000
0.675490 0.000000 0.000000
0.690074 0.000000 0.000000
0.707598 0.000000 0.000000
0.721385 0.000000 0.000000
0.738726 0.000000 0.000000
0.754596 0.000000 0.000000
0.769853 0.000000 0.000000
0.783701 0.000000 0.000000
0.800980 0.000000 0.000000
0.817095 0.000000 0.000000
0.832108 0.000000 0.000000
0.845711 0.000000 0.000000
0.859314 0.000000 0.000000
0.875674 0.000000 0.000000
0.888358 0.000000 0.000000
0.904044 0.000000 0.000000
0.917647 0.000000 0.000000
0.028125 0.055576 0.007843
0.035968 0.052328 0.007843
0.041728 0.052328 0.004596
0.046568 0.051654 0.001839
0.055331 0.051654 0.003922
0.063419 0.048407 0.003922
0.072855 0.047733 0.003922
0.081618 0.047733 0.003922
0.090381 0.044485 0.003922
0.102390 0.043811 0.000674
0.111152 0.043811 -0.000674
0.122181 0.040564 0.000000
0.129350 0.037377 0.000000
0.141544 0.036642 0.000000
0.155821 0.035539 0.000000
0.167402 0.035968 0.000000
0.180086 0.032721 0.000000
0.192769 0.032047 0.000000
0.209375 0.028799 0.000000
0.222059 0.028125 0.000000
0.234743 0.028125 0.000000
0.247426 0.021262 0.000000
0.263970 0.024203 0.000000
0.278248 0.024203 0.000000
0.295098 0.020282 0.000000
0.306005 0.020282 0.000000
0.322978 0.019914 0.000000
0.340503 0.016360 0.000000
0.357353 0.014154 0.000000
0.374878 0.012439 0.000000
0.393076 0.012317 0.000000
0.410600 0.008517 0.000000
0.427451 0.006556 0.000000
0.444976 0.007843 0.000000
0.462500 0.007843 0.000000
0.480024 0.003799 0.000000
0.494301 0.003922 0.000000
0.509191 0.000674 0.000000
0.528677 -0.002880 0.000000
0.542279 0.000000 0.000000
0.559804 0.000000 0.000000
0.571691 0.000000 0.000000
0.590932 0.000000 0.000000
0.604902 0.000000 0.000000
0.618137 0.000000 0.000000
0.630269 0.000000 0.000000
0.646017 0.000000 0.000000
0.663480 0.000000 0.000000
0.676471 0.000000 0.000000
0.688849 0.000000 0.000000
0.707598 0.000000 0.000000
0.721201 0.000000 0.000000
0.737990 0.000000 0.000000
0.752329 0.000000 0.000000
0.767279 0.000000 0.000000
0.783456 0.000000 0.000000
0.800490 0.000000 0.000000
0.814584 0.000000 0.000000
0.831434 0.000000 0.000000
0.842463 0.000000 0.000000
0.858640 0.000000 0.000000
0.872916 0.000000 0.000000
0.886520 0.000000 0.000000
0.901042 0.000000 0.000000
0.916973 0.000000 0.000000
0.036887 0.068260 0.011765
0.044730 0.068934 0.009436
0.048652 0.065931 0.009436
0.055331 0.063174 0.007843
0.062500 0.064338 0.007843
0.068934 0.062010 0.008762
0.077696 0.062010 0.005515
0.086458 0.060417 0.003003
0.095220 0.058088 0.003922
0.106311 0.058088 0.003922
0.115073 0.056495 0.003922
0.126103 0.054167 0.003922
0.134192 0.054167 0.003922
0.147059 0.053982 0.000000
0.163480 0.048652 0.000000
0.172243 0.048652 0.000000
0.184926 0.046323 0.000000
0.201471 0.044730 0.000000
0.213481 0.042402 0.000000
0.226899 0.040809 0.000000
0.239583 0.038480 0.000000
0.255883 0.034866 0.000000
0.267892 0.037868 0.000000
0.283088 0.032966 0.000000
0.299020 0.032966 0.000000
0.310846 0.027268 0.000000
0.327819 0.030270 0.000000
0.345343 0.025122 0.000000
0.362868 0.025122 0.000000
0.380392 0.021201 0.000000
0.397916 0.017279 0.000000
0.415441 0.017279 0.000000
0.431005 0.013358 0.000000
0.448897 0.013358 0.000000
0.466422 0.009559 0.000000
0.484743 0.009436 0.000000
0.499142 0.007843 0.000000
0.514032 0.005515 0.000000
0.532598 0.001962 0.000000
0.546201 0.004964 0.000000
0.563848 0.001593 0.000000
0.577328 0.000000 0.000000
0.592524 0.000000 0.000000
0.609742 0.000000 0.000000
0.622427 0.000000 0.000000
0.635111 0.000000 0.000000
0.650858 0.000000 0.000000
0.662868 0.000000 0.000000
0.681005 0.000000 0.000000
0.693995 0.000000 0.000000
0.706373 0.000000 0.000000
0.725122 0.000000 0.000000
0.737990 0.000000 0.000000
0.752329 0.000000 0.000000
0.767279 0.000000 0.000000
0.783456 0.000000 0.000000
0.797059 0.000000 0.000000
0.812990 0.000000 0.000000
0.828186 0.000000 0.000000
0.844118 0.000000 0.000000
0.859069 0.000000 0.000000
0.871323 0.000000 0.000000
0.886520 0.000000 0.000000
0.900123 0.000000 0.000000
0.913725 0.000000 0.000000
0.045650 0.083456 0.014277
0.053493 0.080944 0.014277
0.057415 0.081617 0.011765
0.061336 0.079534 0.011765
0.068933 0.079534 0.011765
0.073774 0.078860 0.010356
0.082537 0.075612 0.010356
0.091299 0.075612 0.007843
0.100062 0.072182 0.007843
0.110233 0.071691 0.007843
0.118995 0.071691 0.006434
0.130269 0.069179 0.006434
0.139031 0.067769 0.003922
0.155637 0.065258 0.003922
0.168321 0.063848 0.003922
0.181005 0.061336 0.002513
0.192708 0.059926 0.002513
0.207720 0.059926 0.000000
0.217402 0.056005 0.000000
0.231005 0.053493 0.000000
0.247120 0.053493 0.000000
0.262132 0.052083 0.000000
0.271813 0.051471 0.000000
0.290319 0.045650 0.000000
0.302941 0.045711 0.000000
0.319057 0.040870 0.000000
0.336213 0.040318 0.000000
0.350184 0.037807 0.000000
0.367708 0.033885 0.000000
0.385233 0.033885 0.000000
0.402758 0.029841 0.000000
0.420282 0.026042 0.000000
0.437806 0.024080 0.000000
0.452819 0.022120 0.000000
0.470343 0.018321 0.000000
0.486459 0.015686 0.000000
0.503983 0.014277 0.000000
0.518996 0.011765 0.000000
0.536520 0.010356 0.000000
0.550123 0.007843 0.000000
0.566238 0.006434 0.000000
0.581250 0.003922 0.000000
0.594056 0.003922 0.000000
0.610968 0.002513 0.000000
0.627267 0.000000 0.000000
0.639583 0.000000 0.000000
0.652635 0.000000 0.000000
0.666790 0.000000 0.000000
0.685845 0.000000 0.000000
0.697917 0.000000 0.000000
0.711213 0.000000 0.000000
0.723897 0.000000 0.000000
0.738726 0.000000 0.000000
0.752329 0.000000 0.000000
0.767279 0.000000 0.000000
0.779963 0.000000 0.000000
0.797059 0.000000 0.000000
0.813174 0.000000 0.000000
0.825674 0.000000 0.000000
0.841789 0.000000 0.000000
0.855392 0.000000 0.000000
0.871752 0.000000 0.000000
0.884437 0.000000 0.000000
0.900123 0.000000 0.000000
0.913725 0.000000 0.000000
0.058334 0.097549 0.019608
0.062255 0.097059 0.019118
0.069608 0.097059 0.019118
0.073530 0.093628 0.019118
0.077696 0.093628 0.015441
0.082537 0.093138 0.018443
0.087377 0.093138 0.015196
0.096139 0.090625 0.011765
0.104902 0.089216 0.011765
0.114154 0.085785 0.014768
0.122917 0.085295 0.011275
0.135111 0.085295 0.011275
0.144363 0.081863 0.007843
0.160479 0.081373 0.011090
0.173162 0.080270 0.007353
0.185845 0.077451 0.003922
0.198530 0.074020 0.003922
0.211642 0.073530 0.003922
0.224755 0.070098 0.003432
0.234927 0.069608 0.000000
0.251961 0.066177 0.000000
0.266054 0.065687 0.000000
0.279167 0.062255 0.000000
0.295159 0.061765 0.000000
0.306863 0.058334 0.000000
0.323897 0.057844 0.000000
0.341054 0.057475 0.000000
0.355024 0.050490 0.000000
0.372549 0.046569 0.000000
0.390074 0.046079 0.000000
0.407598 0.038726 0.000000
0.425123 0.041115 0.000000
0.442647 0.034804 0.000000
0.456740 0.035355 0.000000
0.474265 0.030883 0.000000
0.491299 0.026961 0.000000
0.508824 0.023039 0.000000
0.522917 0.020405 0.000000
0.540441 0.019118 0.000000
0.554044 0.015196 0.000000
0.571079 0.013726 0.000000
0.585171 0.011275 0.000000
0.598775 0.007843 0.000000
0.612378 0.007353 0.000000
0.632108 0.003922 0.000000
0.643505 0.003922 0.000000
0.657108 0.003432 0.000000
0.670711 0.000000 0.000000
0.684314 0.000000 0.000000
0.703370 0.000000 0.000000
0.715441 0.000000 0.000000
0.728738 0.000000 0.000000
0.742647 0.000000 0.000000
0.756250 0.000000 0.000000
0.769853 0.000000 0.000000
0.783456 0.000000 0.000000
0.797059 0.000000 0.000000
0.810662 0.000000 0.000000
0.825858 0.000000 0.000000
0.841789 0.000000 0.000000
0.851961 0.000000 0.000000
0.868995 0.000000 0.000000
0.884437 0.000000 0.000000
0.897120 0.000000 0.000000
0.910294 0.000000 0.000000
0.067096 0.114154 0.027880
0.071936 0.110662 0.026961
0.076777 0.110662 0.023958
0.078860 0.107904 0.023958
0.082782 0.110233 0.023958
0.090625 0.106740 0.023284
0.096140 0.106740 0.020037
0.100980 0.106311 0.020037
0.109742 0.102819 0.016606
0.118505 0.102390 0.016115
0.127267 0.098897 0.016115
0.141789 0.098897 0.015686
0.148713 0.095711 0.012194
0.165319 0.094976 0.011765
0.178677 0.094547 0.011765
0.192279 0.091054 0.008272
0.202389 0.088113 0.005330
0.219485 0.087133 0.007843
0.228738 0.086704 0.004351
0.241422 0.083211 0.003922
0.254105 0.082782 0.003922
0.266789 0.079289 0.003922
0.283395 0.075368 -0.000184
0.297611 0.073836 0.000000
0.314706 0.074939 0.000000
0.325368 0.068076 0.000000
0.342340 0.067096 0.000000
0.359865 0.063603 0.000000
0.377390 0.063174 0.000000
0.394485 0.059253 0.000000
0.412010 0.055637 0.000000
0.429534 0.050796 0.000000
0.447059 0.047917 0.000000
0.461091 0.047488 0.000000
0.478615 0.043566 0.000000
0.495711 0.039645 0.000000
0.513235 0.035723 0.000000
0.527267 0.031802 0.000000
0.544363 0.027880 0.000000
0.557843 0.023958 0.000000
0.575490 0.020037 0.000000
0.589093 0.017647 0.000000
0.599816 0.016115 0.000000
0.620343 0.012194 0.000000
0.633824 0.011765 0.000000
0.647426 0.008272 0.000000
0.658394 0.007843 0.000000
0.674633 0.003922 0.000000
0.692157 0.003922 0.000000
0.705760 -0.001471 0.000000
0.719363 0.000000 0.000000
0.729656 0.000000 0.000000
0.746569 0.000000 0.000000
0.758946 0.000000 0.000000
0.771630 0.000000 0.000000
0.787377 0.000000 0.000000
0.800490 0.000000 0.000000
0.809681 0.000000 0.000000
0.822366 0.000000 0.000000
0.838542 0.000000 0.000000
0.851470 0.000000 0.000000
0.867831 0.000000 0.000000
0.880515 0.000000 0.000000
0.896201 0.000000 0.000000
0.909804 0.000000 0.000000
0.075858 0.128186 0.036642
0.080698 0.126838 0.036642
0.085539 0.126838 0.032721
0.090381 0.124265 0.032721
0.095220 0.124265 0.032721
0.099387 0.122917 0.028799
0.103309 0.120343 0.028799
0.109742 0.120343 0.026287
0.117157 0.120343 0.024877
0.123346 0.116421 0.024877
0.132108 0.116421 0.023529
0.145711 0.114154 0.020956
0.159313 0.112500 0.017770
0.168995 0.112316 0.017034
0.182843 0.108578 0.015686
0.196201 0.106556 0.013113
0.209804 0.104657 0.013113
0.223406 0.100796 0.011765
0.233089 0.100735 0.009191
0.246262 0.099387 0.007843
0.261642 0.096814 0.007843
0.275245 0.095466 0.005270
0.287500 0.091544 0.003922
0.302451 0.088971 0.003922
0.318628 0.086520 0.001348
0.333578 0.085049 0.000000
0.350736 0.081127 0.000000
0.364706 0.079840 0.000000
0.382231 0.075000 0.000000
0.399756 0.070159 0.000000
0.415931 0.069240 0.000000
0.433456 0.064093 0.000000
0.450981 0.061520 0.000000
0.465932 0.060172 0.000000
0.483457 0.056250 0.000000
0.499632 0.052880 0.000000
0.517157 0.048407 0.000000
0.529473 0.044485 0.000000
0.548285 0.040564 0.000000
0.561887 0.036090 0.000000
0.576838 0.031250 0.000000
0.593014 0.028799 0.000000
0.604657 0.024877 0.000000
0.620221 0.020956 0.000000
0.637867 0.017034 0.000000
0.651348 0.014889 0.000000
0.664951 0.010050 0.000000
0.678554 0.007843 0.000000
0.692157 0.008211 0.000000
0.709681 0.003371 0.000000
0.723284 0.003922 0.000000
0.736887 0.001348 0.000000
0.751103 0.000000 0.000000
0.764093 0.000000 0.000000
0.777696 0.000000 0.000000
0.791299 0.000000 0.000000
0.800980 0.000000 0.000000
0.814584 0.000000 0.000000
0.828186 0.000000 0.000000
0.838542 0.000000 0.000000
0.851470 0.000000 0.000000
0.865073 0.000000 0.000000
0.880515 0.000000 0.000000
0.893199 0.000000 0.000000
0.908456 0.000000 0.000000
0.088542 0.145711 0.045404
0.092463 0.144791 0.044485
0.094301 0.141789 0.041483
0.099142 0.141789 0.041483
0.103982 0.141789 0.041483
0.108149 0.141115 0.037561
0.114338 0.137867 0.037561
0.118505 0.137867 0.037561
0.123345 0.137867 0.032475
0.129841 0.133946 0.033640
0.138603 0.133946 0.029718
0.149632 0.131679 0.029718
0.162316 0.130024 0.027451
0.175184 0.129840 0.023529
0.186520 0.126103 0.021875
0.200123 0.126348 0.021875
0.213051 0.122181 0.019608
0.225736 0.118321 0.017953
0.242341 0.118260 0.014032
0.255025 0.114338 0.011765
0.268137 0.114338 0.011765
0.281740 0.110416 0.010110
0.296998 0.109804 0.007843
0.309681 0.106495 0.006189
0.324816 0.104044 0.003922
0.340073 0.102573 0.003922
0.355944 0.096385 0.002267
0.371201 0.094730 0.000000
0.387071 0.090809 0.000000
0.404595 0.087684 0.000000
0.422120 0.082966 0.000000
0.439645 0.081924 0.000000
0.454902 0.077083 0.000000
0.472427 0.072243 0.000000
0.488296 0.071201 0.000000
0.503554 0.066483 0.000000
0.521630 0.061642 0.000000
0.536948 0.056802 0.000000
0.552206 0.051960 0.000000
0.565809 0.051042 0.000000
0.581679 0.046201 0.000000
0.596936 0.041483 0.000000
0.609498 0.037561 0.000000
0.624142 0.029718 0.000000
0.640012 0.028493 0.000000
0.655392 0.023652 0.000000
0.668872 0.021875 0.000000
0.684681 0.017892 0.000000
0.696079 0.011765 0.000000
0.709681 0.010110 0.000000
0.727206 0.007843 0.000000
0.740808 0.006189 0.000000
0.755943 0.003922 0.000000
0.768628 0.003922 0.000000
0.781618 0.002267 0.000000
0.795220 0.000000 0.000000
0.804902 0.000000 0.000000
0.819362 0.000000 0.000000
0.832108 0.000000 0.000000
0.840808 0.000000 0.000000
0.851470 0.000000 0.000000
0.865073 0.000000 0.000000
0.878677 0.000000 0.000000
0.893934 0.000000 0.000000
0.905882 0.000000 0.000000
0.100490 0.163235 0.054167
0.102144 0.163235 0.056433
0.108333 0.162500 0.050245
0.109069 0.159313 0.050245
0.112990 0.159313 0.050245
0.117586 0.159313 0.049572
0.122426 0.158578 0.046324
0.127268 0.155392 0.046324
0.132598 0.155392 0.042402
0.143627 0.154657 0.042402
0.145711 0.151470 0.038481
0.158394 0.151470 0.038481
0.170343 0.150735 0.034559
0.183762 0.147549 0.034376
0.196446 0.143627 0.030638
0.209130 0.143627 0.028615
0.221813 0.143873 0.026716
0.235171 0.139705 0.023529
0.244853 0.135784 0.019608
0.258456 0.137194 0.018873
0.275245 0.131862 0.015686
0.288848 0.131862 0.014951
0.299264 0.127941 0.011765
0.316054 0.124019 0.011030
0.331127 0.124755 0.007843
0.347182 0.120098 0.007843
0.364337 0.116176 0.003922
0.378309 0.112254 0.003922
0.395833 0.113235 0.003187
0.413358 0.108395 0.000000
0.427696 0.104289 0.000000
0.444485 0.102635 0.000000
0.462010 0.097794 0.000000
0.479534 0.092647 0.000000
0.493260 0.088725 0.000000
0.510661 0.084007 0.000000
0.525000 0.079167 0.000000
0.543076 0.077512 0.000000
0.555760 0.073039 0.000000
0.572916 0.065196 0.000000
0.588971 0.061274 0.000000
0.600858 0.057353 0.000000
0.617647 0.053431 0.000000
0.631250 0.049203 0.000000
0.647548 0.044363 0.000000
0.660233 0.039522 0.000000
0.672794 0.034681 0.000000
0.689523 0.026716 0.000000
0.700000 0.022794 0.000000
0.716790 0.018873 0.000000
0.731495 0.016054 0.000000
0.744730 0.011214 0.000000
0.757598 0.011030 0.000000
0.773468 0.009375 0.000000
0.786152 0.003922 0.000000
0.799142 0.003922 0.000000
0.811519 0.000000 0.000000
0.824204 0.000000 0.000000
0.836888 0.000000 0.000000
0.845650 0.000000 0.000000
0.855392 0.000000 0.000000
0.871018 0.000000 0.000000
0.880515 0.000000 0.000000
0.892280 0.000000 0.000000
0.905882 0.000000 0.000000
0.109988 0.180576 0.059008
0.113909 0.176839 0.059008
0.117831 0.176839 0.059008
0.120588 0.176839 0.059008
0.125430 0.176839 0.055332
0.125858 0.176655 0.055086
0.133517 0.172917 0.055086
0.137439 0.172917 0.052573
0.144792 0.172917 0.051164
0.149633 0.172733 0.050735
0.158395 0.168995 0.047243
0.163419 0.168995 0.044976
0.175919 0.168811 0.043321
0.188603 0.165074 0.039400
0.201287 0.163971 0.038297
0.213971 0.161152 0.035478
0.226654 0.158211 0.035294
0.239338 0.157231 0.031557
0.252879 0.156373 0.027635
0.266483 0.153309 0.027451
0.280087 0.150613 0.021016
0.293689 0.149388 0.019792
0.307291 0.145466 0.019608
0.324633 0.143934 0.014338
0.338419 0.141544 0.015686
0.355760 0.134436 0.008579
0.369546 0.133701 0.008027
0.385785 0.132414 0.007843
0.404412 0.129780 0.004106
0.418199 0.125858 0.003922
0.435723 0.121937 0.003922
0.453247 0.118015 0.000184
0.470588 0.114093 0.000000
0.484375 0.110172 0.000000
0.501900 0.106250 0.000000
0.519240 0.102329 0.000000
0.533027 0.098407 0.000000
0.550368 0.094486 0.000000
0.564155 0.090564 0.000000
