Color/Kodak/Kodak Ektachrome 100 VS Generic 65x.cube
TITLE "Kodak Ektachrome 100 VS Generic"
LUT_3D_SIZE 9
DOMAIN_MIN 0.000000 0.000000 0.000000
DOMAIN_MAX 1.000000 1.000000 1.000000
0.000000 0.000000 0.000000
0.104902 0.000000 0.000000
0.225490 0.000000 0.000000
0.399510 0.000000 0.000000
0.598040 0.000000 0.000000
0.820098 0.000000 0.000000
1.000000 0.000000 0.000000
1.000000 0.000000 0.000000
1.000000 0.000000 0.000000
0.015196 0.077941 0.003922
0.081373 0.074020 0.000000
0.205882 0.069608 0.000000
0.383823 0.061765 0.000000
0.576961 0.050490 0.000000
0.800490 0.038726 0.000000
0.990196 0.030883 0.000000
1.000000 0.023039 0.000000
1.000000 0.023039 0.000000
0.053921 0.178431 0.022549
0.097549 0.175490 0.019608
0.190196 0.171568 0.019608
0.383824 0.163725 0.015686
0.576470 0.154902 0.011765
0.792647 0.144118 0.007843
0.978432 0.135294 0.003922
1.000000 0.127451 0.003922
1.000000 0.127451 0.003922
0.017157 0.334314 0.053431
0.032843 0.334314 0.050980
0.120588 0.330392 0.050980
0.357843 0.322549 0.045588
0.562255 0.314706 0.039216
0.775490 0.305392 0.036274
0.954902 0.297549 0.029902
1.000000 0.293138 0.023529
1.000000 0.289706 0.023529
0.000000 0.503922 0.078431
0.000000 0.501961 0.078431
0.024510 0.498039 0.076470
0.303431 0.492157 0.074510
0.543138 0.484314 0.070588
0.747549 0.476471 0.067157
0.923530 0.468628 0.060785
1.000000 0.462746 0.056863
1.000000 0.460784 0.056863
0.000000 0.673529 0.086275
0.000000 0.673529 0.086275
0.000000 0.669608 0.086275
0.213235 0.665686 0.086275
0.503922 0.657843 0.082353
0.710294 0.650000 0.078431
0.879902 0.646078 0.078431
1.000000 0.638235 0.074510
1.000000 0.638235 0.074510
0.000000 0.816667 0.061765
0.000000 0.813726 0.061765
0.000000 0.812745 0.061765
0.167647 0.805883 0.061765
0.476471 0.801961 0.062745
0.681863 0.794118 0.061765
0.845098 0.790196 0.061765
0.981372 0.785294 0.062745
1.000000 0.782353 0.062745
0.000000 0.925980 0.036274
0.000000 0.925980 0.035784
0.000000 0.922059 0.028431
0.202941 0.918137 0.020098
0.480393 0.914215 0.008333
0.670589 0.906862 0.000000
0.821079 0.902941 0.000000
0.965686 0.898529 0.003432
1.000000 0.895098 0.003432
0.000000 1.000000 0.098039
0.000000 1.000000 0.098039
0.000000 1.000000 0.094118
0.212255 1.000000 0.090196
0.466666 1.000000 0.086275
0.642157 1.000000 0.078431
0.786275 1.000000 0.073529
0.946569 1.000000 0.062745
1.000000 1.000000 0.058824
0.000000 0.000000 0.062255
0.104902 0.000000 0.058334
0.225490 0.000000 0.057844
0.398039 0.000000 0.050490
0.596078 0.000000 0.046079
0.818627 0.000000 0.038726
1.000000 0.000000 0.030883
1.000000 0.000000 0.026961
1.000000 0.000000 0.026961
0.015196 0.077941 0.074020
0.081373 0.074020 0.074020
0.202451 0.069608 0.070098
0.383823 0.061765 0.066177
0.578431 0.050490 0.058334
0.800490 0.040686 0.052451
0.986765 0.030883 0.046569
1.000000 0.023039 0.042157
1.000000 0.023039 0.038726
0.053921 0.178431 0.089706
0.097549 0.175490 0.089706
0.190196 0.171568 0.085785
0.383823 0.163725 0.081863
0.576470 0.154902 0.074020
0.792647 0.144118 0.069117
0.978432 0.135294 0.062255
1.000000 0.127451 0.057843
1.000000 0.127451 0.054412
0.017157 0.334314 0.107843
0.032353 0.334314 0.105392
0.120588 0.329902 0.104412
0.357843 0.322549 0.100000
0.562745 0.314706 0.093628
0.774510 0.305392 0.088726
0.953431 0.297549 0.083334
1.000000 0.289706 0.079902
1.000000 0.289706 0.077941
0.000000 0.503922 0.121079
0.000000 0.501961 0.119608
0.026471 0.498039 0.117157
0.303921 0.492157 0.113235
0.543138 0.484314 0.109804
0.747549 0.476470 0.105392
0.922549 0.468627 0.101471
1.000000 0.462746 0.097549
1.000000 0.460784 0.097549
0.000000 0.673529 0.117157
0.000000 0.673529 0.115686
0.000000 0.669608 0.115686
0.213235 0.665686 0.113725
0.504412 0.657843 0.109804
0.710294 0.650000 0.109314
0.880392 0.646078 0.108333
1.000000 0.638235 0.105392
1.000000 0.638235 0.105392
0.000000 0.816667 0.097549
0.000000 0.813726 0.097549
0.000000 0.812745 0.093628
0.169118 0.805883 0.089706
0.476471 0.801961 0.085785
0.681372 0.794118 0.082353
0.845098 0.790196 0.082353
0.981372 0.785294 0.084804
1.000000 0.782353 0.082353
0.000000 0.925980 0.116667
0.000000 0.923040 0.113725
0.000000 0.922059 0.113235
0.202941 0.918137 0.108824
0.480393 0.914215 0.100981
0.669608 0.906862 0.093628
0.821078 0.902941 0.086275
0.965686 0.898529 0.081373
1.000000 0.895098 0.077451
0.000000 1.000000 0.144608
0.000000 1.000000 0.144608
0.000000 1.000000 0.140686
0.212255 1.000000 0.136765
0.464706 1.000000 0.132843
0.642157 1.000000 0.128922
0.786275 1.000000 0.125000
0.946569 1.000000 0.117157
1.000000 1.000000 0.117157
0.000000 0.000000 0.154902
0.104902 0.000000 0.150980
0.221568 0.000000 0.147059
0.398039 0.000000 0.140686
0.594117 0.000000 0.136274
0.816176 0.000000 0.128432
0.997059 0.000000 0.123529
1.000000 0.000000 0.116667
1.000000 0.000000 0.116667
0.015196 0.077941 0.166666
0.077941 0.074020 0.163235
0.202451 0.069608 0.159804
0.382353 0.061765 0.155392
0.578431 0.050490 0.150980
0.800490 0.040686 0.143137
0.986275 0.030883 0.136274
1.000000 0.023039 0.132353
1.000000 0.023039 0.131372
0.053921 0.178431 0.174510
0.097549 0.175490 0.174510
0.190196 0.171568 0.170588
0.379902 0.163725 0.166666
0.574510 0.154902 0.159804
0.792647 0.145588 0.154902
0.976471 0.135294 0.148040
1.000000 0.127451 0.144117
1.000000 0.127451 0.143137
0.017157 0.334314 0.187255
0.032353 0.334314 0.186274
0.120588 0.330392 0.185784
0.357843 0.322549 0.181863
0.562745 0.314706 0.175490
0.773039 0.305392 0.170588
0.953431 0.297549 0.166666
1.000000 0.289706 0.162745
1.000000 0.289706 0.162255
0.000000 0.503922 0.198039
0.000000 0.501961 0.198039
0.026471 0.498039 0.195098
0.303431 0.492157 0.191176
0.541176 0.484314 0.186274
0.747549 0.476470 0.182353
0.922549 0.468627 0.177451
1.000000 0.462746 0.174510
1.000000 0.460784 0.171569
0.000000 0.673529 0.209804
0.000000 0.673529 0.206863
0.000000 0.669608 0.205882
0.213235 0.665686 0.201961
0.503922 0.657843 0.198039
0.708824 0.650000 0.194117
0.880392 0.646078 0.186274
1.000000 0.638235 0.182353
1.000000 0.638235 0.182353
0.000000 0.816667 0.217647
0.000000 0.813726 0.217647
0.000000 0.812745 0.217647
0.167647 0.805883 0.213725
0.476471 0.801961 0.209804
0.681372 0.794118 0.205882
0.845098 0.790196 0.200981
0.981372 0.785294 0.197059
1.000000 0.782353 0.194117
0.000000 0.925980 0.233824
0.000000 0.922549 0.233333
0.000000 0.922059 0.233333
0.200980 0.918137 0.229412
0.478432 0.914215 0.225490
0.667157 0.906862 0.221568
0.821078 0.902941 0.218137
0.965686 0.898529 0.214216
1.000000 0.895098 0.213725
0.000000 1.000000 0.259804
0.000000 1.000000 0.256863
0.000000 1.000000 0.256863
0.210784 1.000000 0.252941
0.464706 1.000000 0.249019
0.642157 1.000000 0.245098
0.785294 1.000000 0.241176
0.946569 1.000000 0.235785
1.000000 1.000000 0.233333
0.000000 0.000000 0.291177
0.104902 0.000000 0.287255
0.221568 0.000000 0.285784
0.395588 0.000000 0.279412
0.594117 0.000000 0.275490
0.816176 0.000000 0.267647
0.997059 0.000000 0.263726
1.000000 0.000000 0.257843
1.000000 0.000000 0.255883
0.015196 0.077941 0.302941
0.077941 0.074020 0.302451
0.201961 0.069608 0.299020
0.379902 0.061765 0.294608
0.578431 0.050490 0.287255
0.799019 0.038726 0.282843
0.986275 0.030883 0.275490
1.000000 0.023039 0.271569
1.000000 0.023039 0.271079
0.053921 0.178431 0.313725
0.096568 0.175490 0.310785
0.190196 0.171569 0.310785
0.379902 0.163725 0.305882
0.574510 0.154902 0.299020
0.792647 0.144118 0.294118
0.975490 0.135294 0.287255
1.000000 0.127451 0.283333
1.000000 0.127451 0.283334
0.017157 0.334314 0.328921
0.032353 0.334314 0.326471
0.116667 0.330392 0.326471
0.357843 0.322549 0.322549
0.562745 0.314706 0.315196
0.773039 0.305392 0.310785
0.952451 0.296569 0.306863
1.000000 0.289706 0.301470
1.000000 0.287255 0.301470
0.000000 0.503922 0.346079
0.000000 0.501961 0.344118
0.025000 0.498039 0.342157
0.303431 0.492157 0.338235
0.541176 0.484314 0.334314
0.747549 0.476470 0.326961
0.921569 0.468627 0.322549
1.000000 0.462746 0.318628
1.000000 0.460784 0.318628
0.000000 0.673529 0.357843
0.000000 0.673529 0.357843
0.000000 0.669608 0.356372
0.211765 0.665686 0.353922
0.503922 0.657843 0.349510
0.708824 0.650000 0.343628
0.880392 0.646078 0.339706
1.000000 0.638235 0.335784
1.000000 0.638235 0.334314
0.000000 0.813726 0.373529
0.000000 0.813726 0.370588
0.000000 0.812745 0.369608
0.165196 0.805883 0.365686
0.476471 0.801961 0.361765
0.678922 0.794118 0.357843
0.844118 0.790196 0.353922
0.980882 0.785294 0.350980
1.000000 0.782353 0.350000
0.000000 0.925980 0.385294
0.000000 0.922549 0.385294
0.000000 0.922059 0.381373
0.199020 0.918137 0.381373
0.476470 0.914215 0.377451
0.666667 0.906862 0.373530
0.817647 0.902941 0.369608
0.962255 0.898529 0.366176
1.000000 0.895098 0.365686
0.000000 1.000000 0.400981
0.000000 1.000000 0.400981
0.000000 1.000000 0.398529
0.208333 1.000000 0.397059
0.464706 1.000000 0.393137
0.642157 1.000000 0.389216
0.782353 1.000000 0.385294
0.946569 1.000000 0.381373
1.000000 1.000000 0.381373
0.000000 0.000000 0.441176
0.101471 0.000000 0.437255
0.221568 0.000000 0.434314
0.395588 0.000000 0.429412
0.594117 0.000000 0.423530
0.816176 0.000000 0.417647
0.997059 0.000000 0.411764
1.000000 0.000000 0.407844
1.000000 0.000000 0.405883
0.011765 0.077451 0.450981
0.077941 0.074020 0.449020
0.201961 0.069608 0.447059
0.379902 0.059804 0.442647
0.578431 0.050490 0.437255
0.797059 0.038726 0.431372
0.986275 0.030883 0.425490
1.000000 0.023039 0.421569
1.000000 0.023039 0.419608
0.050980 0.178431 0.461765
0.093628 0.175490 0.460784
0.187255 0.170588 0.457843
0.379902 0.164216 0.452941
0.574510 0.154902 0.449020
0.791176 0.144118 0.442157
0.974510 0.135294 0.437255
1.000000 0.127451 0.433334
1.000000 0.124510 0.431373
0.017157 0.334314 0.476961
0.031373 0.334314 0.476471
0.116667 0.330392 0.474510
0.357843 0.322549 0.470588
0.562745 0.314706 0.465196
0.771568 0.305392 0.460784
0.950981 0.296569 0.454902
1.000000 0.289706 0.450981
1.000000 0.287255 0.449510
0.000000 0.503922 0.494117
0.000000 0.501961 0.494117
0.026471 0.498039 0.492157
0.301471 0.492157 0.488235
0.539215 0.484314 0.482353
0.745588 0.476470 0.478431
0.921569 0.468627 0.472549
1.000000 0.462746 0.468628
1.000000 0.460784 0.468627
0.000000 0.673529 0.511274
0.000000 0.673529 0.509804
0.000000 0.669608 0.507844
0.209313 0.665686 0.505883
0.502451 0.657843 0.500000
0.708824 0.650000 0.496078
0.878921 0.646078 0.492157
1.000000 0.638235 0.488235
1.000000 0.638235 0.488235
0.000000 0.813726 0.525490
0.000000 0.813726 0.525490
0.000000 0.810784 0.523529
0.163726 0.805883 0.521568
0.476471 0.801961 0.517648
0.677941 0.794118 0.513726
0.844118 0.790196 0.509804
0.980392 0.785294 0.506863
1.000000 0.782353 0.505883
0.000000 0.925980 0.541177
0.000000 0.922549 0.539706
0.000000 0.922059 0.537745
0.195588 0.918137 0.535294
0.476470 0.914215 0.533334
0.665686 0.906862 0.529411
0.817647 0.902941 0.525981
0.962255 0.898529 0.523529
1.000000 0.895098 0.521568
0.000000 1.000000 0.556863
0.000000 1.000000 0.556863
0.000000 1.000000 0.554902
0.206863 1.000000 0.552941
0.462746 1.000000 0.549019
0.639706 1.000000 0.545098
0.782353 1.000000 0.543138
0.946078 1.000000 0.539215
1.000000 1.000000 0.537254
0.000000 0.000000 0.595098
0.100981 0.000000 0.591666
0.221568 0.000000 0.591176
0.395588 0.000000 0.587255
0.594117 0.000000 0.579412
0.816176 0.000000 0.575490
0.997058 0.000000 0.567647
1.000000 0.000000 0.563725
1.000000 0.000000 0.563725
0.011765 0.077451 0.606863
0.077941 0.074020 0.606373
0.201961 0.069608 0.602941
0.379902 0.061765 0.599020
0.576470 0.050490 0.591176
0.796569 0.038726 0.587255
0.986275 0.030883 0.582843
1.000000 0.023039 0.575490
1.000000 0.023039 0.575490
0.050000 0.178431 0.614706
0.093628 0.175490 0.614706
0.186274 0.171568 0.612255
0.379902 0.162745 0.606863
0.574510 0.154902 0.602941
0.788725 0.144118 0.598039
0.974510 0.135294 0.591176
1.000000 0.127451 0.587255
1.000000 0.125980 0.587255
0.017157 0.334314 0.630392
0.031373 0.334314 0.630392
0.116667 0.330392 0.627451
0.356372 0.322549 0.622549
0.562745 0.315196 0.618627
0.771568 0.303921 0.614706
0.950981 0.295588 0.609314
1.000000 0.289706 0.605392
1.000000 0.287255 0.602941
0.000000 0.503922 0.646078
0.000000 0.501961 0.646078
0.023529 0.498039 0.644118
0.299510 0.492157 0.642157
0.539215 0.484313 0.636275
0.744117 0.476470 0.630392
0.919608 0.468628 0.626470
1.000000 0.462746 0.622549
1.000000 0.460784 0.622549
0.000000 0.673529 0.661765
0.000000 0.673529 0.661765
0.000000 0.669608 0.659314
0.209313 0.665686 0.657843
0.500490 0.657843 0.653922
0.708824 0.650000 0.650000
0.878921 0.643628 0.646078
1.000000 0.638235 0.642157
1.000000 0.638235 0.639706
0.000000 0.813726 0.677451
0.000000 0.813726 0.674510
0.000000 0.809804 0.673529
0.159804 0.805883 0.669608
0.473039 0.801961 0.665686
0.677451 0.794118 0.662745
0.841177 0.790196 0.658824
0.977451 0.782353 0.657843
1.000000 0.782353 0.654902
0.000000 0.925980 0.688236
0.000000 0.922549 0.685294
0.000000 0.922059 0.685294
0.195098 0.918137 0.681863
0.476470 0.914215 0.681372
0.665686 0.906862 0.677451
0.817647 0.902941 0.673529
0.961764 0.898529 0.669608
1.000000 0.895098 0.669608
0.000000 1.000000 0.700980
0.000000 1.000000 0.700980
0.000000 1.000000 0.697059
0.202941 1.000000 0.697059
0.460784 1.000000 0.693137
0.638235 1.000000 0.689216
0.782353 1.000000 0.689216
0.942647 1.000000 0.685294
1.000000 1.000000 0.681372
0.000000 0.000000 0.726471
0.100981 0.000000 0.723530
0.221568 0.000000 0.719608
0.394118 0.000000 0.715687
0.592157 0.000000 0.710784
0.812255 0.000000 0.703922
0.997059 0.000000 0.699019
1.000000 0.000000 0.695098
1.000000 0.000000 0.692157
0.011765 0.077451 0.735294
0.074020 0.074020 0.735294
0.198529 0.066177 0.731373
0.379902 0.058334 0.727451
0.574510 0.051961 0.722549
0.796569 0.038726 0.715687
0.986275 0.030883 0.711765
1.000000 0.023039 0.706863
1.000000 0.023039 0.706372
0.050000 0.178431 0.745098
0.093628 0.174510 0.743137
0.186274 0.170588 0.742156
0.379902 0.162745 0.737255
0.572549 0.154902 0.731373
0.788726 0.145588 0.726470
0.974510 0.135294 0.721569
1.000000 0.127451 0.717647
1.000000 0.124510 0.715687
0.017157 0.334314 0.758824
0.031373 0.332843 0.758824
0.112745 0.328921 0.754412
0.353922 0.322549 0.750981
0.558333 0.315196 0.747059
0.771568 0.302941 0.743137
0.950981 0.295098 0.738235
1.000000 0.289706 0.732843
1.000000 0.287255 0.731373
0.000000 0.503922 0.774510
0.000000 0.501961 0.774510
0.023529 0.496078 0.770588
0.299510 0.492157 0.767647
0.539215 0.484314 0.762745
0.743627 0.476471 0.758824
0.918627 0.468627 0.754902
1.000000 0.462746 0.750981
1.000000 0.460784 0.750981
0.000000 0.673529 0.790196
0.000000 0.673529 0.789216
0.000000 0.669608 0.786275
0.205392 0.665686 0.781372
0.500000 0.657843 0.778432
0.706373 0.650000 0.774510
0.876471 0.643628 0.770588
1.000000 0.638235 0.767157
1.000000 0.638235 0.766667
0.000000 0.813726 0.801961
0.000000 0.813726 0.800980
0.000000 0.809804 0.798039
0.157353 0.805883 0.795588
0.472549 0.800981 0.793137
0.677451 0.794118 0.789216
0.841177 0.790196 0.786275
0.977451 0.782353 0.782353
1.000000 0.782353 0.782353
0.000000 0.925980 0.809804
0.000000 0.922549 0.809804
0.000000 0.922059 0.808824
0.191177 0.918137 0.805883
0.472549 0.914215 0.801961
0.663236 0.906862 0.800980
0.817157 0.902941 0.797549
0.961764 0.898529 0.794118
1.000000 0.895098 0.793627
0.000000 1.000000 0.821569
0.000000 1.000000 0.821569
0.000000 1.000000 0.820588
0.199020 1.000000 0.817647
0.460784 1.000000 0.815686
0.638235 1.000000 0.812745
0.781373 1.000000 0.809804
0.942647 1.000000 0.805883
1.000000 1.000000 0.804902
0.000000 0.000000 0.828431
0.100981 0.000000 0.824510
0.217647 0.000000 0.821569
0.391667 0.000000 0.816666
0.590196 0.000000 0.812255
0.812255 0.000000 0.808333
0.997059 0.000000 0.800490
1.000000 0.000000 0.796568
1.000000 0.000000 0.796568
0.011765 0.077451 0.839706
0.074020 0.074020 0.836274
0.199020 0.069608 0.832353
0.377941 0.058334 0.828431
0.574510 0.051961 0.824019
0.796569 0.038726 0.822059
0.982843 0.033334 0.812745
1.000000 0.023039 0.808823
1.000000 0.023039 0.808333
0.050000 0.175981 0.847549
0.093628 0.174510 0.846569
0.186274 0.170588 0.843627
0.377451 0.162745 0.839706
0.569608 0.154902 0.834804
0.788725 0.143137 0.827941
0.974510 0.135294 0.824019
1.000000 0.127451 0.820098
1.000000 0.124510 0.819118
0.017157 0.334314 0.859804
0.031373 0.332843 0.859804
0.112745 0.328922 0.857843
0.353922 0.322549 0.853921
0.558824 0.313235 0.848039
0.769118 0.302941 0.843627
0.950981 0.295098 0.839706
1.000000 0.289706 0.835784
1.000000 0.287255 0.834314
0.000000 0.503922 0.875490
0.000000 0.501961 0.875000
0.021078 0.496079 0.871568
0.300000 0.492157 0.869118
0.539215 0.484314 0.863725
0.743627 0.476471 0.859314
0.919608 0.468628 0.855392
1.000000 0.462746 0.851470
1.000000 0.460785 0.851470
0.000000 0.673529 0.890686
0.000000 0.673529 0.888236
0.000000 0.669608 0.886765
0.206373 0.665686 0.883333
0.500490 0.657843 0.879412
0.704902 0.650000 0.875490
0.876471 0.643628 0.871568
1.000000 0.638235 0.867647
1.000000 0.638235 0.867647
0.000000 0.813726 0.899510
0.000000 0.813726 0.899019
0.000000 0.809804 0.898529
0.155882 0.805883 0.895098
0.472549 0.800000 0.891176
0.677941 0.794118 0.886765
0.841177 0.789215 0.883824
0.977451 0.782353 0.882843
1.000000 0.782353 0.879902
0.000000 0.925980 0.910294
0.000000 0.922549 0.910294
0.000000 0.922059 0.906862
0.189706 0.918137 0.906372
0.472549 0.912745 0.902451
0.662745 0.906862 0.899019
0.817157 0.902451 0.895098
0.961764 0.898529 0.894608
1.000000 0.895098 0.891176
0.000000 1.000000 0.918627
0.000000 1.000000 0.918627
0.000000 1.000000 0.918137
0.195098 1.000000 0.914705
0.458823 1.000000 0.914215
0.638235 1.000000 0.910294
0.778432 1.000000 0.906862
0.942647 1.000000 0.902941
1.000000 1.000000 0.902451
0.000000 0.000000 0.921569
0.097549 0.000000 0.917647
0.217647 0.000000 0.913725
0.391666 0.000000 0.909804
0.590196 0.000000 0.905882
0.812255 0.000000 0.898039
0.997059 0.000000 0.894118
1.000000 0.000000 0.890196
1.000000 0.000000 0.886275
0.015196 0.077451 0.929412
0.077451 0.073530 0.929412
0.198039 0.066177 0.925490
0.375980 0.058334 0.921569
0.574510 0.051961 0.917647
0.796569 0.038726 0.909804
0.979902 0.026961 0.905882
1.000000 0.023039 0.901961
1.000000 0.019118 0.901471
0.050000 0.175490 0.937255
0.093628 0.174510 0.937255
0.186274 0.170588 0.936274
0.375980 0.162745 0.929412
0.570588 0.154902 0.925490
0.788725 0.143137 0.921569
0.974510 0.135294 0.913725
1.000000 0.127451 0.909804
1.000000 0.124510 0.909804
0.017157 0.334314 0.952941
0.032354 0.332843 0.952941
0.112745 0.328921 0.949020
0.353922 0.322549 0.945098
0.558824 0.315196 0.941176
0.769118 0.302941 0.937255
0.950981 0.295098 0.931863
1.000000 0.289706 0.927941
1.000000 0.287255 0.925490
0.000000 0.503922 0.968627
0.000000 0.500000 0.968627
0.023529 0.496078 0.964706
0.297549 0.492157 0.960294
0.537254 0.484314 0.956863
0.744117 0.476471 0.952941
0.917647 0.468628 0.949020
1.000000 0.460784 0.945098
1.000000 0.460784 0.945098
0.000000 0.673529 0.984314
0.000000 0.673529 0.984314
0.000000 0.669608 0.980392
0.203922 0.665686 0.977941
0.500490 0.657843 0.972059
0.704902 0.650000 0.968627
0.876471 0.643628 0.964706
1.000000 0.638235 0.962255
1.000000 0.638235 0.960784
0.000000 0.813726 0.996078
0.000000 0.813726 0.996078
0.000000 0.809804 0.993137
0.151961 0.805883 0.992157
0.470588 0.800000 0.988235
0.675000 0.794118 0.984314
0.840196 0.789215 0.980392
0.977451 0.782353 0.976471
1.000000 0.782353 0.976471
0.000000 0.925980 1.000000
0.000000 0.922549 1.000000
0.000000 0.922059 1.000000
0.187255 0.918137 1.000000
0.472549 0.914215 0.996568
0.661765 0.906862 0.996078
0.813726 0.901961 0.992157
0.958333 0.898529 0.992157
1.000000 0.895098 0.988235
0.000000 1.000000 1.000000
0.000000 1.000000 1.000000
0.000000 1.000000 1.000000
0.193628 1.000000 1.000000
0.456863 1.000000 1.000000
0.635784 1.000000 1.000000
0.778432 1.000000 1.000000
0.942647 1.000000 1.000000
1.000000 1.000000 1.000000
