Color/Kodak/Kodak Elite ExtraColor 100 65x.cube
TITLE "Kodak Elite ExtraColor 100"
LUT_3D_SIZE 5
DOMAIN_MIN 0.000000 0.000000 0.000000
DOMAIN_MAX 1.000000 1.000000 1.000000
0.000000 0.000000 0.000000
0.179412 0.000000 0.000000
0.407844 0.000000 0.000000
0.663725 0.000000 0.000000
0.850980 0.000000 0.000000
0.132353 0.201961 0.061765
0.229412 0.187255 0.050980
0.450981 0.155883 0.023529
0.694117 0.091177 0.000000
0.850980 0.000000 0.000000
0.170588 0.496078 0.117647
0.307843 0.489216 0.109804
0.558824 0.466666 0.086275
0.795098 0.412745 0.044117
0.950981 0.274510 0.000000
0.296079 0.825490 0.042157
0.420588 0.825490 0.038236
0.691177 0.821569 0.026471
0.904902 0.801961 0.019608
1.000000 0.744117 0.019608
0.529412 1.000000 0.000000
0.626470 1.000000 0.000000
0.819608 1.000000 0.000000
1.000000 1.000000 0.000000
1.000000 1.000000 0.000000
0.000000 0.000000 0.155883
0.128432 0.000000 0.136274
0.365686 0.000000 0.112745
0.636275 0.000000 0.077451
0.832353 0.000000 0.022549
0.101961 0.205882 0.201961
0.194117 0.191176 0.191176
0.430392 0.159804 0.166666
0.675490 0.091177 0.116667
0.831373 0.000000 0.034314
0.087255 0.501961 0.242157
0.265686 0.496078 0.236275
0.535294 0.472549 0.210784
0.778432 0.416667 0.167647
0.935294 0.276471 0.095098
0.230392 0.818627 0.212745
0.377451 0.817647 0.204902
0.660784 0.813726 0.177451
0.884314 0.798039 0.130392
1.000000 0.744117 0.073530
0.513726 1.000000 0.000000
0.613725 1.000000 0.000000
0.815686 1.000000 0.000000
1.000000 1.000000 0.000000
1.000000 1.000000 0.000000
0.000000 0.000000 0.337255
0.085294 0.000000 0.323530
0.321569 0.000000 0.301960
0.600980 0.000000 0.272549
0.800000 0.000000 0.225490
0.046078 0.212745 0.412745
0.145098 0.199020 0.407844
0.387255 0.162745 0.388235
0.644118 0.091177 0.348039
0.790196 0.000000 0.274509
0.000000 0.507844 0.500000
0.141176 0.500000 0.496078
0.476471 0.476471 0.476471
0.738235 0.420588 0.445098
0.900000 0.280392 0.378432
0.001961 0.801961 0.545098
0.238235 0.801961 0.541176
0.587255 0.796078 0.525490
0.831373 0.780392 0.500000
1.000000 0.727451 0.441176
0.372549 1.000000 0.337255
0.500980 1.000000 0.329412
0.749020 1.000000 0.305883
0.971568 1.000000 0.263726
1.000000 1.000000 0.131373
0.000000 0.003922 0.569608
0.019608 0.000000 0.561764
0.266667 0.000000 0.542156
0.550000 0.000000 0.514706
0.752941 0.000000 0.488236
0.003922 0.230393 0.654902
0.065687 0.218628 0.649020
0.323530 0.184314 0.631373
0.604902 0.106863 0.598039
0.755883 0.000000 0.545098
0.000000 0.525490 0.739216
0.000000 0.519608 0.734313
0.391176 0.499020 0.719608
0.696079 0.445098 0.693137
0.868627 0.300000 0.646078
0.000000 0.794118 0.805883
0.000000 0.793137 0.801961
0.484314 0.789215 0.790196
0.774510 0.774510 0.774510
0.969607 0.719608 0.743137
0.000000 1.000000 0.794118
0.090196 1.000000 0.790196
0.583333 1.000000 0.778432
0.855883 1.000000 0.762745
1.000000 1.000000 0.724510
0.000000 0.035294 0.745098
0.000000 0.011765 0.741176
0.209804 0.000000 0.721569
0.506862 0.000000 0.689216
0.717647 0.000000 0.670588
0.000000 0.280392 0.831373
0.010784 0.269608 0.827451
0.233333 0.241176 0.811765
0.574510 0.170588 0.780392
0.748040 0.006863 0.736274
0.000000 0.564705 0.917647
0.000000 0.560785 0.913725
0.227451 0.549019 0.900000
0.649020 0.505883 0.874510
0.856863 0.370588 0.837255
0.000000 0.805883 0.985294
0.000000 0.804902 0.981372
0.249020 0.801961 0.968627
0.704902 0.793137 0.950000
0.941176 0.744117 0.930392
0.000000 0.984314 1.000000
0.000000 0.988235 1.000000
0.119608 0.992157 1.000000
0.728431 0.996078 1.000000
1.000000 1.000000 1.000000
