Color/Kodak/Kodak Ektachrome 100 VS 65x.cube
TITLE "Kodak Ektachrome 100 VS"
LUT_3D_SIZE 65
DOMAIN_MIN 0.000000 0.000000 0.000000
DOMAIN_MAX 1.000000 1.000000 1.000000
0.000000 0.000000 0.000000
0.000000 0.000000 0.000000
0.003922 0.000000 0.000000
0.006679 0.000000 0.000000
0.011520 0.000000 0.000000
0.015686 0.000000 0.000000
0.021201 0.000000 0.000000
0.027451 0.000000 0.000000
0.034804 0.000000 0.000000
0.043566 0.000000 0.000000
0.052328 0.000000 0.000000
0.061091 0.000000 0.000000
0.069853 0.000000 0.000000
0.082537 0.000000 0.000000
0.092402 0.000000 0.000000
0.106005 0.000000 0.000000
0.119608 0.000000 0.000000
0.137132 0.000000 0.000000
0.150736 0.000000 0.000000
0.172181 0.000000 0.000000
0.192402 0.000000 0.000000
0.211152 0.000000 0.000000
0.229289 0.000000 0.000000
0.246201 0.000000 0.000000
0.267647 0.000000 0.000000
0.285172 0.000000 0.000000
0.302696 0.000000 0.000000
0.324142 0.000000 0.000000
0.343873 0.000000 0.000000
0.366237 0.000000 0.000000
0.388603 0.000000 0.000000
0.413848 0.000000 0.000000
0.435295 0.000000 0.000000
0.459620 0.000000 0.000000
0.481985 0.000000 0.000000
0.504351 0.000000 0.000000
0.528921 0.000000 0.000000
0.550368 0.000000 0.000000
0.571814 0.000000 0.000000
0.593260 0.000000 0.000000
0.612255 0.000000 0.000000
0.632230 0.000000 0.000000
0.649755 0.000000 0.000000
0.671201 0.000000 0.000000
0.689951 0.000000 0.000000
0.710172 0.000000 0.000000
0.730760 0.000000 0.000000
0.749143 0.000000 0.000000
0.767647 0.000000 0.000000
0.788113 0.000000 0.000000
0.808456 0.000000 0.000000
0.827083 0.000000 0.000000
0.848530 0.000000 0.000000
0.866054 0.000000 0.000000
0.887500 0.000000 0.000000
0.908517 0.000000 0.000000
0.926470 0.000000 0.000000
0.947917 0.000000 0.000000
0.967769 0.000000 0.000000
0.986887 0.000000 0.000000
1.000000 0.000000 0.000000
1.000000 0.000000 0.000000
1.000000 0.000000 0.000000
1.000000 0.000000 0.000000
1.000000 0.000000 0.000000
0.000000 0.000919 0.000000
0.003922 0.000919 0.000000
0.007843 0.000919 0.000000
0.011765 0.000919 0.000000
0.019363 0.000919 0.000000
0.024448 0.000919 0.000000
0.029963 0.000919 0.000000
0.037807 0.000919 0.000000
0.050000 0.000919 0.000000
0.056250 0.000000 0.000000
0.065012 0.000000 0.000000
0.073774 0.000000 0.000000
0.082537 0.000000 0.000000
0.095405 0.000000 0.000000
0.109007 0.000000 0.000000
0.121507 0.000000 0.000000
0.140134 0.000000 0.000000
0.154657 0.000000 0.000000
0.172120 0.000000 0.000000
0.192708 0.000000 0.000000
0.212929 0.000000 0.000000
0.228676 0.000000 0.000000
0.249204 0.000000 0.000000
0.266728 0.000000 0.000000
0.284252 0.000000 0.000000
0.301777 0.000000 0.000000
0.319669 0.000000 0.000000
0.340748 0.000000 0.000000
0.362194 0.000000 0.000000
0.383640 0.000000 0.000000
0.405209 0.000000 0.000000
0.427573 0.000000 0.000000
0.449939 0.000000 0.000000
0.473346 0.000000 0.000000
0.498591 0.000000 0.000000
0.520159 0.000000 0.000000
0.541606 0.000000 0.000000
0.563052 0.000000 0.000000
0.587132 0.000000 0.000000
0.605944 0.000000 0.000000
0.623468 0.000000 0.000000
0.643995 0.000000 0.000000
0.662439 0.000000 0.000000
0.679350 0.000000 0.000000
0.701409 0.000000 0.000000
0.718934 0.000000 0.000000
0.739460 0.000000 0.000000
0.757905 0.000000 0.000000
0.775429 0.000000 0.000000
0.797856 0.000000 0.000000
0.814399 0.000000 0.000000
0.834926 0.000000 0.000000
0.853186 0.000000 0.000000
0.875551 0.000000 0.000000
0.892341 0.000000 0.000000
0.912867 0.000000 0.000000
0.934313 0.000000 0.000000
0.953248 0.000000 0.000000
0.973284 0.000000 0.000000
0.990809 0.000000 0.000000
1.000000 0.000000 0.000000
1.000000 0.000000 0.000000
1.000000 0.000000 0.000000
1.000000 0.000000 0.000000
1.000000 0.000000 0.000000
0.001838 0.005760 0.000000
0.004841 0.005760 0.000000
0.009681 0.005760 0.000000
0.014522 0.005760 0.000000
0.017524 0.005760 0.000000
0.029289 0.005760 0.000000
0.032966 0.003922 0.000000
0.041728 0.003922 0.000000
0.052329 0.003922 0.000000
0.061091 0.003922 0.000000
0.069853 0.003922 0.000000
0.078615 0.003922 0.000000
0.092647 0.003922 0.000000
0.102329 0.003922 0.000000
0.117769 0.003922 0.000000
0.131372 0.003922 0.000000
0.148897 0.003922 0.000000
0.166421 0.003922 0.000000
0.183946 0.003922 0.000000
0.201470 0.003922 0.000000
0.218995 0.003922 0.000000
0.238603 0.003922 0.000000
0.256127 0.003922 0.000000
0.273652 0.003922 0.000000
0.291177 0.003922 0.000000
0.310540 0.003922 0.000000
0.328064 0.003922 0.000000
0.349510 0.003922 0.000000
0.369240 0.001838 0.000000
0.391605 -0.001287 0.000000
0.413848 0.000000 0.000000
0.434498 0.000000 0.000000
0.456740 0.000000 0.000000
0.478186 0.000000 0.000000
0.505514 0.000000 0.000000
0.523959 0.000000 0.000000
0.546323 0.000000 0.000000
0.567892 0.000000 0.000000
0.591054 0.000000 0.000000
0.610784 0.000000 0.000000
0.627941 0.000000 0.000000
0.647916 0.000000 0.000000
0.667279 0.000000 0.000000
0.686888 0.000000 0.000000
0.706250 0.000000 0.000000
0.723775 0.000000 0.000000
0.743382 0.000000 0.000000
0.762745 0.000000 0.000000
0.779412 0.000000 0.000000
0.799877 0.000000 0.000000
0.820220 0.000000 0.000000
0.838848 0.000000 0.000000
0.858211 0.000000 0.000000
0.877819 0.000000 0.000000
0.897917 0.000000 0.000000
0.916789 0.000000 0.000000
0.936152 0.000000 0.000000
0.955760 0.000000 0.000000
0.975612 0.000000 0.000000
0.994730 0.000000 0.000000
1.000000 0.000000 0.000000
1.000000 0.000000 0.000000
1.000000 0.000000 0.000000
1.000000 0.000000 0.000000
1.000000 0.000000 0.000000
0.003922 0.010601 0.000000
0.007843 0.010601 0.000000
0.011765 0.010601 0.000000
0.015686 0.010601 0.000000
0.023284 0.010601 0.000000
0.028125 0.010601 0.000000
0.036887 0.010601 0.000000
0.045650 0.010601 0.000000
0.054412 0.007843 0.000000
0.065931 0.007843 0.000000
0.074693 0.007843 0.000000
0.082966 0.007843 0.000000
0.096568 0.007843 0.000000
0.109007 0.007843 0.000000
0.125429 0.007843 0.000000
0.137377 0.007843 0.000000
0.153738 0.007843 0.000000
0.171262 0.006679 0.000000
0.189951 0.006679 0.000000
0.210233 0.006679 0.000000
0.227758 0.006679 0.000000
0.245282 0.006679 0.000000
0.262806 0.006679 0.000000
0.280331 0.006679 0.000000
0.297856 0.006679 0.000000
0.315380 0.006679 0.000000
0.334068 0.006679 0.000000
0.354350 0.003922 0.000000
0.375796 0.003922 0.000000
0.397610 0.003922 0.000000
0.416054 0.003922 0.000000
0.438419 0.003922 0.000000
0.460784 0.003922 0.000000
0.483027 0.003922 0.000000
0.509436 0.002758 0.000000
0.527880 0.000000 0.000000
0.550245 0.000000 0.000000
0.572733 0.000000 0.000000
0.591422 0.000000 0.000000
0.612868 0.000000 0.000000
0.633150 0.000000 0.000000
0.651838 0.000000 0.000000
0.669363 0.000000 0.000000
0.689645 0.000000 0.000000
0.708333 0.000000 0.000000
0.725858 0.000000 0.000000
0.746140 0.000000 0.000000
0.764829 0.000000 0.000000
0.782353 0.000000 0.000000
0.801777 0.000000 0.000000
0.821323 0.000000 0.000000
0.842586 0.000000 0.000000
0.860295 0.000000 0.000000
0.880576 0.000000 0.000000
0.899265 0.000000 0.000000
0.920282 0.000000 0.000000
0.938235 0.000000 0.000000
0.958517 0.000000 0.000000
0.977206 0.000000 0.000000
0.994730 0.000000 0.000000
1.000000 0.000000 0.000000
1.000000 0.000000 0.000000
1.000000 0.000000 0.000000
1.000000 0.000000 0.000000
1.000000 0.000000 0.000000
0.007598 0.015686 0.000000
0.008762 0.015686 0.000000
0.013603 0.017524 0.000000
0.018444 0.015441 0.000000
0.023284 0.015441 0.000000
0.032047 0.015441 0.000000
0.038480 0.015441 0.000000
0.049571 0.015441 0.000000
0.058334 0.015441 0.000000
0.067096 0.011765 0.000000
0.079535 0.011765 0.000000
0.086887 0.011765 0.000000
0.100981 0.011765 0.000000
0.117586 0.011765 0.000000
0.127696 0.011765 0.000000
0.144976 0.011765 0.000000
0.162500 0.011520 0.000000
0.180024 0.011520 0.000000
0.197550 0.011520 0.000000
0.215074 0.011520 0.000000
0.232598 0.011520 0.000000
0.250122 0.011520 0.000000
0.267647 0.011520 0.000000
0.285171 0.011520 0.000000
0.302696 0.011520 0.000000
0.320221 0.011520 0.000000
0.341667 0.011520 0.000000
0.356801 0.007843 0.000000
0.380638 0.007843 0.000000
0.402084 0.008394 0.000000
0.419976 0.007598 0.000000
0.442341 0.007598 0.000000
0.464706 0.007598 0.000000
0.487071 0.003922 0.000000
0.509314 0.003922 0.000000
0.534681 0.003922 0.000000
0.556127 0.003922 0.000000
0.573897 0.004964 0.000000
0.594975 0.003677 0.000000
0.616544 0.003677 0.000000
0.634314 0.000000 0.000000
0.655515 0.000000 0.000000
0.672672 0.000000 0.000000
0.690809 0.000000 0.000000
0.712009 0.000000 0.000000
0.729779 0.000000 0.000000
0.747304 0.000000 0.000000
0.768505 0.000000 0.000000
0.786275 0.000000 0.000000
0.803799 0.000000 0.000000
0.825000 0.000000 0.000000
0.842769 0.000000 0.000000
0.861030 0.000000 0.000000
0.881740 0.000000 0.000000
0.899265 0.000000 0.000000
0.920282 0.000000 0.000000
0.941912 0.000000 0.000000
0.959682 0.000000 0.000000
0.977206 0.000000 0.000000
0.994730 0.000000 0.000000
1.000000 0.000000 0.000000
1.000000 0.000000 0.000000
1.000000 0.000000 0.000000
1.000000 0.000000 0.000000
1.000000 0.000000 0.000000
0.011765 0.024203 0.003922
0.012439 0.024203 0.003922
0.016360 0.024203 0.003922
0.022365 0.024203 0.000674
0.024203 0.023529 0.000674
0.035968 0.020282 0.000000
0.044730 0.020282 0.000000
0.053493 0.020282 0.000000
0.062255 0.020282 0.000000
0.071691 0.020282 0.000000
0.080453 0.020282 0.000000
0.094730 0.020282 0.000000
0.108333 0.020282 0.000000
0.122427 0.019608 0.000000
0.135110 0.019608 0.000000
0.149816 0.019608 0.000000
0.167340 0.016360 0.000000
0.184865 0.016360 0.000000
0.202390 0.016360 0.000000
0.219914 0.016360 0.000000
0.237439 0.016360 0.000000
0.254964 0.016360 0.000000
0.272488 0.016360 0.000000
0.289339 0.016360 0.000000
0.309314 0.016360 0.000000
0.325061 0.015686 0.000000
0.342279 0.015686 0.000000
0.364032 0.012439 0.000000
0.387010 0.012439 0.000000
0.403002 0.009314 0.000000
0.428370 0.011765 0.000000
0.450184 0.011765 0.000000
0.472549 0.011765 0.000000
0.494914 0.008517 0.000000
0.517279 0.008517 0.000000
0.535600 0.007843 0.000000
0.558088 0.007843 0.000000
0.577819 0.007843 0.000000
0.596017 0.004596 0.000000
0.617463 0.004596 0.000000
0.638235 0.003922 0.000000
0.655760 0.003922 0.000000
0.676593 0.003922 0.000000
0.694731 0.000674 0.000000
0.712255 -0.000552 0.000000
0.731924 0.000000 0.000000
0.747977 0.000000 0.000000
0.768750 0.000000 0.000000
0.786275 0.000000 0.000000
0.807721 0.000000 0.000000
0.825245 0.000000 0.000000
0.846508 0.000000 0.000000
0.864216 0.000000 0.000000
0.882414 0.000000 0.000000
0.903186 0.000000 0.000000
0.920711 0.000000 0.000000
0.942156 0.000000 0.000000
0.961091 0.000000 0.000000
0.981128 0.000000 0.000000
0.998652 0.000000 0.000000
1.000000 0.000000 0.000000
1.000000 0.000000 0.000000
1.000000 0.000000 0.000000
1.000000 0.000000 0.000000
1.000000 0.000000 0.000000
0.013358 0.032966 0.003922
0.016605 0.032966 0.003922
0.021201 0.032966 0.003922
0.026287 0.032966 0.003922
0.031128 0.032966 0.003922
0.037561 0.029044 0.003922
0.046323 0.029044 0.003922
0.055086 0.029044 0.003922
0.066177 0.029044 0.001593
0.076532 0.029044 0.000000
0.085049 0.029044 0.000000
0.097978 0.029044 0.000000
0.112254 0.025858 0.000000
0.125858 0.025122 0.000000
0.141054 0.025122 0.000000
0.158578 0.025122 0.000000
0.177451 0.025122 0.000000
0.193627 0.025122 0.000000
0.209559 0.025122 0.000000
0.227083 0.025122 0.000000
0.244608 0.025122 0.000000
0.259804 0.023529 0.000000
0.277329 0.024509 0.000000
0.294853 0.021201 0.000000
0.312377 0.021201 0.000000
0.329902 0.021201 0.000000
0.349755 0.021201 0.000000
0.368873 0.019608 0.000000
0.390931 0.019608 0.000000
0.410172 0.017279 0.000000
0.433211 0.017279 0.000000
0.454656 0.017279 0.000000
0.476471 0.015318 0.000000
0.498836 0.015686 0.000000
0.517402 0.013358 0.000000
0.540441 0.011765 0.000000
0.560294 0.011765 0.000000
0.579412 0.011765 0.000000
0.602819 0.009436 0.000000
0.620711 0.009436 0.000000
0.639828 0.007843 0.000000
0.657353 0.007843 0.000000
0.677206 0.005515 0.000000
0.694731 0.003922 0.000000
0.713848 0.003922 0.000000
0.733701 0.003922 0.000000
0.751225 0.003922 0.000000
0.770342 0.003922 0.000000
0.787255 0.000000 0.000000
0.807721 0.000000 0.000000
0.828064 0.000000 0.000000
0.846691 0.000000 0.000000
0.865809 0.000000 0.000000
0.885662 0.000000 0.000000
0.903186 0.000000 0.000000
0.922303 0.000000 0.000000
0.942156 0.000000 0.000000
0.961091 0.000000 0.000000
0.981128 0.000000 0.000000
0.998652 0.000000 0.000000
1.000000 0.000000 0.000000
1.000000 0.000000 0.000000
1.000000 0.000000 0.000000
1.000000 0.000000 0.000000
1.000000 0.000000 0.000000
0.018199 0.041728 0.007843
0.020527 0.041728 0.009436
0.026042 0.041728 0.006434
0.030209 0.041728 0.006434
0.033885 0.041728 0.006434
0.039890 0.041728 0.003922
0.048652 0.040318 0.003922
0.059926 0.040318 0.003922
0.070098 0.036888 0.003922
0.081373 0.037807 0.003922
0.088971 0.037807 0.003922
0.102573 0.037807 0.004167
0.115503 0.037807 0.002513
0.132292 0.040135 0.000000
0.147304 0.033885 0.000000
0.163419 0.033885 0.000000
0.180944 0.033885 0.000000
0.198468 0.033885 0.000000
0.215993 0.033885 0.000000
0.233517 0.033885 0.000000
0.248529 0.033885 0.000000
0.266054 0.033885 0.000000
0.282169 0.029964 0.000000
0.299694 0.029964 0.000000
0.317218 0.029964 0.000000
0.334743 0.029964 0.000000
0.356189 0.027451 0.000000
0.372487 0.026042 0.000000
0.395159 0.026042 0.000000
0.414093 0.026042 0.000000
0.438052 0.023529 0.000000
0.459498 0.022120 0.000000
0.478432 0.022120 0.000000
0.498468 0.022120 0.000000
0.519914 0.019608 0.000000
0.542769 0.018199 0.000000
0.562010 0.018199 0.000000
0.584375 0.015686 0.000000
0.603187 0.014277 0.000000
0.623223 0.014277 0.000000
0.642157 0.011765 0.000000
0.659681 0.011888 0.000000
0.680515 0.010356 0.000000
0.695037 0.007843 0.000000
0.716177 0.009130 0.000000
0.733701 0.006434 0.000000
0.754289 0.006434 0.000000
0.772672 0.003922 0.000000
0.790196 0.003922 0.000000
0.810233 0.004535 0.000000
0.829167 0.000000 0.000000
0.846691 0.000000 0.000000
0.868138 0.000000 0.000000
0.885662 0.000000 0.000000
0.905760 0.000000 0.000000
0.924632 0.000000 0.000000
0.942647 0.000000 0.000000
0.963603 0.000000 0.000000
0.981128 0.000000 0.000000
0.998652 0.000000 0.000000
1.000000 0.000000 0.000000
1.000000 0.000000 0.000000
1.000000 0.000000 0.000000
1.000000 0.000000 0.000000
1.000000 0.000000 0.000000
0.023039 0.054412 0.011275
0.024448 0.054412 0.011275
0.029289 0.054412 0.011275
0.034130 0.054412 0.011275
0.038726 0.053922 0.007843
0.043811 0.053922 0.007843
0.052573 0.053922 0.007843
0.064768 0.050490 0.008762
0.073530 0.050490 0.007353
0.086213 0.050490 0.003922
0.092892 0.050490 0.003922
0.106495 0.050000 0.003922
0.123529 0.050000 0.003922
0.137623 0.046569 0.007170
0.154657 0.046569 0.000000
0.172182 0.046569 0.000000
0.189706 0.046569 0.000000
0.203370 0.046079 0.000000
0.220833 0.042647 0.000000
0.238358 0.042647 0.000000
0.252451 0.042647 0.000000
0.269975 0.042647 0.000000
0.287010 0.042647 0.000000
0.304534 0.044547 0.000000
0.322059 0.038726 0.000000
0.339583 0.038726 0.000000
0.361029 0.038726 0.000000
0.376409 0.034804 0.000000
0.400000 0.034804 0.000000
0.418015 0.034804 0.000000
0.442892 0.030883 0.000000
0.464338 0.030883 0.000000
0.480393 0.030883 0.000000
0.502757 0.028003 0.000000
0.524755 0.026961 0.000000
0.543566 0.023529 0.000000
0.567647 0.025244 0.000000
0.585662 0.023039 0.000000
0.606617 0.019485 0.000000
0.624632 0.019118 0.000000
0.645588 0.019118 0.000000
0.663603 0.015686 0.000000
0.681128 0.015196 0.000000
0.698652 0.011765 0.000000
0.716177 0.011275 0.000000
0.737132 0.011275 0.000000
0.755147 0.011275 0.000000
0.772672 0.007843 0.000000
0.793628 0.010294 0.000000
0.811642 0.003922 0.000000
0.829167 0.003922 0.000000
0.850429 0.003432 0.000000
0.868138 0.000000 0.000000
0.889094 0.000000 0.000000
0.907108 0.000000 0.000000
0.924632 0.000000 0.000000
0.946078 0.000000 0.000000
0.963603 0.000000 0.000000
0.983456 0.000000 0.000000
0.999326 0.000000 0.000000
1.000000 0.000000 0.000000
1.000000 0.000000 0.000000
1.000000 0.000000 0.000000
1.000000 0.000000 0.000000
1.000000 0.000000 0.000000
0.027880 0.067525 0.016115
0.031802 0.067096 0.015196
0.035723 0.067096 0.015686
0.039645 0.067096 0.015686
0.043566 0.067096 0.012194
0.051409 0.063603 0.012194
0.056924 0.063603 0.012194
0.065686 0.063603 0.011765
0.077941 0.063174 0.011765
0.087133 0.063174 0.008272
0.100735 0.063174 0.006924
0.112500 0.059682 0.007843
0.128370 0.059682 0.007843
0.145466 0.059253 0.003922
0.159498 0.059253 0.003922
0.177022 0.059253 0.003922
0.194546 0.059253 0.003922
0.211642 0.055760 0.000429
0.225674 0.055331 0.000000
0.242770 0.055331 0.000000
0.260294 0.055331 0.000000
0.274326 0.055331 0.000000
0.291421 0.051838 0.000000
0.308946 0.051409 0.000000
0.326471 0.051409 0.000000
0.344425 0.051409 0.000000
0.361887 0.047488 0.000000
0.384252 0.047488 0.000000
0.400919 0.041789 0.000000
0.422365 0.043566 0.000000
0.443505 0.043566 0.000000
0.465870 0.039032 0.000000
0.488236 0.039645 0.000000
0.507721 0.036765 0.000000
0.525674 0.035723 0.000000
0.547120 0.034926 0.000000
0.569853 0.031802 0.000000
0.589584 0.029167 0.000000
0.610662 0.027880 0.000000
0.628554 0.027451 0.000000
0.646078 0.023958 0.000000
0.663603 0.021568 0.000000
0.681557 0.020037 0.000000
0.702574 0.019731 0.000000
0.720098 0.016115 0.000000
0.737622 0.015686 0.000000
0.755147 0.012194 0.000000
0.773101 0.011765 0.000000
0.794118 0.011765 0.000000
0.811642 0.006372 0.000000
0.831985 0.007843 0.000000
0.850612 0.000614 0.000000
0.868138 0.003922 0.000000
0.889584 0.003922 0.000000
0.907108 0.003922 0.000000
0.928125 0.000000 0.000000
0.946078 0.000000 0.000000
0.965012 0.000000 0.000000
0.985049 0.000000 0.000000
0.999326 0.000000 0.000000
1.000000 0.000000 0.000000
1.000000 0.000000 0.000000
1.000000 0.000000 0.000000
1.000000 0.000000 0.000000
1.000000 0.000000 0.000000
0.032721 0.081127 0.023529
0.036213 0.081127 0.020956
0.040564 0.081127 0.020956
0.044485 0.079779 0.020956
0.052084 0.079779 0.020956
0.056924 0.077206 0.020282
0.064338 0.077206 0.017034
0.070527 0.077206 0.017034
0.079290 0.077206 0.013602
0.091973 0.075858 0.013113
0.104657 0.075858 0.013113
0.119607 0.075858 0.011765
0.135784 0.073284 0.011765
0.150735 0.073284 0.007843
0.166912 0.071936 0.007843
0.181863 0.071936 0.007843
0.199388 0.069363 0.002329
0.213051 0.069363 0.003922
0.230515 0.068015 0.003922
0.246691 0.068015 0.001348
0.264216 0.065441 -0.001348
0.279166 0.065441 0.000000
0.295343 0.064093 0.000000
0.312868 0.064093 0.000000
0.330392 0.064093 0.000000
0.349264 0.061520 0.000000
0.369362 0.060172 0.000000
0.388235 0.057598 0.000000
0.405760 0.056250 0.000000
0.428983 0.056250 0.000000
0.448652 0.052328 0.000000
0.470098 0.052328 0.000000
0.490196 0.047794 0.000000
0.509069 0.048407 0.000000
0.530515 0.042035 0.000000
0.551961 0.045037 0.000000
0.572059 0.040564 0.000000
0.590931 0.040564 0.000000
0.611030 0.036642 0.000000
0.628554 0.032721 0.000000
0.647426 0.032721 0.000000
0.667524 0.028799 0.000000
0.685049 0.028799 0.000000
0.702574 0.024877 0.000000
0.720098 0.020956 0.000000
0.737622 0.020956 0.000000
0.756495 0.019608 0.000000
0.776594 0.017034 0.000000
0.794118 0.016054 0.000000
0.813542 0.011214 0.000000
0.833088 0.009191 0.000000
0.850612 0.005453 0.000000
0.868873 0.008456 0.000000
0.889584 0.005270 0.000000
0.907108 0.003922 0.000000
0.925980 0.003922 0.000000
0.946078 0.000000 0.000000
0.964951 0.000000 0.000000
0.985049 0.000000 0.000000
0.999326 0.000000 0.000000
1.000000 0.000000 0.000000
1.000000 0.000000 0.000000
1.000000 0.000000 0.000000
1.000000 0.000000 0.000000
1.000000 0.000000 0.000000
0.041483 0.098652 0.029718
0.045404 0.098652 0.029718
0.049326 0.094730 0.029718
0.053247 0.094730 0.029718
0.057169 0.094730 0.026042
0.063419 0.094730 0.025796
0.070527 0.094730 0.025796
0.079289 0.094730 0.023284
0.085785 0.094730 0.021875
0.096814 0.090809 0.021875
0.108578 0.090809 0.020527
0.124449 0.090809 0.017953
0.141973 0.090809 0.014767
0.159314 0.090625 0.014032
0.173100 0.086887 0.011765
0.188358 0.086887 0.010110
0.204228 0.086887 0.010110
0.217893 0.083028 0.007843
0.235355 0.082966 0.006189
0.250613 0.082966 0.003922
0.268137 0.080269 0.003922
0.284008 0.080698 0.003922
0.299264 0.079044 0.002267
0.319056 0.079044 0.000000
0.336581 0.076777 0.000000
0.354105 0.075122 0.000000
0.373284 0.072855 0.000000
0.393076 0.071201 0.000000
0.410539 0.068934 0.000000
0.432046 0.068934 0.000000
0.453492 0.065012 0.000000
0.474939 0.066238 0.000000
0.494117 0.061091 0.000000
0.513909 0.061091 0.000000
0.536887 0.055638 0.000000
0.554534 0.055515 0.000000
0.573774 0.053247 0.000000
0.593505 0.048958 0.000000
0.614583 0.049326 0.000000
0.632476 0.047120 0.000000
0.650000 0.041483 0.000000
0.667524 0.039093 0.000000
0.685049 0.037561 0.000000
0.704841 0.033640 0.000000
0.721324 0.029718 0.000000
0.741544 0.027574 0.000000
0.759068 0.025796 0.000000
0.776594 0.025735 0.000000
0.796385 0.019608 0.000000
0.815564 0.017953 0.000000
0.833088 0.015686 0.000000
0.854351 0.010295 0.000000
0.872059 0.010110 0.000000
0.889584 0.010110 0.000000
0.909375 0.007843 0.000000
0.928554 0.002697 0.000000
0.948346 0.003922 0.000000
0.967525 0.002267 0.000000
0.985049 0.000000 0.000000
0.999326 0.000000 0.000000
1.000000 0.000000 0.000000
1.000000 0.000000 0.000000
1.000000 0.000000 0.000000
1.000000 0.000000 0.000000
1.000000 0.000000 0.000000
0.050245 0.116176 0.042402
0.054167 0.116176 0.041666
0.058089 0.116176 0.038481
0.062010 0.116176 0.038481
0.065932 0.115441 0.038481
0.073775 0.115441 0.037745
0.079290 0.112254 0.034559
0.084866 0.112254 0.034559
0.092893 0.112254 0.030393
0.098897 0.112254 0.030638
0.112500 0.111519 0.026716
0.130024 0.108333 0.026716
0.146814 0.108333 0.022794
0.161152 0.108333 0.022611
0.177941 0.110417 0.018873
0.195466 0.104411 0.015686
0.210049 0.104411 0.014951
0.222732 0.104411 0.011091
0.240196 0.100490 0.011030
0.254534 0.100490 0.011030
0.272549 0.100490 0.007843
0.288848 0.096139 0.007108
0.306373 0.096568 0.003922
0.323897 0.096568 0.003922
0.341421 0.094118 0.003187
0.358946 0.092647 -0.000184
0.377206 0.092280 0.000000
0.397917 0.088725 0.000000
0.416177 0.086520 0.000000
0.436888 0.084804 0.000000
0.458334 0.084681 0.000000
0.479780 0.080882 0.000000
0.496078 0.076960 0.000000
0.518750 0.076960 0.000000
0.537010 0.073039 0.000000
0.558456 0.072243 0.000000
0.579167 0.069117 0.000000
0.597427 0.066483 0.000000
0.614951 0.062010 0.000000
0.635662 0.060724 0.000000
0.653187 0.054167 0.000000
0.671446 0.053431 0.000000
0.688971 0.050245 0.000000
0.706495 0.049203 0.000000
0.724020 0.044363 0.000000
0.741544 0.038481 0.000000
0.762255 0.037745 0.000000
0.780515 0.034498 0.000000
0.798039 0.029657 0.000000
0.815564 0.023529 0.000000
0.835907 0.022794 0.000000
0.854534 0.019608 0.000000
0.872059 0.015686 0.000000
0.891238 0.014951 0.000000
0.911029 0.011765 0.000000
0.928554 0.007537 0.000000
0.950000 0.007108 0.000000
0.967525 0.003922 0.000000
0.985049 0.003922 0.000000
0.999326 -0.000061 0.000000
1.000000 0.000000 0.000000
1.000000 0.000000 0.000000
1.000000 0.000000 0.000000
1.000000 0.000000 0.000000
1.000000 0.000000 0.000000
0.059008 0.133701 0.051164
0.062929 0.133701 0.051164
0.066851 0.133701 0.051164
0.067035 0.133701 0.051164
0.074694 0.133701 0.043750
0.078799 0.133701 0.047243
0.088052 0.132108 0.047243
0.092892 0.129780 0.043321
0.101654 0.129780 0.043321
0.110846 0.129780 0.039400
0.123101 0.129780 0.038052
0.135784 0.129780 0.035478
0.155392 0.126593 0.031557
0.168995 0.125858 0.031373
0.182782 0.125858 0.027635
0.200123 0.125858 0.023713
0.210968 0.121937 0.023713
0.231250 0.121937 0.019792
0.244853 0.121937 0.019608
0.262378 0.118015 0.015870
0.273468 0.118015 0.015686
0.293505 0.118015 0.011949
0.311029 0.114093 0.011765
0.328554 0.114093 0.008027
0.346078 0.114093 0.007843
0.363603 0.110172 0.004106
0.381311 0.109804 0.003922
0.402573 0.106250 0.003922
0.420282 0.104044 0.000184
0.441544 0.102329 0.000000
0.459192 0.098407 0.000000
0.480698 0.097365 0.000000
0.501961 0.094486 0.000000
0.519670 0.091605 0.000000
0.544730 0.090564 0.000000
0.562377 0.086643 0.000000
0.581618 0.082721 0.000000
0.601348 0.080086 0.000000
0.618873 0.075244 0.000000
