Color/Kodak/Kodak Elite Chrome 200 65x.cube
TITLE "Kodak Elite Chrome 200"
LUT_3D_SIZE 5
DOMAIN_MIN 0.000000 0.000000 0.000000
DOMAIN_MAX 1.000000 1.000000 1.000000
0.000000 0.000000 0.000000
0.150980 0.000000 0.000000
0.407844 0.000000 0.000000
0.680392 0.000000 0.000000
0.925490 0.000000 0.000000
0.125490 0.229412 0.081372
0.248039 0.210785 0.057844
0.489216 0.170588 0.007843
0.725491 0.091177 0.000000
0.917647 0.000000 0.000000
0.260784 0.525490 0.186275
0.380392 0.521568 0.167647
0.613726 0.501961 0.135294
0.846078 0.463726 0.095099
1.000000 0.374509 0.045098
0.487255 0.789215 0.287255
0.564705 0.786275 0.275490
0.740196 0.777451 0.246079
0.950981 0.758824 0.207843
1.000000 0.723530 0.165686
0.725490 0.992157 0.349020
0.772549 0.992157 0.345098
0.896079 0.988235 0.327451
1.000000 0.984314 0.305882
1.000000 0.972549 0.282353
0.000000 0.000000 0.123529
0.112745 0.000000 0.093137
0.368627 0.000000 0.042157
0.632353 0.000000 0.003922
0.867647 0.000000 0.000000
0.086275 0.217647 0.221568
0.199020 0.199020 0.199020
0.444118 0.158823 0.149020
0.672549 0.075490 0.084314
0.861765 0.000000 0.021568
0.186275 0.525490 0.329412
0.328431 0.521568 0.314706
0.567647 0.500000 0.276470
0.797059 0.459804 0.231373
0.994117 0.368627 0.181373
0.426471 0.793137 0.429412
0.507843 0.789215 0.419608
0.688236 0.779412 0.396078
0.900000 0.762745 0.362745
1.000000 0.723530 0.328431
0.667647 0.999019 0.493138
0.716667 0.996078 0.488235
0.842157 0.992157 0.472549
1.000000 0.988235 0.449019
1.000000 0.979412 0.422549
0.000000 0.000000 0.319608
0.054902 0.000000 0.291177
0.311765 0.000000 0.249020
0.568627 0.000000 0.203922
0.801961 0.000000 0.164706
0.038235 0.194117 0.423530
0.139215 0.175490 0.400981
0.373530 0.129412 0.353922
0.593137 0.048039 0.297059
0.780392 0.000000 0.235295
0.021569 0.521568 0.539215
0.243137 0.513726 0.525490
0.490197 0.490197 0.490197
0.723530 0.448039 0.447058
0.915686 0.345098 0.392157
0.326470 0.794118 0.634314
0.419608 0.790196 0.624510
0.610784 0.781373 0.602941
0.825490 0.762745 0.568628
1.000000 0.723530 0.532353
0.584314 1.000000 0.694117
0.635294 1.000000 0.688236
0.764706 1.000000 0.672549
0.934313 0.996078 0.650980
1.000000 0.986274 0.623530
0.000000 0.000000 0.530392
0.014706 0.000000 0.497059
0.258823 0.000000 0.455882
0.506862 0.000000 0.412745
0.733333 0.000000 0.377451
0.003922 0.135294 0.607843
0.082353 0.114706 0.585294
0.301960 0.070588 0.541176
0.513726 0.007843 0.489216
0.712746 0.000000 0.439216
0.021569 0.494117 0.720588
0.180392 0.485294 0.708823
0.428431 0.462745 0.677451
0.651960 0.412745 0.634314
0.830392 0.286274 0.572549
0.241177 0.789215 0.817647
0.349020 0.785294 0.809804
0.545098 0.774510 0.788235
0.757843 0.754902 0.754902
0.960784 0.711765 0.715687
0.517647 1.000000 0.883333
0.568627 1.000000 0.879412
0.696079 1.000000 0.863726
0.859804 1.000000 0.844118
1.000000 0.993137 0.812745
0.000000 0.000000 0.713726
0.006863 0.000000 0.674510
0.223529 0.000000 0.639216
0.456863 0.000000 0.600000
0.674510 0.000000 0.560784
0.000000 0.037255 0.751961
0.056863 0.022549 0.732353
0.244118 0.000000 0.693137
0.451960 0.000000 0.650980
0.658824 0.000000 0.615686
0.094118 0.425490 0.862745
0.194117 0.417647 0.852941
0.394118 0.382353 0.821568
0.587255 0.312745 0.774510
0.733333 0.143137 0.705882
0.256863 0.762745 0.968627
0.345098 0.758824 0.958823
0.520588 0.747059 0.940195
0.707843 0.723530 0.913725
0.895098 0.665686 0.871568
0.517647 1.000000 1.000000
0.559804 1.000000 1.000000
0.664706 1.000000 1.000000
0.812745 1.000000 1.000000
1.000000 1.000000 1.000000
