Color/Kodak/Kodak Portra 160 VC 1 - 65x.cube
TITLE "Kodak Portra 160 VC 1 -"
LUT_3D_SIZE 65
DOMAIN_MIN 0.000000 0.000000 0.000000
DOMAIN_MAX 1.000000 1.000000 1.000000
0.000000 0.000000 0.000000
0.000000 0.000000 0.000000
0.003922 0.000000 0.000000
0.003922 0.000000 0.000000
0.003922 0.000000 0.000000
0.008517 0.000000 0.000000
0.017279 0.003922 0.000000
0.026042 0.000000 0.000000
0.038236 0.003432 0.000000
0.051838 0.003922 0.000000
0.069363 0.007843 0.000000
0.085233 0.010110 0.000000
0.104411 0.014951 0.000000
0.121937 0.019608 0.000000
0.142279 0.022426 0.000000
0.162929 0.025551 0.000000
0.185294 0.027451 0.000000
0.207659 0.027390 0.000000
0.233089 0.030515 0.000000
0.258088 0.029228 0.000000
0.282598 0.027451 0.000000
0.305269 0.023835 0.000000
0.335171 0.019608 0.000000
0.361458 0.018076 0.000000
0.386275 0.011765 0.000000
0.410111 0.007843 0.000000
0.439951 0.003554 0.000000
0.461397 0.000000 0.000000
0.486765 0.000000 0.000000
0.511336 0.000000 0.000000
0.529780 0.000000 0.000000
0.555024 0.000000 0.000000
0.576470 0.000000 0.000000
0.597917 0.000000 0.000000
0.615441 0.000000 0.000000
0.636887 0.000000 0.000000
0.660049 0.000000 0.000000
0.682415 0.000000 0.000000
0.705147 0.000000 0.000000
0.726593 0.000000 0.000000
0.748039 0.000000 0.000000
0.765563 0.000000 0.000000
0.787010 0.000000 0.000000
0.800613 0.000000 0.000000
0.820833 0.000000 0.000000
0.831740 0.000000 0.000000
0.849264 0.003064 0.000000
0.862806 0.015747 0.000000
0.876471 0.029412 0.000000
0.890074 0.043015 0.000000
0.903676 0.060539 0.000000
0.917463 0.070404 0.000000
0.930883 0.083824 0.000000
0.944485 0.097427 0.000000
0.958088 0.108456 0.000000
0.971691 0.120711 0.000000
0.980882 0.129902 0.000000
0.993566 0.140074 0.000000
1.000000 0.151348 0.000000
1.000000 0.163358 0.000000
1.000000 0.172794 0.000000
1.000000 0.181556 0.000000
1.000000 0.192157 0.000000
1.000000 0.206005 0.000000
1.000000 0.223529 0.000000
0.000000 0.000000 0.000000
0.003003 0.003003 0.000000
0.000000 0.000000 0.000000
0.003922 0.000000 0.000000
0.010600 0.006680 0.000000
0.012439 0.003922 0.000000
0.018872 0.005515 0.000000
0.026042 0.003922 0.000000
0.038726 0.001410 0.000000
0.056250 0.008762 0.000000
0.069363 0.010110 0.000000
0.086887 0.014951 0.000000
0.104411 0.022794 0.000000
0.121937 0.023713 0.000000
0.140564 0.025551 0.000000
0.161826 0.032292 0.000000
0.185294 0.032292 0.000000
0.207720 0.036213 0.000000
0.233946 0.036213 0.000000
0.259314 0.036213 0.000000
0.285294 0.034988 0.000000
0.308885 0.029596 0.000000
0.339093 0.032292 0.000000
0.361458 0.026838 0.000000
0.387745 0.024448 0.000000
0.410662 0.017157 0.000000
0.436397 0.011765 0.000000
0.462684 0.007108 0.000000
0.488052 0.002635 0.000000
0.508333 -0.002206 0.000000
0.533578 0.000000 0.000000
0.555024 0.000000 0.000000
0.573468 0.000000 0.000000
0.596997 0.000000 0.000000
0.615441 0.000000 0.000000
0.636887 0.000000 0.000000
0.659130 0.000000 0.000000
0.679780 0.000000 0.000000
0.705699 0.000000 0.000000
0.729596 0.000000 0.000000
0.748591 0.000000 0.000000
0.765563 0.000000 0.000000
0.784008 0.000000 0.000000
0.800613 0.000000 0.000000
0.816912 0.000919 0.000000
0.834743 0.006986 0.000000
0.846201 0.016666 0.000000
0.858947 0.029412 0.000000
0.876471 0.043015 0.000000
0.893076 0.057720 0.000000
0.898958 0.067402 0.000000
0.917279 0.082905 0.000000
0.930147 0.091850 0.000000
0.942831 0.104535 0.000000
0.955515 0.111642 0.000000
0.971691 0.128554 0.000000
0.981372 0.137745 0.000000
0.993566 0.146507 0.000000
1.000000 0.157598 0.000000
1.000000 0.164950 0.000000
1.000000 0.176716 0.000000
1.000000 0.185478 0.000000
1.000000 0.195160 0.000000
1.000000 0.206924 0.000000
1.000000 0.223529 0.000000
0.000000 0.001838 0.001838
0.000000 0.001838 0.000000
0.001838 0.001838 0.000000
0.001838 0.001838 0.000000
0.007598 0.003922 0.000000
0.011765 0.007169 0.000000
0.019117 0.005760 0.000000
0.028554 0.005760 0.000000
0.046079 0.011275 0.000000
0.059253 0.012194 0.000000
0.071936 0.017524 0.000000
0.086887 0.019791 0.000000
0.100490 0.023529 0.000000
0.121937 0.031373 0.000000
0.141299 0.033211 0.000000
0.160907 0.035110 0.000000
0.184191 0.038113 0.000000
0.209743 0.041054 0.000000
0.230882 0.041912 0.000000
0.258149 0.042892 0.000000
0.283824 0.042279 0.000000
0.308885 0.041054 0.000000
0.340319 0.042280 0.000000
0.363848 0.037439 0.000000
0.387132 0.032598 0.000000
0.414032 0.031373 0.000000
0.436397 0.021446 0.000000
0.462684 0.021997 0.000000
0.484681 0.013235 0.000000
0.508211 0.009681 0.000000
0.529780 0.001838 0.000000
0.555024 0.000000 0.000000
0.572549 0.000000 0.000000
0.593995 0.000000 0.000000
0.615441 0.000000 0.000000
0.636887 0.000000 0.000000
0.656127 0.000000 0.000000
0.683701 0.000000 0.000000
0.704779 0.000000 0.000000
0.728431 0.000000 0.000000
0.748039 0.000000 0.000000
0.767402 0.000000 0.000000
0.781618 0.000000 0.000000
0.800613 0.002144 0.000000
0.816912 0.010907 0.000000
0.829596 0.021507 0.000000
0.845343 0.030269 0.000000
0.860785 0.043015 0.000000
0.876471 0.058701 0.000000
0.890074 0.070466 0.000000
0.900858 0.077083 0.000000
0.913541 0.086029 0.000000
0.930147 0.100612 0.000000
0.942831 0.109375 0.000000
0.958088 0.122059 0.000000
0.971691 0.132904 0.000000
0.979534 0.138235 0.000000
0.995405 0.152268 0.000000
1.000000 0.161030 0.000000
1.000000 0.169792 0.000000
1.000000 0.176961 0.000000
1.000000 0.189399 0.000000
1.000000 0.198162 0.000000
1.000000 0.212929 0.000000
1.000000 0.227451 0.000000
0.000000 0.002758 0.000000
0.005760 0.006679 0.005760
-0.000919 0.003922 0.000000
0.002758 0.006679 0.000000
0.007598 0.006679 0.000000
0.009191 0.004596 0.000000
0.017279 0.007843 0.000000
0.028554 0.010356 0.000000
0.046079 0.015196 0.000000
0.058517 0.018444 0.000000
0.070527 0.020956 0.000000
0.086887 0.025796 0.000000
0.104411 0.030209 0.000000
0.124694 0.036888 0.000000
0.140564 0.036397 0.000000
0.162929 0.043995 0.000000
0.185294 0.045895 0.000000
0.211581 0.050919 0.000000
0.233946 0.049816 0.000000
0.261214 0.049816 0.000000
0.285294 0.049755 0.000000
0.312807 0.050980 0.000000
0.335784 0.046507 0.000000
0.361458 0.045895 0.000000
0.387745 0.041973 0.000000
0.414032 0.041973 0.000000
0.442708 0.034130 0.000000
0.462684 0.030209 0.000000
0.485049 0.023529 0.000000
0.507414 0.021201 0.000000
0.533578 0.014522 0.000000
0.552145 0.012316 0.000000
0.571753 0.006679 0.000000
0.596875 0.005515 0.000000
0.615441 0.002758 0.000000
0.636887 0.000000 0.000000
0.660049 0.000000 0.000000
0.682415 0.000000 0.000000
0.705943 0.000000 0.000000
0.726593 0.000000 0.000000
0.748039 0.002758 0.000000
0.762806 0.005515 0.000000
0.783089 0.009988 0.000000
0.800613 0.020344 0.000000
0.814216 0.026349 0.000000
0.831740 0.037255 0.000000
0.845343 0.047794 0.000000
0.862806 0.057720 0.000000
0.875490 0.069424 0.000000
0.886152 0.077145 0.000000
0.900919 0.087929 0.000000
0.918443 0.101593 0.000000
0.928125 0.109374 0.000000
0.942831 0.118137 0.000000
0.956924 0.129473 0.000000
0.968934 0.135662 0.000000
0.982047 0.145588 0.000000
0.993566 0.157107 0.000000
1.000000 0.162684 0.000000
1.000000 0.171385 0.000000
1.000000 0.183394 0.000000
1.000000 0.190563 0.000000
1.000000 0.200919 0.000000
1.000000 0.213603 0.000000
1.000000 0.230209 0.000000
0.000000 0.003922 0.000000
0.000000 0.010600 0.000000
-0.001838 0.007843 -0.001838
0.004841 0.008762 0.000000
0.003922 0.007843 0.000000
0.011765 0.011520 0.000000
0.017525 0.015441 0.000000
0.024877 0.015441 0.000000
0.045588 0.019363 0.000000
0.059253 0.023284 0.000000
0.073284 0.028554 0.000000
0.086887 0.029718 0.000000
0.108088 0.038236 0.000000
0.125613 0.042892 0.000000
0.143382 0.046814 0.000000
0.163173 0.049081 0.000000
0.189951 0.054657 0.000000
0.211581 0.054657 0.000000
0.237010 0.058579 0.000000
0.260233 0.056679 0.000000
0.286519 0.058824 0.000000
0.309191 0.058579 0.000000
0.335416 0.054902 0.000000
0.361458 0.054657 0.000000
0.387745 0.050735 0.000000
0.414032 0.050735 0.000000
0.443627 0.046814 0.000000
0.462684 0.045282 0.000000
0.486765 0.040441 0.000000
0.511888 0.038726 0.000000
0.529780 0.030883 0.000000
0.554779 0.029596 0.000000
0.572549 0.023039 0.000000
0.593995 0.020159 0.000000
0.611765 0.015318 0.000000
0.633763 0.014399 0.000000
0.660049 0.011520 0.000000
0.683701 0.012561 0.000000
0.705147 0.014828 0.000000
0.726593 0.011826 0.000000
0.746569 0.019118 0.000000
0.766850 0.025184 0.000000
0.779412 0.026593 0.000000
0.796691 0.035110 0.000000
0.814216 0.043872 0.000000
0.827819 0.052635 0.000000
0.845343 0.061397 0.000000
0.858885 0.074020 0.000000
0.872549 0.076226 0.000000
0.886152 0.087929 0.000000
0.899755 0.096691 0.000000
0.913602 0.109191 0.000000
0.926961 0.114951 0.000000
0.939154 0.123223 0.000000
0.951838 0.131985 0.000000
0.967769 0.140747 0.000000
0.980882 0.153187 0.000000
0.993566 0.158272 0.000000
1.000000 0.170711 0.000000
1.000000 0.175797 0.000000
1.000000 0.188236 0.000000
1.000000 0.196998 0.000000
1.000000 0.207598 0.000000
1.000000 0.216851 0.000000
1.000000 0.235049 0.000000
0.000000 0.009191 0.000674
0.000000 0.012439 0.003922
0.000000 0.012439 0.000000
0.002758 0.015197 0.002758
0.003922 0.013113 0.000000
0.008517 0.017034 0.000000
0.014032 0.017034 0.000000
0.029228 0.023469 0.000000
0.039399 0.024877 0.000000
0.056434 0.033150 0.000000
0.073958 0.036642 0.000000
0.091483 0.042831 0.000000
0.112194 0.047672 0.000000
0.127206 0.048591 0.000000
0.145833 0.053431 0.000000
0.169424 0.059498 0.000000
0.190564 0.063113 0.000000
0.216177 0.070527 0.000000
0.237684 0.067341 0.000000
0.261581 0.068015 0.000000
0.287194 0.070037 0.000000
0.313481 0.071262 0.000000
0.339093 0.067280 0.000000
0.365380 0.067341 0.000000
0.389890 0.065564 0.000000
0.414032 0.063419 0.000000
0.437071 0.060172 0.000000
0.463971 0.059498 0.000000
0.483517 0.054044 0.000000
0.508886 0.052328 0.000000
0.530331 0.052757 0.000000
0.552819 0.045159 0.000000
0.573223 0.042525 0.000000
0.594669 0.040564 0.000000
0.612194 0.036642 0.000000
0.635111 0.033517 0.000000
0.660723 0.034436 0.000000
0.681128 0.033395 0.000000
0.705454 0.033395 0.000000
0.724020 0.033946 0.000000
0.742218 0.037990 0.000000
0.762990 0.041912 0.000000
0.777206 0.049081 0.000000
0.794118 0.053982 0.000000
0.810417 0.062072 0.000000
0.825245 0.066911 0.000000
0.842095 0.075858 0.000000
0.856373 0.084436 0.000000
0.872242 0.092525 0.000000
0.886826 0.101287 0.000000
0.897611 0.107230 0.000000
0.907230 0.111826 0.000000
0.926899 0.123652 0.000000
0.940564 0.132414 0.000000
0.952268 0.144424 0.000000
0.961703 0.149939 0.000000
0.978309 0.158701 0.000000
0.987071 0.164216 0.000000
0.996752 0.174632 0.000000
1.000000 0.178493 0.000000
1.000000 0.190931 0.000000
1.000000 0.195343 0.000000
1.000000 0.208027 0.000000
1.000000 0.216790 0.000000
1.000000 0.226899 0.000000
0.000000 0.019608 0.002329
0.000000 0.016605 -0.000674
0.000000 0.019363 0.002084
0.000000 0.023959 0.001593
0.006006 0.023529 0.002329
0.011765 0.028370 0.000000
0.017279 0.026716 0.000000
0.026042 0.029044 0.000000
0.044485 0.040318 0.000000
0.059682 0.046323 0.000000
0.075613 0.050000 0.000000
0.093137 0.054841 0.000000
0.114583 0.060417 0.000000
0.133701 0.064338 0.000000
0.152329 0.065441 0.000000
0.174264 0.069853 0.000000
0.195711 0.072181 0.000000
0.221753 0.076103 0.000000
0.241789 0.077696 0.000000
0.266299 0.080024 0.000000
0.290441 0.077696 0.000000
0.320343 0.083640 0.000000
0.343014 0.080024 0.000000
0.367770 0.080024 0.000000
0.391666 0.077573 0.000000
0.414583 0.076103 0.000000
0.443872 0.077329 0.000000
0.466912 0.073774 0.000000
0.488971 0.069853 0.000000
0.511336 0.069853 0.000000
0.533578 0.065809 0.000000
0.555024 0.062010 0.000000
0.574510 0.060049 0.000000
0.599204 0.063297 0.000000
0.619240 0.058088 0.000000
0.642402 0.055760 0.000000
0.665687 0.055882 0.000000
0.688664 0.056801 0.000000
0.706740 0.055760 0.000000
0.727144 0.061274 0.000000
0.747917 0.063481 0.000000
0.767095 0.067525 0.000000
0.788725 0.073162 0.000000
0.799326 0.076410 0.000000
0.815809 0.082843 0.000000
0.831740 0.090013 0.000000
0.845343 0.095589 0.000000
0.862806 0.101287 0.000000
0.875490 0.109068 0.000000
0.890074 0.114890 0.000000
0.906005 0.125981 0.000000
0.913541 0.128492 0.000000
0.926961 0.137255 0.000000
0.942892 0.144424 0.000000
0.955515 0.153187 0.000000
0.970098 0.161949 0.000000
0.979779 0.170711 0.000000
0.993382 0.177880 0.000000
1.000000 0.183578 0.000000
1.000000 0.193075 0.000000
1.000000 0.201838 0.000000
1.000000 0.209007 0.000000
1.000000 0.219362 0.000000
1.000000 0.231127 0.000000
1.000000 0.244730 0.000000
0.000000 0.028554 0.002513
0.000000 0.032475 0.003922
0.000000 0.029289 0.003922
0.000000 0.032475 0.003922
0.003677 0.032475 0.002513
0.007843 0.036397 0.000000
0.015686 0.037807 0.000000
0.024632 0.040318 0.000000
0.038726 0.045650 0.000000
0.057169 0.053921 0.000000
0.074693 0.061336 0.000000
0.093076 0.067524 0.000000
0.112254 0.072366 0.000000
0.129963 0.075612 0.000000
0.155147 0.077022 0.000000
0.176593 0.080944 0.000000
0.197059 0.080944 0.000000
0.219424 0.084866 0.000000
0.241789 0.085723 0.000000
0.268076 0.088787 0.000000
0.294363 0.091299 0.000000
0.315625 0.091299 0.000000
0.343014 0.092709 0.000000
0.370282 0.091299 0.000000
0.391666 0.088787 0.000000
0.417954 0.091299 0.000000
0.446385 0.091299 0.000000
0.465318 0.087377 0.000000
0.490687 0.087377 0.000000
0.510724 0.083456 0.000000
0.533578 0.080944 0.000000
0.552145 0.079534 0.000000
0.574510 0.079534 0.000000
0.596875 0.079902 0.000000
0.617953 0.075612 0.000000
0.643014 0.075612 0.000000
0.666176 0.075612 0.000000
0.687623 0.078248 0.000000
0.707659 0.078125 0.000000
0.730515 0.085417 0.000000
0.746997 0.082414 0.000000
0.766973 0.087377 0.000000
0.784498 0.092096 0.000000
0.800613 0.097733 0.000000
0.814216 0.097856 0.000000
0.829228 0.102696 0.000000
0.845343 0.110049 0.000000
0.861398 0.118750 0.000000
0.875490 0.122671 0.000000
0.886152 0.128493 0.000000
0.899449 0.134743 0.000000
0.914767 0.139767 0.000000
0.930147 0.150122 0.000000
0.938051 0.152329 0.000000
0.954167 0.161949 0.000000
0.968198 0.170711 0.000000
0.980882 0.176961 0.000000
0.993566 0.184313 0.000000
1.000000 0.193076 0.000000
1.000000 0.201838 0.000000
1.000000 0.212867 0.000000
1.000000 0.217953 0.000000
1.000000 0.226042 0.000000
1.000000 0.232966 0.000000
1.000000 0.252083 0.000000
0.000000 0.042157 0.003922
0.000000 0.042647 0.003922
0.000000 0.040563 0.003922
0.000000 0.041483 0.002758
0.000000 0.046324 0.000000
0.007843 0.050000 0.003248
0.019118 0.053922 0.000000
0.026042 0.053003 0.000000
0.035294 0.057844 0.000000
0.048836 0.055760 0.000000
0.069853 0.073530 0.000000
0.090809 0.076286 0.000000
0.112500 0.085295 0.000000
0.129963 0.085968 0.000000
0.154657 0.093138 0.000000
0.176593 0.098468 0.000000
0.198039 0.092647 0.000000
0.223345 0.097487 0.000000
0.245711 0.100981 0.000000
0.271998 0.101471 0.000000
0.297794 0.104902 0.000000
0.320466 0.105392 0.000000
0.340195 0.102083 0.000000
0.369302 0.107292 0.000000
0.395588 0.104902 0.000000
0.421936 0.105453 0.000000
0.444240 0.104902 0.000000
0.466605 0.101471 0.000000
0.490687 0.102696 0.000000
0.512133 0.101777 0.000000
0.533701 0.097549 0.000000
0.555024 0.097059 0.000000
0.574510 0.091667 0.000000
0.597426 0.097610 0.000000
0.623161 0.093260 0.000000
0.648162 0.096262 0.000000
0.664460 0.091422 0.000000
0.691054 0.096569 0.000000
0.712623 0.100613 0.000000
0.730515 0.100981 0.000000
0.751471 0.102451 0.000000
0.767095 0.104902 0.000000
0.783701 0.108824 0.000000
0.800122 0.116176 0.000000
0.814216 0.116667 0.000000
0.826532 0.119302 0.000000
0.845711 0.124510 0.000000
0.858947 0.128982 0.000000
0.874999 0.136275 0.000000
0.888174 0.140686 0.000000
0.899755 0.146324 0.000000
0.913541 0.156189 0.000000
0.923530 0.157107 0.000000
0.939399 0.165869 0.000000
0.954167 0.174633 0.000000
0.967769 0.179963 0.000000
0.977451 0.187745 0.000000
0.993566 0.195588 0.000000
1.000000 0.201838 0.000000
1.000000 0.207353 0.000000
1.000000 0.215442 0.000000
0.997242 0.220772 0.000000
1.000000 0.232965 0.000000
1.000000 0.241299 0.000000
1.000000 0.258334 0.000000
0.000000 0.055760 0.003922
0.000000 0.060172 0.003922
0.000000 0.056189 0.003922
0.000000 0.055760 0.003922
0.000000 0.059682 0.000675
0.003922 0.062929 0.003248
0.014522 0.063603 0.005086
0.024203 0.069608 0.000000
0.034376 0.071017 0.000000
0.047488 0.074939 0.000000
0.066360 0.080208 0.000000
0.088297 0.090809 0.000000
0.104840 0.091483 0.000000
0.126041 0.099081 0.000000
0.147733 0.103922 0.000000
0.174693 0.110233 0.000000
0.194546 0.110662 0.000000
0.219914 0.107230 0.000000
0.249633 0.110662 0.000000
0.275919 0.114583 0.000000
0.298284 0.116850 0.000000
0.324571 0.118076 0.000000
0.346752 0.118505 0.000000
0.373223 0.118505 0.000000
0.399510 0.121998 0.000000
0.421875 0.118505 0.000000
0.444240 0.118076 0.000000
0.466605 0.114583 0.000000
0.491176 0.120282 0.000000
0.514828 0.118076 0.000000
0.533578 0.114154 0.000000
0.555024 0.114154 0.000000
0.578003 0.114154 0.000000
0.598346 0.114583 0.000000
0.619792 0.111091 0.000000
0.645527 0.111458 0.000000
0.667892 0.114583 0.000000
0.691116 0.114583 0.000000
0.712194 0.114583 0.000000
0.726593 0.115134 0.000000
0.749081 0.123469 0.000000
0.765563 0.122427 0.000000
0.785969 0.129227 0.000000
0.796691 0.130270 0.000000
0.813787 0.130270 0.000000
0.825674 0.134191 0.000000
0.841421 0.140748 0.000000
0.854657 0.141727 0.000000
0.871568 0.149878 0.000000
0.886152 0.155269 0.000000
0.899755 0.157721 0.000000
0.916850 0.168873 0.000000
0.926532 0.169485 0.000000
0.937071 0.175061 0.000000
0.951593 0.184743 0.000000
0.964277 0.189093 0.000000
0.977451 0.196936 0.000000
0.991054 0.205760 0.000000
0.996507 0.210600 0.000000
1.000000 0.219362 0.000000
1.000000 0.223774 0.000000
1.000000 0.232966 0.000000
1.000000 0.243383 0.000000
1.000000 0.250061 0.000000
1.000000 0.262745 0.000000
0.000000 0.071936 0.003922
0.000000 0.073284 0.003922
0.000000 0.077696 0.008333
0.000000 0.073284 0.002513
0.000000 0.073284 0.003922
0.002574 0.075858 0.003922
0.010417 0.079779 0.002329
0.019363 0.082292 0.000000
0.026961 0.085049 0.000000
0.043076 0.088052 0.000000
0.061520 0.092892 0.000000
0.079044 0.099081 0.000000
0.104902 0.109069 0.000000
0.129780 0.116421 0.000000
0.148407 0.120098 0.000000
0.174693 0.126287 0.000000
0.199633 0.129779 0.000000
0.223345 0.128186 0.000000
0.249633 0.132108 0.000000
0.275919 0.132108 0.000000
0.302206 0.130882 0.000000
0.324571 0.128186 0.000000
0.350858 0.131373 0.000000
0.373223 0.130576 0.000000
0.397059 0.132108 0.000000
0.421875 0.132108 0.000000
0.444240 0.132108 0.000000
0.466605 0.132047 0.000000
0.488113 0.132108 0.000000
0.511336 0.133885 0.000000
0.533578 0.131985 0.000000
0.552145 0.128186 0.000000
0.578431 0.130147 0.000000
0.599265 0.128186 0.000000
0.623284 0.128309 0.000000
0.648652 0.132108 0.000000
0.666176 0.129534 0.000000
0.687623 0.132108 0.000000
0.711275 0.132108 0.000000
0.725796 0.136029 0.000000
0.748162 0.137500 0.000000
0.763174 0.139951 0.000000
0.779167 0.141299 0.000000
0.796384 0.143872 0.000000
0.812990 0.147671 0.000000
0.823897 0.149142 0.000000
0.838358 0.151716 0.000000
0.853677 0.158272 0.000000
0.870220 0.163112 0.000000
0.884804 0.167954 0.000000
0.898407 0.172794 0.000000
0.905882 0.175245 0.000000
0.924877 0.185662 0.000000
0.936642 0.188664 0.000000
0.950246 0.193505 0.000000
0.963848 0.198774 0.000000
0.976961 0.205760 0.000000
0.985723 0.213174 0.000000
1.001961 0.219608 0.000000
1.000000 0.224204 0.000000
1.000000 0.230270 0.000000
1.000000 0.236458 0.000000
1.000000 0.244485 0.000000
1.000000 0.253983 0.000000
1.000000 0.266544 0.000000
0.000000 0.098039 0.007843
0.000000 0.098652 0.002574
0.000000 0.099081 0.008272
0.000000 0.097488 0.006189
0.000000 0.098652 0.007843
0.000000 0.098652 0.003922
0.001655 0.100306 0.003922
0.010601 0.105086 0.002267
0.025367 0.107660 0.000000
0.038236 0.110416 0.000000
0.056679 0.111764 0.000000
0.076777 0.118260 0.000000
0.098223 0.118995 0.000000
0.129780 0.137867 0.000000
0.152329 0.138970 0.000000
0.174693 0.143812 0.000000
0.198039 0.145711 0.000000
0.228860 0.151225 0.000000
0.252696 0.149632 0.000000
0.276409 0.150122 0.000000
0.299510 0.149632 0.000000
0.329841 0.150980 0.000000
0.350858 0.144056 0.000000
0.377880 0.148101 0.000000
0.399510 0.145711 0.000000
0.420772 0.147978 0.000000
0.447794 0.149632 0.000000
0.471507 0.150613 0.000000
0.492892 0.145650 0.000000
0.515257 0.144853 0.000000
0.537500 0.147365 0.000000
0.559988 0.150858 0.000000
0.584314 0.147365 0.000000
0.604105 0.145098 0.000000
0.631005 0.149632 0.000000
0.649449 0.149632 0.000000
0.674019 0.149632 0.000000
0.691545 0.150919 0.000000
0.711336 0.151900 0.000000
0.730515 0.155821 0.000000
0.750490 0.157475 0.000000
0.767953 0.159865 0.000000
0.783089 0.162439 0.000000
0.794730 0.161704 0.000000
0.812990 0.168015 0.000000
0.829596 0.169240 0.000000
0.842279 0.173958 0.000000
0.861153 0.177083 0.000000
0.869608 0.176777 0.000000
0.884253 0.182904 0.000000
0.899755 0.191666 0.000000
0.909620 0.192769 0.000000
0.926225 0.198345 0.000000
0.938909 0.204534 0.000000
0.952512 0.208456 0.000000
0.964277 0.214032 0.000000
0.976961 0.218443 0.000000
0.988787 0.227206 0.000000
1.000000 0.234314 0.000000
1.000000 0.237561 0.000000
1.000000 0.243995 0.000000
1.000000 0.253247 0.000000
1.000000 0.259252 0.000000
1.000000 0.267096 0.000000
1.000000 0.280698 0.000000
0.000000 0.112254 0.007843
0.000000 0.116176 0.007843
0.000000 0.116176 0.007843
0.000000 0.112990 0.007843
0.000000 0.112500 0.007843
0.000000 0.112929 0.007843
0.000000 0.114584 0.004657
-0.000674 0.120098 0.003922
0.012255 0.123529 -0.000245
0.029044 0.124448 0.000000
0.050490 0.133700 0.000000
0.068015 0.131862 0.000000
0.092647 0.138970 0.000000
0.108088 0.136887 0.000000
0.151226 0.155392 0.000000
0.174693 0.162500 0.000000
0.197794 0.163235 0.000000
0.223345 0.166421 0.000000
0.251961 0.170343 0.000000
0.272732 0.169301 0.000000
0.302206 0.169853 0.000000
0.324142 0.166727 0.000000
0.351471 0.166421 0.000000
0.378799 0.163235 0.000000
0.404166 0.164706 0.000000
0.425061 0.163235 0.000000
0.444240 0.163235 0.000000
0.467341 0.165870 0.000000
0.493872 0.164951 0.000000
0.515257 0.163235 0.000000
0.537745 0.163358 0.000000
0.563909 0.164277 0.000000
0.586275 0.162010 0.000000
0.609682 0.167156 0.000000
0.631005 0.167034 0.000000
0.652573 0.167156 0.000000
0.674019 0.169363 0.000000
0.694730 0.171630 0.000000
0.709436 0.171078 0.000000
0.733701 0.174265 0.000000
0.748775 0.175000 0.000000
0.765563 0.174204 0.000000
0.783089 0.178186 0.000000
0.800306 0.182843 0.000000
0.808333 0.180883 0.000000
0.830638 0.186764 0.000000
0.841421 0.189951 0.000000
0.858885 0.194607 0.000000
0.871568 0.194607 0.000000
0.884253 0.200551 0.000000
0.899755 0.205269 0.000000
0.910172 0.206924 0.000000
0.923040 0.211030 0.000000
0.936642 0.214338 0.000000
0.951593 0.221446 0.000000
0.960784 0.225980 0.000000
0.976961 0.233823 0.000000
0.987868 0.235969 0.000000
0.998407 0.243995 0.000000
1.000000 0.249571 0.000000
1.000000 0.251225 0.000000
1.000000 0.262010 0.000000
1.000000 0.269117 0.000000
1.000000 0.273591 0.000000
1.000000 0.289461 0.000000
0.000000 0.133517 0.011581
0.000000 0.132965 0.010846
0.000000 0.132046 0.008027
0.000000 0.131127 0.011765
0.000000 0.137378 0.011703
0.000000 0.133701 0.012439
0.000000 0.133701 0.011765
0.000000 0.140135 0.008027
0.000000 0.141054 0.007843
0.016176 0.145466 0.003493
0.038787 0.145466 0.000000
0.061336 0.153738 0.000000
0.080699 0.153309 0.000000
0.106250 0.157231 0.000000
0.132537 0.162255 0.000000
0.158823 0.165074 0.000000
0.198836 0.182721 0.000000
0.223162 0.184682 0.000000
0.245894 0.185723 0.000000
0.275919 0.190380 0.000000
0.304718 0.191299 0.000000
0.324571 0.185171 0.000000
0.355208 0.188786 0.000000
0.377145 0.188603 0.000000
0.397243 0.178677 0.000000
0.422610 0.180943 0.000000
0.447978 0.180760 0.000000
0.470711 0.177022 0.000000
0.496997 0.180760 0.000000
0.520160 0.181556 0.000000
0.545527 0.180943 0.000000
0.566973 0.184682 0.000000
0.590196 0.184682 0.000000
0.612561 0.184682 0.000000
0.631128 0.188297 0.000000
0.651961 0.184682 0.000000
0.674019 0.188419 0.000000
0.694179 0.187316 0.000000
0.712806 0.188419 0.000000
