Color/Kodak/Kodak Portra 400 VC 1 - 65x.cube
TITLE "Kodak Portra 400 VC 1 -"
LUT_3D_SIZE 65
DOMAIN_MIN 0.000000 0.000000 0.000000
DOMAIN_MAX 1.000000 1.000000 1.000000
0.000000 0.000000 0.000000
0.003003 0.000000 0.000000
0.003922 0.000000 0.000000
0.003922 0.000000 0.000000
0.007843 0.000000 0.000000
0.012439 0.000000 0.000000
0.025122 0.003922 0.000000
0.033885 0.002513 0.000000
0.050000 0.003922 0.000000
0.063603 0.004351 0.000000
0.081127 0.011765 0.000000
0.094730 0.014032 0.000000
0.112254 0.019608 0.000000
0.129780 0.023529 0.000000
0.147304 0.027451 0.000000
0.166850 0.029473 0.000000
0.186274 0.031373 0.000000
0.203799 0.035294 0.000000
0.228309 0.039216 0.000000
0.246324 0.040993 0.000000
0.268137 0.043137 0.000000
0.289277 0.043137 0.000000
0.311642 0.043137 0.000000
0.334007 0.043137 0.000000
0.356372 0.043137 0.000000
0.378738 0.039216 0.000000
0.404657 0.042769 0.000000
0.426103 0.037929 0.000000
0.447549 0.033088 0.000000
0.472120 0.031373 0.000000
0.490564 0.027328 0.000000
0.515809 0.022487 0.000000
0.537254 0.019608 0.000000
0.558701 0.016728 0.000000
0.576348 0.011888 0.000000
0.597671 0.007843 0.000000
0.619117 0.007843 0.000000
0.640564 0.005209 0.000000
0.662010 0.003922 0.000000
0.679534 0.000000 0.000000
0.700980 0.003922 0.000000
0.716115 0.003922 0.000000
0.736030 0.007843 0.000000
0.749633 0.012071 0.000000
0.765931 0.019608 0.000000
0.780760 0.025674 0.000000
0.794362 0.030515 0.000000
0.807904 0.043137 0.000000
0.821569 0.048039 0.000000
0.833272 0.056802 0.000000
0.848774 0.065564 0.000000
0.858640 0.074326 0.000000
0.872059 0.083088 0.000000
0.887929 0.091851 0.000000
0.900613 0.100613 0.000000
0.912867 0.109375 0.000000
0.925980 0.117647 0.000000
0.938664 0.126899 0.000000
0.949755 0.135662 0.000000
0.963358 0.143750 0.000000
0.976716 0.152941 0.000000
0.985478 0.158027 0.000000
0.998162 0.166789 0.000000
1.000000 0.178554 0.000000
1.000000 0.192157 0.000000
0.000000 0.000000 0.000000
0.003003 0.003003 0.000000
0.004841 -0.000919 0.000000
0.003922 0.000919 0.000000
0.014523 0.003922 0.000000
0.016360 0.003677 0.000000
0.026716 0.005515 0.000000
0.034805 0.006434 0.000000
0.050490 0.007843 0.000000
0.068015 0.012684 0.000000
0.081127 0.017034 0.000000
0.095649 0.022794 0.000000
0.116176 0.027635 0.000000
0.129780 0.027635 0.000000
0.148407 0.033579 0.000000
0.168750 0.038235 0.000000
0.183272 0.042157 0.000000
0.204718 0.044056 0.000000
0.226103 0.044914 0.000000
0.248468 0.047978 0.000000
0.270833 0.050674 0.000000
0.289583 0.047978 0.000000
0.315564 0.051899 0.000000
0.337929 0.051899 0.000000
0.360294 0.049448 0.000000
0.382660 0.047978 0.000000
0.404106 0.047059 0.000000
0.427022 0.043689 0.000000
0.449755 0.041850 0.000000
0.469914 0.040135 0.000000
0.494363 0.036213 0.000000
0.516851 0.035171 0.000000
0.537254 0.030331 0.000000
0.558701 0.025490 0.000000
0.580024 0.024448 0.000000
0.597671 0.020650 0.000000
0.619117 0.016605 0.000000
0.640564 0.010968 0.000000
0.665564 0.013603 0.000000
0.683456 0.012684 0.000000
0.700980 0.017157 0.000000
0.718505 0.016605 0.000000
0.736030 0.020833 0.000000
0.749633 0.024448 0.000000
0.765931 0.029289 0.000000
0.778615 0.036213 0.000000
0.794362 0.041054 0.000000
0.803187 0.048101 0.000000
0.821569 0.056740 0.000000
0.838174 0.068566 0.000000
0.845956 0.071507 0.000000
0.862377 0.083088 0.000000
0.872059 0.087929 0.000000
0.887929 0.099694 0.000000
0.897611 0.103799 0.000000
0.915870 0.114216 0.000000
0.925980 0.122978 0.000000
0.939154 0.130821 0.000000
0.949755 0.139583 0.000000
0.963358 0.148346 0.000000
0.972120 0.153186 0.000000
0.988480 0.164951 0.000000
0.998162 0.169546 0.000000
1.000000 0.177390 0.000000
1.000000 0.192157 0.000000
0.000000 0.001838 0.001838
0.000000 0.000919 0.000000
0.001838 0.005760 0.000000
0.003922 0.003922 0.000000
0.011520 0.007598 0.000000
0.019608 0.009007 0.000000
0.026716 0.009681 0.000000
0.037807 0.010356 0.000000
0.057844 0.013603 0.000000
0.067525 0.017953 0.000000
0.083701 0.022794 0.000000
0.098652 0.027635 0.000000
0.112254 0.029289 0.000000
0.133517 0.037132 0.000000
0.149142 0.038235 0.000000
0.166728 0.042953 0.000000
0.185171 0.045956 0.000000
0.207720 0.048897 0.000000
0.226961 0.051838 0.000000
0.248468 0.054657 0.000000
0.272059 0.056740 0.000000
0.293199 0.058518 0.000000
0.316789 0.060050 0.000000
0.340319 0.060968 0.000000
0.359681 0.056128 0.000000
0.384743 0.058824 0.000000
0.405025 0.054902 0.000000
0.431863 0.057292 0.000000
0.449387 0.050612 0.000000
0.472917 0.048897 0.000000
0.494486 0.044975 0.000000
0.519730 0.045772 0.000000
0.537254 0.039093 0.000000
0.556618 0.037132 0.000000
0.578063 0.031250 0.000000
0.602635 0.032415 0.000000
0.620833 0.027206 0.000000
0.644486 0.024571 0.000000
0.662010 0.025367 0.000000
0.685294 0.027206 0.000000
0.700980 0.025367 0.000000
0.720343 0.031679 0.000000
0.736030 0.031127 0.000000
0.749633 0.033518 0.000000
0.765931 0.042280 0.000000
0.778615 0.047120 0.000000
0.791299 0.050735 0.000000
0.809742 0.062500 0.000000
0.821569 0.069486 0.000000
0.835172 0.074326 0.000000
0.848774 0.079167 0.000000
0.858640 0.086029 0.000000
0.875245 0.096692 0.000000
0.887929 0.105454 0.000000
0.901103 0.114951 0.000000
0.913296 0.122978 0.000000
0.924632 0.126470 0.000000
0.936152 0.136580 0.000000
0.951348 0.145343 0.000000
0.963358 0.150184 0.000000
0.973039 0.157108 0.000000
0.986642 0.165870 0.000000
0.998162 0.174633 0.000000
1.000000 0.184314 0.000000
1.000000 0.196078 0.000000
0.000000 0.006679 0.000000
0.005760 0.007843 0.005760
0.001838 0.005760 0.000000
0.003922 0.006679 0.000000
0.006679 0.010356 0.000000
0.013113 0.008517 0.000000
0.025122 0.011765 0.000000
0.040318 0.014277 0.000000
0.057844 0.019118 0.000000
0.070282 0.022795 0.000000
0.082292 0.028799 0.000000
0.098652 0.031373 0.000000
0.116176 0.036888 0.000000
0.132537 0.044731 0.000000
0.148407 0.045895 0.000000
0.171508 0.051838 0.000000
0.189216 0.052574 0.000000
0.211581 0.058763 0.000000
0.231924 0.057660 0.000000
0.253371 0.061581 0.000000
0.274755 0.061520 0.000000
0.297120 0.066361 0.000000
0.316177 0.065503 0.000000
0.340319 0.065503 0.000000
0.364215 0.065503 0.000000
0.386581 0.065503 0.000000
0.411336 0.065503 0.000000
0.431311 0.061581 0.000000
0.450919 0.058824 0.000000
0.476041 0.057660 0.000000
0.498284 0.057537 0.000000
0.516851 0.052574 0.000000
0.536458 0.049816 0.000000
0.561581 0.048652 0.000000
0.580147 0.045895 0.000000
0.600428 0.041177 0.000000
0.623591 0.040809 0.000000
0.644486 0.038174 0.000000
0.664767 0.036888 0.000000
0.683456 0.036888 0.000000
0.699693 0.040809 0.000000
0.718505 0.040441 0.000000
0.732720 0.045282 0.000000
0.749633 0.048958 0.000000
0.763235 0.051042 0.000000
0.780760 0.058639 0.000000
0.791299 0.060417 0.000000
0.805209 0.066728 0.000000
0.820588 0.077267 0.000000
0.836030 0.083088 0.000000
0.845956 0.087929 0.000000
0.863542 0.097855 0.000000
0.873223 0.102696 0.000000
0.887929 0.112561 0.000000
0.902022 0.119056 0.000000
0.912867 0.125061 0.000000
0.925980 0.136091 0.000000
0.936152 0.141422 0.000000
0.948591 0.147427 0.000000
0.959620 0.156189 0.000000
0.973039 0.163786 0.000000
0.983885 0.167034 0.000000
0.998162 0.177390 0.000000
1.000000 0.187316 0.000000
1.000000 0.198836 0.000000
0.000000 0.007843 0.000000
0.000000 0.007843 0.003003
0.000245 0.011765 0.000245
0.003922 0.012684 0.000000
0.007598 0.011520 0.000000
0.012439 0.015441 0.000000
0.023039 0.019608 0.000000
0.037807 0.023284 0.000000
0.057353 0.030393 0.000000
0.067525 0.031128 0.000000
0.085049 0.036398 0.000000
0.098652 0.037561 0.000000
0.119853 0.046079 0.000000
0.133701 0.050735 0.000000
0.151226 0.054657 0.000000
0.170772 0.056924 0.000000
0.193872 0.062500 0.000000
0.211397 0.062500 0.000000
0.236765 0.069486 0.000000
0.254167 0.068198 0.000000
0.275980 0.070343 0.000000
0.297426 0.070343 0.000000
0.319485 0.067280 0.000000
0.341851 0.070588 0.000000
0.364215 0.069118 0.000000
0.386581 0.074020 0.000000
0.416176 0.077573 0.000000
0.433946 0.070343 0.000000
0.455392 0.068138 0.000000
0.479718 0.070098 0.000000
0.501961 0.066177 0.000000
0.519730 0.062500 0.000000
0.541177 0.060540 0.000000
0.558946 0.058579 0.000000
0.580147 0.054779 0.000000
0.598468 0.050735 0.000000
0.624755 0.056617 0.000000
0.649448 0.051777 0.000000
0.665932 0.050735 0.000000
0.683456 0.050490 0.000000
0.703431 0.050735 0.000000
0.718505 0.054412 0.000000
0.732353 0.054657 0.000000
0.749633 0.058884 0.000000
0.769608 0.063726 0.000000
0.777083 0.068566 0.000000
0.794362 0.073407 0.000000
0.807904 0.085723 0.000000
0.821569 0.083088 0.000000
0.833272 0.087929 0.000000
0.845098 0.096691 0.000000
0.862377 0.105514 0.000000
0.872059 0.110293 0.000000
0.887929 0.115380 0.000000
0.900613 0.124142 0.000000
0.912867 0.128983 0.000000
0.925980 0.140931 0.000000
0.936152 0.142585 0.000000
0.949755 0.155025 0.000000
0.959681 0.159436 0.000000
0.972794 0.168382 0.000000
0.985478 0.173468 0.000000
0.998162 0.182231 0.000000
1.000000 0.190319 0.000000
1.000000 0.203677 0.000000
0.000000 0.013787 0.000674
0.000000 0.017034 0.003922
0.000000 0.016360 0.003922
0.002758 0.017034 0.000674
0.007598 0.017034 -0.003003
0.012439 0.020956 0.000000
0.017953 0.024877 0.000000
0.035661 0.031312 0.000000
0.053922 0.036642 0.000000
0.068199 0.040993 0.000000
0.085723 0.045159 0.000000
0.103921 0.049081 0.000000
0.123958 0.055514 0.000000
0.138971 0.060172 0.000000
0.156495 0.061275 0.000000
0.175919 0.065993 0.000000
0.197733 0.070956 0.000000
0.220097 0.078370 0.000000
0.237684 0.075184 0.000000
0.260907 0.075858 0.000000
0.279351 0.078554 0.000000
0.304963 0.079105 0.000000
0.323407 0.083027 0.000000
0.344914 0.083027 0.000000
0.370282 0.083027 0.000000
0.387806 0.083027 0.000000
0.413174 0.079779 0.000000
0.435907 0.083640 0.000000
0.456066 0.079105 0.000000
0.480637 0.079105 0.000000
0.503432 0.078982 0.000000
0.521446 0.075184 0.000000
0.543811 0.075184 0.000000
0.563297 0.069057 0.000000
0.580821 0.071262 0.000000
0.603738 0.064890 0.000000
0.626103 0.064093 0.000000
0.649081 0.064093 0.000000
0.670160 0.064093 0.000000
0.684130 0.064093 0.000000
0.702329 0.064767 0.000000
0.719853 0.068015 0.000000
0.734068 0.068628 0.000000
0.750674 0.072610 0.000000
0.763358 0.075858 0.000000
0.776042 0.081250 0.000000
0.791972 0.086090 0.000000
0.805393 0.087684 0.000000
0.821262 0.095772 0.000000
0.835846 0.101287 0.000000
0.846629 0.103309 0.000000
0.859313 0.107904 0.000000
0.871997 0.115808 0.000000
0.884681 0.123898 0.000000
0.899939 0.130760 0.000000
0.910294 0.138174 0.000000
0.923407 0.146446 0.000000
0.932843 0.147120 0.000000
0.947181 0.156618 0.000000
0.957537 0.162132 0.000000
0.970894 0.170649 0.000000
0.979657 0.174571 0.000000
0.993505 0.182414 0.000000
1.000000 0.192586 0.000000
1.000000 0.198774 0.000000
0.000000 0.027451 0.003922
0.000000 0.024448 0.003922
0.000000 0.027206 0.003922
0.002758 0.031801 0.003922
0.003922 0.031373 0.000245
0.011765 0.037806 0.003248
0.021201 0.034559 0.000000
0.032475 0.038480 0.000000
0.052328 0.050490 0.000000
0.072610 0.058088 0.000000
0.087378 0.060172 0.000000
0.104902 0.066605 0.000000
0.126348 0.069853 0.000000
0.145466 0.072181 0.000000
0.164583 0.076103 0.000000
0.182108 0.077696 0.000000
0.200613 0.078676 0.000000
0.227267 0.087806 0.000000
0.243383 0.085539 0.000000
0.266299 0.087868 0.000000
0.286519 0.087868 0.000000
0.308885 0.089461 0.000000
0.332230 0.093382 0.000000
0.352084 0.091789 0.000000
0.373530 0.091789 0.000000
0.394975 0.091789 0.000000
0.420343 0.091789 0.000000
0.440747 0.091789 0.000000
0.461520 0.091789 0.000000
0.482354 0.089461 0.000000
0.506127 0.089339 0.000000
0.527573 0.085539 0.000000
0.547059 0.083946 0.000000
0.569424 0.086826 0.000000
0.591789 0.081618 0.000000
0.610233 0.080024 0.000000
0.634314 0.081740 0.000000
0.654964 0.080024 0.000000
0.671446 0.077696 0.000000
0.692892 0.078248 0.000000
0.708701 0.081495 0.000000
0.726348 0.081618 0.000000
0.741544 0.087255 0.000000
0.752267 0.086581 0.000000
0.771446 0.090687 0.000000
0.784681 0.093382 0.000000
0.798284 0.100367 0.000000
0.811888 0.105147 0.000000
0.826103 0.109068 0.000000
0.839093 0.112990 0.000000
0.855024 0.119240 0.000000
0.862561 0.120833 0.000000
0.875981 0.127818 0.000000
0.887929 0.134926 0.000000
0.903186 0.141422 0.000000
0.916789 0.152083 0.000000
0.929902 0.155024 0.000000
0.938480 0.159682 0.000000
0.951348 0.166299 0.000000
0.965686 0.175797 0.000000
0.976716 0.178309 0.000000
0.989399 0.185478 0.000000
0.997671 0.193505 0.000000
1.000000 0.203676 0.000000
1.000000 0.213358 0.000000
0.000000 0.038909 0.003922
0.000000 0.040318 0.006434
0.000000 0.039644 0.003248
0.000000 0.040318 0.003677
0.003677 0.045405 0.003922
0.011765 0.045650 0.005760
0.021201 0.049571 0.002329
0.029964 0.052083 0.000000
0.047488 0.056005 0.000000
0.065012 0.065686 0.000000
0.082537 0.073101 0.000000
0.102328 0.079289 0.000000
0.121508 0.084130 0.000000
0.145466 0.084866 0.000000
0.166912 0.090196 0.000000
0.186458 0.088787 0.000000
0.204473 0.088358 0.000000
0.223406 0.092709 0.000000
0.245711 0.093566 0.000000
0.268076 0.098407 0.000000
0.290441 0.100552 0.000000
0.311704 0.099449 0.000000
0.334558 0.103861 0.000000
0.354596 0.103063 0.000000
0.375980 0.103063 0.000000
0.400858 0.103063 0.000000
0.424264 0.104473 0.000000
0.444301 0.103063 0.000000
0.469669 0.104779 0.000000
0.487193 0.099939 0.000000
0.506250 0.096753 0.000000
0.530086 0.099142 0.000000
0.550980 0.096630 0.000000
0.573346 0.096630 0.000000
0.595710 0.096630 0.000000
0.617279 0.093505 0.000000
0.637316 0.095220 0.000000
0.658885 0.095343 0.000000
0.676287 0.095220 0.000000
0.695221 0.098591 0.000000
0.707782 0.094179 0.000000
0.727880 0.096630 0.000000
0.743873 0.100552 0.000000
0.759682 0.103063 0.000000
0.768566 0.101777 0.000000
0.782169 0.106618 0.000000
0.798284 0.110906 0.000000
0.814339 0.118750 0.000000
0.827451 0.120160 0.000000
0.839093 0.122059 0.000000
0.849877 0.126593 0.000000
0.862561 0.131924 0.000000
0.880944 0.142279 0.000000
0.887071 0.142831 0.000000
0.900613 0.150184 0.000000
0.916789 0.155454 0.000000
0.929902 0.161274 0.000000
0.941177 0.168628 0.000000
0.951348 0.173468 0.000000
0.964032 0.182231 0.000000
0.976716 0.187072 0.000000
0.986642 0.194424 0.000000
1.000000 0.202513 0.000000
1.000000 0.205024 0.000000
1.000000 0.222120 0.000000
0.000000 0.050490 0.003922
0.000000 0.056924 0.006924
0.000000 0.053922 0.003922
0.000000 0.053922 0.003922
0.000000 0.053922 0.003922
0.011765 0.058334 0.003922
0.023039 0.061765 0.005760
0.026532 0.062255 0.000000
0.039216 0.066177 0.000000
0.052757 0.067525 0.000000
0.077206 0.085295 0.000000
0.098652 0.088051 0.000000
0.120098 0.097059 0.000000
0.138297 0.097734 0.000000
0.162990 0.104412 0.000000
0.189768 0.104902 0.000000
0.209314 0.104902 0.000000
0.230699 0.104902 0.000000
0.249633 0.109314 0.000000
0.271998 0.112745 0.000000
0.295098 0.112745 0.000000
0.316544 0.113235 0.000000
0.335171 0.110417 0.000000
0.363358 0.116667 0.000000
0.379902 0.116667 0.000000
0.406250 0.117218 0.000000
0.424632 0.117157 0.000000
0.446997 0.111091 0.000000
0.469363 0.113235 0.000000
0.492035 0.116667 0.000000
0.510172 0.113235 0.000000
0.534926 0.112745 0.000000
0.550980 0.109314 0.000000
0.577328 0.113296 0.000000
0.599265 0.108946 0.000000
0.620711 0.111948 0.000000
0.640441 0.107108 0.000000
0.658885 0.108824 0.000000
0.681250 0.112867 0.000000
0.695221 0.112193 0.000000
0.712745 0.110294 0.000000
0.727880 0.114277 0.000000
0.743873 0.113235 0.000000
0.760601 0.116667 0.000000
0.771078 0.120589 0.000000
0.783394 0.119302 0.000000
0.799142 0.124510 0.000000
0.811888 0.125062 0.000000
0.827941 0.132353 0.000000
0.839093 0.134743 0.000000
0.852696 0.139583 0.000000
0.866483 0.144608 0.000000
0.875981 0.149264 0.000000
0.891851 0.156373 0.000000
0.903186 0.162868 0.000000
0.916789 0.167708 0.000000
0.923040 0.172059 0.000000
0.944608 0.179902 0.000000
0.950245 0.183824 0.000000
0.963358 0.187745 0.000000
0.973039 0.191911 0.000000
0.983211 0.197242 0.000000
0.998162 0.206005 0.000000
1.000000 0.213848 0.000000
1.000000 0.226961 0.000000
0.000000 0.067525 0.007843
0.000000 0.071017 0.007843
0.000000 0.067525 0.004351
0.000000 0.064767 0.007843
0.000000 0.067525 0.007843
0.007414 0.070772 0.007169
0.018014 0.076532 0.003922
0.027696 0.077451 0.001409
0.031373 0.079289 -0.003003
0.051409 0.086704 0.000000
0.065441 0.088481 0.000000
0.092219 0.100306 0.000000
0.112254 0.109926 0.000000
0.133884 0.114338 0.000000
0.156250 0.115012 0.000000
0.182108 0.124020 0.000000
0.204902 0.122427 0.000000
0.227758 0.118996 0.000000
0.253554 0.122427 0.000000
0.278064 0.125919 0.000000
0.300980 0.128615 0.000000
0.317463 0.125919 0.000000
0.342830 0.126348 0.000000
0.364277 0.128738 0.000000
0.391667 0.132292 0.000000
0.407169 0.126777 0.000000
0.432108 0.129841 0.000000
0.450062 0.126348 0.000000
0.473714 0.128554 0.000000
0.499571 0.129841 0.000000
0.517892 0.129718 0.000000
0.535416 0.125919 0.000000
0.558824 0.125919 0.000000
0.585110 0.123468 0.000000
0.603983 0.119057 0.000000
0.625122 0.122427 0.000000
0.643076 0.122427 0.000000
0.664094 0.125919 0.000000
0.681618 0.122427 0.000000
0.695650 0.122427 0.000000
0.717709 0.127389 0.000000
0.730269 0.126348 0.000000
0.750674 0.133150 0.000000
0.757905 0.130270 0.000000
0.774571 0.130270 0.000000
0.782965 0.132047 0.000000
0.801776 0.134191 0.000000
0.811888 0.137807 0.000000
0.824938 0.142034 0.000000
0.839093 0.147856 0.000000
0.850307 0.149878 0.000000
0.869791 0.164338 0.000000
0.879473 0.161213 0.000000
0.891238 0.163296 0.000000
0.906679 0.171630 0.000000
0.913726 0.173407 0.000000
0.926409 0.181250 0.000000
0.943566 0.189644 0.000000
0.951348 0.190992 0.000000
0.964032 0.196507 0.000000
0.976716 0.204167 0.000000
0.986642 0.209436 0.000000
1.001655 0.217770 0.000000
1.000000 0.222610 0.000000
1.000000 0.235294 0.000000
0.000000 0.081127 0.007843
0.000000 0.081127 0.007843
0.000000 0.085539 0.009681
0.000000 0.083701 0.007843
0.000000 0.081127 0.007843
0.002574 0.088297 0.007843
0.008088 0.088971 0.006250
0.019363 0.091483 0.003922
0.026961 0.092892 0.001348
0.043076 0.097243 0.000000
0.061520 0.102083 0.000000
0.079044 0.106924 0.000000
0.103064 0.118260 0.000000
0.132353 0.127022 0.000000
0.152084 0.133211 0.000000
0.181189 0.139951 0.000000
0.203554 0.139951 0.000000
0.229841 0.139951 0.000000
0.256127 0.143872 0.000000
0.279841 0.143872 0.000000
0.303554 0.139951 0.000000
0.322304 0.139951 0.000000
0.346936 0.142524 0.000000
0.367770 0.142524 0.000000
0.391666 0.142524 0.000000
0.414032 0.142524 0.000000
0.436029 0.143872 0.000000
0.457475 0.142524 0.000000
0.476348 0.141666 0.000000
0.499571 0.145650 0.000000
0.519240 0.139951 0.000000
0.540686 0.139951 0.000000
0.564093 0.139951 0.000000
0.586459 0.139951 0.000000
0.607598 0.139951 0.000000
0.630392 0.139951 0.000000
0.646201 0.138235 0.000000
0.665441 0.139951 0.000000
0.687745 0.142157 0.000000
0.698345 0.139155 0.000000
0.716667 0.141422 0.000000
0.731801 0.143872 0.000000
0.747794 0.143872 0.000000
0.761090 0.143872 0.000000
0.773652 0.147794 0.000000
0.786458 0.147794 0.000000
0.799142 0.150368 0.000000
0.809253 0.153002 0.000000
0.827083 0.158211 0.000000
0.841667 0.162684 0.000000
0.852450 0.164950 0.000000
0.862561 0.166054 0.000000
0.877818 0.173897 0.000000
0.889584 0.175245 0.000000
0.903187 0.182966 0.000000
0.916789 0.186581 0.000000
0.925123 0.190073 0.000000
0.938725 0.193505 0.000000
0.950001 0.202329 0.000000
0.960110 0.204595 0.000000
0.970343 0.211765 0.000000
0.984130 0.215686 0.000000
0.996813 0.220956 0.000000
1.000000 0.226532 0.000000
1.000000 0.236520 0.000000
0.000000 0.105882 0.011765
0.000000 0.106495 0.008762
0.000000 0.106495 0.012194
0.000000 0.106985 0.010110
0.000000 0.106495 0.014032
0.000000 0.106495 0.011091
-0.000674 0.108149 0.010172
0.008088 0.112929 0.006189
0.021936 0.115503 0.003922
0.037806 0.118688 0.002267
0.054412 0.121262 0.000000
0.076777 0.126103 0.000000
0.093383 0.130024 0.000000
0.127697 0.145894 0.000000
0.151164 0.152390 0.000000
0.176348 0.155576 0.000000
0.202635 0.158456 0.000000
0.228922 0.165257 0.000000
0.251287 0.161397 0.000000
0.278064 0.163542 0.000000
0.303860 0.161397 0.000000
0.333762 0.161397 0.000000
0.350858 0.157475 0.000000
0.373958 0.157475 0.000000
0.395404 0.157475 0.000000
0.416850 0.157475 0.000000
0.442218 0.157475 0.000000
0.463664 0.159743 0.000000
0.483333 0.157414 0.000000
0.504902 0.157475 0.000000
0.525858 0.155208 0.000000
0.550490 0.157475 0.000000
0.574816 0.157475 0.000000
0.594608 0.157475 0.000000
0.619240 0.157475 0.000000
0.633763 0.157475 0.000000
0.656679 0.157475 0.000000
0.671569 0.154841 0.000000
0.688174 0.155821 0.000000
0.705331 0.157475 0.000000
0.723039 0.157475 0.000000
0.738112 0.159865 0.000000
0.751716 0.162439 0.000000
0.765319 0.159437 0.000000
0.779964 0.164093 0.000000
0.792647 0.165318 0.000000
0.806127 0.166973 0.000000
0.821937 0.175367 0.000000
0.829412 0.171875 0.000000
0.843015 0.172794 0.000000
0.857721 0.181557 0.000000
0.865012 0.181005 0.000000
0.883088 0.186581 0.000000
0.893505 0.188236 0.000000
0.906802 0.195343 0.000000
0.917218 0.198345 0.000000
0.929902 0.204534 0.000000
0.941728 0.207599 0.000000
0.955270 0.216361 0.000000
0.965686 0.218934 0.000000
0.976961 0.222120 0.000000
0.990563 0.229718 0.000000
1.000000 0.233640 0.000000
1.000000 0.240563 0.000000
1.000000 0.251593 0.000000
0.000000 0.120098 0.011765
0.000000 0.124019 0.014951
0.000000 0.120834 0.012500
0.000000 0.120834 0.012500
0.000000 0.120343 0.015686
0.000000 0.117586 0.014951
0.000000 0.122426 0.011765
-0.000674 0.123345 0.007843
0.008088 0.127941 0.007843
0.025123 0.132291 0.006680
0.046568 0.141543 0.002574
0.064829 0.138786 0.000000
0.088725 0.146814 0.000000
0.107904 0.148468 0.000000
0.141299 0.167156 0.000000
0.172672 0.173101 0.000000
0.194853 0.175736 0.000000
0.223345 0.182108 0.000000
0.249633 0.185172 0.000000
0.272732 0.182843 0.000000
0.301715 0.182843 0.000000
0.328493 0.182108 0.000000
0.354779 0.181495 0.000000
0.381985 0.176654 0.000000
0.404166 0.175000 0.000000
0.421691 0.174265 0.000000
0.447059 0.171814 0.000000
0.465318 0.171814 0.000000
0.489951 0.175000 0.000000
0.511398 0.174204 0.000000
0.536887 0.171202 0.000000
0.559252 0.175000 0.000000
0.578431 0.171814 0.000000
0.605024 0.175000 0.000000
0.623161 0.174878 0.000000
0.643995 0.175000 0.000000
0.663726 0.176471 0.000000
0.679044 0.175552 0.000000
0.693015 0.171446 0.000000
0.710171 0.177635 0.000000
0.724510 0.175000 0.000000
0.738112 0.175000 0.000000
0.754780 0.174878 0.000000
0.768933 0.178921 0.000000
0.778922 0.176960 0.000000
0.794301 0.183885 0.000000
0.806127 0.181986 0.000000
0.822856 0.186764 0.000000
0.832353 0.186764 0.000000
0.845037 0.190686 0.000000
0.859804 0.193505 0.000000
0.870956 0.195159 0.000000
0.883088 0.199265 0.000000
0.893505 0.200919 0.000000
0.908456 0.207108 0.000000
0.917218 0.210294 0.000000
0.933089 0.218137 0.000000
0.940808 0.220281 0.000000
0.953677 0.224387 0.000000
0.963971 0.226716 0.000000
0.973775 0.234559 0.000000
0.989399 0.238481 0.000000
1.000000 0.245588 0.000000
1.000000 0.249326 0.000000
1.000000 0.261274 0.000000
0.000000 0.137623 0.019424
0.000000 0.141544 0.019608
0.000000 0.137806 0.015870
0.000000 0.141544 0.017035
0.000000 0.137806 0.023284
0.000000 0.138297 0.020282
0.000000 0.142953 0.019608
0.000000 0.144056 0.015870
0.000000 0.145466 0.015686
0.012255 0.149388 0.011765
0.031128 0.153309 0.007843
0.055760 0.159314 0.003922
0.079779 0.157414 -0.003003
0.098407 0.165074 0.000000
0.124694 0.173836 0.000000
0.150980 0.176839 0.000000
0.188052 0.194486 0.000000
0.215319 0.200305 0.000000
0.241789 0.200551 0.000000
0.271814 0.204290 0.000000
0.300796 0.206985 0.000000
0.320956 0.200551 0.000000
0.355208 0.204290 0.000000
0.380883 0.200368 0.000000
0.401164 0.194179 0.000000
0.429719 0.192708 0.000000
0.452083 0.188786 0.000000
0.470895 0.189890 0.000000
0.496997 0.192525 0.000000
0.520160 0.189399 0.000000
0.545711 0.192525 0.000000
0.566973 0.192525 0.000000
0.588419 0.192525 0.000000
0.612561 0.192525 0.000000
0.631005 0.196140 0.000000
0.644301 0.187990 0.000000
0.666176 0.192341 0.000000
0.683701 0.191238 0.000000
0.697304 0.192341 0.000000
