Color/Kodak/Kodak Elite Chrome 400 65x.cube
TITLE "Kodak Elite Chrome 400"
LUT_3D_SIZE 5
DOMAIN_MIN 0.000000 0.000000 0.000000
DOMAIN_MAX 1.000000 1.000000 1.000000
0.000000 0.000000 0.000000
0.132353 0.000000 0.000000
0.372549 0.011765 0.000000
0.663725 0.044117 0.000000
0.913725 0.082353 0.000000
0.120589 0.194117 0.062745
0.213725 0.182353 0.050000
0.457843 0.159804 0.015686
0.700000 0.106863 0.000000
0.929412 0.082353 0.000000
0.219608 0.509804 0.160784
0.337255 0.509804 0.149020
0.556863 0.505883 0.111765
0.771568 0.450000 0.040197
0.986274 0.260784 0.000000
0.472549 0.765686 0.343137
0.521568 0.766667 0.331373
0.650000 0.770588 0.282353
0.832353 0.770588 0.165686
1.000000 0.735294 0.007843
0.709804 0.996078 0.564706
0.733333 1.000000 0.560784
0.800000 1.000000 0.545098
0.914706 1.000000 0.498039
1.000000 1.000000 0.258824
0.000000 0.000000 0.120589
0.104902 0.000000 0.093137
0.360784 0.007843 0.051960
0.664706 0.043137 0.000000
0.921569 0.082353 0.000000
0.098039 0.198039 0.201961
0.187255 0.186274 0.186274
0.442157 0.163725 0.144118
0.691176 0.104902 0.057844
0.936274 0.082353 0.000000
0.179412 0.505883 0.306863
0.306863 0.505883 0.295098
0.537254 0.501961 0.252941
0.754902 0.454902 0.158823
0.986274 0.272549 0.006863
0.452941 0.758824 0.458824
0.502941 0.761764 0.450980
0.630392 0.762745 0.421569
0.813726 0.762745 0.340196
1.000000 0.728431 0.086275
0.701961 0.992157 0.627451
0.725490 0.996078 0.623529
0.792157 1.000000 0.608823
0.903922 1.000000 0.571568
1.000000 1.000000 0.421568
0.000000 0.000000 0.319608
0.065687 0.000000 0.294118
0.329411 0.000000 0.254902
0.641177 0.019608 0.163725
0.921569 0.076470 0.003922
0.058824 0.198039 0.427451
0.150980 0.190196 0.418627
0.403922 0.162745 0.387255
0.657843 0.097059 0.307843
0.915686 0.060784 0.118627
0.082353 0.498039 0.521568
0.248039 0.499020 0.517648
0.498039 0.498039 0.498039
0.715687 0.455882 0.449019
0.952941 0.270588 0.286274
0.416666 0.754902 0.611765
0.469608 0.754902 0.607843
0.602941 0.757843 0.595098
0.782353 0.750981 0.560785
0.998039 0.707843 0.455882
0.690196 0.988235 0.743137
0.713726 0.988235 0.741176
0.778431 0.996078 0.731372
0.887255 1.000000 0.707843
1.000000 1.000000 0.609804
0.000000 0.000000 0.550981
0.011765 0.000000 0.546079
0.270589 0.000000 0.530392
0.586275 0.000000 0.488236
0.873530 0.026471 0.349019
0.013725 0.221568 0.627451
0.094118 0.211765 0.623529
0.356863 0.182353 0.611765
0.616667 0.100981 0.581373
0.858824 0.011765 0.502941
0.000000 0.501961 0.699019
0.149020 0.503922 0.695098
0.451961 0.503922 0.687255
0.680392 0.471569 0.664706
0.911764 0.290196 0.600000
0.358824 0.750981 0.774510
0.419608 0.753922 0.773529
0.562745 0.754902 0.766667
0.750981 0.750000 0.750981
0.968627 0.703922 0.696079
0.673530 0.980392 0.870588
0.694118 0.982353 0.867647
0.760784 0.988235 0.863726
0.867647 0.996078 0.855883
1.000000 1.000000 0.804902
0.000000 0.003922 0.741176
0.000000 0.000000 0.737255
0.217647 0.000000 0.733333
0.539216 0.000000 0.713726
0.823529 0.000000 0.662745
0.000000 0.272549 0.807843
0.030392 0.260784 0.807843
0.287255 0.237255 0.803922
0.578432 0.153922 0.792157
0.815686 0.000000 0.755882
0.000000 0.515686 0.870588
0.000000 0.517648 0.870588
0.378432 0.523529 0.866667
0.633334 0.501961 0.858824
0.882353 0.356863 0.835294
0.238235 0.754902 0.933333
0.326470 0.757843 0.933333
0.497059 0.761764 0.930392
0.703922 0.758824 0.929412
0.933333 0.719608 0.910784
0.635294 0.968627 1.000000
0.661765 0.968627 1.000000
0.731372 0.976471 1.000000
0.840196 0.985294 1.000000
1.000000 1.000000 1.000000
