Color/Kodak/Kodak Portra 800 1 - 65x.cube
TITLE "Kodak Portra 800 1 -"
LUT_3D_SIZE 9
DOMAIN_MIN 0.000000 0.000000 0.000000
DOMAIN_MAX 1.000000 1.000000 1.000000
0.000000 0.000000 0.000000
0.097059 0.007353 0.000000
0.249019 0.003922 0.000000
0.438725 0.000000 0.000000
0.631373 0.000000 0.000000
0.810784 0.000000 0.000000
0.943137 0.000000 0.000000
1.000000 0.000000 0.000000
1.000000 0.117647 0.000000
0.000000 0.081863 0.011765
0.077941 0.097549 0.000000
0.241176 0.108333 0.000000
0.434804 0.094118 0.000000
0.625490 0.027451 0.000000
0.804412 0.000000 0.000000
0.938235 0.028922 0.000000
1.000000 0.121079 0.000000
1.000000 0.206863 0.000000
0.000000 0.200981 0.023529
0.000000 0.204902 0.023039
0.191176 0.233333 0.000000
0.423039 0.260784 0.000000
0.618627 0.253922 0.000000
0.792647 0.259804 0.000000
0.925491 0.271569 0.000000
1.000000 0.292647 0.000000
1.000000 0.334314 0.000000
0.000000 0.334314 0.043137
0.000000 0.340686 0.045588
0.097059 0.354412 0.007353
0.342157 0.393137 0.000000
0.587745 0.432353 0.000000
0.755883 0.430883 0.000000
0.893628 0.436275 0.000000
1.000000 0.448529 0.000000
1.000000 0.471569 0.000000
0.000000 0.460784 0.080392
0.000000 0.459314 0.076960
0.000000 0.457844 0.072549
0.252941 0.488726 0.000000
0.482353 0.527451 0.000000
0.716667 0.580392 0.000000
0.856863 0.582353 0.000000
0.984804 0.586275 0.000000
1.000000 0.598040 0.000000
0.000000 0.567647 0.115196
0.000000 0.571569 0.121079
0.000000 0.566176 0.113725
0.189216 0.576961 0.082844
0.405883 0.610784 0.000000
0.614706 0.653922 0.000000
0.825000 0.708333 0.000000
0.957353 0.716667 0.000000
1.000000 0.720588 0.000000
0.000000 0.697059 0.162745
0.000000 0.696079 0.165686
0.000000 0.689216 0.158824
0.167648 0.684314 0.150000
0.377451 0.711765 0.103921
0.563725 0.743137 0.000000
0.740196 0.774510 0.000000
0.934313 0.822059 0.000000
1.000000 0.828432 0.000000
0.000000 0.828431 0.251470
0.000000 0.828431 0.248039
0.026471 0.824510 0.244117
0.252452 0.824019 0.239706
0.404412 0.828431 0.220588
0.563725 0.851470 0.181372
0.720098 0.872059 0.090196
0.871078 0.891176 0.000000
1.000000 0.921569 0.000000
0.325490 0.964706 0.447059
0.348530 0.964706 0.447059
0.395098 0.965686 0.448039
0.465196 0.964706 0.450980
0.543137 0.964706 0.452941
0.646078 0.972549 0.431373
0.753922 0.983334 0.395098
0.867157 0.992157 0.328922
0.980392 0.996078 0.176471
0.011765 0.003922 0.100981
0.104902 0.000000 0.104902
0.248529 0.000000 0.100490
0.435785 0.000000 0.079411
0.624020 0.000000 0.085294
0.799510 0.000000 0.063726
0.933823 0.000000 0.026961
1.000000 0.000000 0.000000
1.000000 0.101961 0.000000
0.000000 0.093628 0.093628
0.093138 0.100981 0.100981
0.248039 0.100981 0.097059
0.434804 0.076961 0.091667
0.625490 0.011765 0.077451
0.799019 0.000000 0.053431
0.930882 0.012255 0.009314
1.000000 0.116667 0.000000
1.000000 0.199510 0.000000
0.000000 0.223529 0.127451
0.053922 0.221078 0.116176
0.210294 0.240686 0.093628
0.430392 0.256863 0.077941
0.619117 0.251961 0.061274
0.786765 0.255393 0.012745
0.920098 0.268137 0.000000
1.000000 0.295098 0.000000
1.000000 0.333824 0.000000
0.000000 0.348530 0.128432
0.000000 0.353922 0.131372
0.139705 0.357843 0.117647
0.357353 0.397059 0.062255
0.591176 0.428431 0.000000
0.753432 0.428431 0.000000
0.893628 0.436275 0.000000
1.000000 0.451961 0.000000
1.000000 0.471569 0.000000
0.000000 0.470588 0.150490
0.000000 0.471079 0.150490
0.039706 0.463726 0.144608
0.274019 0.490197 0.112255
0.492157 0.531373 0.001471
0.713235 0.576470 0.000000
0.856863 0.580392 0.000000
0.983333 0.586765 0.000000
1.000000 0.601961 0.000000
0.000000 0.577451 0.172059
0.000000 0.579412 0.173530
0.000000 0.574020 0.168137
0.219118 0.580392 0.153922
0.416667 0.613725 0.098529
0.619117 0.656373 0.000000
0.826470 0.707843 0.000000
0.956373 0.715687 0.000000
1.000000 0.719118 0.000000
0.000000 0.697549 0.205883
0.000000 0.700000 0.208333
0.000000 0.696079 0.201470
0.193628 0.687255 0.194118
0.386765 0.712255 0.164706
0.565196 0.741667 0.098529
0.743137 0.774510 0.000000
0.933333 0.821569 0.000000
1.000000 0.828922 0.000000
0.000000 0.828431 0.278431
0.000000 0.828922 0.278431
0.083824 0.827941 0.275000
0.264706 0.824510 0.268628
0.408334 0.828431 0.254902
0.564215 0.848039 0.220588
0.719608 0.871078 0.160294
0.871078 0.891176 0.000000
1.000000 0.921569 0.000000
0.333333 0.968627 0.466177
0.356373 0.964706 0.466177
0.399510 0.965196 0.466177
0.466177 0.965686 0.466667
0.547059 0.964706 0.470098
0.646568 0.972549 0.450980
0.753431 0.982843 0.418137
0.864216 0.989215 0.356373
0.976961 0.996568 0.223529
0.000000 0.003922 0.251961
0.105392 0.000000 0.252941
0.263726 0.000000 0.259804
0.442157 0.000000 0.248529
0.633333 0.000000 0.232353
0.803922 0.000000 0.213725
0.930392 0.000000 0.233333
1.000000 0.000000 0.220588
1.000000 0.135294 0.200981
0.000000 0.100981 0.241176
0.093628 0.104902 0.246078
0.260784 0.094118 0.253431
0.440196 0.028431 0.244608
0.633824 0.000000 0.232843
0.799019 0.000000 0.229902
0.926471 0.049019 0.231863
1.000000 0.139215 0.217157
1.000000 0.218628 0.200491
0.000000 0.233333 0.236275
0.097059 0.240196 0.240196
0.248039 0.249019 0.245098
0.438725 0.252941 0.248039
0.625490 0.254902 0.245098
0.783333 0.257353 0.236275
0.915686 0.274509 0.224510
1.000000 0.303431 0.208824
1.000000 0.341176 0.187255
0.040686 0.373529 0.260784
0.147059 0.381373 0.268627
0.224510 0.377451 0.252941
0.387745 0.403431 0.239706
0.593137 0.423529 0.226961
0.755882 0.426961 0.224510
0.893137 0.438235 0.209804
1.000000 0.452451 0.191666
1.000000 0.475000 0.169608
0.000000 0.496079 0.277451
0.018138 0.497549 0.268137
0.180392 0.487255 0.258824
0.315686 0.494608 0.249019
0.509804 0.534314 0.217647
0.716667 0.573039 0.186275
0.857843 0.578431 0.192156
0.984804 0.588236 0.189216
1.000000 0.599020 0.160784
0.000000 0.596569 0.272549
0.000000 0.599510 0.273529
0.124510 0.593627 0.268627
0.268137 0.580882 0.259314
0.438235 0.617647 0.237255
0.630392 0.657843 0.198039
0.828922 0.705882 0.131863
0.956373 0.712745 0.139706
1.000000 0.719118 0.152941
0.000000 0.711765 0.291177
0.000000 0.711274 0.290196
0.053921 0.705882 0.285295
0.248039 0.699019 0.278431
0.401961 0.710784 0.260784
0.574019 0.741667 0.235294
0.747059 0.775490 0.183334
0.934804 0.822059 0.015196
1.000000 0.825490 0.034313
0.000000 0.836274 0.342156
0.000000 0.835784 0.344118
0.151961 0.833334 0.340686
0.289216 0.828431 0.330392
0.414706 0.826961 0.321079
0.567647 0.848529 0.300980
0.719608 0.871078 0.265686
0.871568 0.891176 0.198529
1.000000 0.924510 0.000000
0.349020 0.968627 0.501961
0.369607 0.965686 0.502451
0.410784 0.964706 0.501961
0.476470 0.964706 0.504412
0.553922 0.964706 0.504902
0.646078 0.971569 0.493138
0.753922 0.980392 0.464706
0.863725 0.988725 0.414706
0.976471 0.999019 0.316667
0.000000 0.002451 0.412745
0.065196 0.000000 0.416667
0.265196 0.000000 0.424510
0.458333 0.000000 0.432353
0.633333 0.000000 0.419118
0.800490 0.000000 0.407353
0.932843 0.000000 0.386765
1.000000 0.000000 0.367647
1.000000 0.000000 0.359314
0.000000 0.107843 0.404902
0.076470 0.108824 0.411765
0.269118 0.100981 0.420588
0.458823 0.054412 0.428431
0.633333 0.000000 0.420588
0.795588 0.000000 0.405882
0.928921 0.000000 0.387255
1.000000 0.000000 0.367647
1.000000 0.211275 0.387745
0.000000 0.236765 0.392157
0.038236 0.242157 0.401471
0.264706 0.252941 0.412745
0.458333 0.256373 0.427451
0.627451 0.230392 0.413725
0.787255 0.216667 0.402451
0.919608 0.218137 0.383823
1.000000 0.308334 0.399510
1.000000 0.355392 0.393627
0.000000 0.386765 0.385294
0.133333 0.398039 0.394117
0.282844 0.404902 0.400490
0.428431 0.416667 0.408824
0.601471 0.416667 0.402941
0.755882 0.424510 0.400980
0.891177 0.437745 0.396078
1.000000 0.455882 0.387745
1.000000 0.479412 0.381373
0.169608 0.518137 0.404902
0.227941 0.523529 0.412745
0.319118 0.523039 0.412745
0.389706 0.514216 0.393627
0.537254 0.541667 0.381863
0.720588 0.568628 0.381373
0.860785 0.576470 0.386274
0.984804 0.589706 0.378922
1.000000 0.601961 0.368138
0.223529 0.623529 0.424510
0.265196 0.627941 0.429902
0.275981 0.625000 0.405392
0.352451 0.614706 0.389216
0.467647 0.620588 0.375000
0.644608 0.660294 0.361765
0.830392 0.704902 0.352451
0.956373 0.710294 0.360294
1.000000 0.716667 0.369608
0.106863 0.732353 0.417647
0.114216 0.731373 0.408333
0.210294 0.725490 0.399020
0.319608 0.719608 0.391666
0.425490 0.708823 0.375981
0.582843 0.744117 0.366176
0.755882 0.776961 0.347059
0.935784 0.820098 0.315686
1.000000 0.824020 0.325980
0.022549 0.844117 0.436765
0.126471 0.846569 0.437255
0.224020 0.843627 0.432843
0.328431 0.837745 0.424019
0.433334 0.831863 0.410784
0.568137 0.845098 0.399020
0.719608 0.867647 0.380883
0.875000 0.891176 0.350490
1.000000 0.925980 0.282353
0.371078 0.968627 0.560784
0.392157 0.969117 0.563235
0.429902 0.968627 0.563235
0.488726 0.968627 0.560784
0.560785 0.966666 0.558823
0.648529 0.970098 0.555392
0.754902 0.980392 0.535784
0.867157 0.992157 0.500490
0.976471 0.996078 0.428431
0.000000 0.000000 0.572549
0.032353 0.000000 0.574510
0.275490 0.000000 0.581373
0.474020 0.000000 0.592156
0.656863 0.000000 0.605882
0.787255 0.000000 0.584313
0.922549 0.000000 0.568628
1.000000 0.000000 0.554412
1.000000 0.000000 0.535294
0.000000 0.113235 0.563235
0.075980 0.110784 0.570098
0.283334 0.100981 0.576470
0.479412 0.070098 0.592156
0.654902 0.000000 0.602451
0.787745 0.000000 0.584313
0.920098 0.000000 0.568628
1.000000 0.000000 0.551471
1.000000 0.027942 0.535784
0.000000 0.244118 0.557843
0.097549 0.256863 0.564705
0.289216 0.258823 0.573529
0.474020 0.259313 0.584313
0.642157 0.251961 0.595098
0.777451 0.223039 0.577451
0.912745 0.214706 0.565686
1.000000 0.233824 0.549510
1.000000 0.276471 0.534313
0.000000 0.389216 0.533334
0.055883 0.400490 0.543628
0.248529 0.400000 0.545098
0.442157 0.411274 0.560785
0.613725 0.418627 0.574510
0.757353 0.404902 0.564705
0.895098 0.408824 0.555392
1.000000 0.417647 0.541177
1.000000 0.468628 0.550000
0.125490 0.531373 0.525490
0.200981 0.537254 0.531373
0.313725 0.540196 0.535294
0.442157 0.547059 0.541176
0.572549 0.554902 0.545098
0.726961 0.563235 0.549019
0.863726 0.576470 0.550000
0.983333 0.588726 0.549019
1.000000 0.605882 0.547059
0.272059 0.648529 0.543137
0.311275 0.654412 0.549510
0.377451 0.652451 0.549019
0.467157 0.653922 0.549510
0.525981 0.640196 0.523529
0.664216 0.669608 0.520098
0.833334 0.700000 0.529902
0.957843 0.707353 0.537745
1.000000 0.717157 0.535294
0.319608 0.750981 0.563725
0.345098 0.752941 0.565686
0.397059 0.750000 0.563725
0.433334 0.744608 0.541176
0.486274 0.735294 0.510784
0.596078 0.741176 0.496078
0.766667 0.782353 0.502941
0.936274 0.817647 0.500000
1.000000 0.821569 0.514706
0.368627 0.853921 0.594608
0.373039 0.855882 0.590686
0.368137 0.855882 0.570098
0.392647 0.851470 0.541177
0.474509 0.844117 0.525490
0.571569 0.840196 0.508333
0.723039 0.867157 0.506863
0.877451 0.893137 0.500000
1.000000 0.925980 0.477941
0.427451 0.970588 0.647058
0.431373 0.972549 0.643138
0.453921 0.969607 0.637255
0.507843 0.972059 0.635294
0.574510 0.968627 0.629412
0.652451 0.968627 0.627451
0.754902 0.977451 0.617647
0.867157 0.990686 0.598039
0.976471 0.996078 0.550980
0.000000 0.000000 0.712745
0.121079 0.000000 0.714706
0.309314 0.000000 0.720588
0.489706 0.000000 0.729412
0.662745 0.000000 0.738725
0.802941 0.000000 0.742647
0.907353 0.000000 0.720588
1.000000 0.000000 0.712745
1.000000 0.000000 0.700980
0.000000 0.116667 0.708824
0.156863 0.114706 0.715196
0.323529 0.103431 0.719118
0.495098 0.080392 0.726961
0.659314 0.048039 0.736765
0.799510 0.000000 0.740686
0.906862 0.000000 0.723039
1.000000 0.000000 0.712745
1.000000 0.031863 0.700980
0.028922 0.258823 0.704412
0.173039 0.260784 0.708824
0.326471 0.260784 0.712745
0.491667 0.262745 0.719608
0.650000 0.264706 0.727451
0.791176 0.259804 0.733823
0.900000 0.240686 0.718628
1.000000 0.239215 0.708824
1.000000 0.275000 0.697059
0.000000 0.387745 0.675980
0.081862 0.396569 0.688726
0.283824 0.401471 0.693137
0.461275 0.410294 0.698530
0.623039 0.420098 0.712745
0.768627 0.430882 0.724510
0.884314 0.414216 0.710294
1.000000 0.417157 0.703922
1.000000 0.442647 0.695588
0.000000 0.533333 0.664216
0.121078 0.537254 0.666176
0.267647 0.537254 0.668137
0.405392 0.533824 0.670588
0.580392 0.550980 0.685294
0.736274 0.568628 0.704902
0.864706 0.562255 0.700980
0.986275 0.569608 0.694118
1.000000 0.584314 0.688725
0.221078 0.657843 0.653922
0.271569 0.661765 0.657843
0.356373 0.664706 0.660785
0.462255 0.668137 0.664216
0.578431 0.673529 0.669608
0.697059 0.685294 0.677451
0.837255 0.697059 0.687745
0.959804 0.711275 0.692647
1.000000 0.724510 0.694608
0.383823 0.774510 0.682353
0.407353 0.775000 0.685294
0.452451 0.775000 0.685294
0.517157 0.773039 0.682353
0.593627 0.768137 0.678432
0.646568 0.758824 0.650000
0.779902 0.787745 0.654902
0.933823 0.813726 0.669608
1.000000 0.820588 0.685294
0.432843 0.868628 0.707353
0.449020 0.867647 0.707843
0.484804 0.870098 0.706863
0.533333 0.865686 0.700980
0.577451 0.863235 0.681863
0.618627 0.851961 0.644608
0.727941 0.864216 0.637745
0.883333 0.895098 0.649020
0.997549 0.919608 0.651471
0.550490 0.972549 0.770098
0.558333 0.972549 0.766176
0.581863 0.972549 0.766176
0.595098 0.972549 0.750981
0.603431 0.974510 0.723039
0.672059 0.972549 0.715196
0.757843 0.976471 0.711275
0.866177 0.988235 0.700980
0.976471 0.996078 0.677451
0.178432 0.000000 0.840196
0.251470 0.000000 0.840196
0.378431 0.000000 0.844118
0.522549 0.000000 0.844118
0.670589 0.000000 0.850980
0.811274 0.000000 0.856373
0.927451 0.000000 0.860785
1.000000 0.000000 0.841667
1.000000 0.000000 0.837255
0.193628 0.124510 0.835784
0.268137 0.124510 0.840196
0.383333 0.112745 0.840196
0.525981 0.096569 0.845098
0.670098 0.088235 0.850490
0.809804 0.115686 0.858334
0.925000 0.102451 0.858334
1.000000 0.069608 0.841177
1.000000 0.097059 0.835784
0.206863 0.265686 0.829412
0.271078 0.265196 0.833334
0.383333 0.264706 0.832353
0.523039 0.267647 0.840687
0.663726 0.276470 0.846078
0.800980 0.291667 0.853921
0.917647 0.294117 0.855882
1.000000 0.279412 0.839216
1.000000 0.289216 0.832353
0.080392 0.390686 0.812745
0.226470 0.405882 0.819117
0.352451 0.407843 0.820588
0.496078 0.412745 0.825490
0.639216 0.420098 0.832353
0.779412 0.444118 0.844118
0.899020 0.450490 0.848039
0.990686 0.438725 0.834804
1.000000 0.448039 0.829412
0.000000 0.524510 0.788235
0.022549 0.528431 0.793137
0.257843 0.529411 0.798039
0.427451 0.531863 0.804412
0.600000 0.552941 0.814706
0.750490 0.576961 0.829412
0.873529 0.586275 0.838235
0.977451 0.577451 0.829412
1.000000 0.585294 0.824510
0.100980 0.660785 0.781373
0.184314 0.661765 0.782353
0.292647 0.663726 0.785294
0.411764 0.661765 0.786275
0.537254 0.659804 0.788725
0.703431 0.683824 0.808333
0.848039 0.707353 0.828432
0.957843 0.701470 0.821569
0.999019 0.715196 0.820588
0.313726 0.775490 0.779412
0.347059 0.780882 0.781373
0.408824 0.782353 0.782353
0.494608 0.782353 0.783333
0.593137 0.784314 0.787255
0.702941 0.792647 0.793627
0.812745 0.801961 0.804902
0.934804 0.817157 0.814216
1.000000 0.829412 0.821569
0.503432 0.886765 0.813236
0.518628 0.884314 0.814216
0.549020 0.886765 0.814706
0.597058 0.886765 0.814706
0.655392 0.884314 0.813236
0.723530 0.879902 0.806373
0.763235 0.867647 0.774510
0.894118 0.898039 0.789706
1.000000 0.914215 0.805393
0.597059 0.976471 0.848039
0.607353 0.976471 0.851470
0.626470 0.974510 0.850000
0.659804 0.976471 0.849020
0.703921 0.976471 0.845098
0.747059 0.980392 0.835784
0.781373 0.977451 0.809804
0.871568 0.987745 0.805393
0.980392 1.000000 0.804902
0.341666 0.035784 0.945098
0.377451 0.025000 0.941666
0.464706 0.008333 0.944608
0.573529 0.000000 0.945588
0.694117 0.000000 0.945588
0.815196 0.026961 0.947059
0.930882 0.126961 0.952451
1.000000 0.130883 0.953431
1.000000 0.110294 0.950000
0.342156 0.148530 0.938235
0.388235 0.151961 0.941666
0.468627 0.147059 0.941666
0.574020 0.140686 0.942156
0.695588 0.146079 0.945098
0.811274 0.163725 0.943627
0.930392 0.219118 0.952941
1.000000 0.219608 0.950000
1.000000 0.207353 0.946569
0.345098 0.283824 0.936765
0.384804 0.284314 0.937745
0.462255 0.284314 0.937745
0.569608 0.287255 0.937745
0.683824 0.292647 0.937255
0.803431 0.311275 0.944608
0.919608 0.344608 0.944117
1.000000 0.350490 0.949510
1.000000 0.340196 0.941176
0.300980 0.412745 0.926470
0.350491 0.418137 0.929902
0.436765 0.418627 0.931372
0.548039 0.424510 0.933823
0.666667 0.432353 0.933823
0.789706 0.451961 0.937745
0.903431 0.480393 0.943627
1.000000 0.487745 0.945588
1.000000 0.479412 0.933823
0.148530 0.531373 0.916176
0.225490 0.533334 0.918137
0.339216 0.531372 0.918137
0.496078 0.547549 0.922549
0.631863 0.557353 0.925980
0.761765 0.576470 0.929902
0.880392 0.600980 0.934313
0.984804 0.613726 0.939706
1.000000 0.602451 0.927941
0.000000 0.661765 0.899019
0.114216 0.661765 0.899510
0.250000 0.657843 0.897549
0.399019 0.656863 0.905392
0.559314 0.660294 0.908823
0.723039 0.683824 0.917157
0.856863 0.709314 0.925980
0.963725 0.726961 0.933823
1.000000 0.723039 0.925980
0.245098 0.786765 0.892157
0.282353 0.786765 0.895098
0.356373 0.786275 0.898039
0.444608 0.783333 0.893628
0.549020 0.782353 0.897059
0.658824 0.775000 0.896079
0.817647 0.798529 0.911274
0.945588 0.829412 0.926961
1.000000 0.829412 0.922549
0.432353 0.890686 0.894608
0.450980 0.890196 0.894608
0.493628 0.890686 0.894608
0.557353 0.888726 0.896079
0.637745 0.890686 0.897059
0.731373 0.895098 0.900000
0.825490 0.899019 0.903432
0.918137 0.910294 0.914215
1.000000 0.922059 0.922549
0.646569 0.980392 0.922059
0.657843 0.983334 0.925000
0.681863 0.980392 0.922059
0.716667 0.980882 0.925980
0.758823 0.982353 0.925980
0.804902 0.983334 0.925000
0.856373 0.984314 0.925980
0.891176 0.984314 0.902941
0.988235 0.999510 0.910294
0.478431 0.172549 1.000000
0.505392 0.172549 1.000000
0.556863 0.169608 1.000000
0.636275 0.175000 1.000000
0.731372 0.184314 1.000000
0.830392 0.207843 1.000000
0.926471 0.244118 1.000000
1.000000 0.302451 1.000000
1.000000 0.298039 1.000000
0.478431 0.230883 1.000000
0.505882 0.234804 1.000000
0.556373 0.234804 1.000000
0.636275 0.237255 1.000000
0.727451 0.246569 1.000000
0.826470 0.263726 1.000000
0.923530 0.294607 1.000000
1.000000 0.345098 1.000000
1.000000 0.344608 1.000000
0.477451 0.339215 1.000000
0.502451 0.340196 1.000000
0.551961 0.339215 1.000000
0.629902 0.343137 1.000000
0.719608 0.350980 1.000000
0.818627 0.366666 1.000000
0.915686 0.394118 1.000000
1.000000 0.437255 1.000000
1.000000 0.432353 1.000000
0.452451 0.455882 1.000000
0.479902 0.459804 1.000000
0.533823 0.461275 1.000000
0.614216 0.463726 1.000000
0.707843 0.473529 1.000000
0.804412 0.486274 1.000000
0.901470 0.505392 1.000000
0.996568 0.542157 1.000000
1.000000 0.542157 1.000000
0.396079 0.570588 1.000000
0.436764 0.576470 1.000000
0.493138 0.576470 1.000000
0.583333 0.580392 1.000000
0.684314 0.588236 1.000000
0.790196 0.600000 1.000000
0.886275 0.614706 1.000000
0.980882 0.645098 1.000000
1.000000 0.647058 1.000000
0.279412 0.675980 1.000000
0.325981 0.679412 1.000000
0.401471 0.677451 1.000000
0.509314 0.675000 1.000000
0.642157 0.692157 1.000000
0.758333 0.700980 1.000000
0.867157 0.720588 1.000000
0.961274 0.744117 1.000000
1.000000 0.751961 1.000000
0.321569 0.798039 0.996078
0.348039 0.798039 1.002451
0.398039 0.797059 0.996078
0.471078 0.790196 0.994607
0.568627 0.786275 1.000000
0.707843 0.790196 1.000000
0.841177 0.810784 1.000000
0.949020 0.837255 1.000000
1.000000 0.849020 1.000000
0.479902 0.906372 0.992647
0.491176 0.902941 0.992157
0.528921 0.906372 0.993137
0.576961 0.905882 0.995588
0.640686 0.897549 0.992647
0.723530 0.902451 0.996078
0.805393 0.895098 0.996078
0.929412 0.913725 0.999510
1.000000 0.933823 1.000000
0.631373 0.988235 0.992157
0.638726 0.984314 0.992157
0.661765 0.988235 0.992157
0.698039 0.988235 0.992157
0.745098 0.988235 0.992157
0.805392 0.988235 0.992157
0.867647 0.989216 0.993137
0.934313 0.996078 0.996078
1.000000 1.000000 1.000000
