Color/Kodak/Kodak Portra 400 1 - 65x.cube
TITLE "Kodak Portra 400 1 -"
LUT_3D_SIZE 5
DOMAIN_MIN 0.000000 0.000000 0.000000
DOMAIN_MAX 1.000000 1.000000 1.000000
0.000000 0.000000 0.000000
0.233333 0.000000 0.000000
0.643138 0.000000 0.000000
0.903922 0.000000 0.000000
1.000000 0.188235 0.000000
0.000000 0.192157 0.015686
0.182353 0.221568 0.000000
0.629412 0.267647 0.000000
0.882353 0.283334 0.000000
1.000000 0.346079 0.000000
0.000000 0.488235 0.131373
0.008824 0.463726 0.162745
0.486274 0.531373 0.000000
0.814706 0.556862 0.000000
1.000000 0.564705 0.000000
0.000000 0.688236 0.312745
0.160784 0.670588 0.324510
0.415686 0.674510 0.318627
0.707843 0.719608 0.238235
0.984314 0.766667 0.003921
0.498039 0.921569 0.615686
0.537255 0.918627 0.627451
0.637255 0.909804 0.654902
0.760784 0.940196 0.642157
0.952941 0.976471 0.603922
0.000000 0.003922 0.248039
0.305883 0.000000 0.295098
0.673529 0.000000 0.281373
0.899020 0.000000 0.263726
1.000000 0.217647 0.235294
0.000000 0.267647 0.271569
0.259804 0.278431 0.278431
0.650980 0.278431 0.266667
0.879412 0.298039 0.239215
1.000000 0.360784 0.213725
0.000000 0.559804 0.338235
0.205882 0.527451 0.327451
0.521568 0.550980 0.296078
0.818627 0.559804 0.187255
1.000000 0.564705 0.097059
0.107843 0.711765 0.408824
0.264706 0.698039 0.414706
0.448039 0.679412 0.416666
0.712745 0.727451 0.373529
0.984314 0.766667 0.272549
0.494118 0.929412 0.631373
0.537255 0.922549 0.639216
0.637255 0.913725 0.669608
0.759804 0.937255 0.662745
0.952941 0.976471 0.631373
0.000000 0.007843 0.592156
0.327451 0.000000 0.624510
0.745098 0.000000 0.680392
0.906862 0.000000 0.637255
1.000000 0.256863 0.603921
0.000000 0.287255 0.564705
0.297059 0.300980 0.603921
0.705882 0.347059 0.663726
0.881373 0.359804 0.631373
1.000000 0.413725 0.600980
0.000000 0.603921 0.601961
0.279412 0.606863 0.607843
0.600000 0.605882 0.609804
0.816667 0.599020 0.592156
1.000000 0.598040 0.572549
0.365686 0.774510 0.626470
0.455882 0.764706 0.628432
0.545098 0.722549 0.595098
0.735294 0.743137 0.584314
0.992157 0.768627 0.528431
0.498039 0.949020 0.696079
0.519608 0.945098 0.689216
0.627451 0.933333 0.703921
0.762745 0.939215 0.722549
0.956863 0.976471 0.698039
0.249020 0.143137 0.797058
0.429412 0.146079 0.804902
0.719608 0.198039 0.835294
0.942157 0.315687 0.859804
1.000000 0.378432 0.832353
0.231373 0.335294 0.778432
0.410784 0.348039 0.789215
0.695098 0.407843 0.825490
0.917647 0.479412 0.854902
1.000000 0.490196 0.831373
0.000000 0.535294 0.708823
0.280392 0.550980 0.726471
0.607843 0.596079 0.779412
0.872549 0.661765 0.837255
1.000000 0.647058 0.829412
0.286274 0.783333 0.782353
0.396078 0.786275 0.785294
0.587255 0.784314 0.786275
0.800981 0.793137 0.797058
1.000000 0.786275 0.786275
0.456863 0.992157 0.828432
0.513726 0.989216 0.830392
0.650000 0.977451 0.828432
0.774510 0.956863 0.813726
0.972549 0.987255 0.816667
0.552941 0.435294 0.984314
0.611765 0.436275 0.985294
0.750981 0.458824 0.992157
0.926471 0.501961 1.000000
1.000000 0.541176 1.000000
0.540196 0.519608 0.980392
0.599019 0.524510 0.981372
0.739216 0.539215 0.988235
0.917647 0.575490 0.999020
1.000000 0.601961 1.000000
0.474510 0.656863 0.968627
0.518627 0.645098 0.972549
0.692157 0.658824 0.980392
0.887255 0.687255 0.992157
1.000000 0.719608 1.000000
0.342156 0.801961 0.961765
0.402942 0.800981 0.963726
0.540196 0.786275 0.962745
0.816667 0.798039 0.984314
1.000000 0.860785 0.997059
0.345098 0.996078 0.992157
0.414706 0.996078 0.993137
0.574510 0.996078 0.994117
0.782353 0.996078 0.996078
1.000000 1.000000 1.000000
