Color/Kodak/Kodak Elite Color 400 65x.cube
TITLE "Kodak Elite Color 400"
LUT_3D_SIZE 5
DOMAIN_MIN 0.000000 0.000000 0.000000
DOMAIN_MAX 1.000000 1.000000 1.000000
0.000000 0.000000 0.000000
0.154902 0.000000 0.000000
0.372549 0.000000 0.000000
0.660785 0.000000 0.000000
0.929412 0.003922 0.003922
0.120589 0.175490 0.035294
0.222549 0.154902 0.038235
0.431372 0.097059 0.038235
0.696079 0.003922 0.023529
0.945098 0.000981 0.003922
0.225490 0.427451 0.094118
0.322549 0.414706 0.094118
0.519608 0.384313 0.090196
0.758824 0.299020 0.074510
0.984314 0.072549 0.027451
0.429412 0.714706 0.098039
0.490197 0.711765 0.098039
0.638235 0.696079 0.094118
0.820588 0.660785 0.085295
1.000000 0.548039 0.039216
0.717647 0.972549 0.000000
0.740196 0.972549 0.000000
0.801961 0.972549 0.000000
0.906862 0.964706 0.000000
1.000000 0.941176 0.000000
0.000000 0.003922 0.143137
0.112745 0.000000 0.144118
0.349020 0.000000 0.140196
0.652941 0.000000 0.116667
0.929412 0.000000 0.057844
0.087255 0.202941 0.183334
0.186274 0.183334 0.183334
0.411764 0.131372 0.186274
0.688236 0.021569 0.171569
0.945098 0.000000 0.111764
0.167647 0.447059 0.214706
0.283334 0.437255 0.217647
0.498039 0.404902 0.218627
0.750981 0.326471 0.209804
0.982353 0.098039 0.166666
0.398039 0.723530 0.245098
0.463726 0.719608 0.243137
0.621568 0.707843 0.239216
0.809804 0.672549 0.222549
1.000000 0.562745 0.167647
0.705882 0.976471 0.237255
0.729412 0.976471 0.233333
0.794118 0.976471 0.221568
0.899020 0.968627 0.184314
1.000000 0.945098 0.000000
0.000000 0.029412 0.319608
0.067647 0.003922 0.323530
0.313725 0.000000 0.327451
0.633334 0.000000 0.316667
0.925490 0.000000 0.270589
0.030392 0.245098 0.376471
0.122549 0.228432 0.381373
0.371569 0.182353 0.388235
0.668628 0.063726 0.388235
0.934314 0.000000 0.352942
0.041176 0.482353 0.435295
0.162745 0.474510 0.439215
0.447059 0.447059 0.447059
0.723530 0.373529 0.447058
0.972549 0.160784 0.425490
0.306863 0.739216 0.494117
0.392157 0.738235 0.497059
0.575490 0.727451 0.498039
0.782353 0.697059 0.494117
1.000000 0.595098 0.466667
0.682353 0.982353 0.521568
0.705882 0.982353 0.521568
0.774510 0.980392 0.521568
0.883333 0.976471 0.509804
1.000000 0.956863 0.443137
0.000000 0.102941 0.538235
0.003922 0.059804 0.547059
0.251961 0.011765 0.558824
0.598039 0.000000 0.562745
0.909804 0.000000 0.543137
0.000000 0.315686 0.603922
0.011765 0.300000 0.609804
0.271569 0.254902 0.621569
0.625490 0.155883 0.633334
0.917647 0.000000 0.627451
0.000000 0.537254 0.661765
0.000000 0.529411 0.665686
0.330392 0.505883 0.676471
0.669608 0.443137 0.685294
0.952941 0.252941 0.688236
0.041176 0.766667 0.718628
0.211765 0.765686 0.719608
0.483333 0.754902 0.727451
0.731373 0.731373 0.731373
0.984314 0.646078 0.731373
0.638235 0.992157 0.761764
0.665687 0.992157 0.762745
0.741176 0.992157 0.765686
0.859804 0.988235 0.765686
1.000000 0.972549 0.747059
0.000000 0.223529 0.741176
0.000000 0.184314 0.749020
0.111765 0.133333 0.764706
0.531373 0.018627 0.780392
0.886275 0.000000 0.784314
0.000000 0.414706 0.795098
0.000000 0.402941 0.799020
0.005882 0.371569 0.811765
0.528431 0.291177 0.831373
0.894118 0.050000 0.847059
0.000000 0.613725 0.843137
0.000000 0.609804 0.847059
0.000000 0.594118 0.858824
0.548039 0.551961 0.874510
0.913725 0.405883 0.890196
0.000000 0.808823 0.899020
0.000000 0.808823 0.902941
0.144118 0.804902 0.913725
0.614706 0.789215 0.926471
0.937255 0.727451 0.938235
0.486275 0.992157 0.968627
0.528431 0.992157 0.972549
0.637255 0.996078 0.976471
0.789215 0.996078 0.988235
1.000000 1.000000 1.000000
