Color/Kodak/Kodak Elite Color 200 65x.cube
TITLE "Kodak Elite Color 200"
LUT_3D_SIZE 9
DOMAIN_MIN 0.000000 0.000000 0.000000
DOMAIN_MAX 1.000000 1.000000 1.000000
0.000000 0.000000 0.000000
0.066177 0.000000 0.000000
0.151961 0.000000 0.000000
0.249510 0.000000 0.003922
0.364706 0.003922 0.003922
0.520588 0.011765 0.011765
0.677451 0.023529 0.023529
0.832353 0.050980 0.043137
0.968627 0.094118 0.074510
0.027451 0.058334 0.000000
0.081863 0.062255 0.003432
0.162745 0.069608 0.003922
0.259804 0.077451 0.007843
0.376471 0.085785 0.013725
0.529902 0.101471 0.026961
0.687746 0.121079 0.042647
0.836765 0.148530 0.066177
0.972549 0.188235 0.097549
0.085295 0.140196 0.015686
0.112745 0.140196 0.019608
0.179412 0.147059 0.023529
0.275490 0.151961 0.030392
0.392157 0.163725 0.039216
0.547058 0.175490 0.050980
0.697059 0.195098 0.067647
0.848039 0.218627 0.086765
0.976471 0.257844 0.121569
0.125490 0.228432 0.027451
0.145098 0.229902 0.027451
0.202942 0.233824 0.031373
0.296569 0.240196 0.039216
0.415687 0.247549 0.049510
0.570098 0.258823 0.061275
0.718137 0.276961 0.078431
0.859804 0.302941 0.094608
0.984314 0.339706 0.125490
0.117647 0.341176 0.021569
0.156373 0.343137 0.021568
0.226470 0.345098 0.025490
0.322549 0.352942 0.031863
0.452941 0.360784 0.037255
0.599020 0.368137 0.046569
0.741177 0.384313 0.061764
0.879412 0.402451 0.080882
0.996078 0.433334 0.113725
0.158333 0.456373 0.003922
0.193137 0.457843 0.003922
0.261765 0.460294 0.007843
0.365686 0.464216 0.007843
0.499510 0.469608 0.014216
0.634314 0.477451 0.019608
0.772058 0.487745 0.031373
0.903922 0.504902 0.049999
1.000000 0.528431 0.080882
0.228432 0.561764 0.000000
0.256863 0.561764 0.000000
0.329411 0.561764 0.000000
0.437255 0.561764 0.000000
0.557843 0.561764 0.000000
0.684804 0.565686 0.000000
0.813726 0.573530 0.000000
0.931373 0.585294 0.007843
1.000000 0.604902 0.026471
0.341666 0.651470 0.000000
0.365686 0.651470 0.000000
0.427450 0.651470 0.000000
0.516667 0.651470 0.000000
0.620098 0.651470 0.000000
0.740196 0.648039 0.000000
0.856372 0.651470 0.000000
0.969608 0.651470 0.000000
1.000000 0.655392 0.000000
0.462745 0.721569 0.000000
0.482353 0.721569 0.000000
0.528431 0.721569 0.000000
0.600980 0.721569 0.000000
0.692157 0.721569 0.000000
0.797549 0.720098 0.000000
0.900000 0.717647 0.000000
1.000000 0.717647 0.000000
1.000000 0.717647 0.000000
0.000000 0.003922 0.077451
0.074020 0.003922 0.085785
0.159804 0.007843 0.096569
0.257353 0.011765 0.105392
0.372549 0.019608 0.116667
0.529902 0.031373 0.128922
0.684314 0.050980 0.145588
0.836274 0.078921 0.168137
0.968627 0.125490 0.199510
0.034804 0.077941 0.077941
0.085295 0.081863 0.085295
0.167157 0.089706 0.089706
0.265196 0.097549 0.100000
0.380393 0.109314 0.109314
0.536274 0.124510 0.124510
0.692157 0.144118 0.140686
0.840196 0.172059 0.160784
0.972549 0.214706 0.191667
0.090196 0.155392 0.085785
0.120098 0.155883 0.089706
0.182353 0.163235 0.093628
0.279412 0.170098 0.101471
0.396079 0.179412 0.113235
0.550981 0.192647 0.125000
0.700980 0.210784 0.140686
0.848039 0.234804 0.160784
0.976471 0.273529 0.191667
0.117647 0.241667 0.081863
0.143627 0.244118 0.085785
0.202941 0.248039 0.089706
0.299020 0.252941 0.097549
0.419608 0.261275 0.105392
0.571569 0.274510 0.121079
0.719608 0.291177 0.135294
0.859804 0.316667 0.154412
0.984314 0.354902 0.183824
0.115686 0.352942 0.066177
0.152451 0.354412 0.066667
0.225980 0.357843 0.070098
0.322549 0.364706 0.077941
0.452941 0.372549 0.085785
0.599020 0.381863 0.097549
0.743137 0.396079 0.113235
0.879412 0.417647 0.132843
0.996078 0.448529 0.162255
0.150981 0.468137 0.033334
0.187745 0.469608 0.033334
0.259314 0.471569 0.037255
0.363235 0.475490 0.042647
0.499510 0.481372 0.050490
0.634314 0.489216 0.060784
0.772058 0.500490 0.076471
0.900000 0.516667 0.096569
1.000000 0.542647 0.125000
0.233334 0.565686 0.000000
0.264216 0.565686 0.000000
0.334313 0.566667 0.002451
0.439706 0.569608 0.003922
0.557843 0.573530 0.007843
0.682353 0.577451 0.011765
0.813726 0.585294 0.022059
0.930392 0.597058 0.038236
1.000000 0.616667 0.069118
0.350000 0.651470 0.000000
0.376961 0.651470 0.000000
0.438236 0.651470 0.000000
0.523039 0.651470 0.000000
0.625980 0.651470 0.000000
0.744117 0.651470 0.000000
0.860785 0.651470 0.000000
0.969607 0.651470 0.000000
1.000000 0.666177 0.000000
0.474020 0.725490 0.000000
0.490196 0.725490 0.000000
0.536274 0.721569 0.000000
0.606373 0.721569 0.000000
0.698039 0.721569 0.000000
0.801471 0.721569 0.000000
0.903922 0.717647 0.000000
1.000000 0.717647 0.000000
1.000000 0.717647 0.000000
0.000000 0.015686 0.167647
0.081373 0.015686 0.178431
0.166666 0.022549 0.186274
0.265196 0.027451 0.194117
0.380393 0.039216 0.202941
0.536274 0.052451 0.216176
0.689216 0.071569 0.230393
0.840196 0.098529 0.250000
0.968627 0.145098 0.277451
0.042647 0.100490 0.167647
0.089706 0.104902 0.174510
0.170588 0.109314 0.179412
0.269118 0.117157 0.189706
0.388235 0.128922 0.199020
0.544117 0.144608 0.210785
0.696079 0.164216 0.226470
0.844117 0.191667 0.246569
0.972549 0.230883 0.273529
0.097059 0.174510 0.171568
0.125000 0.175490 0.175490
0.183334 0.182353 0.182353
0.280882 0.190196 0.190196
0.400000 0.199020 0.201961
0.554902 0.213725 0.213725
0.703922 0.231373 0.229412
0.848039 0.256863 0.250000
0.976471 0.293137 0.277451
0.113725 0.263726 0.171569
0.133333 0.264216 0.174510
0.201961 0.268137 0.179412
0.299020 0.275490 0.187255
0.423530 0.283334 0.198039
0.575490 0.295588 0.210784
0.720588 0.313236 0.226470
0.859804 0.338235 0.246569
0.984314 0.375000 0.276470
0.111765 0.376471 0.155882
0.146569 0.376471 0.156863
0.218627 0.380393 0.160784
0.318628 0.387255 0.168137
0.456863 0.396079 0.176471
0.599020 0.406373 0.189706
0.743137 0.420588 0.206863
0.875490 0.440686 0.229412
0.992157 0.471569 0.260784
0.133333 0.490687 0.118137
0.173530 0.493137 0.118137
0.250000 0.494608 0.122059
0.360784 0.498529 0.128432
0.498039 0.504902 0.137745
0.631863 0.512745 0.149510
0.770588 0.524510 0.163725
0.896079 0.541667 0.189216
1.000000 0.567647 0.227941
0.218627 0.589215 0.056863
0.252941 0.589215 0.056863
0.326470 0.592157 0.060784
0.435784 0.593137 0.067647
0.553922 0.597059 0.076470
0.678432 0.603922 0.088235
0.806863 0.611765 0.102941
0.923040 0.624509 0.122549
1.000000 0.644118 0.159804
0.370098 0.653921 0.000000
0.396568 0.653921 0.000000
0.451960 0.653921 0.000000
0.532843 0.655392 0.000000
0.633824 0.657843 0.002451
0.747059 0.661765 0.006373
0.860294 0.667647 0.014216
0.965686 0.677451 0.029902
1.000000 0.694118 0.059804
0.490196 0.725490 0.000000
0.508824 0.725490 0.000000
0.551961 0.725490 0.000000
0.620588 0.721569 0.000000
0.709804 0.721569 0.000000
0.809314 0.721569 0.000000
0.910784 0.721569 0.000000
1.000000 0.717647 0.000000
1.000000 0.721569 0.000000
0.000000 0.039216 0.257353
0.085294 0.039216 0.267647
0.171569 0.039216 0.275490
0.271569 0.049510 0.283334
0.388235 0.058824 0.292647
0.544117 0.073039 0.304412
0.696079 0.094118 0.320098
0.840196 0.121569 0.338235
0.968627 0.168627 0.367157
0.047059 0.121079 0.267647
0.097549 0.127451 0.271569
0.175000 0.132843 0.279412
0.273039 0.140686 0.287255
0.394608 0.150980 0.296569
0.549510 0.164216 0.309804
0.700000 0.184804 0.324020
0.844117 0.213725 0.344118
0.968627 0.254412 0.371078
0.101961 0.197549 0.276961
0.128431 0.199020 0.279902
0.187255 0.205392 0.287255
0.283334 0.213235 0.295098
0.406863 0.222549 0.304412
0.559804 0.235785 0.317647
0.707843 0.254902 0.332843
0.851961 0.279902 0.353922
0.972549 0.319118 0.381373
0.115196 0.287255 0.283334
0.130882 0.288726 0.287255
0.199020 0.292647 0.291177
0.299020 0.299020 0.299020
0.429412 0.306863 0.310294
0.577941 0.321569 0.322549
0.723530 0.338235 0.338235
0.859804 0.362255 0.357843
0.980392 0.402451 0.389216
0.101961 0.403922 0.276961
0.138725 0.404412 0.279412
0.210784 0.408334 0.283334
0.318628 0.415686 0.291177
0.456863 0.423530 0.302941
0.599020 0.435295 0.314706
0.741176 0.448529 0.330392
0.873039 0.470589 0.353922
0.988235 0.501961 0.385294
0.100000 0.524510 0.252941
0.146079 0.524510 0.255883
0.234314 0.528431 0.260784
0.355392 0.532353 0.268627
0.494118 0.537255 0.279412
0.629412 0.546568 0.295098
0.766667 0.557843 0.310784
0.889706 0.575490 0.335784
1.000000 0.600000 0.370588
0.186275 0.626961 0.198530
0.226471 0.626961 0.202451
0.310784 0.629412 0.206373
0.424020 0.632353 0.217157
0.544118 0.636275 0.229902
0.670588 0.642647 0.245588
0.798039 0.650490 0.265196
0.912745 0.662255 0.292647
1.000000 0.681863 0.331863
0.353921 0.693137 0.082353
0.380882 0.693137 0.086274
0.436765 0.694608 0.086765
0.520588 0.696569 0.094117
0.621569 0.700490 0.101960
0.735294 0.704412 0.113725
0.845098 0.712255 0.137745
0.950000 0.720588 0.175000
1.000000 0.737745 0.231863
0.513726 0.725490 0.000000
0.529412 0.725490 0.000000
0.571568 0.725490 0.000000
0.637745 0.725490 0.000000
0.725491 0.721569 0.000000
0.822549 0.721569 0.000000
0.919608 0.721569 0.000000
1.000000 0.721569 0.000000
1.000000 0.721569 0.000000
0.003922 0.068628 0.360784
0.089216 0.070588 0.370588
0.179412 0.070588 0.378432
0.276961 0.072549 0.388235
0.396079 0.084314 0.400000
0.551961 0.099510 0.411764
0.700000 0.119608 0.427451
0.844117 0.149020 0.447058
0.968627 0.192157 0.472549
0.058334 0.146569 0.377941
0.107353 0.150490 0.384313
0.177451 0.156373 0.392157
0.279412 0.166176 0.403431
0.400000 0.175981 0.415196
0.555882 0.191667 0.427451
0.703922 0.211275 0.443137
0.844117 0.239216 0.462746
0.968627 0.281863 0.487745
0.094118 0.222549 0.400000
0.125000 0.225490 0.403922
0.183333 0.232353 0.410784
0.287255 0.240196 0.419608
0.411764 0.250000 0.431373
0.563725 0.263726 0.446078
0.711765 0.282353 0.462745
0.848039 0.308824 0.481373
0.969607 0.346079 0.505883
0.087745 0.318138 0.419608
0.108823 0.318628 0.423530
0.195098 0.322549 0.430392
0.299020 0.329902 0.439215
0.433824 0.338235 0.449510
0.579412 0.352941 0.462746
0.723530 0.369118 0.478432
0.857843 0.393627 0.498040
0.976471 0.432353 0.521568
0.101961 0.437255 0.431373
0.129412 0.439215 0.433334
0.199020 0.443137 0.439215
0.314706 0.449020 0.447059
0.458823 0.458823 0.458823
0.599020 0.470589 0.470589
0.739216 0.484314 0.486274
0.867647 0.505883 0.505883
0.980392 0.537254 0.529411
0.093137 0.563725 0.427451
0.126961 0.564215 0.429412
0.213725 0.567647 0.433334
0.347549 0.571569 0.441667
0.487745 0.577451 0.452941
0.622549 0.587255 0.466666
0.758824 0.599019 0.482353
0.879412 0.614706 0.501961
0.988235 0.638725 0.529411
0.141176 0.672549 0.398039
0.191666 0.672549 0.400980
0.290196 0.673529 0.404902
0.409804 0.677451 0.413726
0.532353 0.681372 0.424510
0.660785 0.688236 0.440196
0.786275 0.696079 0.456863
0.899019 0.707843 0.479902
0.999019 0.726471 0.510784
0.323039 0.743627 0.310784
0.351961 0.745588 0.312255
0.411765 0.747059 0.316667
0.498039 0.747549 0.326471
0.602941 0.751471 0.338235
0.717157 0.755392 0.355392
0.827941 0.762745 0.377451
0.930392 0.771078 0.406863
1.000000 0.788725 0.448529
0.525490 0.745098 0.013725
0.541176 0.747059 0.013725
0.580392 0.747059 0.015686
0.645588 0.747059 0.017647
0.727451 0.747059 0.023530
0.820588 0.750981 0.031372
0.910784 0.755882 0.041176
1.000000 0.766666 0.060785
1.000000 0.782353 0.107843
0.007843 0.107353 0.485294
0.097549 0.107353 0.497059
0.186274 0.107353 0.504902
0.284804 0.109804 0.512745
0.407844 0.109804 0.523039
0.559804 0.125490 0.532353
0.707843 0.145098 0.548039
0.844117 0.172549 0.563725
0.968627 0.215686 0.585784
0.070098 0.175981 0.516177
0.120589 0.179902 0.520588
0.183334 0.185294 0.528431
0.287255 0.193137 0.536274
0.411764 0.203432 0.548039
0.563725 0.216667 0.559314
0.707843 0.235784 0.571568
0.847549 0.262745 0.587255
0.964706 0.305392 0.608824
0.093137 0.251471 0.543137
0.117647 0.253922 0.547059
0.190196 0.259314 0.551961
0.292647 0.265686 0.559804
0.423530 0.275490 0.569608
0.571569 0.290687 0.579412
0.715687 0.308824 0.594118
0.850490 0.332843 0.608824
0.968627 0.371568 0.630392
0.062745 0.346079 0.567647
0.101471 0.349020 0.570098
0.198039 0.352941 0.575490
0.302941 0.357843 0.583333
0.443137 0.367157 0.591176
0.585784 0.380392 0.602941
0.727451 0.396078 0.614706
0.855882 0.419608 0.630392
0.972549 0.457353 0.650000
0.082843 0.470589 0.583333
0.107843 0.470589 0.587255
0.196078 0.474510 0.591176
0.318628 0.479902 0.597059
0.462746 0.488235 0.606863
0.600980 0.499510 0.614706
0.739216 0.514706 0.627451
0.863725 0.533824 0.642157
0.976471 0.564705 0.661765
0.049510 0.600490 0.591176
0.082843 0.600490 0.592647
0.204412 0.602941 0.596569
0.347549 0.606863 0.602941
0.486274 0.614706 0.610784
0.622549 0.622549 0.622549
0.754902 0.634314 0.634314
0.871568 0.650000 0.650000
0.980392 0.673529 0.669608
0.103431 0.716177 0.583823
0.163235 0.716177 0.587255
0.273529 0.719608 0.590196
0.398039 0.720098 0.595588
0.522549 0.724020 0.603431
0.650981 0.730392 0.614706
0.774510 0.735784 0.626961
0.887255 0.747549 0.645588
0.991667 0.765686 0.665686
0.286275 0.800490 0.541177
0.317157 0.801471 0.543627
0.382843 0.801961 0.546569
0.475000 0.802941 0.552941
0.584804 0.805883 0.561275
0.700000 0.809804 0.572549
0.809314 0.813726 0.588235
0.910784 0.824019 0.607843
1.000000 0.836765 0.638235
0.486275 0.817157 0.289706
0.503922 0.818627 0.293628
0.546569 0.821078 0.297549
0.614216 0.821078 0.305392
0.696569 0.822549 0.317157
0.788235 0.826470 0.334314
0.879412 0.832843 0.357353
0.971569 0.840686 0.391667
1.000000 0.852451 0.446569
0.016667 0.145098 0.613726
0.113235 0.146079 0.621569
0.195098 0.146079 0.629412
0.297549 0.146079 0.637255
0.423530 0.146079 0.646078
0.571568 0.146079 0.656863
0.715687 0.165686 0.664706
0.848039 0.193137 0.680392
0.968627 0.235294 0.696079
0.085785 0.199510 0.647549
0.132843 0.203432 0.652451
0.196078 0.207353 0.656863
0.299020 0.215196 0.664706
0.428431 0.223039 0.672549
0.575490 0.235784 0.680882
0.715687 0.254412 0.692157
0.848039 0.281863 0.703922
0.964706 0.322549 0.719608
0.108824 0.273529 0.674510
0.129412 0.274510 0.676471
0.203922 0.280392 0.683333
0.306863 0.285295 0.690196
0.440196 0.295098 0.698039
0.583333 0.308824 0.705882
0.723530 0.325490 0.715687
0.851961 0.351961 0.726961
0.967647 0.388235 0.741176
0.077941 0.369608 0.700000
0.127451 0.371078 0.703922
0.211765 0.373529 0.707843
0.322549 0.381373 0.711765
0.458823 0.389216 0.719608
0.596079 0.400980 0.727451
0.735294 0.415196 0.735294
0.859314 0.438235 0.747059
0.968627 0.475490 0.760294
0.059804 0.494117 0.720588
0.106863 0.494117 0.723530
0.213725 0.498039 0.727451
0.338235 0.502941 0.731373
0.476471 0.510784 0.736274
0.610784 0.521568 0.744117
0.743137 0.537254 0.751961
0.863725 0.556863 0.762745
0.972549 0.586275 0.774510
0.032843 0.630392 0.735294
0.107843 0.630392 0.735784
0.226471 0.633824 0.739216
0.362745 0.635294 0.743137
0.494608 0.642157 0.750981
0.627941 0.650000 0.755392
0.754902 0.658824 0.765686
0.871078 0.673529 0.774510
0.976471 0.697059 0.786765
0.125490 0.750981 0.743137
0.173529 0.754902 0.743137
0.281373 0.754902 0.747059
0.399510 0.754902 0.750981
0.525490 0.758824 0.754902
0.653431 0.762745 0.762745
0.770588 0.770588 0.770588
0.879412 0.781373 0.781863
0.980392 0.797058 0.794118
0.271568 0.847549 0.731373
0.302451 0.848039 0.731373
0.372059 0.848530 0.735294
0.466667 0.848530 0.739216
0.576961 0.851961 0.743627
0.689216 0.855392 0.751471
0.797058 0.859314 0.762745
0.898529 0.864216 0.774510
0.992157 0.875000 0.790196
0.442157 0.895098 0.610784
0.462745 0.895098 0.611765
0.507843 0.899020 0.615687
0.578922 0.899020 0.619608
0.664706 0.899020 0.627451
0.754412 0.902941 0.639216
0.848039 0.906862 0.650981
0.937745 0.910784 0.670098
1.000000 0.918627 0.700980
0.039216 0.180392 0.730392
0.136765 0.180392 0.738235
0.213725 0.180392 0.745588
0.316177 0.180392 0.750000
0.445098 0.176961 0.757353
0.587255 0.176471 0.761764
0.726961 0.176471 0.769117
0.855392 0.203922 0.777451
0.968627 0.243137 0.789215
0.101961 0.211765 0.761764
0.149510 0.215196 0.765686
0.221568 0.219118 0.769607
0.322549 0.226961 0.776471
0.451471 0.234804 0.781372
0.591176 0.246569 0.788235
0.727451 0.262255 0.793137
0.855882 0.286275 0.800980
0.968627 0.328922 0.812255
0.125980 0.281373 0.785294
0.151470 0.285295 0.788725
0.234804 0.289216 0.792647
0.336274 0.293138 0.797058
0.466667 0.303921 0.803432
0.601960 0.314215 0.808333
0.735294 0.332353 0.815196
0.859804 0.356373 0.823039
0.968627 0.395098 0.831863
0.136274 0.378922 0.810784
0.172549 0.382353 0.812255
0.249019 0.382843 0.814706
0.357843 0.389216 0.818627
0.486274 0.397059 0.824019
0.615196 0.408824 0.828431
0.747059 0.422059 0.832844
0.863725 0.444118 0.842157
0.972549 0.480882 0.851470
0.130392 0.502451 0.831863
0.176471 0.505883 0.832353
0.265196 0.508824 0.833824
0.377941 0.513726 0.837745
0.504412 0.519608 0.841667
0.630882 0.529412 0.847549
0.758333 0.545098 0.851961
0.871078 0.564705 0.859314
0.972549 0.596078 0.867157
0.147059 0.646078 0.848039
0.188725 0.646078 0.849020
0.284804 0.649020 0.851961
0.400981 0.650000 0.855392
0.522059 0.657843 0.859314
0.646568 0.662255 0.863235
0.766667 0.673529 0.867647
0.875000 0.689216 0.875000
0.976471 0.711765 0.882843
0.198529 0.774510 0.863235
0.244118 0.774510 0.863725
0.325981 0.777942 0.863725
0.432843 0.778432 0.867647
0.549510 0.782353 0.871078
0.665686 0.786275 0.875490
0.778432 0.793137 0.879902
0.879902 0.801471 0.886765
0.976471 0.816666 0.894608
0.307353 0.879412 0.867647
0.337745 0.879412 0.867647
0.400000 0.879412 0.871078
0.489706 0.882843 0.871568
0.591176 0.882843 0.875490
0.696079 0.883333 0.880392
0.797549 0.887255 0.886765
0.894608 0.894608 0.894608
0.984314 0.902451 0.902451
0.439216 0.953431 0.828922
0.458824 0.953431 0.828922
0.504902 0.953431 0.832353
0.571078 0.953431 0.836274
0.652941 0.956863 0.840196
0.740196 0.957353 0.844117
0.828922 0.957353 0.851961
0.918137 0.961274 0.859804
1.000000 0.965196 0.875490
0.054902 0.207843 0.827451
0.164216 0.207843 0.835294
0.242157 0.207843 0.839216
0.346078 0.207843 0.843137
0.474510 0.203922 0.847059
0.606863 0.203922 0.850980
0.742156 0.200000 0.854902
0.863235 0.200490 0.862745
0.972549 0.243137 0.870588
0.136765 0.215686 0.854902
0.183824 0.215686 0.858334
0.265197 0.219118 0.862255
0.361765 0.223039 0.866177
0.486274 0.230883 0.870098
0.614706 0.242647 0.874510
0.747059 0.258334 0.878431
0.863725 0.281863 0.885785
0.972549 0.321079 0.890196
0.171568 0.277451 0.877451
0.210294 0.281373 0.878431
0.284314 0.281373 0.882353
0.381373 0.289216 0.885295
0.501961 0.295098 0.889216
0.630392 0.307843 0.893137
0.754902 0.321568 0.895098
0.871078 0.348040 0.901961
0.972549 0.387255 0.908824
0.210294 0.371078 0.898039
0.241667 0.371078 0.900490
0.312746 0.375000 0.901961
0.408824 0.378922 0.905882
0.525490 0.386765 0.908333
0.646078 0.398529 0.912255
0.766667 0.411274 0.916176
0.875490 0.434314 0.920098
0.976471 0.471569 0.925490
0.245098 0.498039 0.917647
0.277941 0.498039 0.919608
0.344117 0.498039 0.921569
0.440196 0.504412 0.923530
0.549019 0.509804 0.925490
0.665686 0.521568 0.929412
0.778432 0.534314 0.933333
0.883333 0.556863 0.937255
0.980392 0.588236 0.941176
0.275980 0.646078 0.937255
0.306863 0.646078 0.937255
0.371569 0.646078 0.937255
0.462746 0.650000 0.941176
0.572549 0.653922 0.941176
0.683824 0.661765 0.945098
0.789215 0.669608 0.949020
0.887255 0.685294 0.952941
0.980392 0.708824 0.956863
0.322549 0.782353 0.952941
0.350000 0.782353 0.952941
0.411764 0.785294 0.952941
0.497549 0.786275 0.956863
0.600000 0.789215 0.956863
0.700980 0.793137 0.960784
0.798039 0.798039 0.961765
0.894608 0.805393 0.965686
0.980392 0.821569 0.969607
0.408823 0.895098 0.968627
0.428431 0.895098 0.968627
0.481863 0.898529 0.968627
0.551961 0.898529 0.968627
0.637745 0.898529 0.972549
0.726961 0.899019 0.973039
0.816666 0.902941 0.976471
0.902451 0.906862 0.980392
0.984314 0.918137 0.984314
0.513726 0.992157 0.972549
0.529412 0.992157 0.972549
0.563725 0.992157 0.972549
0.618137 0.992157 0.976471
0.688236 0.992157 0.980392
0.762255 0.992157 0.984314
0.840196 0.996078 0.988235
0.918137 0.996078 0.992157
1.000000 1.000000 1.000000
