Color/Kodak/Kodak Elite Chrome 400 65x.cube
TITLE "Kodak Elite Chrome 400"
LUT_3D_SIZE 65
DOMAIN_MIN 0.000000 0.000000 0.000000
DOMAIN_MAX 1.000000 1.000000 1.000000
0.000000 0.000000 0.000000
0.003922 0.000000 0.000000
0.009681 0.000000 0.000000
0.014522 0.000000 0.000000
0.019608 0.000000 0.000000
0.028125 0.000000 0.000000
0.036887 0.000000 0.000000
0.045650 0.000000 0.000000
0.054412 0.000000 0.000000
0.063603 0.000000 0.000000
0.075858 0.000000 0.000000
0.080698 0.000000 0.000000
0.092647 0.000000 0.000000
0.102145 0.000000 0.000000
0.110907 0.000000 0.000000
0.121691 0.000000 0.000000
0.132353 0.000000 0.000000
0.141115 0.000000 0.000000
0.153799 0.000000 0.000000
0.166483 0.000000 0.000000
0.179167 0.000000 0.000000
0.191851 0.003616 0.000000
0.205147 0.003922 0.000000
0.221140 0.003922 0.000000
0.236275 0.003922 0.000000
0.249877 0.003922 0.000000
0.267402 0.004290 0.000000
0.281005 0.007843 0.000000
0.298530 0.007843 0.000000
0.316054 0.010968 0.000000
0.333578 0.011765 0.000000
0.352145 0.011765 0.000000
0.372549 0.011765 0.000000
0.393995 0.011765 0.000000
0.415318 0.015686 0.000000
0.436887 0.016483 0.000000
0.458333 0.019608 0.000000
0.479780 0.023529 0.000000
0.500858 0.023529 0.000000
0.519301 0.024081 0.000000
0.540196 0.027451 0.000000
0.557720 0.031373 0.000000
0.571324 0.031373 0.000000
0.588848 0.035294 0.000000
0.602451 0.036520 0.000000
0.619975 0.039216 0.000000
0.633578 0.042279 0.000000
0.647182 0.043137 0.000000
0.663725 0.044117 0.000000
0.678309 0.047059 0.000000
0.691912 0.049877 0.000000
0.709436 0.050980 0.000000
0.723040 0.054902 0.000000
0.738909 0.054902 0.000000
0.754167 0.058824 0.000000
0.771691 0.062316 0.000000
0.785294 0.062745 0.000000
0.802819 0.064154 0.000000
0.818015 0.066667 0.000000
0.833946 0.069914 0.000000
0.851225 0.070588 0.000000
0.865073 0.074510 0.000000
0.882598 0.074510 0.000000
0.896201 0.078431 0.000000
0.913725 0.082353 0.000000
0.000919 0.008762 0.000000
0.008762 0.004841 0.000000
0.017524 0.004841 0.000000
0.023285 0.004841 0.000000
0.032046 0.004841 0.000000
0.040809 0.004841 0.000000
0.049571 0.004841 0.000000
0.058333 0.004841 0.000000
0.067095 0.004841 0.000000
0.075858 0.004841 0.000000
0.084620 0.004841 0.000000
0.093382 0.004841 0.000000
0.102144 0.003922 0.000000
0.110907 0.003922 0.000000
0.123591 0.003922 0.000000
0.132353 0.000919 0.000000
0.141115 0.000919 0.000000
0.153800 0.000919 0.000000
0.166483 0.000919 0.000000
0.177022 0.000919 0.000000
0.190625 0.000919 0.000000
0.204227 0.003922 0.000000
0.217218 0.003922 0.000000
0.231434 0.003922 0.000000
0.245037 0.003922 0.000000
0.259191 0.003922 0.000000
0.276164 0.007843 0.000000
0.293689 0.007843 0.000000
0.310294 0.007843 0.000000
0.327819 0.011765 0.000000
0.345343 0.011765 0.000000
0.363787 0.011765 0.000000
0.381311 0.011765 0.000000
0.404718 0.014644 0.000000
0.427083 0.015686 0.000000
0.445649 0.019608 0.000000
0.467892 0.019608 0.000000
0.487623 0.023529 0.000000
0.506066 0.023529 0.000000
0.526593 0.027451 0.000000
0.544117 0.027451 0.000000
0.561642 0.031373 0.000000
0.579167 0.034681 0.000000
0.592770 0.035294 0.000000
0.606067 0.036520 0.000000
0.623897 0.039216 0.000000
0.637500 0.040135 0.000000
0.651103 0.043137 0.000000
0.664644 0.044117 0.000000
0.682230 0.047059 0.000000
0.695833 0.047978 0.000000
0.713358 0.050980 0.000000
0.726961 0.054902 0.000000
0.739829 0.056557 0.000000
0.758088 0.058824 0.000000
0.769118 0.062316 0.000000
0.789215 0.062745 0.000000
0.802328 0.064154 0.000000
0.820343 0.066667 0.000000
0.837868 0.069914 0.000000
0.851470 0.070588 0.000000
0.867831 0.074510 0.000000
0.882598 0.076593 0.000000
0.900123 0.078431 0.000000
0.913725 0.082353 0.000000
0.005760 0.017524 0.000000
0.012684 0.013603 0.000000
0.021446 0.013603 0.000000
0.028125 0.013603 0.000000
0.036888 0.013603 0.000000
0.047733 0.013603 0.000000
0.054412 0.013603 0.000000
0.065258 0.013603 0.000000
0.074020 0.013603 0.000000
0.082782 0.011765 0.000000
0.091544 0.009681 0.000000
0.100306 0.009681 0.000000
0.109069 0.009681 0.000000
0.119669 0.009681 0.000000
0.127696 0.009681 0.000000
0.141299 0.009681 0.000000
0.149877 0.009681 0.000000
0.158639 0.009681 0.000000
0.172181 0.009681 0.000000
0.184007 0.007843 0.000000
0.196691 0.007843 0.000000
0.209376 0.007843 0.000000
0.222672 0.005760 0.000000
0.238664 0.005760 0.000000
0.251348 0.005760 0.000000
0.267402 0.005760 0.000000
0.284559 0.007843 0.000000
0.298529 0.007843 0.000000
0.313848 0.010049 0.000000
0.331740 0.011765 0.000000
0.349265 0.011765 0.000000
0.368628 0.011765 0.000000
0.386152 0.011765 0.000000
0.408640 0.013603 0.000000
0.427206 0.015686 0.000000
0.450491 0.019608 0.000000
0.471936 0.021323 0.000000
0.491545 0.023529 0.000000
0.510908 0.023529 0.000000
0.530515 0.027451 0.000000
0.548039 0.028922 0.000000
0.565563 0.031373 0.000000
0.577696 0.034681 0.000000
0.598223 0.035294 0.000000
0.610294 0.036520 0.000000
0.623591 0.039216 0.000000
0.641421 0.043137 0.000000
0.654963 0.043137 0.000000
0.668628 0.044118 0.000000
0.682230 0.047059 0.000000
0.696936 0.050980 0.000000
0.713358 0.050980 0.000000
0.726961 0.054902 0.000000
0.744669 0.056557 0.000000
0.758088 0.058824 0.000000
0.775613 0.062316 0.000000
0.789215 0.062745 0.000000
0.806741 0.064154 0.000000
0.820343 0.066667 0.000000
0.837868 0.070588 0.000000
0.851470 0.070833 0.000000
0.868995 0.074510 0.000000
0.882598 0.076593 0.000000
0.900123 0.078431 0.000000
0.913725 0.082353 0.000000
0.010601 0.026287 0.000000
0.016605 0.028125 0.000000
0.026287 0.022365 0.000000
0.032966 0.022365 0.000000
0.041728 0.022365 0.000000
0.050491 0.022365 0.000000
0.059252 0.022365 0.000000
0.069179 0.022365 0.000000
0.077941 0.022365 0.000000
0.086704 0.024694 0.000000
0.095466 0.018444 0.000000
0.104228 0.018444 0.000000
0.112990 0.018444 0.000000
0.124510 0.018444 0.000000
0.131618 0.018444 0.000000
0.145956 0.018444 0.000000
0.154718 0.018444 0.000000
0.168504 0.018444 0.000000
0.180086 0.017585 0.000000
0.187868 0.014522 0.000000
0.201471 0.014522 0.000000
0.214215 0.014522 0.000000
0.230821 0.014522 0.000000
0.242280 0.014522 0.000000
0.258639 0.011765 0.000000
0.273407 0.011765 0.000000
0.287010 0.011765 0.000000
0.303370 0.011765 0.000000
0.318138 0.011765 0.000000
0.335662 0.011765 0.000000
0.353186 0.011765 0.000000
0.373468 0.011765 0.000000
0.390196 0.011765 0.000000
0.412561 0.015686 0.000000
0.429964 0.015686 0.000000
0.452573 0.019608 0.000000
0.474019 0.021323 0.000000
0.494179 0.023529 0.000000
0.512991 0.023529 0.000000
0.533272 0.027451 0.000000
0.550797 0.028922 0.000000
0.565563 0.031373 0.000000
0.583089 0.034681 0.000000
0.596691 0.035294 0.000000
0.610294 0.039216 0.000000
0.628432 0.039216 0.000000
0.641421 0.043137 0.000000
0.655025 0.043137 0.000000
0.668628 0.047059 0.000000
0.684253 0.047059 0.000000
0.699755 0.050980 0.000000
0.713358 0.050980 0.000000
0.730147 0.054902 0.000000
0.744485 0.056557 0.000000
0.758088 0.058824 0.000000
0.775613 0.062745 0.000000
0.789215 0.062745 0.000000
0.806741 0.066667 0.000000
0.821936 0.066667 0.000000
0.837868 0.070588 0.000000
0.851470 0.070833 0.000000
0.868995 0.074510 0.000000
0.884437 0.076593 0.000000
0.900123 0.078431 0.000000
0.913725 0.082353 0.000000
0.019363 0.035049 0.003922
0.024204 0.035049 0.003677
0.031128 0.035049 0.003677
0.037807 0.035049 0.000000
0.046569 0.035049 0.000000
0.055331 0.031128 0.000000
0.064094 0.031128 0.000000
0.072856 0.031128 0.000000
0.081373 0.031128 0.000000
0.090625 0.031128 0.000000
0.099387 0.031128 0.000000
0.108149 0.032537 0.000000
0.116912 0.027206 0.000000
0.129350 0.027206 0.000000
0.135539 0.027206 0.000000
0.147120 0.027206 0.000000
0.159558 0.027206 0.000000
0.172426 0.027206 0.000000
0.184926 0.023284 0.000000
0.193934 0.023284 0.000000
0.205392 0.023284 0.000000
0.218995 0.023284 0.000000
0.232598 0.023284 0.000000
0.249878 0.023284 0.000000
0.264952 0.023284 0.000000
0.277328 0.023590 0.000000
0.290931 0.019363 0.000000
0.310846 0.019363 0.000000
0.325736 0.019363 0.000000
0.339583 0.019363 0.000000
0.357108 0.015686 0.000000
0.374632 0.018320 0.000000
0.395833 0.015441 0.000000
0.413603 0.015686 0.000000
0.434804 0.019485 0.000000
0.453370 0.019608 0.000000
0.475735 0.021323 0.000000
0.499142 0.023529 0.000000
0.516912 0.023529 0.000000
0.534436 0.027451 0.000000
0.551961 0.028922 0.000000
0.570772 0.031373 0.000000
0.583089 0.034681 0.000000
0.596691 0.035294 0.000000
0.616667 0.039216 0.000000
0.627819 0.039216 0.000000
0.641421 0.043137 0.000000
0.655025 0.043137 0.000000
0.671569 0.047059 0.000000
0.686152 0.047059 0.000000
0.699755 0.050980 0.000000
0.717279 0.050980 0.000000
0.730883 0.054902 0.000000
0.744485 0.056557 0.000000
0.762010 0.058824 0.000000
0.775613 0.062745 0.000000
0.796324 0.062745 0.000000
0.806741 0.066667 0.000000
0.824265 0.066667 0.000000
0.837868 0.070588 0.000000
0.858823 0.070833 0.000000
0.868995 0.074510 0.000000
0.888113 0.076593 0.000000
0.900123 0.078431 0.000000
0.917402 0.082353 0.000000
0.024203 0.047733 0.004596
0.029044 0.047733 0.003922
0.035968 0.047733 0.003922
0.042648 0.047733 0.003922
0.050735 0.044485 0.003922
0.059498 0.043811 0.003922
0.068260 0.043811 0.003922
0.077022 0.043811 0.003922
0.085785 0.043811 0.000674
0.094547 0.044056 0.000674
0.103309 0.040564 0.000000
0.112071 0.040564 0.000000
0.120834 0.040564 0.000000
0.130270 0.039890 0.000000
0.143382 0.039890 0.000000
0.151716 0.039890 0.000000
0.163725 0.039890 0.000000
0.173162 0.036642 0.000000
0.185846 0.035784 0.000000
0.199632 0.035968 0.000000
0.213235 0.035968 0.000000
0.226838 0.035968 0.000000
0.240503 0.035968 0.000000
0.254044 0.035968 0.000000
0.265870 0.032721 0.000000
0.285172 0.032721 0.000000
0.298774 0.032047 0.000000
0.313052 0.032047 0.000000
0.328370 0.032047 0.000000
0.347427 0.025674 0.000000
0.364951 0.028677 0.000000
0.382475 0.023835 0.000000
0.401960 0.024203 0.000000
0.418199 0.024203 0.000000
0.442769 0.020282 0.000000
0.460417 0.020282 0.000000
0.478616 0.023529 0.000000
0.502022 0.023529 0.000000
0.520834 0.027083 0.000000
0.538358 0.027451 0.000000
0.555882 0.031373 0.000000
0.567770 0.031373 0.000000
0.587010 0.035294 0.000000
0.600613 0.035294 0.000000
0.613665 0.039216 0.000000
0.629596 0.039216 0.000000
0.645343 0.043137 0.000000
0.659559 0.043137 0.000000
0.672549 0.047059 0.000000
0.684926 0.047059 0.000000
0.703676 0.050980 0.000000
0.717279 0.050980 0.000000
0.730883 0.054902 0.000000
0.748407 0.056557 0.000000
0.762010 0.058824 0.000000
0.779534 0.062745 0.000000
0.793137 0.062745 0.000000
0.809252 0.066667 0.000000
0.824265 0.066667 0.000000
0.841789 0.070588 0.000000
0.855392 0.070833 0.000000
0.868505 0.074510 0.000000
0.886520 0.076593 0.000000
0.897795 0.078431 0.000000
0.917647 0.082353 0.000000
0.032966 0.060417 0.007843
0.037806 0.060417 0.007843
0.042647 0.058088 0.007843
0.049816 0.058088 0.005515
0.052573 0.058088 0.005515
0.061091 0.056495 0.003922
0.069853 0.056495 0.003922
0.078615 0.056495 0.003922
0.089706 0.056495 0.003922
0.098468 0.054167 0.003922
0.107230 0.054167 0.003922
0.115992 0.052573 0.003922
0.124755 0.052573 0.003922
0.135110 0.052573 0.001593
0.146201 0.053063 0.001593
0.156985 0.050245 -0.000429
0.165318 0.050245 0.000000
0.180269 0.048652 0.000000
0.190686 0.048652 0.000000
0.203554 0.048652 0.000000
0.217157 0.048652 0.000000
0.230760 0.048652 0.000000
0.245343 0.046323 0.000000
0.257966 0.046323 0.000000
0.270711 0.044730 0.000000
0.289093 0.044730 0.000000
0.302696 0.044730 0.000000
0.320527 0.044730 0.000000
0.335417 0.042402 0.000000
0.349816 0.039277 0.000000
0.368872 0.042280 0.000000
0.387990 0.036887 0.000000
0.405515 0.036887 0.000000
0.423039 0.031679 0.000000
0.444485 0.032966 0.000000
0.465931 0.029044 0.000000
0.483456 0.029044 0.000000
0.503309 0.025122 0.000000
0.522427 0.025122 0.000000
0.539951 0.027451 0.000000
0.555882 0.031373 0.000000
0.573407 0.031373 0.000000
0.585294 0.035294 0.000000
0.600613 0.035600 0.000000
0.618505 0.039216 0.000000
0.631740 0.039216 0.000000
0.645343 0.043137 0.000000
0.658947 0.044730 0.000000
0.672549 0.047059 0.000000
0.690074 0.048958 0.000000
0.703676 0.050980 0.000000
0.715135 0.050980 0.000000
0.734068 0.054902 0.000000
0.748407 0.058824 0.000000
0.761030 0.058824 0.000000
0.779534 0.062745 0.000000
0.793137 0.062745 0.000000
0.810662 0.066667 0.000000
0.824265 0.066667 0.000000
0.841789 0.070588 0.000000
0.855392 0.070833 0.000000
0.873345 0.074510 0.000000
0.886520 0.076593 0.000000
0.901042 0.078431 0.000000
0.917647 0.082353 0.000000
0.041728 0.071691 0.011765
0.045650 0.071691 0.010356
0.051409 0.069179 0.010356
0.056250 0.069179 0.010356
0.061090 0.069179 0.006679
0.065931 0.069179 0.007843
0.074693 0.070098 0.007843
0.083456 0.067769 0.007843
0.092219 0.067769 0.007843
0.100980 0.065258 0.006434
0.109742 0.065258 0.006434
0.118505 0.065258 0.003922
0.127268 0.065258 0.003922
0.139951 0.063848 0.003922
0.150123 0.063848 0.003922
0.161397 0.061336 0.003922
0.170159 0.061336 0.003922
0.184191 0.061336 0.003922
0.195527 0.061336 0.002513
0.208211 0.059926 0.000000
0.221078 0.059926 0.000000
0.234681 0.059926 0.000000
0.250184 0.057415 0.000000
0.261888 0.057415 0.000000
0.275490 0.057415 0.000000
0.293015 0.057415 0.000000
0.306617 0.057415 0.000000
0.325368 0.056005 0.000000
0.340257 0.056005 0.000000
0.354657 0.053493 0.000000
0.375307 0.052083 0.000000
0.392831 0.049571 0.000000
0.409804 0.050122 0.000000
0.432169 0.048161 0.000000
0.449326 0.045650 0.000000
0.470772 0.041728 0.000000
0.487500 0.040318 0.000000
0.509866 0.037807 0.000000
0.527267 0.032843 0.000000
0.542279 0.031373 0.000000
0.559804 0.031373 0.000000
0.573407 0.031373 0.000000
0.590932 0.035294 0.000000
0.604535 0.035600 0.000000
0.618137 0.039216 0.000000
0.631740 0.041360 0.000000
0.649264 0.043137 0.000000
0.662806 0.043198 0.000000
0.678003 0.047059 0.000000
0.690074 0.048958 0.000000
0.703370 0.050980 0.000000
0.721201 0.050980 0.000000
0.734804 0.054902 0.000000
0.748407 0.058824 0.000000
0.765931 0.058824 0.000000
0.779534 0.062745 0.000000
0.796568 0.062745 0.000000
0.810662 0.066667 0.000000
0.828370 0.066667 0.000000
0.841789 0.070588 0.000000
0.855392 0.070833 0.000000
0.872916 0.074510 0.000000
0.886520 0.076593 0.000000
0.904044 0.078431 0.000000
0.917647 0.082353 0.000000
0.046569 0.085295 0.015686
0.054412 0.081863 0.015196
0.058334 0.081863 0.015196
0.062255 0.081863 0.011765
0.066177 0.081863 0.011765
0.071262 0.081373 0.011765
0.079535 0.081373 0.011765
0.088296 0.077941 0.011275
0.097059 0.077941 0.011275
0.105822 0.077941 0.007843
0.114584 0.077941 0.007843
0.123345 0.077941 0.007843
0.132107 0.077451 0.007843
0.144792 0.077451 0.007843
0.151226 0.074020 0.007353
0.162806 0.074020 0.007353
0.175000 0.074020 0.007353
0.188112 0.074020 0.003922
0.200368 0.073530 0.003922
0.213051 0.073530 0.003922
0.225735 0.070098 0.003922
0.238603 0.070098 0.003922
0.255025 0.070098 0.003432
0.265809 0.070098 0.000000
0.279412 0.070098 0.000000
0.296997 0.070159 0.000000
0.310539 0.069608 0.000000
0.330208 0.066177 0.000000
0.345098 0.066177 0.000000
0.359191 0.066177 0.000000
0.380147 0.062255 0.000000
0.397672 0.062255 0.000000
0.415686 0.061765 0.000000
0.436642 0.058334 0.000000
0.454167 0.058334 0.000000
0.475613 0.054412 0.000000
0.493627 0.056127 0.000000
0.514583 0.051287 0.000000
0.532108 0.046446 0.000000
0.546201 0.045527 0.000000
0.565686 0.038726 0.000000
0.577328 0.035294 0.000000
0.590932 0.035294 0.000000
0.604535 0.035600 0.000000
0.620833 0.039216 0.000000
0.636949 0.041360 0.000000
0.649264 0.043137 0.000000
0.662868 0.043198 0.000000
0.676471 0.047059 0.000000
0.690074 0.048958 0.000000
0.708211 0.050980 0.000000
0.721201 0.054718 0.000000
0.734804 0.054902 0.000000
0.754106 0.058824 0.000000
0.765931 0.061397 0.000000
0.779963 0.062745 0.000000
0.797059 0.063235 0.000000
0.810662 0.066667 0.000000
0.828186 0.070098 0.000000
0.841789 0.070588 0.000000
0.862501 0.070833 0.000000
0.872916 0.074510 0.000000
0.888358 0.078431 0.000000
0.904044 0.078431 0.000000
0.917647 0.082353 0.000000
0.055331 0.094547 0.020037
0.060172 0.094547 0.020037
0.065012 0.094547 0.020037
0.069854 0.094547 0.019608
0.074693 0.094547 0.019608
0.078860 0.091054 0.016115
0.084375 0.089461 0.016115
0.092709 0.090625 0.016115
0.097979 0.090625 0.015686
0.106740 0.090625 0.012194
0.115502 0.090625 0.012194
0.124265 0.087133 0.012194
0.136520 0.087133 0.012194
0.145711 0.086704 0.011765
0.157966 0.086704 0.011765
0.168750 0.086704 0.011765
0.179412 0.086704 0.008272
0.188604 0.083211 0.008272
0.201287 0.082353 0.007843
0.213971 0.082782 0.007843
0.226654 0.082782 0.007843
0.239338 0.082782 0.007843
0.256127 0.082782 0.003738
0.268628 0.082782 0.003922
0.287255 0.079289 0.003922
0.297917 0.075918 0.003922
0.314890 0.078860 0.000429
0.331985 0.078860 -0.000858
0.349510 0.078860 0.000000
0.363542 0.072242 0.000000
0.381066 0.074939 0.000000
0.402083 0.074939 0.000000
0.421569 0.069485 0.000000
0.437562 0.071017 0.000000
0.462377 0.071017 0.000000
0.480821 0.066728 0.000000
0.497978 0.067096 0.000000
0.518996 0.063174 0.000000
0.536520 0.056128 0.000000
0.550552 0.055208 0.000000
0.567647 0.050367 0.000000
0.579290 0.045527 0.000000
0.591972 0.040686 0.000000
0.608456 0.039645 0.000000
0.621262 0.039645 0.000000
0.637439 0.039645 0.000000
0.653186 0.043137 0.000000
0.666728 0.043198 0.000000
0.680392 0.047059 0.000000
0.693995 0.048958 0.000000
0.705209 0.050980 0.000000
0.725122 0.054718 0.000000
0.738726 0.054902 0.000000
0.752329 0.058824 0.000000
0.769853 0.061397 0.000000
0.783456 0.062745 0.000000
0.797058 0.063235 0.000000
0.814584 0.066667 0.000000
0.826287 0.068995 0.000000
0.845711 0.070588 0.000000
0.859314 0.074510 0.000000
0.875674 0.074510 0.000000
0.890442 0.078431 0.000000
0.901470 0.078431 0.000000
0.921569 0.082353 0.000000
0.064093 0.107230 0.027451
0.068934 0.107230 0.024877
0.071936 0.104657 0.024877
0.075858 0.104657 0.024877
0.079779 0.104657 0.024877
0.084375 0.103309 0.023529
0.091544 0.103309 0.023529
0.095466 0.103309 0.020956
0.102818 0.103309 0.020956
0.110233 0.100735 0.019608
0.120343 0.100735 0.019608
0.129105 0.099387 0.017034
0.137867 0.099387 0.017034
0.150552 0.099387 0.015686
0.161887 0.099632 0.015686
0.172672 0.096814 0.015686
0.180760 0.093873 0.013113
0.193443 0.095466 0.013113
0.205638 0.095466 0.011765
0.218811 0.095466 0.011765
0.231495 0.092892 0.011765
0.244179 0.092892 0.009191
0.260049 0.091544 0.007843
0.273468 0.091544 0.007843
0.291177 0.091544 0.005270
0.302757 0.091544 0.001900
0.319730 0.091544 0.003922
0.335906 0.088971 0.003922
0.353432 0.087623 0.003922
0.368382 0.087623 0.001348
0.385907 0.083701 0.000000
0.406005 0.083701 0.000000
0.425490 0.083701 0.000000
0.442402 0.081127 0.000000
0.466299 0.077328 0.000000
0.483946 0.080331 0.000000
0.502819 0.075490 0.000000
0.522917 0.075858 0.000000
0.540441 0.069731 0.000000
0.555392 0.068015 0.000000
0.571569 0.063971 0.000000
0.584130 0.059130 0.000000
0.596814 0.054290 0.000000
0.613420 0.048407 0.000000
0.626103 0.047182 0.000000
0.639583 0.043137 0.000000
0.653186 0.043137 0.000000
0.666790 0.047059 0.000000
0.680392 0.047059 0.000000
0.693443 0.048407 0.000000
0.711520 0.050980 0.000000
0.725122 0.054718 0.000000
0.738726 0.056250 0.000000
0.754596 0.058824 0.000000
0.769853 0.061397 0.000000
0.781312 0.062745 0.000000
0.801838 0.063235 0.000000
0.814584 0.066667 0.000000
0.832108 0.068995 0.000000
0.845711 0.070588 0.000000
0.859314 0.074510 0.000000
0.876838 0.074510 0.000000
0.890442 0.078431 0.000000
0.907966 0.078431 0.000000
0.921569 0.082353 0.000000
0.072855 0.119914 0.033640
0.076777 0.118260 0.033640
0.080698 0.118260 0.031373
0.084620 0.118260 0.031373
0.088542 0.118260 0.029718
0.093137 0.115992 0.029718
0.097978 0.115992 0.029718
0.104473 0.115992 0.027451
0.108149 0.114338 0.025796
0.114154 0.114338 0.025796
0.122917 0.114338 0.025796
0.133946 0.112071 0.023529
0.142708 0.112071 0.023529
0.155392 0.114154 0.021875
0.165809 0.110416 0.021875
0.176838 0.110416 0.019608
0.185600 0.107475 0.019608
0.198285 0.108149 0.017953
0.209559 0.108149 0.015686
0.223162 0.106495 0.015686
0.236336 0.106495 0.015686
0.249019 0.106495 0.014032
0.263970 0.104228 0.011765
0.279841 0.104228 0.011765
0.295098 0.104228 0.010110
0.307598 0.104228 0.006740
0.324571 0.102573 0.007843
0.339828 0.100306 0.008823
0.357353 0.100306 0.006189
0.373224 0.100306 0.003922
0.390748 0.096385 0.003922
0.409926 0.096385 0.005148
0.429718 0.094730 0.000000
0.447243 0.091851 0.000000
0.470220 0.092463 0.000000
0.487868 0.090809 0.000000
0.507660 0.088542 0.000000
0.525184 0.086887 0.000000
0.544363 0.084620 0.000000
0.557966 0.082414 0.000000
0.576287 0.076777 0.000000
0.588971 0.072733 0.000000
0.601655 0.067892 0.000000
0.618259 0.061091 0.000000
0.630943 0.057169 0.000000
0.643628 0.053247 0.000000
0.657108 0.046263 0.000000
0.666790 0.047059 0.000000
0.683334 0.047059 0.000000
0.698285 0.050980 0.000000
0.711520 0.050980 0.000000
0.723652 0.054718 0.000000
0.741911 0.055637 0.000000
0.756250 0.058824 0.000000
0.769547 0.061397 0.000000
0.787377 0.062745 0.000000
0.800980 0.063235 0.000000
0.817095 0.066667 0.000000
0.832108 0.068995 0.000000
0.844731 0.070588 0.000000
0.862990 0.074510 0.000000
0.876838 0.074510 0.000000
0.890442 0.078431 0.000000
0.907966 0.078431 0.000000
0.921569 0.082353 0.000000
0.081618 0.132598 0.039216
0.088725 0.132598 0.038481
0.089461 0.133946 0.038481
0.093383 0.131862 0.038481
0.097304 0.131862 0.038481
0.098713 0.131862 0.035294
0.106741 0.131862 0.034559
0.111580 0.128677 0.034559
0.116422 0.128677 0.034559
0.121262 0.131434 0.031373
0.130024 0.127941 0.030638
0.138786 0.127941 0.030638
0.147549 0.127941 0.027451
0.160233 0.124755 0.030454
0.169730 0.124755 0.026716
0.181679 0.124019 0.026716
0.191176 0.124019 0.023529
0.203125 0.124019 0.023529
0.213481 0.120834 0.022794
0.227083 0.122243 0.019608
0.240686 0.120098 0.019608
0.257476 0.120098 0.018873
0.267892 0.116912 0.015686
0.287071 0.116912 0.017340
0.299020 0.116912 0.011765
0.315809 0.116176 0.011765
0.332966 0.116176 0.014584
0.346936 0.112990 0.011030
0.361275 0.112990 0.007843
0.378799 0.112254 0.007843
0.396323 0.109069 0.007108
0.417034 0.111213 0.003922
0.434559 0.108333 0.003922
0.452819 0.105147 0.003922
0.473530 0.105147 -0.000613
0.494976 0.101226 0.000000
0.512500 0.101226 0.000000
0.530024 0.100490 0.000000
0.547549 0.097304 0.000000
0.561887 0.096017 0.000000
0.581128 0.089461 0.000000
0.593014 0.085540 0.000000
0.606495 0.081495 0.000000
0.623101 0.080576 0.000000
0.635785 0.075735 0.000000
0.648468 0.065932 0.000000
0.661152 0.062132 0.000000
0.670711 0.054167 0.000000
0.684314 0.050980 0.000000
0.697917 0.050980 0.000000
0.712623 0.050980 0.000000
0.729044 0.054902 0.000000
0.742647 0.055637 0.000000
0.756250 0.058824 0.000000
0.774387 0.061397 0.000000
0.787377 0.062745 0.000000
0.800980 0.063235 0.000000
0.818505 0.066667 0.000000
0.832108 0.068995 0.000000
0.849632 0.070588 0.000000
0.863235 0.074510 0.000000
0.876838 0.074510 0.000000
0.895465 0.078431 0.000000
0.907966 0.078431 0.000000
0.921569 0.082353 0.000000
0.090564 0.149204 0.047059
0.095221 0.145466 0.043321
0.098223 0.145466 0.043321
0.102145 0.145466 0.043321
0.105822 0.145466 0.043321
0.109988 0.145466 0.043137
0.113909 0.145282 0.043137
0.117831 0.145282 0.039400
0.121753 0.145282 0.039400
0.129596 0.141544 0.038971
0.134865 0.141544 0.039216
0.143627 0.141544 0.035478
0.152390 0.141360 0.032291
0.165074 0.141360 0.031557
0.173836 0.137623 0.031557
0.186336 0.137623 0.031557
0.195282 0.134681 0.031373
0.207967 0.137439 0.027635
0.220650 0.133701 0.026777
0.233334 0.133701 0.027451
0.246017 0.131005 0.023713
0.258701 0.133517 0.020097
0.275307 0.133517 0.023529
0.289522 0.129780 0.018260
0.306863 0.129780 0.019608
0.317280 0.129596 0.015870
0.334252 0.129596 0.015686
0.350491 0.125858 0.011949
0.369118 0.123652 0.009743
0.382905 0.125674 0.011765
0.400429 0.121753 0.008027
0.417953 0.121753 0.007843
0.441176 0.121753 0.007843
0.456924 0.115135 0.001226
0.481985 0.117831 0.003922
0.495895 0.113296 0.003922
0.517157 0.113909 -0.001532
0.534682 0.110172 0.000000
0.552206 0.109988 0.000000
