Color/Kodak/Kodak E-100 GX Ektachrome 100 65x.cube
TITLE "Kodak E-100 GX Ektachrome 100"
LUT_3D_SIZE 5
DOMAIN_MIN 0.000000 0.000000 0.000000
DOMAIN_MAX 1.000000 1.000000 1.000000
0.000000 0.000000 0.000000
0.154902 0.000000 0.000000
0.392157 0.000000 0.000000
0.645098 0.003922 0.000000
0.847059 0.007843 0.000000
0.129412 0.217647 0.077451
0.245098 0.199020 0.065687
0.457843 0.152941 0.038235
0.667647 0.055882 0.009803
0.843137 0.003922 0.000000
0.266667 0.500000 0.194117
0.369608 0.494118 0.186275
0.556863 0.474510 0.166666
0.758824 0.415687 0.143137
0.913725 0.254902 0.103921
0.472549 0.765686 0.342156
0.530392 0.762745 0.338235
0.669608 0.756863 0.326470
0.841177 0.738235 0.306862
0.996078 0.681372 0.275490
0.721569 0.980392 0.513726
0.748040 0.980392 0.509804
0.821568 0.980392 0.505882
0.934313 0.980392 0.498039
1.000000 0.972549 0.478431
0.000000 0.000000 0.143137
0.124510 0.000000 0.127451
0.372549 0.000000 0.103921
0.625490 0.000000 0.072549
0.831373 0.003922 0.037255
0.098039 0.229412 0.237255
0.217647 0.213725 0.229412
0.443137 0.168627 0.202941
0.654902 0.063726 0.166666
0.831373 0.003922 0.127451
0.229412 0.509804 0.342157
0.342157 0.501961 0.335294
0.539215 0.482353 0.319608
0.747059 0.427451 0.295098
0.903922 0.266667 0.254902
0.451960 0.769607 0.454902
0.511765 0.766667 0.452941
0.655883 0.761764 0.443137
0.829412 0.742156 0.427451
0.985294 0.685294 0.402941
0.709804 0.980392 0.599019
0.737255 0.980392 0.599019
0.813725 0.984314 0.595098
0.926471 0.984314 0.583333
1.000000 0.976471 0.568627
0.000000 0.003922 0.352942
0.086275 0.000000 0.341176
0.341176 0.000000 0.321569
0.600980 0.000000 0.298039
0.807843 0.000000 0.270589
0.065687 0.252941 0.455882
0.168627 0.236275 0.447059
0.415686 0.192157 0.426471
0.633334 0.079412 0.393137
0.803922 0.000000 0.359804
0.133333 0.523529 0.550980
0.287255 0.517648 0.545098
0.505883 0.498039 0.531373
0.723530 0.447058 0.509804
0.884314 0.294118 0.474510
0.401961 0.774510 0.646078
0.469608 0.774510 0.642157
0.622549 0.769607 0.634314
0.801961 0.750981 0.618627
0.964706 0.696079 0.599019
0.690196 0.984314 0.747059
0.717647 0.984314 0.743137
0.794118 0.984314 0.739216
0.908823 0.984314 0.735294
1.000000 0.980392 0.721569
0.000000 0.015686 0.585294
0.034314 0.003922 0.574510
0.298039 0.000000 0.550981
0.566667 0.000000 0.530392
0.780392 0.000000 0.507843
0.013726 0.292157 0.678431
0.110784 0.276470 0.670588
0.377451 0.231373 0.650000
0.611765 0.123529 0.615686
0.776471 0.000000 0.580392
0.000000 0.545098 0.755882
0.177451 0.542157 0.750981
0.458823 0.525490 0.735294
0.693137 0.478432 0.712745
0.870588 0.340196 0.682353
0.318628 0.786275 0.829412
0.403922 0.786275 0.826470
0.579412 0.782353 0.817647
0.773529 0.765686 0.805883
0.945098 0.711765 0.786275
0.658824 0.988235 0.902941
0.686275 0.988235 0.902941
0.768627 0.988235 0.899020
0.887255 0.992157 0.895098
1.000000 0.984314 0.883333
0.000000 0.050980 0.733333
0.003922 0.019608 0.725490
0.270589 0.000000 0.698039
0.543137 0.000000 0.674510
0.760784 0.000000 0.654902
0.003922 0.331372 0.822549
0.030392 0.319608 0.814706
0.335294 0.280392 0.793138
0.594118 0.177451 0.759804
0.763726 0.000000 0.720588
0.000000 0.570588 0.894118
0.042157 0.568628 0.888235
0.405883 0.552941 0.870588
0.669608 0.509804 0.849020
0.860785 0.390196 0.821568
0.187255 0.800981 0.956863
0.311765 0.798039 0.952941
0.528431 0.797058 0.942157
0.743137 0.782353 0.929412
0.926471 0.735294 0.910784
0.615686 0.988235 1.000000
0.647059 0.992157 1.000000
0.735294 0.992157 1.000000
0.863726 0.996078 1.000000
1.000000 0.996078 1.000000
