Color/Kodak/Kodak E-100 GX Ektachrome 100 65x.cube
TITLE "Kodak E-100 GX Ektachrome 100"
LUT_3D_SIZE 65
DOMAIN_MIN 0.000000 0.000000 0.000000
DOMAIN_MAX 1.000000 1.000000 1.000000
0.000000 0.000000 0.000000
0.003922 0.000000 0.000000
0.009681 0.000000 0.000000
0.014522 0.000000 0.000000
0.023284 0.000000 0.000000
0.032047 0.000000 0.000000
0.040809 0.000000 0.000000
0.049571 0.000000 0.000000
0.058334 0.000000 0.000000
0.071017 0.000000 0.000000
0.079779 0.000000 0.000000
0.092463 0.000000 0.000000
0.101226 0.000000 0.000000
0.114093 0.000000 0.000000
0.127696 0.000000 0.000000
0.141299 0.000000 0.000000
0.154902 0.000000 0.000000
0.168504 0.000000 0.000000
0.181250 0.000000 0.000000
0.193934 0.000000 0.000000
0.206618 0.000000 0.000000
0.219302 0.000000 0.000000
0.235907 0.000000 0.000000
0.250123 0.000000 0.000000
0.263726 0.000000 0.000000
0.277880 0.000000 0.000000
0.294853 0.000000 0.000000
0.312377 0.000000 0.000000
0.325981 0.000000 0.000000
0.343505 0.000000 0.000000
0.361029 0.000000 0.000000
0.378554 0.000000 0.000000
0.392157 0.000000 0.000000
0.409682 0.000000 0.000000
0.423406 0.000000 0.000000
0.440809 0.000000 0.000000
0.458333 0.000000 0.000000
0.471937 0.000000 0.000000
0.489461 0.000000 0.000000
0.506434 0.000000 0.000000
0.520588 0.000000 0.000000
0.538112 0.000000 0.000000
0.552328 0.000000 0.000000
0.569240 0.000000 0.000000
0.582843 0.003922 0.000000
0.600368 0.003922 0.000000
0.613970 0.003922 0.000000
0.627574 0.003922 0.000000
0.645098 0.003922 0.000000
0.658701 0.003922 0.000000
0.673407 0.003922 0.000000
0.686091 0.003922 0.000000
0.702696 0.003922 0.000000
0.717035 0.003922 0.000000
0.730637 0.003922 0.000000
0.744669 0.003922 0.000000
0.761274 0.007843 0.000000
0.773958 0.007843 0.000000
0.788971 0.007843 0.000000
0.802574 0.007843 0.000000
0.816176 0.007843 0.000000
0.832537 0.007843 0.000000
0.845221 0.007843 0.000000
0.847059 0.007843 0.000000
0.847059 0.007843 0.000000
0.000919 0.008762 0.000000
0.009681 0.004841 0.000000
0.016605 0.004841 0.000000
0.026287 0.004841 0.000000
0.032046 0.004841 0.000000
0.040564 0.004841 0.000000
0.053493 0.003248 0.000000
0.062256 0.003922 0.000000
0.071018 0.003922 0.000000
0.080208 0.000919 0.000000
0.092463 0.000919 0.000000
0.101225 0.000919 0.000000
0.113910 0.000919 0.000000
0.126593 0.000919 0.000000
0.139277 0.000919 0.000000
0.153064 0.000000 0.000000
0.163664 0.000000 0.000000
0.173407 0.000000 0.000000
0.186949 0.000000 0.000000
0.198774 0.000000 0.000000
0.211458 0.000000 0.000000
0.224143 0.000000 0.000000
0.240748 0.000000 0.000000
0.253431 0.000000 0.000000
0.268566 0.000000 0.000000
0.285172 0.000000 0.000000
0.298774 0.000000 0.000000
0.316299 0.000000 0.000000
0.330821 0.000000 0.000000
0.347427 0.000000 0.000000
0.364951 0.000000 0.000000
0.378432 0.000000 0.000000
0.396079 0.000000 0.000000
0.413603 0.000000 0.000000
0.427206 0.000000 0.000000
0.443934 0.000000 0.000000
0.458333 0.000000 0.000000
0.475858 0.000000 0.000000
0.489461 0.000000 0.000000
0.506985 0.000000 0.000000
0.523039 0.000000 0.000000
0.538112 0.000000 0.000000
0.555638 0.000000 0.000000
0.569240 0.000000 0.000000
0.585539 0.003922 0.000000
0.600368 0.003922 0.000000
0.614828 0.003922 0.000000
0.631434 0.003922 0.000000
0.645098 0.003922 0.000000
0.658701 0.003922 0.000000
0.673407 0.003922 0.000000
0.686091 0.003922 0.000000
0.702696 0.003922 0.000000
0.717035 0.003922 0.000000
0.730637 0.003922 0.000000
0.747242 0.003922 0.000000
0.757843 0.007843 0.000000
0.773958 0.007843 0.000000
0.786642 0.007843 0.000000
0.802574 0.007843 0.000000
0.816176 0.007843 0.000000
0.829779 0.007843 0.000000
0.846385 0.007843 0.000000
0.847059 0.007843 0.000000
0.847059 0.007843 0.000000
0.005760 0.017524 0.000000
0.014522 0.018443 0.000000
0.023284 0.013603 0.000000
0.032046 0.013603 0.000000
0.040808 0.013603 0.000000
0.049571 0.013603 0.000000
0.058333 0.009681 0.000000
0.069179 0.009681 0.000000
0.081373 0.009681 0.000000
0.087133 0.009681 0.000000
0.101225 0.009681 0.000000
0.109987 0.009681 0.000000
0.118750 0.006495 0.000000
0.131618 0.005760 0.000000
0.145220 0.005760 0.000000
0.156801 0.005760 0.000000
0.169485 0.005760 0.000000
0.182170 0.003922 0.000000
0.194853 0.003922 0.000000
0.207537 0.003922 0.000000
0.221078 0.001838 0.000000
0.234681 0.001838 0.000000
0.244362 0.001838 0.000000
0.257966 0.001838 0.000000
0.273407 0.000000 0.000000
0.289093 0.000000 0.000000
0.302696 0.000000 0.000000
0.318137 0.000000 0.000000
0.333824 0.000000 0.000000
0.351348 0.000000 0.000000
0.364951 0.000000 0.000000
0.382475 0.000000 0.000000
0.395956 0.000000 0.000000
0.413603 0.000000 0.000000
0.425245 0.000000 0.000000
0.444730 0.000000 0.000000
0.458333 0.000000 0.000000
0.475858 0.000000 0.000000
0.493383 0.000000 0.000000
0.506985 0.000000 0.000000
0.524510 0.000000 0.000000
0.538112 0.000000 0.000000
0.555638 0.000000 0.000000
0.569240 0.000000 0.000000
0.585539 -0.000613 0.000000
0.600368 0.003922 0.000000
0.614828 0.003922 0.000000
0.631434 0.003922 0.000000
0.645098 0.003922 0.000000
0.658701 0.003922 0.000000
0.673407 0.003922 0.000000
0.686091 0.003922 0.000000
0.702696 0.003922 0.000000
0.717035 0.003922 0.000000
0.730637 0.003922 0.000000
0.744240 0.003922 0.000000
0.757843 0.007843 0.000000
0.771446 0.007843 0.000000
0.786642 0.007843 0.000000
0.802574 0.007843 0.000000
0.816176 0.006005 0.000000
0.829779 0.007843 0.000000
0.843383 0.007843 0.000000
0.847059 0.007843 0.000000
0.847059 0.007843 0.000000
0.014522 0.026287 0.002758
0.022365 0.026287 0.002758
0.028125 0.025123 0.000000
0.036888 0.022365 0.000000
0.045650 0.022365 0.000000
0.054412 0.022365 0.000000
0.064338 0.023529 0.000000
0.073101 0.018444 0.000000
0.084620 0.018444 0.000000
0.094547 0.018444 0.000000
0.106067 0.018444 0.000000
0.114338 0.016176 0.000000
0.127941 0.014522 0.000000
0.140196 0.014522 0.000000
0.152880 0.014522 0.000000
0.165563 0.011765 0.000000
0.174326 0.010601 0.000000
0.187009 0.010601 0.000000
0.197794 0.010601 0.000000
0.211397 0.007843 0.000000
0.225061 0.007843 0.000000
0.237746 0.007843 0.000000
0.251042 0.006679 0.000000
0.267034 0.006679 0.000000
0.279718 0.003922 0.000000
0.292402 0.003922 0.000000
0.306617 0.003922 0.000000
0.322978 0.003922 0.000000
0.337745 0.003922 0.000000
0.354106 0.002758 0.000000
0.371507 0.000000 0.000000
0.382475 0.000000 0.000000
0.400797 0.000000 0.000000
0.413603 0.000000 0.000000
0.431128 0.000000 0.000000
0.444730 0.000000 0.000000
0.460539 0.000000 0.000000
0.475858 0.000000 0.000000
0.493383 0.000000 0.000000
0.506985 0.000000 0.000000
0.524510 0.000000 0.000000
0.538112 0.000000 0.000000
0.555638 0.000000 0.000000
0.569240 0.000000 0.000000
0.588297 0.000000 0.000000
0.600368 0.003922 0.000000
0.614828 0.003922 0.000000
0.631434 0.003922 0.000000
0.645098 0.003922 0.000000
0.658701 0.003922 0.000000
0.673407 0.003922 0.000000
0.686091 0.003922 0.000000
0.702696 0.003922 0.000000
0.717035 0.003922 0.000000
0.730637 0.003922 0.000000
0.744240 0.003922 0.000000
0.757843 0.007843 0.000000
0.771446 0.007843 0.000000
0.786642 0.007843 0.000000
0.802574 0.007843 0.000000
0.815931 0.003922 0.000000
0.829779 0.007843 0.000000
0.843383 0.007843 0.000000
0.847059 0.007843 0.000000
0.847059 0.007843 0.000000
0.019363 0.038971 0.003922
0.024448 0.038726 0.003922
0.032965 0.035049 0.003922
0.041728 0.035049 0.003922
0.050490 0.035049 0.003922
0.059252 0.031128 0.003677
0.068260 0.031128 0.003677
0.080699 0.031128 0.003677
0.089461 0.027206 0.003677
0.098468 0.027206 0.000000
0.110906 0.027206 0.000000
0.118260 0.028615 0.000000
0.132353 0.023284 0.000000
0.141544 0.023284 0.000000
0.155147 0.023284 0.000000
0.170405 0.021263 0.000000
0.183089 0.019363 0.000000
0.191851 0.019363 0.000000
0.204780 0.015686 0.000000
0.215319 0.015441 0.000000
0.228922 0.015441 0.000000
0.242524 0.015441 0.000000
0.259191 0.011765 0.000000
0.271876 0.013910 0.000000
0.284559 0.011520 0.000000
0.296936 0.011520 0.000000
0.310539 0.011520 0.000000
0.330453 0.007843 0.000000
0.341667 0.009313 0.000000
0.358946 0.003922 0.000000
0.372548 0.003922 0.000000
0.386397 0.003677 0.000000
0.400000 0.000000 0.000000
0.418321 0.000000 0.000000
0.431128 0.000000 0.000000
0.444730 0.000000 0.000000
0.462255 0.000000 0.000000
0.475858 0.000000 0.000000
0.493383 0.000000 0.000000
0.506985 0.000000 0.000000
0.524510 0.000000 0.000000
0.539644 0.000000 0.000000
0.555638 0.000000 0.000000
0.569240 0.000000 0.000000
0.586765 0.000000 0.000000
0.600368 0.003922 0.000000
0.614828 0.003922 0.000000
0.631434 0.003922 0.000000
0.645098 0.003922 0.000000
0.658701 0.003922 0.000000
0.673407 0.003922 0.000000
0.686091 0.003922 0.000000
0.702696 0.003922 0.000000
0.717035 0.003922 0.000000
0.730637 0.003922 0.000000
0.744240 0.003922 0.000000
0.757843 0.007843 0.000000
0.771446 0.007843 0.000000
0.786642 0.007843 0.000000
0.802574 0.007843 0.000000
0.815931 0.003922 0.000000
0.829779 0.005086 0.000000
0.843383 0.007843 0.000000
0.847059 0.007843 0.000000
0.847059 0.007843 0.000000
0.028125 0.052328 0.007843
0.032966 0.051654 0.007843
0.039890 0.048407 0.007843
0.046568 0.045649 0.004596
0.055331 0.047733 0.004596
0.064093 0.044485 0.003922
0.072855 0.042892 0.003922
0.084866 0.043811 0.003922
0.097059 0.040564 0.003922
0.102819 0.039890 0.003922
0.116421 0.039890 0.003922
0.124510 0.039890 0.003922
0.139705 0.036642 0.003922
0.149878 0.035968 0.003922
0.162561 0.032721 0.003922
0.176593 0.030699 0.000674
0.184007 0.032047 0.000674
0.196692 0.032047 0.000000
0.209375 0.028125 0.000000
0.222059 0.028125 0.000000
0.236765 0.022181 0.000000
0.250367 0.024203 0.000000
0.260049 0.024203 0.000000
0.272794 0.019424 0.000000
0.287929 0.020282 0.000000
0.304779 0.020282 0.000000
0.318689 0.016360 0.000000
0.331373 0.016360 0.000000
0.349510 0.014154 0.000000
0.360662 0.012439 0.000000
0.376716 0.012317 0.000000
0.390992 0.008517 0.000000
0.407843 0.007843 0.000000
0.421446 0.004596 0.000000
0.431924 0.000797 0.000000
0.448652 0.003922 0.000000
0.461214 0.003922 0.000000
0.479780 -0.001961 0.000000
0.493383 0.000000 0.000000
0.511029 0.000000 0.000000
0.524510 0.000000 0.000000
0.542034 0.000000 0.000000
0.555638 0.000000 0.000000
0.572855 0.000000 0.000000
0.586765 0.000000 0.000000
0.600368 0.003922 0.000000
0.617892 0.003922 0.000000
0.631434 0.003922 0.000000
0.645098 0.003922 0.000000
0.658701 0.003922 0.000000
0.673407 0.003922 0.000000
0.686091 0.003922 0.000000
0.702696 0.003922 0.000000
0.717035 0.003922 0.000000
0.730637 0.003922 0.000000
0.744240 0.003922 0.000000
0.757843 0.007843 0.000000
0.771446 0.007843 0.000000
0.786642 0.007843 0.000000
0.799326 0.007843 0.000000
0.815931 0.003922 0.000000
0.829779 0.003922 0.000000
0.841299 0.007843 0.000000
0.843137 0.007843 0.000000
0.843137 0.007843 0.000000
0.036887 0.065931 0.009436
0.041728 0.064338 0.009436
0.048652 0.062010 0.009436
0.055331 0.062010 0.009436
0.060171 0.060417 0.007843
0.068934 0.058088 0.007843
0.077696 0.058088 0.007843
0.088787 0.056495 0.007843
0.099143 0.056495 0.007843
0.110233 0.054167 0.005515
0.120588 0.052573 0.005515
0.129350 0.052573 0.005515
0.143627 0.050245 0.005515
0.153309 0.048652 0.003922
0.167402 0.046323 0.003922
0.180515 0.044301 0.003922
0.188848 0.044730 0.003922
0.201532 0.042402 0.003922
0.213481 0.040809 0.003922
0.226899 0.038480 0.001593
0.239583 0.035785 0.001593
0.254289 0.036887 0.001593
0.263970 0.032966 0.000000
0.279167 0.032966 0.000000
0.295098 0.030637 0.000000
0.308701 0.029044 0.000000
0.322304 0.030270 0.000000
0.337500 0.025122 0.000000
0.353432 0.022916 0.000000
0.365502 0.021201 0.000000
0.380637 0.017279 0.000000
0.395834 0.016237 0.000000
0.411764 0.013358 0.000000
0.425368 0.010478 0.000000
0.436765 0.009436 0.000000
0.452573 0.007843 0.000000
0.466054 0.005515 0.000000
0.481373 0.003922 0.000000
0.497304 0.003922 0.000000
0.510907 0.000000 0.000000
0.524510 0.000000 0.000000
0.542034 0.000000 0.000000
0.553922 0.000000 0.000000
0.572855 0.000000 0.000000
0.586765 0.000000 0.000000
0.602145 0.002145 0.000000
0.617892 0.003922 0.000000
0.633028 0.003922 0.000000
0.645098 0.003922 0.000000
0.658701 0.003922 0.000000
0.673407 0.003922 0.000000
0.686091 0.003922 0.000000
0.702696 0.003922 0.000000
0.717035 0.003922 0.000000
0.730637 0.003922 0.000000
0.744240 0.003922 0.000000
0.757843 0.004412 0.000000
0.771446 0.007843 0.000000
0.786642 0.007843 0.000000
0.799326 0.007843 0.000000
0.815931 0.003922 0.000000
0.828186 0.003922 0.000000
0.841299 0.007843 0.000000
0.843137 0.007843 0.000000
0.843137 0.007843 0.000000
0.045650 0.079534 0.014277
0.050491 0.077022 0.014277
0.057415 0.077696 0.014277
0.061336 0.075612 0.011765
0.068933 0.075612 0.011765
0.073774 0.074939 0.011765
0.083946 0.071691 0.011765
0.095220 0.071691 0.011765
0.103982 0.069179 0.010356
0.114154 0.067769 0.010356
0.125429 0.065258 0.010356
0.133946 0.065258 0.007843
0.146875 0.063848 0.007843
0.159743 0.061336 0.007843
0.170833 0.062745 0.007843
0.184926 0.059926 0.007843
0.198039 0.057415 0.006434
0.206372 0.056005 0.006434
0.217402 0.053493 0.003922
0.231005 0.052083 0.003922
0.244424 0.049387 0.003922
0.258211 0.049571 0.003922
0.270404 0.045650 0.003922
0.286397 0.046630 0.002513
0.299081 0.041728 0.002513
0.311765 0.041728 -0.000858
0.326225 0.037807 0.000000
0.342341 0.039032 0.000000
0.357659 0.033885 0.000000
0.370343 0.029351 0.000000
0.384559 0.026042 0.000000
0.400673 0.024999 0.000000
0.416238 0.022120 0.000000
0.429289 0.019240 0.000000
0.441605 0.018199 0.000000
0.458211 0.014277 0.000000
0.470098 0.012562 0.000000
0.486213 0.010356 0.000000
0.501226 0.007843 0.000000
0.516790 0.003922 0.000000
0.528431 0.004964 0.000000
0.542034 0.000000 0.000000
0.556250 0.000000 0.000000
0.575367 0.000000 0.000000
0.586765 0.000000 0.000000
0.602145 0.002145 0.000000
0.617892 0.003922 0.000000
0.631496 0.003922 0.000000
0.645098 0.003922 0.000000
0.658701 0.003922 0.000000
0.673407 0.003922 0.000000
0.689828 0.003922 0.000000
0.702696 0.003922 0.000000
0.717035 0.003922 0.000000
0.730637 0.003922 0.000000
0.744240 0.003922 0.000000
0.757843 0.004412 0.000000
0.771446 0.007843 0.000000
0.786642 0.007843 0.000000
0.799326 0.004596 0.000000
0.815931 0.003922 0.000000
0.828615 0.003922 0.000000
0.841299 0.003493 0.000000
0.843137 0.005331 0.000000
0.843137 0.005331 0.000000
0.054412 0.093138 0.019608
0.059252 0.093138 0.019118
0.066177 0.089706 0.019118
0.070098 0.089706 0.019118
0.077696 0.089216 0.019118
0.082537 0.085785 0.015686
0.087868 0.087623 0.015686
0.100062 0.085295 0.016605
0.108824 0.081863 0.015196
0.121507 0.084865 0.015196
0.130269 0.081373 0.015196
0.142954 0.077941 0.011765
0.151470 0.078186 0.011765
0.168322 0.077451 0.011765
0.174755 0.074020 0.011765
0.189768 0.073530 0.011275
0.202451 0.070098 0.011275
0.211214 0.070098 0.007414
0.221324 0.066177 0.007843
0.234927 0.067831 0.007843
0.248529 0.062255 0.007843
0.262132 0.062255 0.007353
0.278554 0.058334 0.003922
0.291238 0.060233 0.003922
0.303921 0.057844 0.003922
0.316544 0.054412 0.003922
0.330147 0.050490 0.003922
0.347181 0.052635 0.003432
0.362500 0.047794 0.003432
0.374878 0.042647 0.000000
0.388480 0.038726 0.000000
0.405515 0.034804 0.000000
0.421078 0.036275 0.000000
0.433762 0.030883 0.000000
0.446446 0.026961 0.000000
0.463052 0.023039 0.000000
0.474019 0.021324 0.000000
0.491054 0.015686 0.000000
0.505147 0.015196 0.000000
0.521629 0.011275 0.000000
0.534314 0.009803 0.000000
0.545956 0.003922 0.000000
0.559559 0.003922 0.000000
0.573162 0.000000 0.000000
0.586765 0.000000 0.000000
0.602145 0.002145 0.000000
0.617892 0.003922 0.000000
0.631496 0.003922 0.000000
0.645098 0.003922 0.000000
0.658701 0.003922 0.000000
0.673407 0.003922 0.000000
0.689828 0.003922 0.000000
0.702696 0.003922 0.000000
0.717035 0.003922 0.000000
0.730637 0.003922 0.000000
0.744240 0.003922 0.000000
0.757843 0.004412 0.000000
0.771446 0.007843 0.000000
0.786642 0.007843 0.000000
0.799326 0.004596 0.000000
0.815931 0.003922 0.000000
0.828615 0.003922 0.000000
0.841299 0.003922 0.000000
0.843137 0.003922 0.000000
0.843137 0.003922 0.000000
0.067096 0.106740 0.027451
0.071017 0.105821 0.023958
0.074939 0.106311 0.023958
0.078860 0.102819 0.023958
0.082782 0.102819 0.023958
0.090625 0.102390 0.023958
0.096140 0.098897 0.023529
0.104902 0.098897 0.020037
0.113665 0.098468 0.020037
0.122427 0.094976 0.020037
0.136029 0.094976 0.018689
0.143872 0.094547 0.019608
0.156556 0.091054 0.019608
0.172733 0.090625 0.016115
0.181924 0.087133 0.016115
0.196201 0.085111 0.016115
0.203370 0.086704 0.015686
0.216055 0.079351 0.015686
0.228738 0.079289 0.012194
0.242770 0.077512 0.012194
0.256373 0.078860 0.009498
0.269975 0.071752 0.011765
0.279473 0.074939 0.008272
0.292157 0.069914 0.008272
0.307292 0.071017 0.007843
0.324387 0.064154 0.007843
0.338052 0.063174 0.007904
0.350736 0.063174 0.004351
0.363419 0.059253 0.004351
0.382721 0.052635 0.003922
0.396630 0.051409 0.003922
0.409926 0.046875 0.003922
0.423530 0.045527 0.003922
0.434682 0.043566 0.000429
0.447364 0.039645 0.000429
0.463970 0.035723 -0.000368
0.476655 0.031802 0.000000
0.495466 0.027880 0.000000
0.509069 0.023958 0.000000
0.522672 0.019485 0.000000
0.536274 0.014644 0.000000
0.547916 0.012194 0.000000
0.560601 0.008272 0.000000
0.577206 0.004351 0.000000
0.590686 0.003922 0.000000
0.604289 0.003922 0.000000
0.617892 0.003922 0.000000
0.631496 0.003922 0.000000
0.645098 0.003922 0.000000
0.660723 0.003922 0.000000
0.673407 0.003922 0.000000
0.689828 0.003922 0.000000
0.702696 0.003922 0.000000
0.717035 0.003922 0.000000
0.730637 0.003922 0.000000
0.744240 0.003922 0.000000
0.757843 0.003922 0.000000
0.771446 0.007843 0.000000
0.786642 0.007843 0.000000
0.799326 0.003922 0.000000
0.815931 0.003922 0.000000
0.828615 0.003922 0.000000
0.841299 0.003922 0.000000
0.843137 0.003922 0.000000
0.843137 0.003922 0.000000
0.075858 0.122917 0.032721
0.079779 0.120343 0.032721
0.083701 0.120343 0.032721
0.087623 0.117586 0.032721
0.091544 0.118995 0.032721
0.096140 0.116421 0.032047
0.104902 0.114828 0.028799
0.109742 0.112500 0.028799
0.118505 0.112500 0.028799
0.129841 0.111152 0.028370
0.139951 0.108578 0.024877
0.153554 0.108578 0.024877
0.164583 0.107230 0.024877
0.178003 0.104657 0.023529
0.186520 0.103554 0.023774
0.200123 0.100735 0.020956
0.208211 0.099387 0.020956
0.220894 0.096814 0.020956
0.233089 0.095956 0.019608
0.246691 0.092892 0.017034
0.260294 0.091544 0.017034
0.273897 0.088971 0.017034
0.283578 0.088358 0.016421
0.298530 0.083517 0.013113
0.314706 0.083701 0.011765
0.328309 0.077757 0.011765
0.342892 0.075858 0.009191
0.355514 0.075919 0.009191
0.370466 0.071936 0.006985
0.386642 0.066238 0.007843
0.401470 0.065319 0.009068
0.414155 0.060172 0.005270
0.427451 0.055638 0.003922
0.439522 0.056250 0.003922
0.452206 0.052328 0.003922
0.468260 0.044485 0.003922
0.481495 0.040196 0.003922
0.499388 0.035356 0.001348
0.512991 0.030515 0.000000
0.527389 0.028248 0.000000
0.540196 0.023406 0.000000
0.553799 0.018566 0.000000
0.565441 0.017034 0.000000
0.582046 0.012807 0.000000
0.594731 0.007843 0.000000
0.608211 0.005270 0.000000
0.618750 0.003922 0.000000
0.631496 0.003922 0.000000
0.645098 0.003922 0.000000
0.660723 0.003922 0.000000
0.676225 0.003922 0.000000
0.689828 0.003922 0.000000
0.702696 0.003922 0.000000
0.717035 0.003922 0.000000
0.730637 0.003922 0.000000
0.744240 0.003922 0.000000
0.757843 0.003922 0.000000
0.771446 0.007843 0.000000
0.786642 0.007843 0.000000
0.799326 0.003922 0.000000
0.815931 0.003922 0.000000
0.828615 0.003922 0.000000
0.841299 0.003922 0.000000
0.843137 0.003922 0.000000
0.843137 0.003922 0.000000
0.084620 0.137867 0.041483
0.089461 0.137867 0.041483
0.094730 0.136029 0.041483
0.099142 0.133946 0.041483
0.103982 0.133946 0.041483
0.108149 0.131679 0.037561
0.113664 0.130024 0.037561
0.118505 0.130024 0.037561
0.127268 0.130024 0.037561
0.136029 0.126103 0.033640
0.143872 0.126103 0.033640
0.157475 0.123836 0.033640
0.170159 0.122181 0.033640
0.182843 0.121998 0.029718
0.190441 0.118260 0.029718
0.204289 0.115992 0.029718
0.217647 0.114338 0.026777
0.225736 0.114338 0.025796
0.237010 0.110416 0.025796
0.251103 0.108640 0.023529
0.264216 0.106495 0.023529
0.277818 0.104228 0.021875
0.289767 0.100306 0.019608
0.305760 0.098652 0.017953
0.318628 0.096201 0.017953
0.331127 0.094730 0.014583
0.345833 0.090809 0.017585
0.359436 0.089522 0.014032
0.375306 0.084620 0.011765
0.390564 0.079840 0.011765
0.406312 0.078922 0.010110
0.418995 0.072855 0.010110
0.431679 0.068934 0.007843
0.444363 0.068934 0.007843
0.457047 0.065012 0.007843
0.472181 0.057169 0.006189
0.485784 0.053247 0.003922
0.501654 0.048958 0.003922
0.516912 0.044118 0.003922
0.532231 0.037561 0.005638
0.544914 0.033640 0.002267
0.557720 0.029718 0.000000
0.570282 0.025796 0.000000
0.586888 0.021569 0.000000
0.599571 0.016728 0.000000
0.612255 0.011888 0.000000
0.621017 0.010110 0.000000
0.637622 0.003922 0.000000
0.648039 0.003922 0.000000
0.660723 0.003922 0.000000
0.676225 0.003922 0.000000
0.689828 0.003922 0.000000
0.703432 0.003922 0.000000
0.717035 0.003922 0.000000
0.730637 0.003922 0.000000
0.743015 0.003922 0.000000
0.757843 0.003922 0.000000
0.771446 0.007843 0.000000
0.786642 0.007843 0.000000
0.799326 0.003922 0.000000
0.815931 0.003922 0.000000
0.828615 0.003922 0.000000
0.841299 0.003922 0.000000
0.843137 0.003922 0.000000
0.843137 0.003922 0.000000
0.097304 0.155392 0.050245
0.101226 0.155392 0.050245
0.103063 0.151470 0.050245
0.107905 0.151470 0.047059
0.112745 0.151470 0.047059
0.117586 0.151470 0.046324
0.122426 0.147549 0.046324
0.128677 0.147549 0.046324
0.136030 0.147549 0.043137
0.138113 0.143627 0.042402
0.153554 0.143627 0.042402
0.164583 0.143627 0.039216
0.175000 0.139705 0.038481
0.187684 0.142707 0.038481
0.200368 0.135784 0.038481
0.207966 0.135784 0.036458
0.221813 0.131862 0.034559
0.235171 0.131862 0.034559
0.247181 0.127941 0.031373
0.254534 0.126164 0.030638
0.268137 0.124019 0.030638
0.281311 0.120405 0.027022
0.297917 0.119485 0.026716
0.310601 0.116176 0.023529
0.322549 0.113725 0.024264
0.339338 0.112254 0.022794
0.352941 0.108333 0.019608
0.366544 0.104411 0.018873
0.381863 0.100490 0.018873
0.394546 0.097365 0.015686
0.411151 0.092647 0.014951
0.423836 0.088725 0.011765
0.435295 0.086765 0.011765
0.448897 0.081924 0.011765
0.461887 0.077083 0.011030
0.476103 0.073039 0.007843
0.489706 0.069117 0.007843
0.507782 0.065196 0.008394
0.520834 0.057721 0.007108
0.537070 0.053431 0.003922
0.549755 0.046324 0.003922
0.562439 0.042402 0.003922
0.575123 0.038358 0.003187
0.591727 0.030638 0.000000
0.604411 0.028676 0.000000
0.617096 0.023836 0.000000
0.625735 0.018873 0.000000
0.642464 0.014890 0.000000
0.649020 0.010049 0.000000
0.662623 0.003922 0.000000
0.676225 0.003922 0.000000
0.689828 0.003922 0.000000
0.703432 0.003922 0.000000
0.717035 0.003922 0.000000
0.730637 0.003922 0.000000
0.744669 0.003922 0.000000
0.757843 0.003922 0.000000
0.771446 0.003922 0.000000
0.786642 0.003922 0.000000
0.799326 0.003922 0.000000
0.815931 0.003922 0.000000
0.828615 0.003922 0.000000
0.841299 0.003922 0.000000
0.843137 0.003922 0.000000
0.843137 0.003922 0.000000
0.109988 0.168995 0.058824
0.110172 0.168995 0.055086
0.115747 0.168995 0.055086
0.120588 0.166237 0.055086
0.125430 0.168811 0.055086
0.125858 0.165074 0.055086
0.133517 0.165074 0.054902
0.139951 0.165074 0.051164
0.144792 0.164890 0.051164
0.149388 0.161152 0.051164
0.158395 0.161152 0.050980
0.171078 0.160968 0.047243
0.183579 0.157231 0.047243
0.192525 0.157047 0.047059
0.206128 0.153309 0.043321
0.213971 0.151287 0.043321
0.226654 0.149388 0.043321
0.235418 0.145527 0.043137
0.248959 0.145466 0.039400
0.260785 0.145282 0.039400
0.273468 0.141544 0.039216
0.286152 0.137623 0.035478
0.303186 0.133701 0.035294
0.315442 0.132169 0.031557
0.328124 0.129780 0.029106
0.344180 0.126409 0.027635
0.357414 0.125674 0.027451
0.371384 0.120650 0.023713
0.388726 0.115809 0.023713
0.402329 0.110967 0.023529
0.412194 0.110049 0.019792
0.429534 0.105208 0.019608
0.443138 0.100368 0.015870
0.456740 0.095527 0.015870
0.470343 0.090686 0.015686
0.483946 0.085846 0.011949
0.497549 0.081005 0.010233
0.508701 0.076164 0.011765
