Color/Kodak/Kodak Ektar 100 65x.cube
TITLE "Kodak Ektar 100"
LUT_3D_SIZE 65
DOMAIN_MIN 0.000000 0.000000 0.000000
DOMAIN_MAX 1.000000 1.000000 1.000000
0.000000 0.000000 0.000000
0.015625 0.000000 0.000000
0.039093 0.000000 0.000000
0.058640 0.000000 0.000000
0.077941 0.000000 0.000000
0.093812 0.000000 0.000000
0.109436 0.000000 0.000000
0.125061 0.000000 0.000000
0.140686 0.000000 0.000000
0.159681 0.000000 0.000000
0.175858 0.000000 0.000000
0.187561 0.003922 0.000000
0.203187 0.003922 0.000000
0.215686 0.003922 0.000000
0.234436 0.003922 0.000000
0.246140 0.003922 0.000000
0.261765 0.003922 0.000000
0.273468 0.007843 0.000000
0.289093 0.007843 0.000000
0.304718 0.007843 0.000000
0.316422 0.011765 0.000000
0.332046 0.011765 0.000000
0.347672 0.011765 0.000000
0.363297 0.011765 0.000000
0.378922 0.011765 0.000000
0.398468 0.015686 0.000000
0.414093 0.015686 0.000000
0.429718 0.019608 0.000000
0.449265 0.019608 0.000000
0.468811 0.023529 0.000000
0.492280 0.023529 0.000000
0.513848 0.027451 0.000000
0.539216 0.029412 0.000000
0.564583 0.033272 0.000000
0.587990 0.035294 0.000000
0.611397 0.039216 0.000000
0.633088 0.043137 0.000000
0.652635 0.047059 0.000000
0.672181 0.047059 0.000000
0.687807 0.050980 0.000000
0.703431 0.054902 0.000000
0.719056 0.054902 0.000000
0.734681 0.058824 0.000000
0.750307 0.060111 0.000000
0.765931 0.062745 0.000000
0.781556 0.066667 0.000000
0.797181 0.066667 0.000000
0.812807 0.070588 0.000000
0.832353 0.070588 0.000000
0.847978 0.074510 0.000000
0.863603 0.075368 0.000000
0.879228 0.078431 0.000000
0.894853 0.082353 0.000000
0.910478 0.082353 0.000000
0.926103 0.086275 0.000000
0.941728 0.090196 0.000000
0.957353 0.090196 0.000000
0.972978 0.094118 0.000000
0.988235 0.094118 0.000000
1.000000 0.098039 0.000000
1.000000 0.098039 0.000000
1.000000 0.101961 0.000000
1.000000 0.101961 0.000000
1.000000 0.105882 0.000000
1.000000 0.105882 0.000000
0.000000 0.011704 0.000000
0.011704 0.011704 0.000000
0.031250 0.011704 0.000000
0.050796 0.015625 0.000000
0.066238 0.015625 0.000000
0.082108 0.015625 0.000000
0.097733 0.015625 0.000000
0.117218 0.015625 0.000000
0.132843 0.019547 0.000000
0.148530 0.019547 0.000000
0.164155 0.019547 0.000000
0.179718 0.019547 0.000000
0.191483 0.023406 0.000000
0.207108 0.023468 0.000000
0.222732 0.023468 0.000000
0.238358 0.023468 0.000000
0.253921 0.023468 0.000000
0.265687 0.027328 0.000000
0.281311 0.027390 0.000000
0.296875 0.027390 0.000000
0.312500 0.031250 0.000000
0.328125 0.031312 0.000000
0.343750 0.031312 0.000000
0.359375 0.031312 0.000000
0.373591 0.031312 0.000000
0.394546 0.031312 0.000000
0.410172 0.031312 0.000000
0.429718 0.035233 0.000000
0.449265 0.035233 0.000000
0.468811 0.035233 0.000000
0.490442 0.035294 0.000000
0.513848 0.039155 0.000000
0.539216 0.037255 0.000000
0.564583 0.043076 0.000000
0.590073 0.043076 0.000000
0.613542 0.043137 0.000000
0.634804 0.043137 0.000000
0.654289 0.047059 0.000000
0.672181 0.047059 0.000000
0.691728 0.050980 0.000000
0.707353 0.054902 0.000000
0.722978 0.054902 0.000000
0.738603 0.058824 0.000000
0.754228 0.060111 0.000000
0.769853 0.062745 0.000000
0.785478 0.066667 0.000000
0.801103 0.066667 0.000000
0.816728 0.070588 0.000000
0.832353 0.070588 0.000000
0.847978 0.074510 0.000000
0.867463 0.075368 0.000000
0.883150 0.078431 0.000000
0.898774 0.082353 0.000000
0.914399 0.082353 0.000000
0.930025 0.086275 0.000000
0.945650 0.086826 0.000000
0.961274 0.090196 0.000000
0.972978 0.094118 0.000000
0.988603 0.094118 0.000000
1.000000 0.098039 0.000000
1.000000 0.098039 0.000000
1.000000 0.101961 0.000000
1.000000 0.101961 0.000000
1.000000 0.105882 0.000000
1.000000 0.105882 0.000000
0.000000 0.023406 0.000000
0.015625 0.027390 0.000000
0.027328 0.027328 0.000000
0.042892 0.027328 0.000000
0.062500 0.027206 0.000000
0.078125 0.031250 0.000000
0.093750 0.031250 0.000000
0.109498 0.031250 0.000000
0.128922 0.035171 0.000000
0.144546 0.035171 0.000000
0.160171 0.035171 0.000000
0.171997 0.038420 0.000000
0.187500 0.039093 0.000000
0.203125 0.039093 0.000000
0.218750 0.039093 0.000000
0.234375 0.042095 0.000000
0.246201 0.043014 0.000000
0.261703 0.043014 0.000000
0.277328 0.043014 0.000000
0.292954 0.046936 0.000000
0.304779 0.046936 0.000000
0.320405 0.050735 0.000000
0.336030 0.050857 0.000000
0.355454 0.050857 0.000000
0.371078 0.050857 0.000000
0.385294 0.050857 0.000000
0.406250 0.050857 0.000000
0.421997 0.054657 0.000000
0.439828 0.054779 0.000000
0.464890 0.054779 0.000000
0.482721 0.058579 0.000000
0.509927 0.058701 0.000000
0.535294 0.058701 0.000000
0.560662 0.062500 0.000000
0.586152 0.062622 0.000000
0.609620 0.062622 0.000000
0.627084 0.062622 0.000000
0.652635 0.062622 0.000000
0.666054 0.066422 0.000000
0.687807 0.062745 0.000000
0.701103 0.065073 0.000000
0.722978 0.062622 0.000000
0.738603 0.060172 0.000000
0.754228 0.062745 0.000000
0.769853 0.062745 0.000000
0.785478 0.066667 0.000000
0.801103 0.066667 0.000000
0.816728 0.070588 0.000000
0.836153 0.070588 0.000000
0.851899 0.074510 0.000000
0.867525 0.075368 0.000000
0.883150 0.078431 0.000000
0.898774 0.082353 0.000000
0.914399 0.082353 0.000000
0.930025 0.086275 0.000000
0.945650 0.086826 0.000000
0.961274 0.090196 0.000000
0.976900 0.094118 0.000000
0.988603 0.094118 0.000000
1.000000 0.098039 0.000000
1.000000 0.098039 0.000000
1.000000 0.101961 0.000000
1.000000 0.101961 0.000000
1.000000 0.105882 0.000000
1.000000 0.105882 0.000000
0.007659 0.039032 0.000000
0.019547 0.039032 0.000000
0.027451 0.039032 0.000000
0.042953 0.042953 0.000000
0.058579 0.042953 0.000000
0.074204 0.042953 0.000000
0.089645 0.042769 0.000000
0.109375 0.046875 0.000000
0.125000 0.046875 0.000000
0.140625 0.047059 0.000000
0.156250 0.050796 0.000000
0.168137 0.050796 0.000000
0.183579 0.050245 0.000000
0.199203 0.054718 0.000000
0.214828 0.054718 0.000000
0.230454 0.054718 0.000000
0.242340 0.054902 0.000000
0.257782 0.058640 0.000000
0.273407 0.058640 0.000000
0.289032 0.058640 0.000000
0.300919 0.062561 0.000000
0.316544 0.062561 0.000000
0.332169 0.062561 0.000000
0.351532 0.061336 0.000000
0.367157 0.062745 0.000000
0.381434 0.066483 0.000000
0.402329 0.066483 0.000000
0.418138 0.066483 0.000000
0.435968 0.070404 0.000000
0.460968 0.070404 0.000000
0.482598 0.070404 0.000000
0.506005 0.074326 0.000000
0.531373 0.074326 0.000000
0.556740 0.074326 0.000000
0.582230 0.078247 0.000000
0.605699 0.078247 0.000000
0.623223 0.078247 0.000000
0.642709 0.078247 0.000000
0.662194 0.078247 0.000000
0.683885 0.078247 0.000000
0.697243 0.078247 0.000000
0.719056 0.078247 0.000000
0.734681 0.078247 0.000000
0.750307 0.078247 0.000000
0.766114 0.074510 0.000000
0.785478 0.077084 0.000000
0.801103 0.074326 0.000000
0.817769 0.070588 0.000000
0.836274 0.070588 0.000000
0.851899 0.074510 0.000000
0.867525 0.075368 0.000000
0.883150 0.078431 0.000000
0.898774 0.082353 0.000000
0.918321 0.082353 0.000000
0.933763 0.086275 0.000000
0.949387 0.086826 0.000000
0.961274 0.090196 0.000000
0.976900 0.094118 0.000000
0.992157 0.094118 0.000000
1.000000 0.098039 0.000000
1.000000 0.098039 0.000000
1.000000 0.098223 0.000000
1.000000 0.101961 0.000000
1.000000 0.105882 0.000000
1.000000 0.105882 0.000000
0.011520 0.050735 0.003922
0.019363 0.054841 0.003922
0.031128 0.054657 0.003922
0.042953 0.054657 0.003922
0.054902 0.054657 0.003922
0.070527 0.058579 0.003922
0.089828 0.058579 0.003922
0.105453 0.058579 0.003922
0.121079 0.058824 0.003922
0.136703 0.062500 0.003922
0.152328 0.062500 0.003922
0.167953 0.062500 0.003922
0.179657 0.066422 0.003922
0.195282 0.066422 0.003922
0.210907 0.066422 0.003677
0.226532 0.066667 0.003677
0.238481 0.070343 0.000000
0.253860 0.070343 0.000000
0.269485 0.070343 0.000000
0.285111 0.070588 0.000000
0.300735 0.074265 0.000000
0.312684 0.074265 0.000000
0.328309 0.074510 0.000000
0.347611 0.078186 0.000000
0.363235 0.078186 0.000000
0.379105 0.078186 0.000000
0.398407 0.078186 0.000000
0.417953 0.078431 0.000000
0.437500 0.082108 0.000000
0.457047 0.082108 0.000000
0.478677 0.082353 0.000000
0.503983 0.086030 0.000000
0.525736 0.086030 0.000000
0.552819 0.089951 0.000000
0.578309 0.089951 0.000000
0.601777 0.089951 0.000000
0.619362 0.090196 0.000000
0.638848 0.093873 0.000000
0.658333 0.093873 0.000000
0.679963 0.093873 0.000000
0.693382 0.093873 0.000000
0.715135 0.089951 0.000000
0.730760 0.089951 0.000000
0.746385 0.089951 0.000000
0.762255 0.089951 0.000000
0.781556 0.089951 0.000000
0.797181 0.086030 0.000000
0.816728 0.086030 0.000000
0.832353 0.082353 0.000000
0.851899 0.082353 0.000000
0.867525 0.082108 0.000000
0.883946 0.078431 0.000000
0.902696 0.082353 0.000000
0.918321 0.082353 0.000000
0.933946 0.086275 0.000000
0.949571 0.086826 0.000000
0.965196 0.090196 0.000000
0.976900 0.094118 0.000000
0.992157 0.094118 0.000000
1.000000 0.098039 0.000000
1.000000 0.098039 0.000000
1.000000 0.098223 0.000000
1.000000 0.101961 0.000000
1.000000 0.105882 0.000000
1.000000 0.105882 0.000000
0.015686 0.066361 0.007537
0.023529 0.066361 0.007537
0.034988 0.066361 0.003738
0.046875 0.066361 0.003922
0.058579 0.070282 0.003922
0.070282 0.070282 0.003922
0.085907 0.070282 0.003922
0.101532 0.070588 0.003922
0.117463 0.074204 0.003922
0.133088 0.074204 0.003922
0.148407 0.074204 0.003922
0.164032 0.078125 0.003922
0.176042 0.078125 0.003922
0.191667 0.078125 0.003922
0.210907 0.077573 0.003922
0.223529 0.082047 0.003922
0.238236 0.082047 0.003922
0.250245 0.082047 0.003922
0.265564 0.082353 0.003922
0.281189 0.085969 0.003922
0.296814 0.085969 0.003922
0.312439 0.084988 0.003922
0.328064 0.089890 0.003922
0.343689 0.089890 0.003922
0.359314 0.089890 0.003922
0.378860 0.089890 0.003922
0.394485 0.090196 0.005209
0.414032 0.093812 0.003616
0.433579 0.093812 0.003616
0.453125 0.092341 0.003616
0.476593 0.097733 0.000000
0.500061 0.097733 0.000000
0.525490 0.098039 0.000000
0.550919 0.101655 0.000000
0.574387 0.101655 0.000000
0.597855 0.105576 0.000000
0.619117 0.105576 0.000000
0.640870 0.105576 0.000000
0.654474 0.105576 0.000000
0.676042 0.105576 0.000000
0.691974 0.105576 0.000000
0.711213 0.105576 0.000000
0.726838 0.101961 0.000000
0.742463 0.101961 0.000000
0.758394 0.101655 0.000000
0.777635 0.101655 0.000000
0.793260 0.101655 0.000000
0.809192 0.097733 0.000000
0.828431 0.097733 0.000000
0.844363 0.097733 0.000000
0.863603 0.093812 0.000000
0.883150 0.093812 0.000000
0.898774 0.090196 0.000000
0.918321 0.089890 0.000000
0.933946 0.086275 0.000000
0.949571 0.086826 0.000000
0.965196 0.090196 0.000000
0.980821 0.094118 0.000000
0.992525 0.094118 0.000000
1.000000 0.098039 0.000000
1.000000 0.098039 0.000000
1.000000 0.098223 0.000000
1.000000 0.101961 0.000000
1.000000 0.105882 0.000000
1.000000 0.105882 0.000000
0.019608 0.078063 0.011397
0.031312 0.078063 0.011397
0.038848 0.078431 0.007843
0.050796 0.081985 0.007843
0.062500 0.081985 0.007843
0.070588 0.081985 0.007843
0.085907 0.081985 0.007843
0.101532 0.085907 0.007843
0.117157 0.085907 0.007843
0.132782 0.085907 0.007843
0.144853 0.089828 0.007843
0.160110 0.089828 0.007843
0.175736 0.089828 0.007843
0.191360 0.089400 0.007843
0.206985 0.093750 0.007843
0.219057 0.093750 0.007843
0.234314 0.093750 0.007843
0.249938 0.093750 0.007843
0.262010 0.097671 0.007475
0.277267 0.097671 0.007475
0.292892 0.097671 0.007475
0.308517 0.098039 0.007475
0.324142 0.101593 0.003922
0.339767 0.101593 0.003922
0.355760 0.101593 0.003922
0.374939 0.101593 0.003922
0.389338 0.101961 0.003922
0.410110 0.105514 0.003922
0.429657 0.105514 0.003922
0.451348 0.105882 0.003922
0.471201 0.109436 0.003922
0.498162 0.109436 0.003922
0.523529 0.113357 0.003922
0.545344 0.113357 0.005577
0.572304 0.113725 0.003554
0.592157 0.117279 0.000000
0.617402 0.117279 0.000000
0.636949 0.117279 0.000000
0.656495 0.117279 0.000000
0.672120 0.117279 0.000000
0.691667 0.117279 0.000000
0.707291 0.117279 0.000000
0.722917 0.117279 0.000000
0.738542 0.117279 0.000000
0.754535 0.113725 0.000000
0.773713 0.113725 0.000000
0.789338 0.113357 0.000000
0.808885 0.113357 0.000000
0.824510 0.109804 0.000000
0.844056 0.109436 0.000000
0.859682 0.109436 0.000000
0.879228 0.105514 0.000000
0.892034 0.105514 0.000000
0.914399 0.101593 0.000000
0.930025 0.098039 0.000000
0.949571 0.097671 0.000000
0.965196 0.094118 0.000000
0.980821 0.094118 0.000000
0.992525 0.094118 0.000000
1.000000 0.098039 0.000000
1.000000 0.098039 0.000000
1.000000 0.098223 0.000000
1.000000 0.101961 0.000000
1.000000 0.105882 0.000000
1.000000 0.105882 0.000000
0.027022 0.093689 0.015257
0.034865 0.093689 0.015257
0.046936 0.093689 0.015257
0.054718 0.093689 0.011765
0.062745 0.093689 0.011765
0.074081 0.097733 0.011765
0.085907 0.097610 0.011765
0.097610 0.097610 0.011765
0.113235 0.097610 0.011765
0.128860 0.098039 0.011765
0.144485 0.101532 0.011765
0.156189 0.101532 0.011765
0.171814 0.101226 0.011765
0.187439 0.105453 0.011765
0.203064 0.105453 0.011765
0.218689 0.105453 0.011765
0.230392 0.105453 0.011765
0.246017 0.109375 0.012378
0.261642 0.109375 0.011336
0.273775 0.109375 0.011336
0.288971 0.109375 0.011336
0.304595 0.113296 0.011336
0.320221 0.113296 0.007843
0.336275 0.113296 0.007843
0.355392 0.113296 0.007843
0.371017 0.113725 0.007843
0.390564 0.117218 0.007843
0.404963 0.117218 0.007843
0.427941 0.117218 0.007843
0.449203 0.121140 0.007843
0.470834 0.121140 0.007843
0.496140 0.121140 0.007414
0.518076 0.125061 0.003922
0.544975 0.125061 0.003922
0.570465 0.125490 0.003922
0.591789 0.128983 0.003922
0.613480 0.128983 0.003922
0.633027 0.128983 0.003922
0.652573 0.128983 0.003493
0.666238 0.128983 0.003493
0.687745 0.128983 0.003493
0.703370 0.128983 0.000000
0.718995 0.128983 0.000000
0.735049 0.128983 0.000000
0.754167 0.128983 0.000000
0.769791 0.125490 0.000000
0.785417 0.125061 0.000000
0.804964 0.125061 0.000000
0.820588 0.125061 0.000000
0.840135 0.121569 0.000000
0.855760 0.121140 0.000000
0.875306 0.117647 0.000000
0.888174 0.117218 0.000000
0.910478 0.117218 0.000000
0.923223 0.113296 0.000000
0.945650 0.112746 0.000000
0.961274 0.108884 0.000000
0.977328 0.101961 0.000000
0.992525 0.098039 0.000000
1.000000 0.098039 0.000000
1.000000 0.098039 0.000000
1.000000 0.098223 0.000000
1.000000 0.101961 0.000000
1.000000 0.105882 0.000000
1.000000 0.105882 0.000000
0.031373 0.105392 0.019608
0.043076 0.105392 0.019608
0.050490 0.105392 0.019608
0.058334 0.109620 0.019608
0.070343 0.109314 0.019608
0.078125 0.109314 0.019118
0.089828 0.109314 0.019118
0.101532 0.109314 0.019118
0.113235 0.113235 0.015686
0.125490 0.113235 0.015686
0.140563 0.113235 0.015686
0.152757 0.113235 0.015686
0.167892 0.113725 0.015686
0.183517 0.117157 0.015686
0.199142 0.117157 0.015686
0.214767 0.117157 0.015686
0.227451 0.117647 0.015686
0.242095 0.121079 0.015686
0.257721 0.121079 0.015686
0.273346 0.121079 0.015686
0.288971 0.121569 0.015686
0.301165 0.125000 0.015686
0.316789 0.125000 0.015196
0.335846 0.125000 0.011765
0.351471 0.125490 0.011765
0.366054 0.128922 0.011765
0.386642 0.128922 0.011765
0.406189 0.128922 0.011765
0.425735 0.127696 0.011765
0.443995 0.132843 0.011765
0.468750 0.132843 0.011765
0.494240 0.131434 0.011275
0.517648 0.136765 0.007843
0.543076 0.136765 0.007843
0.564951 0.140686 0.007843
0.590012 0.140686 0.007843
0.607843 0.140686 0.007843
0.627329 0.140686 0.003922
0.648652 0.140686 0.003922
0.668199 0.140686 0.003922
0.683824 0.140686 0.003922
0.699448 0.140686 0.003922
0.715563 0.140686 0.003922
0.734620 0.140686 0.003922
0.750245 0.140686 0.003922
0.765870 0.140686 0.003922
0.785417 0.139584 0.003922
0.801042 0.136765 0.003432
0.817157 0.136765 0.000000
0.836213 0.133333 0.000000
0.849264 0.132843 0.000000
0.871385 0.132843 0.000000
0.887500 0.132108 0.000000
0.906556 0.128922 0.000000
0.922671 0.128308 0.000000
0.941728 0.125000 0.000000
0.957353 0.121079 0.000000
0.973469 0.117157 0.000000
0.992157 0.113235 0.000000
1.000000 0.109314 0.000000
1.000000 0.101961 0.000000
1.000000 0.101961 0.000000
1.000000 0.101961 0.000000
1.000000 0.105882 0.000000
1.000000 0.105882 0.000000
0.039216 0.117095 0.027451
0.050919 0.117095 0.027451
0.058701 0.117647 0.026899
0.066483 0.117647 0.026899
0.074265 0.121017 0.026899
0.081801 0.121017 0.026899
0.093750 0.121017 0.023529
0.101961 0.121017 0.023529
0.113174 0.121569 0.023529
0.124939 0.124939 0.023529
0.136642 0.124939 0.023529
0.152267 0.124939 0.023529
0.167892 0.125490 0.023529
0.183517 0.128860 0.023529
0.199142 0.128860 0.022978
0.210846 0.128860 0.022978
0.226471 0.129412 0.022978
0.242095 0.132782 0.022978
0.253799 0.132782 0.022978
0.269424 0.132782 0.022978
0.285049 0.132108 0.022978
0.300674 0.133333 0.022978
0.316299 0.136703 0.019608
0.331924 0.136703 0.019608
0.346630 0.136703 0.019056
0.367095 0.137255 0.019056
0.381679 0.140625 0.019056
0.402267 0.140625 0.019056
0.424020 0.140625 0.015686
0.445282 0.144546 0.015686
0.466912 0.144546 0.015686
0.492218 0.144546 0.017034
0.517648 0.148468 0.011765
0.541054 0.148468 0.011765
0.566544 0.149020 0.011765
0.587868 0.152390 0.011765
0.609559 0.152390 0.011765
0.629106 0.152390 0.011213
0.642954 0.152390 0.007843
0.664277 0.152390 0.007843
0.678002 0.152390 0.007843
0.699448 0.152390 0.007843
0.715074 0.152390 0.007843
0.730699 0.149020 0.007292
0.746324 0.149020 0.007292
0.762500 0.149020 0.007292
0.781495 0.148468 0.003922
0.797120 0.148468 0.003922
0.816667 0.145098 0.003922
0.832292 0.145098 0.003922
0.851838 0.144546 0.003922
0.867463 0.144546 0.003922
0.887010 0.143810 0.003370
0.902635 0.140625 0.000000
0.922182 0.140013 0.000000
0.937806 0.133333 0.000000
0.950552 0.132782 0.000000
0.972978 0.128860 0.000000
0.985232 0.124939 0.000000
1.000000 0.121017 0.000000
1.000000 0.117095 0.000000
1.000000 0.109804 0.000000
1.000000 0.105882 0.000000
1.000000 0.105882 0.000000
1.000000 0.105882 0.000000
0.047059 0.128799 0.035294
0.054289 0.128799 0.035294
0.062132 0.129412 0.035294
0.069975 0.129412 0.035294
0.077818 0.132720 0.034681
0.085662 0.132720 0.034681
0.097671 0.132720 0.034681
0.105269 0.132720 0.034681
0.117157 0.133333 0.031373
0.124877 0.136642 0.031373
0.136642 0.136642 0.030760
0.148959 0.136642 0.030760
0.164583 0.137255 0.030760
0.180208 0.140563 0.030760
0.195220 0.140563 0.030760
0.207537 0.140563 0.030760
0.222549 0.140563 0.030760
0.238174 0.141176 0.030760
0.253799 0.144485 0.030760
0.266116 0.144485 0.030760
0.281740 0.144485 0.030760
0.296752 0.145098 0.030760
0.312991 0.148407 0.027451
0.331924 0.148407 0.028248
0.347549 0.148407 0.026838
0.363174 0.147488 0.023529
0.382721 0.149020 0.023529
0.402267 0.152328 0.023529
0.421814 0.152328 0.023529
0.443505 0.152941 0.023529
0.466912 0.156250 0.023529
0.490319 0.156250 0.019608
0.515687 0.160171 0.019608
0.537745 0.160171 0.018995
0.564460 0.158701 0.018995
0.586091 0.160784 0.015686
0.604044 0.164093 0.015686
0.625184 0.164093 0.015686
0.644730 0.164093 0.011765
0.658578 0.164093 0.011765
0.679902 0.164093 0.011765
0.695527 0.164093 0.011765
0.711152 0.160784 0.011765
0.724755 0.160784 0.011152
0.746324 0.160171 0.011152
0.761948 0.160171 0.011152
0.777574 0.160171 0.011152
0.797120 0.160171 0.007843
0.812745 0.156863 0.007843
0.832292 0.156250 0.007843
0.847917 0.156250 0.007843
0.867463 0.152941 0.007230
0.883088 0.152328 0.003922
0.902635 0.149020 0.003922
0.918260 0.148407 0.003922
0.931128 0.145098 0.003922
0.953431 0.144485 0.003309
0.969056 0.140563 0.003309
0.984682 0.136642 0.000000
0.996384 0.132720 0.000000
1.000000 0.128799 0.000000
1.000000 0.121569 0.000000
1.000000 0.120834 0.000000
1.000000 0.109804 0.000000
1.000000 0.105882 0.000000
0.054902 0.140502 0.043137
0.062071 0.141176 0.043137
0.070465 0.144975 0.043137
0.078247 0.144424 0.043137
0.082353 0.144424 0.043137
0.093812 0.144424 0.042463
0.101593 0.144424 0.042463
0.109130 0.145098 0.042463
0.117647 0.148346 0.042463
0.128860 0.148346 0.039216
0.136581 0.148346 0.039216
0.148346 0.148346 0.039216
0.163971 0.149020 0.039216
0.179596 0.152267 0.039216
0.192157 0.152267 0.038542
0.206924 0.152267 0.038542
0.219302 0.152267 0.038542
0.234252 0.152941 0.038542
0.249877 0.156189 0.038542
0.265503 0.156189 0.038542
0.281127 0.156189 0.038542
0.296752 0.156863 0.035294
0.312378 0.160110 0.035294
0.328003 0.160110 0.035294
0.343627 0.160110 0.034620
0.363174 0.160784 0.034620
0.377880 0.164032 0.031373
0.398345 0.164032 0.031373
0.420098 0.164032 0.031373
0.441360 0.167953 0.030699
0.464829 0.167953 0.030699
0.490319 0.167953 0.027451
0.513726 0.171875 0.026777
0.539154 0.171875 0.023529
0.562622 0.172549 0.023529
0.583946 0.175797 0.023529
0.605637 0.175797 0.022855
0.625184 0.175797 0.022855
0.640809 0.175797 0.019608
0.660356 0.175797 0.019608
0.675980 0.175797 0.018934
0.691605 0.175797 0.018934
0.707904 0.175797 0.015686
0.726777 0.172549 0.015686
0.742402 0.171875 0.015686
0.758027 0.171875 0.015012
0.774327 0.171875 0.015012
0.793199 0.168627 0.011765
0.806557 0.170894 0.011765
0.828370 0.167953 0.011765
0.841606 0.167953 0.011091
0.863542 0.164706 0.011091
0.879840 0.164032 0.007843
0.898713 0.160784 0.007843
0.914338 0.160110 0.007843
0.933885 0.156863 0.010539
0.949510 0.156189 0.003922
0.965135 0.152267 0.003922
0.980760 0.151900 0.003922
0.996078 0.144424 0.003922
1.000000 0.140502 0.003922
1.000000 0.136581 0.000000
1.000000 0.129412 0.000000
1.000000 0.128676 0.000000
1.000000 0.117647 0.000000
0.062745 0.156128 0.050980
0.070527 0.156128 0.050980
0.074510 0.156128 0.050980
0.081618 0.156128 0.050245
0.089951 0.156128 0.050245
0.097733 0.156128 0.050245
0.105514 0.156863 0.050245
0.113296 0.160049 0.050245
0.121079 0.160049 0.047059
0.129412 0.160049 0.047059
0.140563 0.160049 0.047059
0.149020 0.160784 0.047059
0.163971 0.163971 0.046324
0.175674 0.163971 0.046324
0.188112 0.163971 0.046324
0.203003 0.163971 0.046324
0.218627 0.164706 0.046324
0.231067 0.167892 0.043137
0.245956 0.167892 0.043137
0.261581 0.167892 0.043137
0.277206 0.168627 0.043137
0.292831 0.171814 0.043137
0.308456 0.171814 0.043137
0.324081 0.171814 0.042402
0.343627 0.172549 0.039216
0.359252 0.175736 0.039216
0.378799 0.175736 0.039216
0.398345 0.175736 0.039216
0.417892 0.179657 0.038481
0.439583 0.179657 0.038481
0.462991 0.179657 0.035294
0.486397 0.183579 0.036458
0.511765 0.183579 0.031373
0.533946 0.183579 0.031373
0.558701 0.187500 0.030638
0.582169 0.187500 0.027451
0.601716 0.187500 0.027451
0.621262 0.187500 0.027451
0.635294 0.187500 0.023529
0.656434 0.187500 0.023529
0.672059 0.187500 0.023529
0.688419 0.187500 0.023529
0.707230 0.187500 0.022794
0.722856 0.187500 0.019608
0.738480 0.184314 0.019608
0.754105 0.186336 0.019608
0.773652 0.183579 0.021692
0.789277 0.183579 0.018873
0.805637 0.183579 0.015686
0.824448 0.182659 0.015686
0.840808 0.179657 0.014951
0.859620 0.179657 0.011765
0.879166 0.178922 0.011765
0.894792 0.175736 0.011765
0.911151 0.175123 0.014339
0.929963 0.171814 0.007843
0.945588 0.167892 0.007843
0.961213 0.167464 0.007843
0.976839 0.160784 0.007843
0.992463 0.156863 0.003922
1.000000 0.152941 0.003922
1.000000 0.152023 0.003922
1.000000 0.144363 0.003922
1.000000 0.140441 0.007047
1.000000 0.132598 0.003187
0.070588 0.167831 0.058027
0.078370 0.167831 0.058027
0.081556 0.167831 0.058027
0.090012 0.167831 0.058027
0.093321 0.167831 0.058027
0.101655 0.167831 0.054412
0.109436 0.168627 0.054902
0.117218 0.168627 0.054902
0.125000 0.171752 0.054902
0.132782 0.171752 0.054902
0.141176 0.171752 0.054902
0.152267 0.172549 0.054105
0.163971 0.172549 0.054105
0.175674 0.175674 0.050980
0.187377 0.175674 0.050980
0.199877 0.175674 0.050980
0.214706 0.176471 0.050980
0.230331 0.179596 0.050980
0.242831 0.179596 0.050980
0.257660 0.179596 0.050980
0.273284 0.179167 0.050980
0.288909 0.183517 0.050184
0.305330 0.183517 0.050184
0.324081 0.183517 0.047059
0.339706 0.182843 0.047059
0.354596 0.187439 0.047794
0.374878 0.187439 0.046262
0.394424 0.187439 0.043137
0.413051 0.188235 0.043137
0.437439 0.191360 0.043137
0.460907 0.191360 0.042341
0.486397 0.195282 0.039216
0.509804 0.195282 0.040380
0.535233 0.194056 0.035294
0.558701 0.199203 0.035294
0.578248 0.199203 0.036642
0.597794 0.199203 0.034498
0.617341 0.199203 0.031373
0.636887 0.199203 0.032905
