Color/Kodak/Kodak Kodachrome 64 Generic 65x.cube
TITLE "Kodak Kodachrome 64 Generic"
LUT_3D_SIZE 65
DOMAIN_MIN 0.000000 0.000000 0.000000
DOMAIN_MAX 1.000000 1.000000 1.000000
0.000000 0.000000 0.000000
0.004841 0.000000 0.000000
0.009681 0.000000 0.000000
0.018444 0.000000 0.000000
0.027206 0.000000 0.000000
0.036642 0.000000 0.000000
0.048652 0.000000 0.000000
0.059926 0.000000 0.000000
0.070098 0.000000 0.000000
0.082782 0.000000 0.000000
0.095466 0.000000 0.000000
0.104228 0.000000 0.000000
0.116176 0.000000 0.000000
0.129596 0.000000 0.000000
0.142279 0.000000 0.000000
0.156985 0.000000 0.000000
0.170588 0.000000 0.000000
0.184191 0.000000 0.000000
0.201716 0.000000 0.000000
0.219240 0.000000 0.000000
0.239461 0.000000 0.000000
0.258211 0.000000 0.000000
0.283578 0.000000 0.000000
0.306557 0.000000 0.000000
0.332843 0.000000 0.000000
0.362500 0.000000 0.000000
0.389338 0.000000 0.000000
0.415625 0.000000 0.000000
0.437990 0.000000 0.000000
0.461152 0.000000 0.000000
0.482721 0.000000 0.000000
0.505086 0.000000 0.000000
0.527451 0.000000 0.000000
0.550858 0.000000 0.000000
0.576103 0.000000 0.000000
0.602390 0.000000 0.000000
0.628676 0.000000 0.000000
0.651042 0.002635 0.000000
0.677328 0.000000 0.000000
0.699693 0.000000 0.000000
0.725981 0.001471 0.000000
0.748345 0.003922 0.000000
0.770711 0.003922 0.000000
0.793076 0.003922 0.000000
0.815441 0.003922 0.000000
0.837806 0.003922 0.000000
0.860171 0.003922 0.000000
0.878615 0.003922 0.000000
0.900000 0.003922 0.000000
0.921446 0.003922 0.000000
0.941789 0.003922 0.000000
0.960416 0.003922 0.000000
0.977942 0.007843 0.000000
0.993811 0.007843 0.000000
1.000000 0.007843 0.000000
1.000000 0.007843 0.000000
1.000000 0.007843 0.000000
1.000000 0.007843 0.000000
1.000000 0.007843 0.000000
1.000000 0.007843 0.000000
1.000000 0.007843 0.000000
1.000000 0.007843 0.000000
1.000000 0.007843 0.000000
1.000000 0.007843 0.000000
1.000000 0.007843 0.000000
0.000000 0.003922 0.000000
0.003922 0.003922 0.000000
0.009681 0.003922 0.000000
0.017524 0.003922 0.000000
0.023284 0.003922 0.000000
0.031802 0.003922 0.000000
0.044730 0.003922 0.000000
0.056005 0.004841 0.000000
0.066177 0.004841 0.000000
0.078860 0.004841 0.000000
0.091973 0.004841 0.000000
0.100306 0.004841 0.000000
0.115257 0.004841 0.000000
0.125674 0.004841 0.000000
0.138358 0.004841 0.000000
0.151042 0.004841 0.000000
0.166666 0.004841 0.000000
0.183272 0.004841 0.000000
0.197794 0.004841 0.000000
0.215319 0.004841 0.000000
0.235539 0.007843 0.000000
0.254289 0.011459 0.000000
0.279350 0.008762 0.000000
0.302635 0.008762 0.000000
0.328921 0.008762 0.000000
0.359130 0.008762 0.000000
0.385417 0.008762 0.000000
0.411703 0.008762 0.000000
0.437072 0.008762 0.000000
0.457231 0.012684 0.000000
0.478799 0.012684 0.000000
0.501164 0.012684 0.000000
0.526532 0.012684 0.000000
0.546936 0.012684 0.000000
0.572181 0.012684 0.000000
0.598468 0.012684 0.000000
0.624755 0.014400 0.000000
0.648407 0.016605 0.000000
0.673407 0.016605 0.000000
0.699142 0.016605 0.000000
0.722059 0.016605 0.000000
0.744424 0.018995 0.000000
0.769791 0.020527 0.000000
0.789154 0.020527 0.000000
0.811520 0.020527 0.000000
0.833885 0.020527 0.000000
0.856250 0.020527 0.000000
0.878554 0.021446 0.000000
0.896079 0.021446 0.000000
0.917524 0.021446 0.000000
0.940869 0.021446 0.000000
0.956495 0.024448 0.000000
0.977022 0.025367 0.000000
0.993811 0.025367 0.000000
1.000000 0.025367 0.000000
1.000000 0.025367 0.000000
1.000000 0.025367 0.000000
1.000000 0.025367 0.000000
1.000000 0.025367 0.000000
1.000000 0.031617 0.003248
1.000000 0.029289 0.000919
1.000000 0.029289 0.000919
1.000000 0.029289 0.000919
1.000000 0.029289 0.000919
1.000000 0.029289 0.000919
0.000000 0.009681 0.000000
0.005760 0.009681 0.000000
0.009681 0.009681 0.000000
0.014522 0.009681 0.000000
0.023284 0.009681 0.000000
0.032047 0.009681 0.000000
0.042402 0.009681 0.000000
0.053493 0.009681 0.000000
0.066177 0.009681 0.000000
0.078860 0.009681 0.000000
0.087623 0.009681 0.000000
0.100735 0.009681 0.000000
0.109069 0.009681 0.000000
0.121937 0.011765 0.000000
0.138358 0.011765 0.000000
0.151042 0.011765 0.000000
0.163725 0.011765 0.000000
0.180269 0.011765 0.000000
0.197794 0.013603 0.000000
0.215319 0.013603 0.000000
0.232843 0.013603 0.000000
0.254289 0.013603 0.000000
0.279657 0.012378 0.000000
0.302635 0.017524 0.000000
0.328921 0.017524 0.000000
0.359130 0.017524 0.000000
0.385417 0.017524 0.000000
0.409865 0.017524 0.000000
0.434069 0.017524 0.000000
0.458517 0.017524 0.000000
0.478799 0.021446 0.000000
0.501164 0.021446 0.000000
0.523529 0.021446 0.000000
0.547978 0.021446 0.000000
0.572181 0.021446 0.000000
0.598468 0.021446 0.000000
0.624755 0.025367 0.000000
0.647120 0.025367 0.000000
0.673407 0.025367 0.000000
0.695772 0.025367 0.000000
0.720220 0.025367 0.000000
0.744424 0.027206 0.000000
0.766789 0.029289 0.000000
0.787316 0.029289 0.000000
0.811520 0.029289 0.000000
0.831740 0.029289 0.000000
0.853186 0.031127 0.000000
0.872855 0.033211 0.000000
0.896079 0.033211 0.000000
0.917524 0.033211 0.000000
0.935049 0.036030 0.000000
0.956495 0.035049 0.001838
0.974020 0.037132 0.000000
0.991544 0.037132 0.001838
1.000000 0.037132 0.001838
1.000000 0.037132 0.001838
1.000000 0.038970 0.003922
1.000000 0.038541 0.003922
1.000000 0.041054 0.003922
1.000000 0.041054 0.003922
1.000000 0.041054 0.003922
1.000000 0.041054 0.003922
1.000000 0.041054 0.003922
1.000000 0.041054 0.003922
1.000000 0.041054 0.003922
0.002758 0.014522 0.000000
0.004841 0.014522 0.000000
0.009681 0.014522 0.000000
0.014522 0.014522 0.000000
0.023284 0.014522 0.000000
0.032047 0.014522 0.000000
0.040809 0.014522 0.000000
0.053493 0.014277 0.000000
0.065687 0.015686 0.000000
0.072610 0.015686 0.000000
0.087623 0.015686 0.000000
0.095895 0.018444 0.000000
0.109069 0.018444 0.000000
0.121937 0.018444 0.000000
0.135539 0.018444 0.000000
0.149142 0.018444 0.000000
0.163909 0.018444 0.000000
0.180269 0.018444 0.000000
0.197794 0.018444 0.000000
0.215319 0.018444 0.000000
0.232843 0.019608 0.000000
0.254289 0.022365 0.000000
0.276348 0.022365 0.000000
0.302635 0.022365 0.000000
0.328921 0.023529 0.000000
0.359742 0.026899 0.000000
0.385417 0.026287 0.000000
0.410416 0.026287 0.000000
0.434069 0.026287 0.000000
0.456434 0.026287 0.000000
0.478676 0.026287 0.000000
0.498406 0.026287 0.000000
0.523529 0.030209 0.000000
0.545895 0.030209 0.000000
0.572181 0.030209 0.000000
0.598468 0.030209 0.000000
0.623039 0.034130 0.000000
0.647120 0.034130 0.000000
0.673407 0.034130 0.000000
0.695772 0.034130 0.000000
0.720588 0.036888 0.000000
0.744424 0.038052 0.000000
0.766789 0.038052 0.000000
0.788848 0.038052 0.000000
0.810294 0.038052 0.000000
0.831740 0.040196 0.000000
0.853186 0.041973 0.000000
0.874633 0.041973 0.002758
0.896079 0.044731 0.002758
0.915503 0.043873 0.002758
0.935049 0.045895 0.002758
0.956312 0.045895 0.003922
0.974020 0.045895 0.003922
0.988787 0.045895 0.003922
1.000000 0.045895 0.003922
1.000000 0.049387 0.003922
1.000000 0.049816 0.003922
1.000000 0.049816 0.003922
1.000000 0.049816 0.003922
1.000000 0.049816 0.003922
1.000000 0.050062 0.003922
1.000000 0.053738 0.003922
1.000000 0.053738 0.003922
1.000000 0.053738 0.003922
1.000000 0.053738 0.003922
0.003922 0.019608 0.000000
0.007843 0.019608 0.000000
0.011765 0.019608 0.000000
0.014522 0.023284 0.000000
0.023284 0.023284 0.000000
0.028799 0.023284 0.000000
0.040809 0.023284 0.000000
0.053493 0.023284 0.000000
0.062255 0.023284 0.000000
0.074939 0.023284 0.000000
0.087623 0.023284 0.000000
0.096385 0.023284 0.000000
0.109069 0.023284 0.000000
0.121937 0.023284 0.000000
0.135539 0.023529 0.000000
0.149142 0.023529 0.000000
0.162745 0.023529 0.000000
0.180269 0.027390 0.000000
0.197794 0.027206 0.000000
0.215319 0.027206 0.000000
0.232843 0.027206 0.000000
0.254289 0.027206 0.000000
0.276348 0.031128 0.000000
0.302635 0.031128 0.000000
0.328921 0.031128 0.000000
0.358578 0.031128 0.000000
0.385417 0.031128 0.000000
0.410416 0.035049 0.000000
0.434069 0.035049 0.000000
0.456434 0.035049 0.000000
0.478676 0.035049 0.000000
0.500122 0.035049 0.000000
0.523529 0.038971 0.000000
0.545895 0.038971 0.000000
0.572181 0.038971 0.000000
0.597671 0.038971 0.000000
0.620833 0.042892 0.000000
0.647120 0.042892 0.000000
0.673407 0.042892 0.000000
0.695772 0.042892 0.000000
0.720588 0.044363 0.000000
0.742034 0.046814 0.000000
0.766789 0.046814 0.003677
0.788848 0.050735 0.003677
0.810294 0.050490 0.003677
0.831740 0.050735 0.003677
0.853186 0.050735 0.003064
0.874633 0.050735 0.003922
0.896079 0.054657 0.003922
0.915503 0.054657 0.003922
0.935049 0.054657 0.003922
0.952573 0.054657 0.003922
0.974020 0.054657 0.003922
0.989890 0.058579 0.003922
1.000000 0.058579 0.003922
1.000000 0.058579 0.003922
1.000000 0.058579 0.003922
1.000000 0.058579 0.003922
1.000000 0.058579 0.003922
1.000000 0.062255 0.003922
1.000000 0.062500 0.003922
1.000000 0.062500 0.003922
1.000000 0.062500 0.003922
1.000000 0.062500 0.003922
1.000000 0.062500 0.003922
0.004596 0.028125 0.000000
0.008762 0.028125 0.000000
0.013603 0.028125 0.000000
0.018444 0.028125 0.000000
0.023284 0.028125 0.000000
0.028799 0.028799 0.000000
0.040809 0.032047 0.000000
0.049571 0.032047 0.000000
0.062255 0.032047 0.000000
0.074939 0.032047 0.000000
0.083701 0.032047 0.000000
0.096385 0.032047 0.000000
0.108333 0.032047 0.000000
0.121753 0.032047 0.000000
0.134436 0.032047 0.000000
0.149142 0.032047 0.000000
0.162745 0.034988 0.000000
0.180269 0.035968 0.000000
0.193873 0.035968 0.000000
0.212071 0.035968 0.000000
0.232843 0.035968 0.000000
0.254289 0.035968 0.000000
0.276348 0.039890 0.000000
0.302635 0.039890 0.000000
0.328922 0.039890 0.000000
0.355882 0.040564 0.000000
0.385417 0.043811 0.000000
0.410416 0.043811 0.000000
0.434069 0.043811 0.000000
0.456434 0.043811 0.000000
0.478676 0.043811 0.000000
0.500122 0.044485 0.000000
0.521568 0.047733 0.000000
0.545895 0.047733 0.000000
0.572181 0.047733 0.000000
0.594547 0.051654 0.000000
0.620833 0.051654 0.000000
0.647120 0.051654 0.002635
0.669853 0.051654 0.000674
0.695772 0.055576 0.003922
0.718137 0.055576 0.003922
0.742034 0.055576 0.003922
0.763481 0.058884 0.003922
0.785233 0.059498 0.003922
0.810845 0.059498 0.003922
0.831740 0.059498 0.003922
0.852328 0.059498 0.003922
0.874633 0.059559 0.003922
0.893137 0.063419 0.003922
0.913603 0.063419 0.003922
0.935049 0.063419 0.003922
0.952573 0.063419 0.003922
0.974020 0.064154 0.003922
0.989890 0.067341 0.003922
1.001900 0.067341 0.003922
1.000000 0.067341 0.003922
1.000000 0.067341 0.003922
1.000000 0.067341 0.003922
1.000000 0.069670 0.003922
1.000000 0.071262 0.003922
1.000000 0.071262 0.003922
1.000000 0.071262 0.003922
1.000000 0.071262 0.003922
1.000000 0.071262 0.003922
1.000000 0.071262 0.003922
0.007843 0.036887 0.000000
0.011765 0.036887 0.000000
0.015686 0.036887 0.000000
0.019608 0.039644 0.000000
0.023529 0.038480 0.000000
0.032047 0.040809 0.000000
0.040809 0.040809 0.000000
0.049571 0.040809 0.000000
0.062255 0.040809 0.000000
0.071446 0.040809 0.000000
0.083701 0.040809 0.000000
0.094730 0.040809 0.000000
0.105147 0.040809 0.000000
0.121753 0.040809 0.000000
0.134436 0.040809 0.000000
0.147120 0.042402 0.000000
0.162745 0.044730 0.000000
0.180269 0.044730 0.000000
0.193873 0.044730 0.000000
0.215319 0.044730 0.000000
0.232843 0.044730 0.000000
0.254289 0.048345 0.000000
0.276348 0.048652 0.000000
0.302635 0.048652 0.000000
0.328921 0.051103 0.000000
0.359130 0.052573 0.000000
0.385417 0.052573 0.000000
0.410416 0.052573 0.000000
0.434069 0.052573 0.002206
0.456434 0.055699 0.001593
0.478676 0.056495 0.005393
0.500122 0.056495 0.003922
0.521568 0.056495 0.003922
0.545895 0.056495 0.003922
0.572181 0.060294 0.003922
0.594547 0.060417 0.003922
0.620833 0.060417 0.003922
0.647120 0.060417 0.003922
0.669853 0.063971 0.003922
0.695772 0.064338 0.003922
0.718137 0.064338 0.003922
0.742034 0.064338 0.003922
0.763481 0.065931 0.003922
0.785233 0.068260 0.003922
0.807598 0.068260 0.003922
0.829963 0.068260 0.003922
0.852328 0.068260 0.003922
0.874633 0.068322 0.003922
0.893137 0.072181 0.003922
0.913603 0.072181 0.003922
0.933946 0.072181 0.003922
0.952573 0.072181 0.003922
0.969240 0.076103 0.003922
0.989890 0.076103 0.003922
0.998652 0.076103 0.003922
1.000000 0.076103 0.003922
1.000000 0.076103 0.005515
1.000000 0.077696 0.005515
1.000000 0.080024 0.005515
1.000000 0.080024 0.005515
1.000000 0.080024 0.005515
1.000000 0.080024 0.005086
1.000000 0.080024 0.007843
1.000000 0.080024 0.007843
1.000000 0.080024 0.007843
0.010356 0.048161 0.000000
0.012684 0.049571 0.000000
0.017524 0.049571 0.000000
0.022365 0.049571 0.000000
0.027206 0.049571 0.000000
0.032047 0.049571 0.000000
0.040809 0.049571 0.000000
0.049571 0.049571 0.000000
0.061765 0.049571 0.000000
0.071017 0.049571 0.000000
0.083701 0.049571 0.000000
0.092218 0.049571 0.000000
0.105147 0.052083 0.000000
0.121753 0.053493 0.000000
0.134436 0.053493 0.000000
0.147120 0.053493 0.000000
0.162745 0.053493 0.000000
0.180269 0.053493 0.000000
0.193873 0.053493 0.000000
0.215319 0.053493 0.000000
0.232843 0.056005 0.000000
0.254289 0.057415 0.000000
0.279657 0.057415 0.000000
0.302635 0.059926 0.000000
0.331373 0.061336 0.000000
0.359130 0.061336 0.002513
0.385417 0.061336 0.002513
0.410416 0.061336 0.001287
0.434069 0.061336 0.003922
0.456434 0.065258 0.003922
0.478676 0.065258 0.003922
0.500122 0.065258 0.003922
0.521568 0.065258 0.003922
0.545895 0.067769 0.003922
0.572181 0.069179 0.003922
0.594547 0.069179 0.003922
0.620833 0.069179 0.003922
0.647120 0.071691 0.003922
0.669853 0.073101 0.003922
0.695772 0.073101 0.003922
0.718137 0.073101 0.003922
0.742034 0.075612 0.003922
0.763481 0.077022 0.003922
0.785233 0.077022 0.003922
0.807598 0.077022 0.003922
0.829963 0.077022 0.003922
0.852328 0.080086 0.003922
0.870772 0.080944 0.003922
0.892157 0.080944 0.006434
0.913603 0.080944 0.006434
0.933946 0.080944 0.006434
0.952573 0.083456 0.006434
0.970098 0.084866 0.007843
0.987623 0.084866 0.007843
0.998652 0.084866 0.007843
1.000000 0.084866 0.007843
1.000000 0.085355 0.007843
1.000000 0.088787 0.007843
1.000000 0.088787 0.007843
1.000000 0.088787 0.007843
1.000000 0.088787 0.007843
1.000000 0.088787 0.007843
1.000000 0.088787 0.007843
1.000000 0.088787 0.007843
1.000000 0.088787 0.007843
0.011765 0.058334 0.000000
0.019118 0.058334 0.000000
0.023039 0.058334 0.000000
0.026961 0.058334 0.000000
0.031128 0.058334 0.000000
0.035968 0.058334 0.000000
0.046569 0.058334 0.000000
0.053003 0.058334 0.000000
0.061765 0.058334 0.000000
0.071017 0.061765 0.000000
0.077696 0.062255 0.000000
0.092463 0.062255 0.000000
0.105147 0.062255 0.000000
0.118015 0.062255 0.000000
0.134436 0.062255 0.003432
0.147120 0.062255 0.003432
0.162745 0.062255 0.003432
0.180269 0.062255 0.003432
0.193873 0.065687 0.003432
0.215319 0.066177 0.003432
0.236275 0.066177 0.003922
0.254289 0.066177 0.003922
0.280269 0.066789 0.003922
0.306066 0.070098 0.003922
0.332843 0.070098 0.003922
0.359130 0.070098 0.003922
0.385417 0.070098 0.003922
0.410416 0.073530 0.003922
0.434069 0.074020 0.003922
0.456434 0.074020 0.003922
0.478676 0.074020 0.003922
0.500122 0.074020 0.003922
0.521568 0.075980 0.003922
0.545895 0.077941 0.003922
0.572181 0.077941 0.003922
0.594547 0.077941 0.003922
0.620833 0.079657 0.003922
0.647120 0.081863 0.003922
0.669853 0.081863 0.003922
0.695772 0.081863 0.003922
0.718137 0.085295 0.007353
0.740502 0.085785 0.003922
0.763481 0.085785 0.007353
0.785233 0.085785 0.004228
0.807598 0.089216 0.007843
0.829963 0.087929 0.007843
0.852328 0.089706 0.007843
0.870772 0.089706 0.007843
0.892157 0.093138 0.007843
0.913603 0.093138 0.007843
0.931127 0.093628 0.007843
0.952573 0.093628 0.007843
0.970098 0.093628 0.007843
0.987623 0.093628 0.007843
0.998652 0.097059 0.007843
1.000000 0.097120 0.007843
1.000000 0.097549 0.007843
1.000000 0.097549 0.007843
1.000000 0.097549 0.007843
1.000000 0.097549 0.007843
1.000000 0.097549 0.007843
1.000000 0.100981 0.011275
1.000000 0.101471 0.011275
1.000000 0.101471 0.011275
1.000000 0.101471 0.011275
0.016115 0.067096 0.003922
0.020527 0.067096 0.003922
0.025367 0.067096 0.003922
0.030209 0.067096 0.003922
0.035049 0.067096 0.003922
0.039890 0.067770 0.003922
0.045159 0.067525 0.003922
0.051409 0.071017 0.003922
0.062255 0.071017 0.003922
0.071017 0.071017 0.003922
0.079779 0.071017 0.003922
0.092463 0.071017 0.003922
0.105147 0.071017 0.003922
0.118015 0.071017 0.003922
0.131618 0.071017 0.003922
0.145221 0.071017 0.003922
0.162745 0.071017 0.003922
0.180269 0.071446 0.003922
0.194731 0.074939 0.003922
0.215319 0.074939 0.003922
0.235539 0.074939 0.003922
0.257905 0.074939 0.003922
0.280269 0.078860 0.003922
0.306557 0.078860 0.003922
0.332843 0.078860 0.003922
0.362500 0.078860 0.003922
0.385417 0.079289 0.003922
0.411703 0.082782 0.003922
0.434069 0.082782 0.004351
0.456434 0.082782 0.004351
0.478676 0.082782 0.004351
0.500122 0.083823 0.004351
0.523529 0.086704 0.004351
0.545895 0.086704 0.007843
0.572181 0.086704 0.007843
0.598468 0.087501 0.007843
0.620833 0.090625 0.007843
0.647120 0.090625 0.007843
0.669853 0.090625 0.007843
0.695772 0.091176 0.007843
0.718137 0.094547 0.007843
0.738541 0.094547 0.007843
0.763481 0.094547 0.007843
0.785233 0.094976 0.007843
0.807598 0.098468 0.008272
0.829963 0.098468 0.008272
0.849264 0.098468 0.008272
0.870772 0.098468 0.008272
0.892157 0.099448 0.011765
0.913603 0.098897 0.011765
0.931127 0.102390 0.011765
0.955883 0.102390 0.011765
0.970098 0.102390 0.011765
0.987623 0.102390 0.011765
0.998652 0.102819 0.011765
1.000000 0.102819 0.011765
1.000000 0.106311 0.011765
1.000000 0.106311 0.011765
1.000000 0.106311 0.011765
1.000000 0.106311 0.011765
1.000000 0.106556 0.011765
1.000000 0.110233 0.011765
1.000000 0.110233 0.012194
1.000000 0.110233 0.012194
1.000000 0.110233 0.012194
0.019608 0.077206 0.003922
0.024877 0.077206 0.003922
0.029289 0.077206 0.003922
0.034130 0.077206 0.003922
0.038971 0.079779 0.003922
0.044485 0.079779 0.003922
0.048407 0.079779 0.003922
0.057415 0.079779 0.003922
0.066177 0.079779 0.003922
0.071017 0.079779 0.003922
0.079779 0.079779 0.003922
0.092463 0.079779 0.003922
0.105147 0.079779 0.003922
0.118015 0.079779 0.003922
0.131618 0.081127 0.003922
0.145221 0.081127 0.003922
0.162745 0.081127 0.003922
0.180269 0.083701 0.003922
0.197794 0.083701 0.003922
0.215319 0.083701 0.005270
0.236765 0.083701 0.005270
0.257905 0.087316 0.005270
0.280269 0.087623 0.005270
0.306557 0.087623 0.005270
0.334191 0.090074 0.005270
0.363052 0.088971 0.005270
0.388970 0.091544 0.007843
0.411703 0.091544 0.007843
0.434069 0.091544 0.007843
0.456434 0.091544 0.007843
0.478676 0.092892 0.007843
0.501470 0.095466 0.007843
0.523529 0.095466 0.007843
0.545895 0.095466 0.007843
0.572181 0.099265 0.007843
0.598468 0.099387 0.009191
0.620465 0.099387 0.007475
0.647120 0.099387 0.007843
0.673407 0.099387 0.009191
0.695772 0.099938 0.009191
0.718138 0.103309 0.011765
0.742034 0.103309 0.011765
0.763481 0.106618 0.011765
0.785233 0.107230 0.011765
0.807598 0.107230 0.011765
0.829963 0.107230 0.011765
0.849264 0.107230 0.011765
0.870772 0.108578 0.011765
0.892157 0.111152 0.011765
0.911581 0.111152 0.011765
0.931127 0.111152 0.011765
0.952390 0.111152 0.011765
0.970098 0.111152 0.013113
0.987623 0.112500 0.013113
0.998652 0.115073 0.013113
1.000000 0.115073 0.013113
1.000000 0.115073 0.016544
1.000000 0.115073 0.013113
1.000000 0.115073 0.015686
1.000000 0.118321 0.015686
1.000000 0.118995 0.012010
1.000000 0.118995 0.015686
1.000000 0.118995 0.015686
1.000000 0.118995 0.015686
1.000000 0.118995 0.015686
0.023529 0.088542 0.006189
0.029718 0.088542 0.006189
0.033640 0.088542 0.006189
0.038052 0.088542 0.006189
0.042892 0.088542 0.006189
0.046078 0.088542 0.006189
0.052573 0.088542 0.006189
0.061336 0.090809 0.006189
0.066177 0.090809 0.006189
0.076777 0.090809 0.006189
0.081127 0.090809 0.006189
0.092463 0.090809 0.006189
0.106066 0.092463 0.006189
0.118015 0.092463 0.006189
0.131618 0.092463 0.005025
0.145221 0.092463 0.007843
0.162745 0.092463 0.007843
0.180269 0.092463 0.007843
0.197794 0.094730 0.007843
0.215319 0.094730 0.007843
0.236765 0.096385 0.007843
0.258211 0.096385 0.007843
0.284191 0.096385 0.007843
0.310478 0.097917 0.007843
0.336764 0.100306 0.007843
0.363052 0.100306 0.007843
0.389338 0.100306 0.007843
0.411703 0.100306 0.007843
0.435785 0.102573 0.010110
0.455577 0.104228 0.010110
0.478676 0.104228 0.013910
0.501164 0.104228 0.010110
0.523529 0.106495 0.011765
0.546936 0.106495 0.011765
0.572181 0.108149 0.011765
0.598468 0.108149 0.011765
0.623039 0.110416 0.011765
0.647120 0.110416 0.011765
0.673407 0.112071 0.011765
0.695772 0.112071 0.011765
0.718137 0.112071 0.011765
0.742034 0.114461 0.011765
0.763481 0.115992 0.011765
0.785233 0.115992 0.011765
0.807598 0.115992 0.014032
0.829963 0.115992 0.014032
0.849264 0.118260 0.014032
0.870711 0.119914 0.014032
0.892157 0.119914 0.015686
0.911581 0.119914 0.015686
0.931127 0.122733 0.015686
0.948652 0.122181 0.015686
0.970098 0.123836 0.015686
0.987623 0.123836 0.015686
0.998652 0.123836 0.015686
1.000000 0.123836 0.015686
1.000000 0.126103 0.015686
1.000000 0.126103 0.015686
1.000000 0.127757 0.017953
1.000000 0.127757 0.017953
1.000000 0.127757 0.017953
1.000000 0.127757 0.017953
1.000000 0.127757 0.019608
1.000000 0.127757 0.019608
1.000000 0.127757 0.019608
0.027451 0.101226 0.007843
0.034559 0.101226 0.007843
0.038481 0.101226 0.007843
0.038052 0.101226 0.007843
0.042402 0.101226 0.007843
0.047733 0.101226 0.007843
0.058089 0.101226 0.007843
0.061336 0.101226 0.007843
0.070098 0.101226 0.007843
0.074939 0.101226 0.007843
0.083701 0.104411 0.007843
0.092463 0.104411 0.007843
0.105147 0.104411 0.007843
0.117831 0.104411 0.007843
0.128431 0.102328 0.007843
0.145221 0.105147 0.007843
0.162745 0.105147 0.007843
0.180269 0.105147 0.007843
0.197794 0.105147 0.007843
0.218505 0.108333 0.007843
0.236765 0.108333 0.007843
0.261826 0.108333 0.007843
0.284191 0.109069 0.007843
0.310478 0.112254 0.007843
0.336764 0.112254 0.011030
0.363052 0.112254 0.011030
0.389338 0.112990 0.008211
0.411703 0.112990 0.011765
0.435785 0.112990 0.011765
0.457231 0.116176 0.011765
0.478799 0.116176 0.011765
0.501164 0.116912 0.011765
0.523529 0.116912 0.011765
0.550122 0.116912 0.011765
0.572181 0.120098 0.011765
0.598468 0.120834 0.011765
0.626226 0.120834 0.011765
0.647120 0.124019 0.011765
0.673407 0.124019 0.011765
0.695772 0.124755 0.014951
0.718137 0.124755 0.014951
0.742034 0.124755 0.014951
0.763481 0.128064 0.015686
0.785233 0.125062 0.015686
0.807598 0.128677 0.015686
0.826777 0.128677 0.015686
0.849264 0.128677 0.015686
0.870711 0.131862 0.015686
0.892157 0.131862 0.015686
0.911581 0.132598 0.018873
0.931127 0.132598 0.018873
0.948652 0.132598 0.018873
0.970098 0.135784 0.016421
0.985968 0.135784 0.019608
0.998652 0.135172 0.019608
1.000000 0.136520 0.019608
1.000000 0.136520 0.019608
1.000000 0.136520 0.019608
1.000000 0.139705 0.019608
1.000000 0.139705 0.019608
1.000000 0.136764 0.019608
1.000000 0.140441 0.019608
1.000000 0.140441 0.019608
1.000000 0.140441 0.019608
1.000000 0.140441 0.019608
0.031557 0.113909 0.007843
0.035478 0.113909 0.007843
0.039400 0.113909 0.007843
0.045895 0.113909 0.007843
0.050735 0.113909 0.007843
0.055576 0.113909 0.007843
0.060417 0.113909 0.007843
0.065258 0.113909 0.007843
0.074020 0.113909 0.007843
0.078860 0.113909 0.007843
0.087623 0.114093 0.007843
0.098652 0.114093 0.007843
0.105331 0.114093 0.007843
0.117831 0.114093 0.008027
0.130515 0.114093 0.008027
0.145221 0.117831 0.008027
0.162745 0.117831 0.008027
0.180269 0.117831 0.008027
0.197794 0.117831 0.011765
0.215503 0.117831 0.011765
0.239461 0.118015 0.011765
0.261826 0.118015 0.011765
0.288113 0.121753 0.011765
0.314400 0.121753 0.011765
0.340686 0.121937 0.011765
0.366973 0.121937 0.011765
0.389154 0.125674 0.011765
0.414338 0.125674 0.011765
0.435785 0.125674 0.011765
0.457231 0.125858 0.011949
0.478799 0.125858 0.011949
0.501164 0.129596 0.011949
0.521752 0.129596 0.011949
0.549816 0.129596 0.011949
0.576103 0.129780 0.015686
0.598468 0.133517 0.015686
0.624755 0.133517 0.015686
0.644669 0.133517 0.015686
0.673407 0.137070 0.015686
