Color/Kodak/Kodak Kodachrome 200 65x.cube
TITLE "Kodak Kodachrome 200"
LUT_3D_SIZE 9
DOMAIN_MIN 0.000000 0.000000 0.000000
DOMAIN_MAX 1.000000 1.000000 1.000000
0.000000 0.000000 0.000000
0.058334 0.000000 0.000000
0.158823 0.000000 0.000000
0.314706 0.000000 0.000000
0.492157 0.000000 0.003922
0.638235 0.000000 0.003922
0.750981 0.000000 0.007843
0.855392 0.000000 0.011765
0.917647 0.000000 0.011765
0.030883 0.074020 0.023039
0.081863 0.073530 0.023039
0.197549 0.070098 0.026961
0.353432 0.070098 0.030883
0.517157 0.066177 0.034804
0.653922 0.061765 0.034804
0.762745 0.054412 0.029902
0.863235 0.042647 0.023529
0.925490 0.034804 0.026961
0.086275 0.205882 0.089216
0.128922 0.205882 0.089216
0.228432 0.205882 0.093137
0.388235 0.201961 0.097059
0.537254 0.198039 0.100981
0.671079 0.190196 0.097059
0.773529 0.178431 0.089216
0.871568 0.162745 0.073529
0.936274 0.150000 0.057844
0.026471 0.377451 0.163235
0.121568 0.377451 0.163235
0.263236 0.377451 0.167157
0.416667 0.377451 0.171078
0.556863 0.373529 0.167157
0.677451 0.368137 0.163235
0.781373 0.363236 0.155392
0.879412 0.348529 0.139706
0.945098 0.336764 0.124020
0.135294 0.525490 0.258823
0.210784 0.525490 0.260784
0.326471 0.525490 0.260784
0.451961 0.525490 0.260784
0.576470 0.525490 0.256863
0.683824 0.524020 0.247058
0.782353 0.521568 0.229412
0.882843 0.513726 0.201961
0.945098 0.509804 0.182353
0.300980 0.640686 0.363725
0.332353 0.640686 0.366176
0.404412 0.640686 0.366176
0.500490 0.640686 0.363725
0.599510 0.640686 0.357843
0.693137 0.640686 0.348039
0.785294 0.638235 0.330882
0.884314 0.637745 0.300490
0.949020 0.632843 0.268137
0.416666 0.738235 0.467647
0.436275 0.738235 0.467647
0.486274 0.738235 0.467647
0.552451 0.738235 0.467647
0.629412 0.738235 0.463726
0.707353 0.738235 0.455883
0.793137 0.735294 0.441177
0.887255 0.734314 0.413235
0.952941 0.731373 0.378432
0.510294 0.832353 0.565196
0.525491 0.832353 0.565196
0.553431 0.832353 0.565196
0.602451 0.832353 0.561764
0.660784 0.832353 0.561274
0.727451 0.832353 0.557353
0.805393 0.832353 0.549510
0.898529 0.832353 0.529902
0.964706 0.831863 0.506862
0.592157 0.949020 0.666667
0.600000 0.949020 0.666667
0.619608 0.949020 0.666667
0.653431 0.949020 0.666667
0.700000 0.952941 0.666667
0.758333 0.952941 0.666667
0.828432 0.952941 0.662745
0.914215 0.952941 0.650980
0.988235 0.952941 0.635294
0.000000 0.000000 0.015686
0.050490 0.000000 0.019608
0.150980 0.000000 0.023039
0.313235 0.000000 0.026961
0.490197 0.000000 0.031373
0.638235 0.000000 0.031373
0.753922 0.000000 0.026961
0.855882 0.000000 0.015686
0.921569 0.000000 0.011765
0.026961 0.073530 0.073530
0.074020 0.070098 0.074020
0.190196 0.070098 0.077941
0.349510 0.069608 0.081863
0.513726 0.065687 0.085785
0.653922 0.058334 0.081863
0.761764 0.054412 0.074020
0.863235 0.042157 0.058334
0.925490 0.030883 0.042647
0.082353 0.205882 0.135784
0.125000 0.205882 0.135784
0.224510 0.201961 0.139706
0.383823 0.201961 0.143627
0.537254 0.197059 0.143627
0.667157 0.189216 0.136274
0.772549 0.178431 0.125000
0.871568 0.162745 0.108333
0.936274 0.147059 0.092647
0.019117 0.377451 0.213725
0.110294 0.377451 0.213725
0.259314 0.377451 0.217647
0.412745 0.377451 0.217647
0.556863 0.373529 0.216667
0.675980 0.369608 0.205882
0.778432 0.361765 0.190196
0.878921 0.348529 0.170098
0.941176 0.336764 0.151471
0.124019 0.529411 0.305392
0.202941 0.529411 0.305392
0.321569 0.529411 0.307353
0.448039 0.527451 0.307353
0.572549 0.525490 0.303431
0.681372 0.525490 0.295588
0.778432 0.521568 0.279412
0.878921 0.513726 0.248529
0.945098 0.509804 0.221078
0.293137 0.642157 0.404902
0.328431 0.642157 0.404902
0.400490 0.642157 0.404902
0.495098 0.642157 0.404902
0.596078 0.642157 0.400981
0.689216 0.640686 0.393137
0.781373 0.638235 0.377451
0.879412 0.636765 0.347059
0.945098 0.632843 0.316177
0.412745 0.738235 0.495098
0.433334 0.738235 0.495098
0.482353 0.738235 0.495098
0.548530 0.738235 0.495098
0.625490 0.738235 0.493627
0.704412 0.738235 0.487255
0.790196 0.738235 0.476471
0.883824 0.734804 0.452451
0.952941 0.734314 0.425000
0.510294 0.832353 0.584314
0.522059 0.832353 0.584314
0.552451 0.832353 0.584314
0.599019 0.835294 0.581372
0.657353 0.835784 0.580882
0.726961 0.835784 0.577451
0.804902 0.835784 0.572549
0.895098 0.832353 0.556863
0.964706 0.831863 0.537255
0.588235 0.952941 0.678431
0.599510 0.952941 0.678431
0.619608 0.952941 0.681863
0.653431 0.952941 0.681863
0.700000 0.952941 0.681863
0.758333 0.952941 0.678431
0.824509 0.953922 0.677941
0.910784 0.956863 0.666667
0.984314 0.956863 0.654412
0.000000 0.000000 0.069608
0.046569 0.000000 0.069608
0.147059 0.000000 0.073529
0.309314 0.000000 0.077451
0.490197 0.000000 0.081372
0.638235 0.000000 0.078431
0.750981 0.000000 0.070588
0.855882 0.000000 0.057843
0.921569 0.000000 0.042157
0.020098 0.070098 0.143137
0.069608 0.070098 0.143627
0.185784 0.069608 0.143627
0.345098 0.066177 0.147549
0.511764 0.062255 0.147549
0.650000 0.058334 0.141667
0.758824 0.050490 0.127941
0.863235 0.038726 0.107843
0.925490 0.030883 0.089216
0.074510 0.201961 0.208824
0.117157 0.201961 0.209804
0.216667 0.201961 0.212745
0.377451 0.198039 0.216667
0.533334 0.194117 0.214706
0.661765 0.186274 0.207353
0.769607 0.176470 0.190196
0.871078 0.158823 0.162745
0.933333 0.146079 0.139215
0.012255 0.377451 0.294118
0.094117 0.377451 0.295098
0.247549 0.377451 0.298530
0.407353 0.377451 0.299510
0.549019 0.373529 0.298530
0.669608 0.368137 0.290687
0.773529 0.360294 0.275000
0.875000 0.348529 0.247059
0.941176 0.336764 0.217157
0.100980 0.529411 0.383333
0.183333 0.529411 0.385294
0.309804 0.529411 0.387255
0.439706 0.529411 0.389216
0.564705 0.527451 0.387255
0.673529 0.525490 0.380392
0.773529 0.521568 0.366667
0.872549 0.517648 0.338235
0.939215 0.509804 0.309804
0.281372 0.644608 0.467157
0.318628 0.644608 0.467157
0.392647 0.644608 0.467157
0.489706 0.643628 0.468628
0.590196 0.642157 0.467157
0.683824 0.642157 0.463236
0.774510 0.640686 0.455392
0.873529 0.636765 0.432843
0.941176 0.634314 0.407353
0.405883 0.739216 0.542156
0.425980 0.739216 0.543137
0.474510 0.739216 0.545098
0.544608 0.739216 0.545098
0.620588 0.739216 0.545098
0.699510 0.738235 0.541176
0.785294 0.738235 0.534313
0.879412 0.735294 0.521569
0.945098 0.734314 0.501961
0.502451 0.835784 0.619118
0.517647 0.835784 0.619118
0.548530 0.835784 0.619118
0.595098 0.835784 0.620098
0.653431 0.835784 0.620098
0.723039 0.835784 0.619118
0.801471 0.835784 0.615196
0.891176 0.835784 0.603432
0.960784 0.832353 0.589215
0.588235 0.952941 0.705882
0.596078 0.952941 0.705882
0.615686 0.952941 0.705882
0.650490 0.956863 0.705882
0.696079 0.956863 0.708824
0.754412 0.956863 0.708824
0.824510 0.956863 0.705882
0.910294 0.956863 0.698039
0.984314 0.956863 0.689216
0.000000 0.000000 0.153922
0.036275 0.000000 0.155392
0.139215 0.000000 0.159314
0.302941 0.000000 0.163235
0.484314 0.000000 0.167157
0.632843 0.000000 0.160294
0.747059 0.000000 0.147549
0.853431 0.000000 0.123530
0.921569 0.000000 0.102941
0.012745 0.070098 0.233333
0.057843 0.069608 0.233333
0.174020 0.066177 0.237255
0.336764 0.062255 0.241176
0.505392 0.061765 0.243628
0.642157 0.054412 0.237255
0.753922 0.046569 0.223039
0.855882 0.037745 0.196078
0.921569 0.026961 0.169118
0.066667 0.201961 0.301961
0.105392 0.200981 0.303431
0.201961 0.198039 0.307353
0.368627 0.194117 0.311275
0.525490 0.190196 0.311275
0.653922 0.182353 0.307353
0.761764 0.170588 0.293137
0.863235 0.154902 0.266176
0.929412 0.139215 0.239216
0.008334 0.377451 0.381373
0.066666 0.377451 0.383823
0.232353 0.377451 0.387745
0.397059 0.373529 0.391666
0.541176 0.372059 0.393137
0.661765 0.365686 0.389216
0.765686 0.357843 0.379902
0.867157 0.344608 0.356372
0.933333 0.332843 0.332843
0.070098 0.529411 0.459314
0.161765 0.529411 0.461765
0.297549 0.529411 0.463236
0.430392 0.529411 0.467157
0.556863 0.527451 0.469608
0.665686 0.525490 0.467157
0.764706 0.521568 0.461765
0.863725 0.516667 0.446078
0.929412 0.509804 0.426471
0.265686 0.644608 0.533333
0.304412 0.644608 0.533333
0.380883 0.644608 0.533333
0.480883 0.644608 0.537255
0.582353 0.644608 0.537255
0.675980 0.642157 0.537255
0.769607 0.640686 0.533333
0.867157 0.637745 0.521569
0.933333 0.634314 0.508334
0.394118 0.739216 0.597059
0.417647 0.739216 0.598529
0.466667 0.742156 0.599510
0.536764 0.742156 0.599510
0.613725 0.739216 0.602451
0.693137 0.739216 0.601961
0.779902 0.739216 0.599510
0.875000 0.738235 0.591667
0.941176 0.735294 0.579902
0.498529 0.836274 0.661765
0.510294 0.836274 0.661765
0.541666 0.836274 0.663235
0.588725 0.836274 0.663235
0.649510 0.836274 0.665686
0.719118 0.836274 0.665686
0.797549 0.836274 0.663235
0.887255 0.836274 0.657843
0.957353 0.835784 0.649510
0.584314 0.956863 0.739706
0.592157 0.956863 0.739706
0.611765 0.959314 0.739706
0.647059 0.960784 0.741176
0.693628 0.960784 0.741176
0.750490 0.960784 0.743627
0.820588 0.960784 0.741176
0.908333 0.964706 0.737255
0.988235 0.963235 0.729412
0.000000 0.000000 0.254902
0.025000 0.000000 0.258823
0.123529 0.000000 0.263726
0.291177 0.000000 0.270589
0.474510 0.000000 0.274509
0.622549 0.000000 0.272549
0.738235 0.000000 0.262745
0.844117 0.000000 0.239215
0.913725 0.000000 0.215687
0.007843 0.063726 0.326961
0.046079 0.062255 0.329411
0.158823 0.061765 0.334804
0.324020 0.058334 0.341176
0.494117 0.054412 0.346569
0.634314 0.050490 0.345098
0.743137 0.042647 0.338725
0.847549 0.030883 0.320588
0.913725 0.023039 0.297549
0.057843 0.194117 0.389216
0.096568 0.194117 0.389216
0.190196 0.191176 0.395098
0.356372 0.187255 0.400981
0.516667 0.182353 0.404902
0.646078 0.174510 0.404902
0.750981 0.162745 0.400981
0.851961 0.147059 0.385294
0.917647 0.131372 0.367647
0.008334 0.373529 0.459314
0.038235 0.373529 0.463236
0.216176 0.372059 0.467157
0.385294 0.369608 0.475000
0.533334 0.365686 0.478922
0.653922 0.360294 0.478922
0.757843 0.352451 0.475000
0.859314 0.338725 0.463236
0.923530 0.325000 0.450000
0.033334 0.529411 0.529411
0.130392 0.529411 0.533334
0.282353 0.529411 0.537254
0.420098 0.527451 0.541176
0.549019 0.525490 0.545098
0.657843 0.525490 0.545098
0.757843 0.521568 0.545098
0.859314 0.513726 0.537254
0.925490 0.505883 0.525490
0.245588 0.644608 0.591666
0.286765 0.644608 0.593627
0.368137 0.644608 0.595588
0.471079 0.644608 0.599510
0.574510 0.644118 0.601961
0.669608 0.642157 0.603431
0.761764 0.640686 0.601961
0.859804 0.636765 0.597549
0.925490 0.634314 0.590196
0.384314 0.742156 0.648039
0.405883 0.742156 0.649020
0.458824 0.742156 0.650000
0.528922 0.742156 0.652941
0.606863 0.742156 0.653922
0.687745 0.742156 0.655882
0.774510 0.739216 0.655883
0.871078 0.738235 0.651960
0.937255 0.735294 0.646078
0.490686 0.839706 0.704412
0.502451 0.839706 0.706372
0.533823 0.839706 0.706372
0.583333 0.839706 0.708333
0.645098 0.839706 0.708333
0.715196 0.839706 0.710294
0.793627 0.839706 0.710294
0.886765 0.839706 0.707843
0.956863 0.836274 0.702451
0.578431 0.964706 0.776471
0.588235 0.964706 0.776471
0.607843 0.964706 0.776471
0.641667 0.964706 0.778431
0.688236 0.964706 0.780392
0.746569 0.966176 0.780392
0.816667 0.968627 0.782353
0.906862 0.968627 0.778432
0.988235 0.968627 0.774510
0.000000 0.000000 0.346569
0.013725 0.000000 0.354412
0.107843 0.000000 0.358333
0.277941 0.000000 0.367647
0.464706 0.000000 0.375490
0.614706 0.000000 0.379412
0.727451 0.000000 0.377941
0.835784 0.000000 0.367647
0.901961 0.000000 0.355882
0.003922 0.056373 0.408824
0.030883 0.054412 0.412745
0.141176 0.053922 0.416667
0.309314 0.050490 0.424510
0.485784 0.046569 0.432353
0.624510 0.042647 0.436275
0.734314 0.034804 0.432843
0.838235 0.023039 0.424510
0.901961 0.015686 0.414706
0.046079 0.182353 0.460294
0.080882 0.182353 0.463236
0.174510 0.178431 0.468137
0.345098 0.174510 0.475000
0.505883 0.170588 0.482843
0.638235 0.162745 0.485295
0.743137 0.150000 0.482843
0.844117 0.131372 0.475000
0.909804 0.115686 0.467157
0.009804 0.365686 0.525490
0.035295 0.365686 0.529412
0.197059 0.364215 0.533333
0.373529 0.361765 0.541176
0.525490 0.357843 0.545098
0.648529 0.352451 0.549020
0.750981 0.342157 0.549020
0.851961 0.328431 0.542647
0.917647 0.313235 0.534804
0.000000 0.525490 0.590196
0.083823 0.525490 0.591666
0.260784 0.525490 0.595588
0.408824 0.525490 0.599510
0.541176 0.521568 0.605392
0.652451 0.521568 0.607353
0.750981 0.517648 0.609314
0.851961 0.509804 0.606863
0.918137 0.501961 0.601471
0.220098 0.642157 0.644608
0.267647 0.642157 0.646078
0.353432 0.642157 0.648529
0.461275 0.642157 0.652451
0.568137 0.642157 0.656373
0.664216 0.640686 0.657843
0.757843 0.638235 0.660294
0.855882 0.636765 0.657843
0.925490 0.632843 0.653922
0.369607 0.742156 0.695588
0.394118 0.742156 0.696569
0.447059 0.742156 0.699019
0.521079 0.742156 0.700490
0.599510 0.742156 0.703431
0.683824 0.742156 0.706863
0.770588 0.739216 0.707353
0.867157 0.738235 0.706863
0.934314 0.735294 0.703431
0.478921 0.840196 0.749510
0.494118 0.840196 0.749510
0.525980 0.840196 0.750981
0.575490 0.840196 0.753431
0.637255 0.840196 0.754902
0.707843 0.840196 0.757353
0.789216 0.840196 0.758333
0.883333 0.839706 0.757353
0.953431 0.836274 0.754412
0.572549 0.968627 0.817157
0.580392 0.968627 0.817157
0.600000 0.968627 0.817157
0.636275 0.968627 0.819608
0.684314 0.970588 0.821078
0.742647 0.972549 0.823529
0.812745 0.972549 0.825000
0.902941 0.972549 0.825000
0.988235 0.972549 0.821078
0.000000 0.000000 0.424509
0.007353 0.000000 0.428432
0.088235 0.000000 0.436275
0.258333 0.000000 0.444117
0.454902 0.000000 0.455882
0.605883 0.000000 0.459804
0.722549 0.000000 0.463726
0.827941 0.000000 0.459804
0.894118 0.000000 0.455882
0.000000 0.046569 0.471569
0.019118 0.042647 0.475490
0.123039 0.042647 0.481863
0.292157 0.038726 0.490686
0.472549 0.034804 0.498529
0.614706 0.030883 0.502941
0.726470 0.023039 0.502941
0.831863 0.015196 0.502451
0.898039 0.010294 0.498529
0.030392 0.166666 0.518628
0.064216 0.164706 0.521569
0.156863 0.162745 0.525490
0.329412 0.158823 0.532843
0.496078 0.150980 0.541176
0.630392 0.143137 0.545098
0.738235 0.131372 0.546079
0.839706 0.113725 0.544117
0.905882 0.099020 0.538235
0.017157 0.352451 0.579902
0.039215 0.352451 0.582843
0.173530 0.351471 0.587745
0.360294 0.348529 0.595588
0.517648 0.343628 0.599019
0.642157 0.336764 0.604902
0.746079 0.327941 0.607353
0.848039 0.310785 0.603432
0.913725 0.295098 0.599510
0.000000 0.521568 0.641176
0.031372 0.521568 0.642157
0.237255 0.521568 0.646078
0.395098 0.517648 0.652941
0.533334 0.517648 0.657843
0.646078 0.513726 0.661765
0.746079 0.509804 0.664706
0.848039 0.501961 0.664706
0.917647 0.495098 0.661765
0.187255 0.640686 0.695098
0.237745 0.640686 0.695588
0.335784 0.640686 0.699019
0.449510 0.640686 0.702941
0.558823 0.640686 0.707353
0.656373 0.638235 0.710784
0.751471 0.636765 0.712255
0.851961 0.632843 0.714706
0.921569 0.628922 0.712255
0.350000 0.742156 0.743137
0.374510 0.742156 0.746079
0.431373 0.742156 0.747059
0.509314 0.742156 0.750000
0.591176 0.739216 0.753922
0.675980 0.739216 0.757843
0.765686 0.738235 0.758824
0.863235 0.735294 0.758824
0.933333 0.734314 0.758824
0.466667 0.840196 0.796568
0.478921 0.840196 0.796568
0.513236 0.840196 0.797549
0.565196 0.840196 0.800490
0.629412 0.840196 0.801471
0.700490 0.840196 0.805393
0.785294 0.840196 0.808333
0.879412 0.840196 0.808824
0.952941 0.839706 0.808333
0.560784 0.972549 0.859804
0.571078 0.972549 0.859804
0.592157 0.973530 0.862745
0.627451 0.976471 0.863726
0.676470 0.976471 0.867647
0.737745 0.976471 0.868137
0.808823 0.980392 0.871568
0.902451 0.980392 0.874510
0.992157 0.980392 0.871568
0.000000 0.000000 0.486765
0.002942 0.000000 0.490686
0.068137 0.000000 0.497059
0.238725 0.000000 0.506372
0.443138 0.000000 0.518137
0.597549 0.000000 0.523039
0.714706 0.000000 0.529902
0.824019 0.000000 0.529902
0.890196 0.000000 0.529902
0.000000 0.030883 0.525980
0.007843 0.030883 0.529902
0.096078 0.026961 0.536765
0.270098 0.026470 0.545098
0.461765 0.022549 0.553431
0.606863 0.018628 0.560784
0.721568 0.011765 0.564216
0.824510 0.006863 0.564216
0.890196 0.003432 0.560784
0.014706 0.141667 0.568137
0.041666 0.139215 0.571568
0.131372 0.137745 0.575981
0.307843 0.131372 0.583824
0.484804 0.126961 0.592647
0.618627 0.115686 0.599019
0.730392 0.106863 0.600490
0.832353 0.087745 0.600490
0.898039 0.075980 0.596568
0.023529 0.332353 0.629902
0.042647 0.332353 0.630392
0.142157 0.328922 0.637745
0.344118 0.325000 0.645588
0.505883 0.321078 0.649510
0.634314 0.313235 0.657353
0.739216 0.300980 0.657843
0.843627 0.283824 0.657843
0.909804 0.266176 0.655392
0.000000 0.509804 0.692157
0.000000 0.509804 0.692647
0.198529 0.509804 0.696569
0.375490 0.509804 0.704412
0.521568 0.505883 0.710294
0.638235 0.501961 0.716177
0.742157 0.498039 0.719608
0.844117 0.490196 0.720098
0.913725 0.482353 0.720098
0.125490 0.634314 0.745588
0.193628 0.634314 0.746569
0.303922 0.634314 0.751961
0.429902 0.634314 0.754412
0.544608 0.633824 0.758824
0.646078 0.632843 0.762745
0.746079 0.629902 0.766667
0.848039 0.625980 0.770588
0.917647 0.622059 0.770588
0.319118 0.738235 0.793627
0.349019 0.738235 0.796568
0.408333 0.738235 0.797549
0.494608 0.738235 0.801471
0.578431 0.738235 0.805393
0.665196 0.735294 0.809314
0.757843 0.735294 0.813236
0.856373 0.734314 0.816666
0.929412 0.730392 0.817157
0.443627 0.840196 0.847549
0.459314 0.840196 0.847549
0.494608 0.840196 0.848039
0.548039 0.840196 0.851961
0.614216 0.840196 0.855392
0.691667 0.840196 0.859314
0.774510 0.839706 0.863235
0.871568 0.839706 0.867157
0.949510 0.836274 0.867157
0.545098 0.980392 0.914215
0.555883 0.980392 0.914215
0.576471 0.980392 0.914215
0.614216 0.980392 0.918137
0.664706 0.980882 0.922059
0.726961 0.984314 0.925980
0.800981 0.984314 0.929902
0.895098 0.988235 0.933823
0.992157 0.988235 0.933823
0.000000 0.000000 0.513726
0.000000 0.000000 0.521569
0.052941 0.000000 0.525490
0.226961 0.000000 0.537255
0.433334 0.000000 0.547059
0.591176 0.000000 0.554412
0.710784 0.000000 0.560784
0.820098 0.000000 0.564706
0.890196 0.000000 0.564706
0.000000 0.023039 0.552941
0.003922 0.023039 0.556863
0.080392 0.019608 0.560784
0.254412 0.019118 0.572059
0.449019 0.015196 0.580392
0.599020 0.011275 0.588235
0.714706 0.007353 0.592157
0.820588 0.003432 0.592157
0.886275 0.000000 0.591667
0.007843 0.123529 0.595098
0.026471 0.123529 0.595098
0.115686 0.119608 0.602942
0.294118 0.115686 0.610785
0.474509 0.107843 0.618628
0.616177 0.100000 0.623529
0.723530 0.088235 0.627451
0.828431 0.072549 0.627451
0.894118 0.060784 0.627451
0.015686 0.317157 0.653431
0.036274 0.313235 0.657353
0.125490 0.313235 0.661275
0.328921 0.309314 0.669118
0.498040 0.301470 0.676961
0.628922 0.293627 0.680882
0.735294 0.281863 0.684804
0.840196 0.264216 0.684804
0.905882 0.242647 0.684804
0.000000 0.501961 0.717647
0.000000 0.501961 0.719608
0.166666 0.501961 0.723530
0.364216 0.500000 0.731372
0.513726 0.498039 0.739216
0.632843 0.494117 0.743137
0.738235 0.488235 0.747059
0.843627 0.478432 0.750981
0.909804 0.468627 0.750981
0.049510 0.630392 0.772549
0.152450 0.630392 0.774020
0.281863 0.630392 0.777941
0.418137 0.630392 0.781863
0.537254 0.628922 0.788235
0.642157 0.626470 0.793627
0.739216 0.625000 0.797549
0.844117 0.618627 0.801471
0.915196 0.614706 0.801471
0.289216 0.734314 0.824510
0.323039 0.734313 0.824510
0.392156 0.734313 0.828431
0.477942 0.734314 0.833824
0.567647 0.734314 0.836274
0.657353 0.734313 0.840196
0.750981 0.731373 0.844118
0.851960 0.727451 0.848039
0.926471 0.726471 0.851961
0.424019 0.839706 0.878921
0.439706 0.839706 0.878921
0.475490 0.839706 0.882353
0.536274 0.839706 0.882843
0.605882 0.836274 0.886765
0.680392 0.836274 0.894118
0.769607 0.836274 0.898529
0.867647 0.835784 0.902451
0.949020 0.832353 0.906372
0.529412 0.980392 0.952941
0.537255 0.980392 0.952941
0.560784 0.980392 0.956863
0.600000 0.984314 0.956863
0.650980 0.984314 0.964706
0.715196 0.988235 0.968627
0.789215 0.988235 0.976471
0.887255 0.992157 0.984314
1.000000 0.996078 0.996078
