Color/Kodak/Kodak Kodachrome 64 Generic 65x.cube
TITLE "Kodak Kodachrome 64 Generic"
LUT_3D_SIZE 9
DOMAIN_MIN 0.000000 0.000000 0.000000
DOMAIN_MAX 1.000000 1.000000 1.000000
0.000000 0.000000 0.000000
0.070098 0.000000 0.000000
0.170588 0.000000 0.000000
0.332843 0.000000 0.000000
0.527451 0.000000 0.000000
0.725981 0.001471 0.000000
0.900000 0.003922 0.000000
1.000000 0.007843 0.000000
1.000000 0.007843 0.000000
0.011765 0.058334 0.000000
0.061765 0.058334 0.000000
0.162745 0.062255 0.003432
0.332843 0.070098 0.003922
0.521568 0.075980 0.003922
0.718137 0.085295 0.007353
0.892157 0.093138 0.007843
1.000000 0.097549 0.007843
1.000000 0.101471 0.011275
0.050000 0.151961 0.014706
0.081863 0.154902 0.015686
0.158823 0.158823 0.015686
0.344608 0.162745 0.018627
0.527451 0.170588 0.019608
0.718137 0.175490 0.023529
0.889216 0.182353 0.024510
1.000000 0.187255 0.030392
1.000000 0.190196 0.031373
0.019608 0.321079 0.037745
0.031373 0.322549 0.039216
0.101961 0.325000 0.042157
0.334314 0.330392 0.043137
0.519608 0.336764 0.047059
0.708823 0.342157 0.050980
0.876471 0.348529 0.053431
1.000000 0.353922 0.054902
1.000000 0.356372 0.057353
0.000000 0.488235 0.062745
0.000000 0.488236 0.062745
0.048039 0.492157 0.062745
0.303431 0.496079 0.066667
0.507844 0.501961 0.068628
0.693137 0.507844 0.070588
0.856863 0.511764 0.074510
0.987255 0.517648 0.074510
1.000000 0.519608 0.074510
0.000000 0.653922 0.072059
0.000000 0.653922 0.072059
0.000000 0.655392 0.072059
0.259313 0.660294 0.074510
0.490197 0.663235 0.074510
0.673529 0.669608 0.074510
0.831863 0.673529 0.078431
0.957353 0.677451 0.078431
1.000000 0.678922 0.078431
0.000000 0.793137 0.054902
0.000000 0.794118 0.053921
0.000000 0.794118 0.053921
0.256863 0.798039 0.053921
0.484313 0.801961 0.054902
0.661765 0.805883 0.053921
0.809804 0.809804 0.050980
0.921569 0.813726 0.050980
0.996078 0.816667 0.050000
0.000000 0.894608 0.003432
0.000000 0.894608 0.003432
0.052451 0.894608 0.003432
0.325981 0.898529 0.000000
0.515686 0.902451 0.000000
0.673529 0.906372 0.000000
0.805883 0.906862 0.000000
0.906372 0.910294 0.000000
0.996078 0.914215 0.000000
0.000000 1.000000 0.035294
0.003432 1.000000 0.035294
0.132353 1.000000 0.039216
0.361765 1.000000 0.043137
0.529411 1.000000 0.047059
0.673529 1.000000 0.054902
0.789215 1.000000 0.058824
0.891176 1.000000 0.062745
1.000000 1.000000 0.066667
0.000000 0.000000 0.050490
0.070098 0.000000 0.050490
0.170588 0.000000 0.054412
0.332843 0.000000 0.058334
0.527451 0.000000 0.062255
0.725981 0.000000 0.066177
0.900000 0.003922 0.070098
1.000000 0.003922 0.074020
1.000000 0.007843 0.074020
0.011765 0.054412 0.058334
0.062255 0.058334 0.061765
0.162745 0.062255 0.062255
0.332843 0.069608 0.066177
0.523529 0.074020 0.070098
0.718137 0.081863 0.074020
0.892157 0.089706 0.077941
1.000000 0.093628 0.081863
1.000000 0.097549 0.081863
0.047059 0.150980 0.070098
0.081863 0.151961 0.073529
0.162745 0.154902 0.074020
0.344608 0.162745 0.077941
0.527451 0.167647 0.081863
0.718137 0.174510 0.085785
0.889216 0.182353 0.089706
1.000000 0.186274 0.092647
1.000000 0.190196 0.093628
0.019608 0.321079 0.085785
0.032353 0.321079 0.088235
0.105882 0.322549 0.089706
0.336764 0.328921 0.093628
0.519608 0.334314 0.096569
0.708824 0.340686 0.100000
0.875000 0.346078 0.101471
1.000000 0.352451 0.105392
1.000000 0.353922 0.105392
0.000000 0.488235 0.098039
0.000000 0.488235 0.098039
0.050000 0.492157 0.101471
0.303431 0.496078 0.101961
0.509804 0.500000 0.105392
0.693137 0.505883 0.109314
0.856863 0.511764 0.109314
0.988725 0.515686 0.113235
1.000000 0.517648 0.113235
0.000000 0.651471 0.101471
0.000000 0.653922 0.101471
0.000000 0.653922 0.101471
0.260784 0.657843 0.101471
0.492157 0.663235 0.101471
0.673529 0.669608 0.103921
0.832843 0.673529 0.105392
0.956373 0.677451 0.105882
1.000000 0.677451 0.105882
0.000000 0.793137 0.074510
0.000000 0.794118 0.074510
0.000000 0.794118 0.074510
0.257843 0.798039 0.073529
0.484314 0.801961 0.073529
0.661765 0.805883 0.073039
0.809804 0.809804 0.073039
0.922059 0.813726 0.070588
0.996078 0.814216 0.070588
0.000000 0.891176 0.053431
0.000000 0.894608 0.053922
0.053431 0.894608 0.057353
0.329412 0.898529 0.061765
0.514216 0.902451 0.065686
0.673529 0.902941 0.070098
0.805883 0.906372 0.076961
0.906372 0.910294 0.077941
0.996078 0.914215 0.081863
0.000000 1.000000 0.105392
0.003432 1.000000 0.105392
0.133333 1.000000 0.108824
0.361765 1.000000 0.109314
0.529411 1.000000 0.113235
0.673529 1.000000 0.117157
0.789216 1.000000 0.120588
0.891176 1.000000 0.121079
1.000000 1.000000 0.125000
0.000000 0.000000 0.140196
0.073530 0.000000 0.143137
0.170588 0.000000 0.144118
0.332843 0.000000 0.147059
0.527451 0.000000 0.151961
0.725981 0.000000 0.154902
0.900000 0.003922 0.158823
1.000000 0.003922 0.162745
1.000000 0.007843 0.163725
0.011765 0.054412 0.150980
0.062255 0.057844 0.150980
0.162745 0.058334 0.151961
0.332843 0.066177 0.155392
0.521568 0.074020 0.159313
0.718137 0.081373 0.162745
0.892157 0.085785 0.166666
1.000000 0.093628 0.170588
1.000000 0.097549 0.171078
0.047059 0.150980 0.158823
0.081863 0.150980 0.158823
0.162745 0.154902 0.162745
0.344608 0.159804 0.162745
0.527451 0.166666 0.166666
0.718137 0.173039 0.170588
0.889216 0.179412 0.174510
1.000000 0.183824 0.178431
1.000000 0.187255 0.178431
0.019608 0.318628 0.170588
0.032843 0.318628 0.171078
0.105882 0.322549 0.174510
0.336764 0.328921 0.177941
0.519608 0.332843 0.178431
0.708824 0.338235 0.182353
0.876471 0.345588 0.186274
1.000000 0.350000 0.186274
1.000000 0.353432 0.190196
0.000000 0.486274 0.178431
0.000000 0.486274 0.178431
0.056863 0.490197 0.182353
0.306863 0.494117 0.182353
0.509804 0.500000 0.186274
0.693137 0.503922 0.190196
0.856863 0.509804 0.192157
0.988725 0.513726 0.194117
1.000000 0.515686 0.197059
0.000000 0.650000 0.186274
0.000000 0.650000 0.187745
0.000000 0.653922 0.190196
0.260784 0.657843 0.191667
0.492157 0.661765 0.194117
0.673529 0.665686 0.198039
0.833334 0.670588 0.199510
0.957353 0.673529 0.201961
1.000000 0.677451 0.201961
0.000000 0.790196 0.200981
0.000000 0.790196 0.200981
0.000000 0.794118 0.200981
0.260784 0.797058 0.202941
0.484314 0.800981 0.204902
0.661765 0.804902 0.208824
0.812745 0.808823 0.210784
0.925490 0.812745 0.212745
0.996078 0.813726 0.213725
0.000000 0.890686 0.222059
0.000000 0.890686 0.222059
0.060294 0.894608 0.224510
0.329902 0.894608 0.225000
0.515686 0.898529 0.228432
0.674019 0.902451 0.229902
0.808824 0.906372 0.232353
0.906372 0.910294 0.233824
0.996078 0.910294 0.236275
0.000000 0.997059 0.248039
0.003432 1.000000 0.248039
0.144118 1.000000 0.248039
0.364216 1.000000 0.249019
0.529411 1.000000 0.251961
0.673529 1.000000 0.255883
0.790196 1.000000 0.256863
0.891176 1.000000 0.259804
1.000000 1.000000 0.263726
0.000000 0.000000 0.302941
0.073530 0.000000 0.302941
0.170588 0.000000 0.305882
0.332843 0.000000 0.309314
0.527451 0.000000 0.310785
0.725981 0.000000 0.314706
0.900980 0.003922 0.318628
1.000000 0.003922 0.322549
1.000000 0.003922 0.325000
0.012745 0.050490 0.310785
0.062255 0.053922 0.310785
0.162745 0.054412 0.314216
0.332843 0.062255 0.317157
0.523529 0.070098 0.318628
0.718137 0.077941 0.322549
0.892157 0.081863 0.326471
1.000000 0.089706 0.330392
1.000000 0.093628 0.330392
0.050000 0.147059 0.318628
0.081863 0.147059 0.321079
0.162745 0.150980 0.322549
0.347549 0.155882 0.325490
0.527451 0.162745 0.328921
0.720588 0.170588 0.332843
0.889216 0.175490 0.334314
1.000000 0.182353 0.338235
1.000000 0.183333 0.338235
0.019608 0.314706 0.334314
0.034314 0.314706 0.334314
0.109804 0.318628 0.336764
0.338235 0.325000 0.338235
0.519608 0.330392 0.342157
0.708824 0.336765 0.344608
0.876471 0.342157 0.348529
1.000000 0.346079 0.350000
1.000000 0.350000 0.352451
0.000000 0.482353 0.346079
0.000000 0.484314 0.348039
0.063236 0.486274 0.350000
0.307353 0.490197 0.351961
0.511764 0.496078 0.353922
0.694608 0.501961 0.357843
0.856863 0.506863 0.360294
0.990686 0.511765 0.361765
1.000000 0.513726 0.363725
0.000000 0.646078 0.361765
0.000000 0.650000 0.361765
0.000000 0.650000 0.361765
0.264706 0.653922 0.364216
0.494608 0.657843 0.365686
0.677451 0.663235 0.369608
0.833334 0.669608 0.372059
0.957353 0.673529 0.373530
1.000000 0.673529 0.375000
0.000000 0.786275 0.373529
0.000000 0.789215 0.373529
0.000000 0.790196 0.374510
0.265686 0.794118 0.377451
0.488235 0.798039 0.378431
0.663235 0.801961 0.381373
0.813726 0.805883 0.383823
0.925490 0.809804 0.385294
0.996078 0.809804 0.386274
0.000000 0.887255 0.389216
0.000000 0.890686 0.389216
0.069117 0.890686 0.389706
0.333824 0.894608 0.393137
0.518138 0.895098 0.393137
0.677451 0.899019 0.397059
0.809804 0.902451 0.397059
0.906862 0.906372 0.399510
0.996078 0.908333 0.400981
0.000000 0.996078 0.404902
0.003432 0.996078 0.404902
0.155392 0.996078 0.404902
0.365686 1.000000 0.408824
0.529411 1.000000 0.408824
0.675980 1.000000 0.412745
0.790196 1.000000 0.412745
0.891176 1.000000 0.413235
1.000000 1.000000 0.416667
0.000000 0.000000 0.460784
0.073530 0.000000 0.462746
0.170588 0.000000 0.464706
0.332843 0.000000 0.466666
0.527451 0.000000 0.470588
0.725981 0.000000 0.474510
0.900980 0.000000 0.478432
1.000000 0.003922 0.480393
1.000000 0.003922 0.482353
0.015196 0.046569 0.468627
0.066177 0.050000 0.470588
0.162745 0.051961 0.472549
0.332843 0.058334 0.474510
0.523529 0.066177 0.478432
0.718137 0.074020 0.482353
0.893137 0.077941 0.484314
1.000000 0.085785 0.488235
1.000000 0.089706 0.490197
0.050000 0.143137 0.478432
0.081863 0.144118 0.478432
0.162745 0.147059 0.480393
0.348529 0.151961 0.482353
0.527451 0.158823 0.486274
0.720588 0.166666 0.490196
0.892157 0.171569 0.493137
1.000000 0.178431 0.496079
1.000000 0.179412 0.497059
0.021078 0.310785 0.492157
0.034314 0.313235 0.492157
0.115196 0.314706 0.494117
0.340686 0.321079 0.496569
0.523529 0.326471 0.500000
0.710294 0.332843 0.501961
0.876471 0.338235 0.505883
1.000000 0.342647 0.508334
1.000000 0.346079 0.509804
0.000000 0.478432 0.505883
0.000000 0.480393 0.507844
0.073529 0.484314 0.507844
0.311275 0.488235 0.511764
0.513726 0.492157 0.513726
0.696569 0.498039 0.515686
0.858824 0.503922 0.519608
0.991176 0.507844 0.521568
1.000000 0.509804 0.523529
0.000000 0.643628 0.521568
0.000000 0.646078 0.521568
0.000000 0.646078 0.523039
0.270098 0.650000 0.524020
0.496078 0.655392 0.526961
0.677451 0.661765 0.529411
0.835784 0.665686 0.531373
0.960294 0.669608 0.533334
1.000000 0.669608 0.535294
0.000000 0.785294 0.535294
0.000000 0.786275 0.535294
0.000000 0.786275 0.537254
0.272549 0.790196 0.538235
0.490197 0.794118 0.541176
0.665686 0.798039 0.542647
0.813726 0.801961 0.545098
0.925980 0.805883 0.546078
0.999019 0.808823 0.547059
0.000000 0.886765 0.549510
0.000000 0.886765 0.549510
0.082353 0.886765 0.550980
0.337745 0.890686 0.552941
0.522059 0.894608 0.554902
0.677941 0.898529 0.556863
0.809804 0.899019 0.557353
0.910294 0.902451 0.560785
0.999510 0.906372 0.560785
0.000000 0.992157 0.564705
0.003432 0.992157 0.564705
0.164706 0.996078 0.564705
0.372059 0.996078 0.568628
0.533334 1.000000 0.568628
0.675980 1.000000 0.568628
0.790196 1.000000 0.572549
0.891176 1.000000 0.572549
1.000000 1.000000 0.576470
0.000000 0.000000 0.614706
0.073530 0.000000 0.614706
0.170588 0.000000 0.618627
0.336765 0.000000 0.618627
0.529411 0.000000 0.622549
0.725981 0.000000 0.626470
0.900980 0.000000 0.630392
1.000000 0.000000 0.634314
1.000000 0.003922 0.634314
0.011765 0.042647 0.622549
0.066177 0.046079 0.622549
0.166666 0.046569 0.625980
0.336274 0.054412 0.626470
0.523529 0.062255 0.630392
0.720588 0.070098 0.634314
0.893137 0.076961 0.638235
1.000000 0.081863 0.641667
1.000000 0.085785 0.642157
0.050000 0.139215 0.630392
0.081863 0.140196 0.630392
0.166666 0.143137 0.630392
0.348529 0.148039 0.634314
0.527451 0.154902 0.638235
0.720588 0.162745 0.642157
0.892157 0.167647 0.646078
1.000000 0.174510 0.646078
1.000000 0.178431 0.650000
0.022549 0.307843 0.642157
0.035784 0.309314 0.642157
0.121569 0.313235 0.646078
0.342157 0.317157 0.648529
0.523529 0.322549 0.650000
0.710294 0.328921 0.653922
0.876471 0.334314 0.657843
1.000000 0.340686 0.660294
1.000000 0.342157 0.661765
0.000000 0.476470 0.657843
0.000000 0.476470 0.657843
0.080392 0.480393 0.657843
0.315196 0.484313 0.661765
0.513725 0.490196 0.663726
0.697059 0.496078 0.665686
0.859804 0.500000 0.669608
0.992647 0.503922 0.671569
1.000000 0.507844 0.673529
0.000000 0.642157 0.669608
0.000000 0.642157 0.669608
0.000000 0.645098 0.673529
0.274019 0.647549 0.673529
0.498530 0.653922 0.677451
0.677451 0.657843 0.678922
0.837255 0.661765 0.681372
0.960294 0.665686 0.682843
1.000000 0.669608 0.685294
0.000000 0.782353 0.684804
0.000000 0.782353 0.685294
0.000000 0.785294 0.685294
0.276471 0.786275 0.685294
0.492157 0.790196 0.689216
0.667157 0.794118 0.689216
0.816667 0.798039 0.693137
0.928922 0.801961 0.693137
0.999019 0.805883 0.697059
0.000000 0.882843 0.697059
0.000000 0.882843 0.697059
0.096569 0.883333 0.697059
0.343137 0.886765 0.697059
0.523529 0.890686 0.700980
0.681372 0.894608 0.700980
0.812745 0.898529 0.704902
0.910294 0.899019 0.704902
1.000000 0.902451 0.705392
0.000000 0.988235 0.708824
0.003922 0.992157 0.708824
0.176470 0.992157 0.708824
0.375980 0.992157 0.708824
0.537254 0.996078 0.712745
0.677451 1.000000 0.712745
0.790196 1.000000 0.715196
0.891176 1.000000 0.716667
1.000000 1.000000 0.716667
0.000000 0.000000 0.743137
0.074020 0.000000 0.745588
0.170588 0.000000 0.747059
0.335294 0.000000 0.750000
0.529411 0.000000 0.751961
0.725981 0.000000 0.754902
0.900980 0.000000 0.758824
1.000000 0.000000 0.762745
1.000000 0.000000 0.762745
0.015196 0.038726 0.750981
0.067157 0.042647 0.750981
0.166666 0.042647 0.753922
0.332843 0.050490 0.754902
0.523529 0.058334 0.758824
0.720588 0.066177 0.762745
0.893137 0.073530 0.766667
1.000000 0.077941 0.769607
1.000000 0.081863 0.770588
0.050000 0.135294 0.758824
0.081373 0.136274 0.758824
0.166666 0.139215 0.760784
0.348529 0.147059 0.762745
0.529411 0.151961 0.766667
0.720588 0.157353 0.770588
0.892157 0.166666 0.773529
1.000000 0.170588 0.774510
1.000000 0.174510 0.777451
0.024020 0.305392 0.770588
0.040686 0.306863 0.770588
0.121569 0.309314 0.773529
0.342157 0.314706 0.775980
0.523529 0.321078 0.778432
0.712745 0.326471 0.782353
0.876471 0.332843 0.785294
1.000000 0.338235 0.786275
1.000000 0.338235 0.789215
0.000000 0.472549 0.783333
0.000000 0.474510 0.785294
0.088236 0.476471 0.786275
0.315196 0.480393 0.787255
0.515686 0.486274 0.790196
0.696569 0.492157 0.794118
0.860785 0.498039 0.797058
0.992647 0.501961 0.798039
1.000000 0.503922 0.799019
0.000000 0.638235 0.797058
0.000000 0.638235 0.798039
0.000000 0.642157 0.798039
0.278921 0.646078 0.800981
0.500000 0.650000 0.801961
0.681372 0.653922 0.805883
0.837255 0.657843 0.806373
0.961274 0.661765 0.809804
1.000000 0.665686 0.809804
0.000000 0.778432 0.808823
0.000000 0.778432 0.808823
0.000000 0.782353 0.809804
0.280392 0.785294 0.809804
0.496078 0.789215 0.813726
0.669608 0.793137 0.816667
0.817647 0.798039 0.817647
0.929412 0.800981 0.817647
1.000000 0.801961 0.820588
0.000000 0.878921 0.817647
0.000000 0.879412 0.817647
0.105392 0.882843 0.820588
0.347059 0.883333 0.821078
0.525981 0.886765 0.821569
0.681863 0.890686 0.824509
0.813726 0.894608 0.825490
0.910784 0.898529 0.828432
1.000000 0.899019 0.829412
0.000000 0.988235 0.828432
0.014706 0.988235 0.828432
0.185294 0.988235 0.829412
0.379902 0.992157 0.829412
0.537254 0.993137 0.832353
0.679902 0.996078 0.833334
0.793137 1.000000 0.836274
0.891176 1.000000 0.836275
1.000000 1.000000 0.837255
0.000000 0.000000 0.831863
0.073530 0.000000 0.835784
0.171569 0.000000 0.835784
0.335294 0.000000 0.839706
0.529412 0.000000 0.843627
0.725981 0.000000 0.847549
0.900980 0.000000 0.848039
1.000000 0.000000 0.851470
1.000000 0.000000 0.855392
0.011765 0.038726 0.839706
0.066667 0.038726 0.843137
0.166666 0.042647 0.843627
0.335294 0.050000 0.846078
0.523529 0.054412 0.848039
0.720588 0.062255 0.851961
0.893137 0.070098 0.855392
1.000000 0.077451 0.859314
1.000000 0.077941 0.859314
0.050000 0.132353 0.847549
0.081373 0.135294 0.847549
0.166666 0.138725 0.850490
0.348529 0.143137 0.851961
0.529411 0.150980 0.855392
0.722059 0.155882 0.859314
0.892157 0.163725 0.863235
1.000000 0.167647 0.863725
1.000000 0.171569 0.867157
0.024020 0.302941 0.859314
0.040196 0.302941 0.859804
0.125490 0.306863 0.863235
0.344608 0.313235 0.863725
0.523529 0.318628 0.867157
0.712745 0.325000 0.871078
0.875000 0.330392 0.875000
1.000000 0.334314 0.875000
1.000000 0.338235 0.878921
0.000000 0.470589 0.871078
0.000000 0.472549 0.871568
0.091666 0.476470 0.875000
0.317157 0.480393 0.875490
0.515686 0.484314 0.878921
0.698530 0.490196 0.882843
0.860785 0.496078 0.884804
0.992647 0.500000 0.886765
1.000000 0.501961 0.887255
0.000000 0.635784 0.883333
0.000000 0.638235 0.884314
0.000000 0.641177 0.886765
0.280392 0.642157 0.887255
0.502451 0.647549 0.890686
0.681372 0.653922 0.892157
0.837255 0.657843 0.894608
0.961274 0.661765 0.898529
1.000000 0.661765 0.898529
0.000000 0.778432 0.894608
0.000000 0.778432 0.894608
0.000000 0.778432 0.895098
0.284314 0.782353 0.898529
0.496078 0.786275 0.899019
0.669608 0.790196 0.902451
0.817647 0.794118 0.903432
0.929902 0.798039 0.906372
1.000000 0.800981 0.906372
0.000000 0.878921 0.902941
0.000000 0.878921 0.902941
0.111765 0.879412 0.906372
0.349019 0.882843 0.906372
0.527451 0.886765 0.906862
0.682843 0.890686 0.910294
0.813726 0.894608 0.910784
0.914215 0.894608 0.914215
1.000000 0.898529 0.914215
0.000000 0.984314 0.914215
0.018628 0.987255 0.914215
0.189216 0.988235 0.914215
0.381373 0.988235 0.914215
0.541177 0.992157 0.918137
0.681372 0.996078 0.918137
0.793137 0.996078 0.918627
0.894608 1.000000 0.922059
1.000000 1.000000 0.922059
0.000000 0.000000 0.905882
0.074020 0.000000 0.905882
0.170588 0.000000 0.909804
0.335294 0.000000 0.909804
0.529411 0.000000 0.913725
0.725981 0.000000 0.917647
0.900980 0.000000 0.921569
1.000000 0.000000 0.925490
1.000000 0.000000 0.925490
0.011765 0.034804 0.913725
0.070098 0.038726 0.913725
0.166666 0.042157 0.913725
0.335294 0.046569 0.917647
0.523529 0.054412 0.921569
0.720588 0.062255 0.925490
0.893137 0.070098 0.929412
1.000000 0.074020 0.929412
1.000000 0.077941 0.933333
0.050000 0.131372 0.921569
0.081373 0.132353 0.921569
0.167647 0.135294 0.921569
0.351471 0.143137 0.925490
0.529412 0.146079 0.929412
0.722059 0.154902 0.932353
0.892157 0.162745 0.933333
1.000000 0.166666 0.937255
1.000000 0.170588 0.937255
0.024020 0.301470 0.933333
0.047058 0.302941 0.933333
0.129412 0.305392 0.933333
0.344608 0.310785 0.937255
0.523529 0.317157 0.941176
0.712745 0.322549 0.942647
0.880392 0.328921 0.945098
1.000000 0.334314 0.949020
1.000000 0.334314 0.949020
0.000000 0.468627 0.945098
0.000000 0.470588 0.945098
0.098039 0.472549 0.949020
0.319118 0.478432 0.949020
0.517648 0.482353 0.952941
0.700980 0.488235 0.956863
0.860785 0.494117 0.956863
0.992647 0.498040 0.960784
1.000000 0.500000 0.960784
0.000000 0.634314 0.958333
0.000000 0.637745 0.960784
0.000000 0.638235 0.960784
0.281863 0.642157 0.962255
0.503922 0.646078 0.964706
0.681372 0.650000 0.968627
0.837255 0.655392 0.968627
0.960294 0.659314 0.972549
1.000000 0.661765 0.972549
0.000000 0.774510 0.972549
0.000000 0.774510 0.972549
0.000000 0.778432 0.972549
0.288235 0.782353 0.975000
0.498039 0.786275 0.976471
0.669608 0.790196 0.977451
0.820588 0.794118 0.980392
0.929902 0.797059 0.981372
1.000000 0.798039 0.984314
0.000000 0.875490 0.980392
0.000000 0.878921 0.980882
0.116667 0.878921 0.984314
0.352941 0.882843 0.984314
0.531373 0.883333 0.984804
0.685294 0.888236 0.988235
0.816666 0.890686 0.988235
0.914215 0.894608 0.992157
1.000000 0.895098 0.992157
0.000000 0.984314 0.992157
0.022059 0.984314 0.992157
0.196079 0.984314 0.992157
0.385294 0.988235 0.996078
0.541176 0.992157 0.996078
0.681372 0.992157 0.996078
0.794118 0.996078 1.000000
0.895098 1.000000 1.000000
1.000000 1.000000 1.000000
