Color/Kodak/Kodak Elite ExtraColor 100 65x.cube
TITLE "Kodak Elite ExtraColor 100"
LUT_3D_SIZE 9
DOMAIN_MIN 0.000000 0.000000 0.000000
DOMAIN_MAX 1.000000 1.000000 1.000000
0.000000 0.000000 0.000000
0.093138 0.000000 0.000000
0.179412 0.000000 0.000000
0.283334 0.000000 0.000000
0.407844 0.000000 0.000000
0.551961 0.000000 0.000000
0.663725 0.000000 0.000000
0.761274 0.000000 0.000000
0.850980 0.000000 0.000000
0.066177 0.105392 0.015196
0.124510 0.097549 0.011275
0.202941 0.090196 0.007843
0.307843 0.074020 0.003432
0.423530 0.053922 0.000000
0.559804 0.021569 0.000000
0.659804 0.000000 0.000000
0.757843 0.000000 0.000000
0.850980 0.000000 0.000000
0.132353 0.201961 0.061765
0.159804 0.198039 0.057844
0.229412 0.187255 0.050980
0.330392 0.175981 0.039216
0.450981 0.155883 0.023529
0.591176 0.129902 0.007843
0.694117 0.091177 0.000000
0.775980 0.025980 0.000000
0.850980 0.000000 0.000000
0.135784 0.330392 0.098039
0.178431 0.326471 0.096569
0.264216 0.322549 0.090196
0.369608 0.310785 0.078431
0.500490 0.293137 0.062745
0.639215 0.263726 0.039216
0.736764 0.223529 0.017156
0.822549 0.165196 0.000000
0.884804 0.075490 0.000000
0.170588 0.496078 0.117647
0.217157 0.496078 0.113725
0.307843 0.489216 0.109804
0.416177 0.482353 0.101961
0.558824 0.466666 0.086275
0.695098 0.445098 0.066667
0.795098 0.412745 0.044117
0.884804 0.362255 0.011765
0.950981 0.274510 0.000000
0.215686 0.681372 0.101961
0.259804 0.681372 0.100490
0.350980 0.678922 0.096569
0.473039 0.672549 0.090196
0.625000 0.667157 0.082353
0.751961 0.653922 0.069118
0.854411 0.631863 0.050980
0.950981 0.593627 0.023529
1.000000 0.515686 0.007843
0.296079 0.825490 0.042157
0.337744 0.825490 0.041176
0.420588 0.825490 0.038236
0.550980 0.821569 0.034314
0.691177 0.821569 0.026471
0.803922 0.813726 0.022549
0.904902 0.801961 0.019608
1.000000 0.782353 0.019608
1.000000 0.744117 0.019608
0.389215 0.961764 0.000000
0.427451 0.961764 0.000000
0.505883 0.961764 0.000000
0.625001 0.961764 0.000000
0.745098 0.961764 0.000000
0.845098 0.957843 0.000000
0.946569 0.949510 0.000000
1.000000 0.942156 0.000000
1.000000 0.915196 0.000000
0.529412 1.000000 0.000000
0.556863 1.000000 0.000000
0.626470 1.000000 0.000000
0.720098 1.000000 0.000000
0.819608 1.000000 0.000000
0.915196 1.000000 0.000000
1.000000 1.000000 0.000000
1.000000 1.000000 0.000000
1.000000 1.000000 0.000000
0.000000 0.000000 0.077941
0.058334 0.000000 0.066177
0.148039 0.000000 0.058334
0.256373 0.000000 0.050490
0.382843 0.000000 0.038726
0.532843 0.000000 0.023039
0.648039 0.000000 0.011275
0.750000 0.000000 0.000000
0.843137 0.000000 0.000000
0.047059 0.105392 0.105392
0.097549 0.097549 0.097549
0.183334 0.089706 0.093138
0.288235 0.077451 0.078921
0.407844 0.054412 0.062255
0.548039 0.023039 0.038726
0.645098 0.000000 0.014216
0.746078 0.000000 0.003432
0.843137 0.000000 0.000000
0.117647 0.202941 0.127941
0.148039 0.198529 0.124510
0.213725 0.190196 0.117157
0.318628 0.175981 0.105392
0.442157 0.156863 0.089706
0.584804 0.129902 0.066177
0.686275 0.089216 0.037255
0.768137 0.025980 0.007843
0.843137 0.000000 0.000000
0.113725 0.331372 0.144608
0.160294 0.330392 0.144608
0.252451 0.322549 0.137255
0.360294 0.312255 0.128922
0.492157 0.295098 0.113235
0.631373 0.267647 0.093628
0.731373 0.225981 0.066177
0.814706 0.165196 0.029412
0.878431 0.074020 0.000000
0.145098 0.500000 0.156373
0.199510 0.496078 0.152451
0.292647 0.492157 0.148530
0.407353 0.484314 0.140686
0.550980 0.468627 0.128922
0.687745 0.447059 0.109804
0.788235 0.412745 0.089706
0.876961 0.362255 0.058334
0.943137 0.274510 0.011275
0.190196 0.681372 0.139215
0.240686 0.681372 0.136765
0.333823 0.677451 0.131373
0.461275 0.673529 0.125000
0.617157 0.665686 0.115686
0.744117 0.653922 0.103921
0.849020 0.631863 0.089706
0.943137 0.592647 0.066667
1.000000 0.519608 0.026961
0.275490 0.821569 0.069608
0.318137 0.821569 0.068137
0.407353 0.821569 0.065687
0.538235 0.821569 0.061765
0.679412 0.817647 0.056373
0.795098 0.810294 0.052451
0.900000 0.801961 0.040686
0.997549 0.786275 0.029902
1.000000 0.748039 0.019608
0.384804 0.965686 0.000000
0.423529 0.965686 0.000000
0.504412 0.965686 0.000000
0.622549 0.965196 0.000000
0.741667 0.961764 0.000000
0.846078 0.961274 0.000000
0.947059 0.953921 0.000000
1.000000 0.942156 0.000000
1.000000 0.918627 0.000000
0.525490 1.000000 0.000000
0.552941 1.000000 0.000000
0.622549 1.000000 0.000000
0.718628 1.000000 0.000000
0.817647 1.000000 0.000000
0.915196 1.000000 0.000000
1.000000 1.000000 0.000000
1.000000 1.000000 0.000000
1.000000 1.000000 0.000000
0.000000 0.000000 0.155883
0.042647 0.000000 0.144118
0.128432 0.000000 0.136274
0.237745 0.000000 0.125000
0.365686 0.000000 0.112745
0.520588 0.000000 0.097059
0.636275 0.000000 0.077451
0.738235 0.000000 0.053431
0.832353 0.000000 0.022549
0.034804 0.108824 0.182353
0.085785 0.101471 0.175490
0.166666 0.089706 0.167647
0.275490 0.077941 0.156373
0.396079 0.057843 0.140196
0.540196 0.025000 0.116667
0.637745 0.000000 0.087255
0.735294 0.000000 0.057843
0.831373 0.000000 0.026471
0.101961 0.205882 0.201961
0.132843 0.201961 0.198529
0.194117 0.191176 0.191176
0.302941 0.179412 0.182353
0.430392 0.159804 0.166666
0.574510 0.129902 0.143137
0.675490 0.091177 0.116667
0.760294 0.028922 0.080392
0.831373 0.000000 0.034314
0.078432 0.334314 0.225490
0.127941 0.330392 0.222549
0.228922 0.326471 0.217647
0.342157 0.314706 0.209314
0.476961 0.297059 0.193627
0.621078 0.270098 0.171569
0.721078 0.228432 0.147059
0.806863 0.165196 0.112745
0.869118 0.074020 0.060294
0.087255 0.501961 0.242157
0.155392 0.500000 0.241176
0.265686 0.496078 0.236275
0.387255 0.488235 0.226470
0.535294 0.472549 0.210784
0.676471 0.449020 0.190196
0.778432 0.416667 0.167647
0.869118 0.366176 0.140196
0.935294 0.276471 0.095098
0.133333 0.681372 0.243627
0.198039 0.678922 0.241176
0.306372 0.677451 0.237255
0.439706 0.673529 0.226961
0.598530 0.665686 0.211765
0.732353 0.653922 0.192647
0.837255 0.631863 0.169118
0.934313 0.593627 0.140196
1.000000 0.519608 0.108823
0.230392 0.818627 0.212745
0.279902 0.817647 0.212745
0.377451 0.817647 0.204902
0.515686 0.817647 0.194607
0.660784 0.813726 0.177451
0.779412 0.806863 0.157843
0.884314 0.798039 0.130392
0.985784 0.778922 0.092157
1.000000 0.744117 0.073530
0.343137 0.957843 0.117647
0.385784 0.957843 0.113725
0.474510 0.957843 0.105882
0.599019 0.957843 0.090196
0.724020 0.957843 0.066176
0.831863 0.956863 0.028431
0.938725 0.950981 0.000000
1.000000 0.942157 0.000000
1.000000 0.922549 0.000000
0.513726 1.000000 0.000000
0.541666 1.000000 0.000000
0.613725 1.000000 0.000000
0.712255 1.000000 0.000000
0.815686 1.000000 0.000000
0.912745 1.000000 0.000000
1.000000 1.000000 0.000000
1.000000 1.000000 0.000000
1.000000 1.000000 0.000000
0.000000 0.000000 0.244118
0.026961 0.000000 0.232843
0.105392 0.000000 0.224510
0.214216 0.000000 0.214216
0.348529 0.000000 0.202451
0.503431 0.000000 0.186765
0.619117 0.000000 0.171078
0.725980 0.000000 0.147549
0.819608 0.000000 0.114706
0.019118 0.108824 0.275490
0.066177 0.101471 0.269118
0.141176 0.089706 0.263726
0.253431 0.077941 0.253431
0.380393 0.057843 0.238235
0.525490 0.025490 0.217647
0.624510 0.000000 0.190196
0.718627 0.000000 0.161275
0.815686 0.000000 0.127941
0.079411 0.209804 0.300490
0.110784 0.204902 0.299020
0.171569 0.195098 0.292647
0.279902 0.179902 0.283824
0.410784 0.160294 0.269608
0.557353 0.129902 0.248529
0.661275 0.091177 0.225000
0.745588 0.025980 0.192647
0.813235 0.000000 0.142647
0.060294 0.334314 0.330392
0.081373 0.334314 0.330392
0.191667 0.326471 0.326471
0.316177 0.314706 0.316177
0.457353 0.299020 0.302941
0.603922 0.272549 0.283334
0.705392 0.229902 0.259804
0.791176 0.167647 0.228432
0.854902 0.071569 0.181373
0.023039 0.503922 0.359804
0.075000 0.503922 0.357843
0.219118 0.498039 0.353922
0.357353 0.488235 0.346079
0.511764 0.474510 0.334314
0.657353 0.451471 0.315196
0.759804 0.417647 0.295098
0.853431 0.366176 0.265196
0.919608 0.278431 0.219118
0.062745 0.677451 0.377451
0.115686 0.674019 0.377451
0.251961 0.673529 0.373529
0.403922 0.669608 0.365686
0.570098 0.661765 0.353922
0.708824 0.650000 0.340686
0.815686 0.630392 0.322549
0.914705 0.592647 0.295098
0.985784 0.519608 0.250490
0.141667 0.811275 0.377451
0.200000 0.809804 0.375000
0.323039 0.809804 0.371079
0.472549 0.809804 0.363235
0.628431 0.805883 0.352941
0.753432 0.799510 0.339215
0.860785 0.790196 0.322549
0.963725 0.772549 0.294608
1.000000 0.737745 0.246568
0.269118 0.947549 0.324020
0.319608 0.947549 0.320588
0.420098 0.949510 0.316177
0.556373 0.949510 0.308334
0.692157 0.947549 0.296569
0.804412 0.946078 0.280883
0.911274 0.942156 0.258823
1.000000 0.934313 0.224020
1.000000 0.912745 0.157353
0.483824 1.000000 0.024020
0.516177 1.000000 0.021569
0.591667 1.000000 0.012255
0.698039 1.000000 0.000000
0.807353 1.000000 0.000000
0.910294 1.000000 0.000000
1.000000 1.000000 0.000000
1.000000 1.000000 0.000000
1.000000 1.000000 0.000000
0.000000 0.000000 0.337255
0.011275 0.000000 0.329411
0.085294 0.000000 0.323530
0.193137 0.000000 0.311765
0.321569 0.000000 0.301960
0.481372 0.000000 0.286275
0.600980 0.000000 0.272549
0.706372 0.000000 0.254412
0.800000 0.000000 0.225490
0.003922 0.109314 0.377941
0.042647 0.101471 0.372549
0.109804 0.094118 0.368627
0.228432 0.077941 0.360785
0.356862 0.058334 0.349020
0.508824 0.026961 0.328921
0.611274 0.000000 0.305392
0.698529 0.000000 0.277451
0.794118 0.000000 0.250980
0.046078 0.212745 0.412745
0.082353 0.206863 0.411764
0.145098 0.199020 0.407844
0.251961 0.183333 0.400490
0.387255 0.162745 0.388235
0.537255 0.132353 0.368627
0.644118 0.091177 0.348039
0.729902 0.028922 0.320098
0.790196 0.000000 0.274509
0.043137 0.338235 0.454902
0.056373 0.334314 0.453432
0.137255 0.330392 0.450981
0.279902 0.318628 0.445098
0.427451 0.300980 0.433824
0.580392 0.275490 0.416177
0.687255 0.233824 0.397059
0.773529 0.169118 0.367157
0.837745 0.071569 0.324020
0.000000 0.507844 0.500000
0.009314 0.505883 0.498039
0.141176 0.500000 0.496078
0.310785 0.492157 0.488235
0.476471 0.476471 0.476471
0.630392 0.455392 0.462746
0.738235 0.420588 0.445098
0.832353 0.370098 0.417647
0.900000 0.280392 0.378432
0.000000 0.669608 0.531373
0.030882 0.669608 0.531373
0.160784 0.668137 0.527451
0.349510 0.665686 0.523039
0.530882 0.657843 0.511764
0.677451 0.646078 0.500000
0.788725 0.626470 0.484314
0.891176 0.592157 0.460784
0.964706 0.519608 0.421569
0.001961 0.801961 0.545098
0.069608 0.801961 0.543138
0.238235 0.801961 0.541176
0.416667 0.798039 0.533334
0.587255 0.796078 0.525490
0.719608 0.790196 0.514216
0.831373 0.780392 0.500000
0.936765 0.762745 0.479902
1.000000 0.727451 0.441176
0.133824 0.934313 0.519118
0.207844 0.934313 0.519118
0.341666 0.934313 0.515196
0.498039 0.934313 0.507353
0.645588 0.934313 0.499510
0.766176 0.932353 0.489706
0.878922 0.926470 0.475980
0.983333 0.918627 0.452451
1.000000 0.899019 0.409314
0.372549 1.000000 0.337255
0.411274 1.000000 0.333333
0.500980 1.000000 0.329412
0.626470 1.000000 0.321079
0.749020 1.000000 0.305883
0.859804 1.000000 0.290196
0.971568 1.000000 0.263726
1.000000 1.000000 0.221079
1.000000 1.000000 0.131373
0.000000 0.000000 0.453922
0.000000 0.000000 0.450000
0.053921 0.000000 0.446078
0.164216 0.000000 0.438235
0.290196 0.000000 0.422549
0.453922 0.000000 0.410784
0.573530 0.000000 0.399019
0.681863 0.000000 0.383333
0.776471 0.000000 0.359804
0.000000 0.112745 0.506863
0.015686 0.105392 0.504412
0.075490 0.093628 0.500490
0.193137 0.082843 0.493137
0.327451 0.059804 0.481372
0.483333 0.030883 0.465686
0.589216 0.003432 0.445588
0.671078 0.000000 0.417647
0.768627 0.000000 0.395098
0.018627 0.217647 0.548039
0.042157 0.213725 0.547059
0.111274 0.205882 0.544117
0.211274 0.190196 0.536274
0.354412 0.169118 0.524510
0.512745 0.137745 0.508824
0.620588 0.093137 0.490687
0.709314 0.029902 0.465686
0.764706 0.000000 0.425490
0.022059 0.342157 0.592157
0.035294 0.342157 0.591176
0.069608 0.334314 0.586765
0.230882 0.322549 0.581863
0.391177 0.306863 0.572059
0.552941 0.280392 0.555882
0.664706 0.240686 0.538725
0.754412 0.176961 0.514706
0.816667 0.073039 0.479902
0.000000 0.511764 0.638235
0.000000 0.511764 0.636275
0.021078 0.506373 0.634314
0.249019 0.499020 0.626961
0.437255 0.484313 0.616667
0.600980 0.460784 0.603431
0.714706 0.428431 0.587745
0.810294 0.374019 0.567647
0.880392 0.284313 0.534314
0.000000 0.665686 0.673529
0.000000 0.665686 0.673529
0.061275 0.665686 0.669608
0.281863 0.661765 0.664706
0.484313 0.653922 0.653922
0.646078 0.646078 0.646078
0.762745 0.626470 0.634314
0.867157 0.592647 0.614706
0.942647 0.523529 0.587255
0.000000 0.794118 0.697059
0.000000 0.794118 0.696569
0.103431 0.794118 0.693137
0.344118 0.792647 0.686765
0.538725 0.790196 0.677451
0.684804 0.782353 0.669608
0.800490 0.774510 0.661275
0.909804 0.754902 0.646078
0.988235 0.719608 0.622549
0.000000 0.922059 0.700980
0.002451 0.922059 0.700490
0.218627 0.922059 0.697059
0.423529 0.922059 0.691667
0.595098 0.922059 0.685294
0.723530 0.918627 0.677451
0.840687 0.914706 0.666176
0.950000 0.906862 0.653431
1.000000 0.883333 0.626470
0.125490 1.000000 0.598039
0.220588 1.000000 0.596569
0.361274 1.000000 0.594118
0.522059 1.000000 0.586274
0.669118 1.000000 0.578431
0.792157 1.000000 0.566667
0.910294 1.000000 0.553922
1.000000 1.000000 0.527451
1.000000 1.000000 0.472549
0.000000 0.003922 0.569608
0.000000 0.000000 0.565686
0.019608 0.000000 0.561764
0.133333 0.000000 0.553921
0.266667 0.000000 0.542156
0.422549 0.000000 0.522549
0.550000 0.000000 0.514706
0.655882 0.000000 0.503922
0.752941 0.000000 0.488236
0.000000 0.124510 0.617647
0.000000 0.117157 0.613726
0.044608 0.105392 0.609804
0.153922 0.093138 0.601961
0.296078 0.070098 0.592647
0.460294 0.038726 0.576961
0.573530 0.007353 0.558824
0.658824 0.000000 0.534804
0.745098 0.000000 0.515687
0.003922 0.230393 0.654902
0.015686 0.226470 0.652941
0.065687 0.218628 0.649020
0.172549 0.205882 0.643137
0.323530 0.184314 0.631373
0.489216 0.153431 0.615686
0.604902 0.106863 0.598039
0.694608 0.040686 0.577451
0.755883 0.000000 0.545098
0.002941 0.357843 0.693627
0.008334 0.353922 0.693627
0.040196 0.348039 0.689706
0.171079 0.338235 0.684314
0.354902 0.323039 0.674019
0.529902 0.295098 0.658334
0.648039 0.257353 0.644118
0.741666 0.195098 0.623039
0.805392 0.085784 0.591666
0.000000 0.525490 0.739216
0.000000 0.523529 0.739216
0.000000 0.519608 0.734313
0.165686 0.511764 0.728431
0.391176 0.499020 0.719608
0.573529 0.478922 0.708333
0.696079 0.445098 0.693137
0.797058 0.391667 0.674019
0.868627 0.300000 0.646078
0.000000 0.669608 0.777451
0.000000 0.669608 0.775000
0.000000 0.668137 0.773529
0.186765 0.665686 0.767157
0.433824 0.657843 0.759314
0.614706 0.650000 0.750000
0.739216 0.634314 0.739706
0.848529 0.602941 0.724510
0.929412 0.535294 0.703922
0.000000 0.794118 0.805883
0.000000 0.794118 0.805883
0.000000 0.793137 0.801961
0.251961 0.790196 0.798039
0.484314 0.789215 0.790196
0.650000 0.782353 0.782353
0.774510 0.774510 0.774510
0.887255 0.755392 0.762745
0.969607 0.719608 0.743137
0.000000 0.914215 0.825490
0.000000 0.914706 0.824509
0.003922 0.914706 0.821569
0.325980 0.914706 0.817647
0.538235 0.914706 0.809804
0.684804 0.914215 0.804902
0.809804 0.910294 0.797058
0.925490 0.899019 0.786275
1.000000 0.879412 0.770588
0.000000 1.000000 0.794118
0.000000 1.000000 0.791176
0.090196 1.000000 0.790196
0.387255 1.000000 0.783333
0.583333 1.000000 0.778432
0.727451 1.000000 0.770588
0.855883 1.000000 0.762745
0.972059 1.000000 0.750981
1.000000 1.000000 0.724510
0.000000 0.011765 0.659314
0.000000 0.003922 0.655882
0.002942 0.003922 0.651470
0.099020 0.000000 0.644117
0.240686 0.000000 0.632353
0.402941 0.000000 0.616176
0.526470 0.000000 0.603922
0.636274 0.000000 0.593137
0.733333 0.000000 0.584804
0.000000 0.145098 0.706372
0.000000 0.140196 0.705882
0.018628 0.128432 0.701961
0.106863 0.114215 0.695589
0.264216 0.090196 0.683333
0.438235 0.058334 0.667647
0.558824 0.019118 0.651470
0.650980 0.000000 0.631373
0.725490 0.000000 0.608333
0.000000 0.250490 0.745588
0.002942 0.246569 0.744608
0.034314 0.238726 0.740686
0.123529 0.226961 0.733823
0.284313 0.207353 0.722549
0.465686 0.175981 0.709314
0.592156 0.130882 0.691176
0.685785 0.064216 0.673530
0.749020 0.000000 0.642647
0.000000 0.377941 0.787255
0.000000 0.377451 0.785294
0.000000 0.369608 0.783333
0.073039 0.359804 0.776961
0.307843 0.342647 0.767647
0.498530 0.318628 0.754411
0.629412 0.282843 0.738235
0.732353 0.222549 0.720588
0.798529 0.113235 0.691176
0.000000 0.541667 0.833824
0.000000 0.541177 0.832353
0.000000 0.537745 0.829902
0.019118 0.531373 0.824510
0.330882 0.519608 0.814216
0.540196 0.502451 0.802451
0.676961 0.471569 0.790686
0.782843 0.417647 0.775000
0.860785 0.327451 0.747549
0.000000 0.676471 0.872549
0.000000 0.675980 0.871568
0.000000 0.673529 0.868628
0.050980 0.672059 0.862745
0.359804 0.665686 0.855392
0.572549 0.657843 0.847549
0.711765 0.642157 0.837255
0.829412 0.615686 0.825490
0.915196 0.557353 0.805883
0.000000 0.797058 0.906862
0.000000 0.794118 0.906372
0.000000 0.794118 0.902941
0.052451 0.794118 0.898529
0.407353 0.793137 0.891176
0.606863 0.786275 0.883333
0.743137 0.778432 0.875490
0.864216 0.762745 0.864216
0.953431 0.727451 0.851961
0.000000 0.910294 0.934313
0.000000 0.910294 0.934313
0.000000 0.910784 0.930392
0.127941 0.910784 0.926470
0.456372 0.910784 0.918627
0.638235 0.910784 0.914215
0.774510 0.906862 0.906862
0.899019 0.899019 0.899019
0.984314 0.879412 0.887255
0.000000 0.996078 0.934313
0.000000 0.996078 0.934313
0.000000 0.996078 0.930392
0.116177 0.999510 0.926470
0.471569 1.000000 0.922059
0.657353 1.000000 0.914705
0.805393 1.000000 0.909804
0.933823 1.000000 0.902451
1.000000 1.000000 0.887255
0.000000 0.035294 0.745098
0.000000 0.020098 0.745098
0.000000 0.011765 0.741176
0.055883 0.007843 0.733333
0.209804 0.000000 0.721569
0.383333 0.000000 0.705882
0.506862 0.000000 0.689216
0.616666 0.000000 0.678431
0.717647 0.000000 0.670588
0.000000 0.179412 0.792157
0.000000 0.171569 0.795588
0.000000 0.160294 0.791667
0.072549 0.144608 0.785294
0.225490 0.126471 0.772549
0.408334 0.089706 0.756863
0.546078 0.049019 0.743627
0.643627 0.000000 0.721569
0.709804 0.000000 0.694118
0.000000 0.280392 0.831373
0.000000 0.276470 0.831373
0.010784 0.269608 0.827451
0.073039 0.257844 0.822549
0.233333 0.241176 0.811765
0.431863 0.213725 0.796078
0.574510 0.170588 0.780392
0.677942 0.102941 0.760784
0.748040 0.006863 0.736274
0.000000 0.408824 0.874510
0.000000 0.408824 0.873039
0.000000 0.404902 0.869118
0.000000 0.393137 0.865196
0.235294 0.377451 0.853431
0.459314 0.353922 0.839216
0.609804 0.320099 0.825980
0.718627 0.265197 0.807843
0.798529 0.156373 0.782843
0.000000 0.564705 0.917647
0.000000 0.564705 0.917647
0.000000 0.560785 0.913725
0.000000 0.556863 0.907843
0.227451 0.549019 0.900000
0.488725 0.533334 0.886275
0.649020 0.505883 0.874510
0.771078 0.460294 0.858824
0.856863 0.370588 0.837255
0.000000 0.689216 0.952941
0.000000 0.689216 0.952941
0.000000 0.687745 0.947550
0.000000 0.685294 0.945098
0.229412 0.681372 0.937255
0.514216 0.675980 0.925490
0.680392 0.661765 0.915196
0.808823 0.638235 0.905882
0.907353 0.588726 0.890196
0.000000 0.805883 0.985294
0.000000 0.805883 0.984314
0.000000 0.804902 0.981372
0.000000 0.804902 0.976471
0.249020 0.801961 0.968627
0.541667 0.800981 0.960784
0.704902 0.793137 0.950000
0.841177 0.777451 0.941176
0.941176 0.744117 0.930392
0.000000 0.910784 1.000000
0.000000 0.910784 1.000000
0.000000 0.914215 1.000000
0.000000 0.914215 1.000000
0.266667 0.914215 0.996078
0.561275 0.914705 0.988725
0.727941 0.914215 0.984314
0.871568 0.906862 0.976471
0.972549 0.887255 0.968627
0.000000 0.984314 1.000000
0.000000 0.984314 1.000000
0.000000 0.988235 1.000000
0.000000 0.988235 1.000000
0.119608 0.992157 1.000000
0.537745 0.996078 1.000000
0.728431 0.996078 1.000000
0.887255 1.000000 1.000000
1.000000 1.000000 1.000000
