Color/Kodak/Kodak Kodachrome 64 65x.cube
TITLE "Kodak Kodachrome 64"
LUT_3D_SIZE 9
DOMAIN_MIN 0.000000 0.000000 0.000000
DOMAIN_MAX 1.000000 1.000000 1.000000
0.000000 0.000000 0.000000
0.062255 0.000000 0.000000
0.177451 0.003922 0.000000
0.364216 0.019608 0.000000
0.554902 0.049019 0.000000
0.697059 0.074510 0.000000
0.816667 0.094118 0.000000
0.930392 0.113725 0.000000
0.992157 0.125490 0.000000
0.034804 0.073530 0.019608
0.089216 0.077451 0.019118
0.209314 0.089216 0.019118
0.395588 0.112745 0.015196
0.572059 0.128922 0.011275
0.704902 0.138235 0.007353
0.817647 0.140686 0.006373
0.926470 0.132843 0.000000
0.988235 0.125000 0.000000
0.105882 0.205882 0.085295
0.144608 0.209804 0.085295
0.251961 0.220588 0.081372
0.449510 0.237255 0.073529
0.602941 0.245098 0.065687
0.729901 0.241176 0.053921
0.839215 0.232353 0.041177
0.944608 0.210785 0.022549
0.996078 0.199020 0.011765
0.102941 0.412745 0.163235
0.170588 0.416667 0.163235
0.313235 0.426961 0.159314
0.510784 0.444118 0.155392
0.651471 0.451961 0.147549
0.771568 0.450490 0.135784
0.881863 0.432353 0.120098
0.983333 0.387745 0.096569
1.000000 0.360294 0.080882
0.188236 0.554902 0.252941
0.261765 0.560785 0.252941
0.417647 0.572549 0.249020
0.553922 0.588726 0.240686
0.678432 0.596078 0.235295
0.795098 0.607843 0.225980
0.908823 0.611765 0.210784
1.000000 0.607843 0.182353
1.000000 0.600000 0.160784
0.363725 0.677451 0.354412
0.408824 0.681372 0.351961
0.486764 0.687745 0.351961
0.588236 0.699510 0.348039
0.700000 0.708824 0.340196
0.809314 0.719118 0.332353
0.915686 0.728431 0.316667
1.000000 0.734804 0.293137
1.000000 0.736274 0.273529
0.451960 0.777451 0.471569
0.475490 0.780883 0.471569
0.533334 0.782353 0.468628
0.618137 0.793137 0.467647
0.713726 0.800981 0.463726
0.810784 0.812745 0.455883
0.911765 0.821569 0.448039
1.000000 0.828922 0.428432
1.000000 0.836274 0.409804
0.530392 0.875490 0.561274
0.549510 0.878921 0.561274
0.595589 0.882843 0.557843
0.661275 0.887255 0.557353
0.741177 0.898529 0.553921
0.828922 0.907843 0.548530
0.923040 0.918137 0.545588
1.000000 0.926470 0.530392
1.000000 0.933823 0.518627
0.603922 0.980392 0.654902
0.615686 0.980392 0.654902
0.650000 0.984314 0.654902
0.704412 0.992157 0.650980
0.770588 1.000000 0.650980
0.853921 1.000000 0.647059
0.947059 1.000000 0.646079
1.000000 1.000000 0.638726
1.000000 1.000000 0.627451
0.000000 0.000000 0.019118
0.038726 0.000000 0.015686
0.158823 0.000000 0.015686
0.356372 0.011765 0.012745
0.537254 0.031373 0.011765
0.675980 0.056863 0.007843
0.797058 0.078431 0.006373
0.914215 0.101961 0.003922
0.980392 0.113725 0.000000
0.019608 0.061765 0.073530
0.070098 0.066177 0.070098
0.194117 0.077941 0.066667
0.390196 0.101471 0.062255
0.556863 0.121079 0.057844
0.687745 0.128922 0.046569
0.801961 0.128922 0.034804
0.910784 0.121079 0.019118
0.968627 0.113235 0.011275
0.093628 0.198039 0.135784
0.132353 0.201961 0.135784
0.237255 0.212745 0.131862
0.438235 0.229412 0.124019
0.587745 0.237255 0.116176
0.712745 0.236765 0.104412
0.821569 0.221568 0.085294
0.926470 0.202941 0.064706
0.987745 0.191176 0.049509
0.068137 0.403921 0.221568
0.150980 0.407843 0.217647
0.297549 0.419118 0.217157
0.493627 0.435294 0.209804
0.631373 0.442647 0.201961
0.752941 0.441176 0.187255
0.862255 0.424510 0.170588
0.964216 0.382353 0.143137
1.000000 0.352451 0.123529
0.161275 0.545098 0.305392
0.240686 0.550980 0.303431
0.400490 0.564705 0.301470
0.534314 0.576470 0.295588
0.659314 0.588236 0.289706
0.776471 0.596078 0.279902
0.888236 0.600000 0.266176
0.996568 0.598039 0.244608
1.000000 0.590686 0.225000
0.334804 0.664216 0.416176
0.377941 0.668137 0.416176
0.459314 0.675980 0.414216
0.562255 0.685294 0.410294
0.674019 0.695588 0.406373
0.781863 0.705392 0.398529
0.888726 0.713235 0.385294
0.997059 0.720588 0.362745
1.000000 0.723039 0.343137
0.436275 0.769607 0.502451
0.463235 0.771078 0.502451
0.521569 0.777451 0.502451
0.603432 0.785294 0.499020
0.698530 0.794118 0.495098
0.795588 0.804902 0.490686
0.899019 0.813726 0.482843
1.000000 0.821569 0.468628
1.000000 0.825490 0.455392
0.522059 0.871568 0.581372
0.541666 0.875000 0.581372
0.584804 0.878921 0.580882
0.650490 0.885785 0.580392
0.731372 0.894608 0.576961
0.818627 0.902451 0.573039
0.915196 0.914215 0.568627
1.000000 0.922549 0.557353
1.000000 0.926961 0.549020
0.596078 0.976471 0.670588
0.611765 0.980392 0.670588
0.643137 0.984314 0.670588
0.696569 0.988235 0.670588
0.762745 0.996078 0.670098
0.844608 1.000000 0.666667
0.939216 1.000000 0.662745
1.000000 1.000000 0.654902
1.000000 1.000000 0.647059
0.000000 0.000000 0.076470
0.016176 0.000000 0.073529
0.139215 0.000000 0.073529
0.344118 0.003922 0.069608
0.517648 0.019608 0.065687
0.654902 0.039216 0.057844
0.775490 0.062745 0.048039
0.895098 0.086275 0.034314
0.960784 0.099020 0.026471
0.003922 0.042647 0.147549
0.039216 0.050000 0.147549
0.170098 0.061765 0.146569
0.368137 0.085785 0.139705
0.529411 0.101471 0.135294
0.658824 0.109314 0.124019
0.771568 0.112255 0.108333
0.883824 0.105392 0.087255
0.945098 0.094608 0.069117
0.066667 0.182353 0.217647
0.108333 0.186274 0.216667
0.208824 0.194117 0.213725
0.411274 0.213725 0.208824
0.556863 0.221568 0.200981
0.679902 0.217647 0.189216
0.787255 0.202941 0.173530
0.894608 0.183334 0.149510
0.952941 0.171568 0.131372
0.006863 0.385294 0.318138
0.095588 0.389216 0.318138
0.263236 0.400981 0.316667
0.455392 0.416667 0.312745
0.593137 0.424020 0.304902
0.713726 0.423039 0.293137
0.822549 0.406863 0.275000
0.926470 0.363725 0.242157
0.983824 0.332843 0.218627
0.058824 0.522549 0.412745
0.185294 0.529411 0.412745
0.356863 0.541176 0.410784
0.487255 0.552941 0.407843
0.614706 0.564705 0.403922
0.729902 0.572549 0.396078
0.840196 0.576470 0.385294
0.950981 0.572549 0.366177
1.000000 0.564705 0.348039
0.304902 0.650000 0.486765
0.348529 0.653922 0.486765
0.427941 0.660294 0.486765
0.533333 0.669608 0.482843
0.643138 0.679902 0.478921
0.749020 0.689216 0.475000
0.855883 0.697059 0.467157
0.965686 0.700980 0.455392
1.000000 0.699510 0.443628
0.414706 0.758824 0.556863
0.440196 0.761764 0.556863
0.499020 0.766667 0.553921
0.583824 0.774510 0.552941
0.677451 0.784314 0.549020
0.774020 0.793137 0.546078
0.875490 0.801961 0.541176
0.981372 0.809314 0.529412
1.000000 0.812745 0.521569
0.503922 0.863725 0.626961
0.522549 0.867157 0.626961
0.568137 0.871078 0.624019
0.633824 0.875490 0.623039
0.712255 0.883333 0.623039
0.801471 0.894608 0.619118
0.896079 0.902941 0.615196
0.996568 0.914215 0.607353
1.000000 0.918137 0.599510
0.584314 0.972549 0.705882
0.596078 0.973039 0.705882
0.630392 0.976471 0.704902
0.681863 0.984314 0.704902
0.750981 0.992157 0.704902
0.828922 1.000000 0.701961
0.923530 1.000000 0.698039
1.000000 1.000000 0.693137
1.000000 1.000000 0.685294
0.000000 0.000000 0.169608
0.000000 0.000000 0.169608
0.100490 0.000000 0.167157
0.310785 0.000000 0.165686
0.475980 0.003922 0.163725
0.612255 0.015686 0.157843
0.732843 0.033824 0.150000
0.853431 0.056863 0.135784
0.921569 0.072059 0.124020
0.000000 0.016667 0.262745
0.007353 0.020588 0.263236
0.120098 0.031373 0.263726
0.323529 0.054412 0.259314
0.478432 0.070098 0.255392
0.606863 0.075490 0.243628
0.720098 0.077941 0.231863
0.831372 0.071568 0.208334
0.895588 0.062255 0.188726
0.018627 0.154902 0.341176
0.061274 0.158823 0.341176
0.159313 0.167156 0.338725
0.361765 0.186274 0.334804
0.502451 0.190686 0.327451
0.625000 0.186274 0.319118
0.730882 0.171079 0.304902
0.835784 0.148040 0.282353
0.895588 0.132353 0.266667
0.016176 0.361765 0.424510
0.034314 0.365686 0.424510
0.225981 0.379902 0.424510
0.412745 0.393137 0.420588
0.549019 0.400981 0.415196
0.668137 0.399510 0.407353
0.773529 0.383823 0.395588
0.873529 0.338726 0.372059
0.925490 0.301470 0.352451
0.017647 0.509804 0.494608
0.159313 0.513726 0.493627
0.325490 0.525490 0.490687
0.455883 0.537254 0.490687
0.581863 0.549019 0.486765
0.695588 0.554412 0.482843
0.804412 0.556863 0.475000
0.912255 0.552941 0.463236
0.972549 0.544608 0.451471
0.278921 0.638235 0.556863
0.321569 0.640686 0.556863
0.400980 0.646568 0.555392
0.505882 0.656373 0.552941
0.615196 0.665686 0.551471
0.720588 0.675000 0.549020
0.825490 0.681372 0.541176
0.934313 0.683824 0.533333
0.995098 0.682843 0.525490
0.389216 0.747059 0.616667
0.416176 0.750000 0.615196
0.474510 0.754902 0.615196
0.559314 0.762745 0.615196
0.652451 0.770588 0.613235
0.747549 0.781373 0.611274
0.849020 0.789215 0.607353
0.955392 0.795588 0.599510
1.000000 0.797058 0.591666
0.482843 0.855392 0.677451
0.502451 0.855882 0.677451
0.546078 0.859804 0.677451
0.612255 0.867157 0.677451
0.692157 0.875000 0.675000
0.778432 0.883333 0.673529
0.875490 0.893137 0.669608
0.977451 0.902451 0.663235
1.000000 0.906372 0.657843
0.566176 0.968627 0.749020
0.580392 0.968627 0.749020
0.612255 0.972549 0.749020
0.665196 0.976471 0.747549
0.732843 0.984314 0.747549
0.813235 0.993627 0.747549
0.902941 1.000000 0.743627
1.000000 1.000000 0.739706
1.000000 1.000000 0.733333
0.000000 0.000000 0.298040
0.000000 0.000000 0.298040
0.041176 0.000000 0.298040
0.256373 0.000000 0.296079
0.415686 0.000000 0.294118
0.550000 0.000000 0.292157
0.670588 0.003922 0.288235
0.787255 0.015686 0.278431
0.852941 0.027451 0.270589
0.000000 0.003432 0.366176
0.000000 0.003922 0.366176
0.079412 0.011275 0.364706
0.285784 0.027451 0.362255
0.433334 0.040196 0.358333
0.558333 0.046569 0.352942
0.670588 0.044608 0.345098
0.775490 0.034804 0.330882
0.833333 0.023039 0.319118
0.002942 0.135294 0.428432
0.032843 0.140686 0.428432
0.135294 0.150000 0.426471
0.333333 0.166666 0.423530
0.467647 0.171569 0.416667
0.588235 0.166666 0.409314
0.691176 0.148039 0.400000
0.791176 0.120589 0.382843
0.847059 0.103921 0.371569
0.025000 0.346569 0.506373
0.041667 0.350490 0.506373
0.210294 0.365686 0.502451
0.385294 0.377941 0.502451
0.518138 0.385294 0.498530
0.634804 0.383823 0.490687
0.739706 0.368137 0.481373
0.838235 0.323039 0.461765
0.888726 0.281863 0.445588
0.033334 0.496078 0.566666
0.143627 0.501961 0.566666
0.301961 0.513726 0.564705
0.428431 0.522059 0.564705
0.552941 0.533334 0.560785
0.665686 0.539216 0.556863
0.773529 0.541176 0.552941
0.879412 0.537254 0.541177
0.941176 0.525490 0.533334
0.253922 0.625000 0.623039
0.296569 0.628922 0.623039
0.376961 0.634314 0.621568
0.482353 0.642647 0.621078
0.590196 0.652451 0.619117
0.695098 0.660294 0.615196
0.798039 0.667647 0.611274
0.905882 0.669608 0.603431
0.968137 0.667647 0.599510
0.366667 0.737255 0.677451
0.393137 0.739216 0.676470
0.452941 0.743137 0.676470
0.536764 0.750981 0.675000
0.629412 0.758824 0.673529
0.724020 0.769607 0.672059
0.825490 0.777451 0.668628
0.930392 0.782353 0.661765
0.992157 0.784314 0.657843
0.463235 0.844117 0.731863
0.482843 0.847549 0.731863
0.526961 0.851470 0.731863
0.591176 0.855882 0.731372
0.669118 0.863725 0.729902
0.758333 0.874510 0.727941
0.852451 0.882843 0.725980
0.955882 0.891176 0.720098
1.000000 0.894608 0.715687
0.549020 0.960784 0.798039
0.562255 0.960784 0.798039
0.596078 0.964706 0.796078
0.647549 0.972549 0.796078
0.715687 0.976471 0.796078
0.793627 0.988235 0.794118
0.883333 0.997059 0.794118
0.987255 1.000000 0.790196
1.000000 1.000000 0.784314
0.000000 0.000000 0.385784
0.000000 0.000000 0.385784
0.014706 0.000000 0.385784
0.225490 0.000000 0.383333
0.378922 0.000000 0.383823
0.511275 0.000000 0.381863
0.627941 0.000000 0.381863
0.742156 0.003922 0.375490
0.807843 0.007843 0.371568
0.000000 0.000000 0.448039
0.000000 0.000000 0.448039
0.053922 0.003432 0.444608
0.261765 0.015196 0.444118
0.403922 0.021569 0.440196
0.524510 0.023529 0.436275
0.632353 0.023039 0.428432
0.737745 0.013725 0.417157
0.794608 0.007353 0.408824
0.000000 0.122549 0.506373
0.018138 0.126471 0.506373
0.121568 0.138235 0.502451
0.309804 0.153922 0.498529
0.442157 0.154902 0.494608
0.557353 0.150980 0.487745
0.659804 0.131372 0.478921
0.757353 0.099510 0.463236
0.811765 0.078921 0.452451
0.027451 0.334314 0.576471
0.041667 0.340686 0.576471
0.201961 0.353922 0.576471
0.362745 0.365686 0.572549
0.494608 0.373529 0.568627
0.607843 0.370588 0.564706
0.712745 0.356373 0.556863
0.809804 0.311275 0.537255
0.857353 0.267157 0.521569
0.064706 0.486274 0.632843
0.140197 0.492157 0.632843
0.284804 0.501961 0.630882
0.408334 0.509804 0.630882
0.529411 0.521568 0.628922
0.640686 0.525490 0.626961
0.747059 0.529411 0.621078
0.852451 0.521568 0.611274
0.910294 0.511764 0.605882
0.238235 0.614706 0.683824
0.279412 0.617157 0.683824
0.357353 0.622549 0.683824
0.459804 0.631373 0.683824
0.568137 0.640686 0.681372
0.669608 0.648529 0.679902
0.774510 0.653922 0.676471
0.879412 0.656373 0.669608
0.941176 0.653922 0.665686
0.347059 0.726470 0.734804
0.373530 0.727451 0.734804
0.434804 0.734314 0.734804
0.517157 0.740196 0.734314
0.606863 0.750000 0.731863
0.703431 0.757843 0.731863
0.801961 0.765686 0.727941
0.906372 0.770588 0.724020
0.968137 0.770588 0.720098
0.446569 0.835784 0.786275
0.463235 0.836274 0.786275
0.507843 0.840196 0.786275
0.571568 0.847549 0.786275
0.649510 0.855392 0.785784
0.738725 0.863235 0.784804
0.831863 0.871568 0.782353
0.934313 0.879412 0.778432
0.996078 0.883333 0.774510
0.533333 0.952941 0.847059
0.545098 0.956863 0.848529
0.577941 0.959314 0.848529
0.629902 0.964706 0.848529
0.696079 0.972549 0.847059
0.776471 0.980392 0.847059
0.863726 0.992157 0.844608
0.964216 1.000000 0.843137
1.000000 1.000000 0.839216
0.000000 0.000000 0.463726
0.000000 0.000000 0.463726
0.003922 0.000000 0.463726
0.202451 0.000000 0.459804
0.349019 0.000000 0.459804
0.477451 0.000000 0.459804
0.593137 0.000000 0.455882
0.706863 0.000000 0.455882
0.772549 0.000000 0.451960
0.000000 0.000000 0.518137
0.000000 0.000000 0.518137
0.042647 0.000000 0.514706
0.242647 0.006373 0.514216
0.378922 0.011275 0.510294
0.497059 0.011275 0.506372
0.604412 0.011275 0.499019
0.706372 0.003922 0.490686
0.760784 0.000000 0.482843
0.000000 0.111764 0.572549
0.010294 0.118137 0.572549
0.120588 0.130392 0.571568
0.294118 0.142157 0.568627
0.419608 0.143137 0.564706
0.533824 0.135294 0.556863
0.632353 0.117647 0.548040
0.728431 0.083334 0.533333
0.782353 0.060784 0.525490
0.025000 0.326471 0.642647
0.045588 0.330392 0.642647
0.199020 0.346078 0.638725
0.346078 0.356373 0.638725
0.472059 0.361765 0.634804
0.583333 0.360294 0.630883
0.687255 0.346078 0.623039
0.783333 0.301961 0.607353
0.831373 0.254412 0.591666
0.082353 0.478432 0.695098
0.142647 0.482353 0.695098
0.270588 0.490197 0.693137
0.391176 0.501470 0.693137
0.509804 0.509804 0.693137
0.618627 0.513726 0.689216
0.722549 0.516667 0.685294
0.827941 0.509804 0.679412
0.886275 0.498039 0.673529
0.225000 0.605392 0.743627
0.263726 0.606863 0.743627
0.341667 0.613235 0.743627
0.443138 0.621078 0.743627
0.548039 0.628922 0.743627
0.649020 0.636765 0.742156
0.750981 0.642157 0.739706
0.855882 0.642157 0.734804
0.914215 0.640686 0.730392
0.331373 0.715687 0.793137
0.357843 0.718628 0.793137
0.415686 0.722549 0.793137
0.497549 0.730392 0.793137
0.587255 0.738235 0.793137
0.680882 0.746079 0.790196
0.778432 0.753922 0.789215
0.882843 0.757843 0.786275
0.941176 0.757843 0.782353
0.427941 0.824510 0.843627
0.447549 0.827941 0.843627
0.489706 0.831863 0.843627
0.553432 0.836274 0.843627
0.629902 0.843627 0.843627
0.716177 0.851961 0.840687
0.809314 0.859804 0.840686
0.910784 0.867647 0.836765
0.972549 0.871078 0.835784
0.516667 0.949020 0.899020
0.529412 0.949020 0.899019
0.562745 0.952941 0.899020
0.613235 0.956863 0.899020
0.680392 0.964706 0.901961
0.758333 0.974020 0.901961
0.844118 0.984314 0.899020
0.942156 0.996078 0.899020
1.000000 1.000000 0.895098
0.000000 0.000000 0.529902
0.000000 0.000000 0.529902
0.002942 0.000000 0.529902
0.185294 0.000000 0.529902
0.325490 0.000000 0.525980
0.450000 0.000000 0.525980
0.562745 0.000000 0.525980
0.675490 0.000000 0.525980
0.740686 0.000000 0.522059
0.000000 0.000000 0.584314
0.000000 0.000000 0.584314
0.044118 0.000000 0.580882
0.227942 0.003432 0.580392
0.356862 0.003922 0.576471
0.472059 0.003922 0.575000
0.574510 0.003432 0.568627
0.678431 0.000000 0.557353
0.732353 0.000000 0.552941
0.000000 0.102941 0.638726
0.006863 0.110784 0.638726
0.129412 0.122549 0.634804
0.281863 0.131372 0.634314
0.402451 0.131372 0.630392
0.508824 0.123529 0.623039
0.605883 0.105882 0.615196
0.701471 0.064216 0.600490
0.752941 0.041176 0.591667
0.025980 0.318628 0.704902
0.054412 0.325000 0.704902
0.200491 0.338235 0.704902
0.332843 0.346079 0.702451
0.454902 0.350000 0.700980
0.563725 0.350980 0.697059
0.666176 0.337745 0.689216
0.759804 0.291667 0.675490
0.806373 0.243137 0.660294
0.100000 0.470589 0.757353
0.153922 0.474509 0.757353
0.262745 0.482353 0.757353
0.377451 0.490196 0.755392
0.491667 0.498040 0.755392
0.599019 0.501961 0.753431
0.700000 0.506373 0.751471
0.802451 0.497549 0.743627
0.860294 0.486274 0.739706
0.218627 0.594608 0.805883
0.255883 0.597549 0.805883
0.329902 0.603921 0.805883
0.427451 0.609314 0.805883
0.528921 0.618627 0.805883
0.628922 0.625000 0.804412
0.727451 0.629902 0.801961
0.831863 0.630392 0.798039
0.890196 0.626470 0.794118
0.323039 0.706863 0.852451
0.349509 0.707843 0.852451
0.403921 0.711765 0.852451
0.481863 0.720588 0.852451
0.567647 0.726471 0.852451
0.661275 0.734313 0.852451
0.758333 0.742157 0.852451
0.859314 0.746078 0.848530
0.918137 0.746078 0.847549
0.420098 0.816176 0.902451
0.435784 0.816666 0.902451
0.477941 0.820098 0.902451
0.539706 0.824510 0.902451
0.613726 0.832353 0.902451
0.697059 0.840196 0.902941
0.789215 0.848039 0.902941
0.887255 0.855882 0.899019
0.949020 0.859314 0.899019
0.505882 0.941176 0.957353
0.517647 0.945098 0.957353
0.549020 0.945098 0.957353
0.598529 0.952941 0.961274
0.664216 0.960784 0.961274
0.738725 0.968627 0.961274
0.824510 0.976961 0.961764
0.918627 0.992157 0.965196
1.000000 1.000000 0.961274
0.000000 0.000000 0.549020
0.000000 0.000000 0.549020
0.002942 0.000000 0.549020
0.181373 0.000000 0.545098
0.317647 0.000000 0.545098
0.442157 0.000000 0.545098
0.554902 0.000000 0.545098
0.667647 0.000000 0.541176
0.733333 0.000000 0.541176
0.000000 0.000000 0.600000
0.000000 0.000000 0.600000
0.050980 0.000000 0.599510
0.224020 0.000000 0.596078
0.352451 0.003432 0.595588
0.467647 0.003432 0.591667
0.569607 0.000000 0.584314
0.667647 0.000000 0.576471
0.721569 0.000000 0.568627
0.000000 0.102941 0.654902
0.006863 0.106863 0.653922
0.133333 0.122549 0.653922
0.278431 0.127451 0.650000
0.399020 0.127451 0.646079
0.506373 0.119608 0.642157
0.603921 0.101961 0.634314
0.694608 0.060295 0.618627
0.745098 0.034314 0.610784
0.025980 0.317157 0.724020
0.059805 0.322549 0.721569
0.200491 0.334314 0.720098
0.330392 0.342157 0.720098
0.451471 0.348529 0.717647
0.560785 0.346078 0.713726
0.656863 0.332843 0.708333
0.751961 0.290196 0.692647
0.798529 0.239706 0.679412
0.103921 0.470588 0.774510
0.157843 0.470588 0.774510
0.262745 0.478431 0.774510
0.375490 0.486274 0.774510
0.486274 0.494117 0.774510
0.591176 0.498039 0.770588
0.695098 0.501961 0.768627
0.798529 0.495588 0.762745
0.852941 0.482353 0.758823
0.221078 0.591176 0.823529
0.255883 0.593627 0.823529
0.329902 0.599020 0.823529
0.423530 0.606863 0.823529
0.525490 0.614706 0.823529
0.622549 0.621078 0.821078
0.724020 0.626470 0.821078
0.824510 0.626471 0.817157
0.883824 0.622549 0.813235
0.322549 0.703922 0.870588
0.349509 0.703922 0.870588
0.403921 0.710784 0.870588
0.477942 0.715687 0.871568
0.563725 0.723530 0.871568
0.656373 0.730392 0.871568
0.750981 0.738235 0.870588
0.852451 0.742156 0.867647
0.910784 0.742156 0.866667
0.416666 0.812745 0.918137
0.432353 0.812745 0.918137
0.474019 0.816666 0.918137
0.533823 0.824019 0.918137
0.609804 0.828431 0.921569
0.693137 0.836274 0.921569
0.781862 0.844117 0.922549
0.879412 0.851961 0.921569
0.941666 0.855392 0.918137
0.501961 0.941176 0.980392
0.517157 0.941176 0.980392
0.545098 0.945098 0.980392
0.594608 0.949020 0.980392
0.656863 0.956863 0.984314
0.730882 0.964706 0.984314
0.816667 0.976471 0.988235
0.910294 0.988235 0.992157
1.000000 0.996078 0.996078
