Color/Kodak/Kodak Portra 160 NC 1 - 65x.cube
TITLE "Kodak Portra 160 NC 1 -"
LUT_3D_SIZE 5
DOMAIN_MIN 0.000000 0.000000 0.000000
DOMAIN_MAX 1.000000 1.000000 1.000000
0.000000 0.000000 0.000000
0.170588 0.031373 0.000000
0.513726 0.027451 0.000000
0.791176 0.088236 0.000000
1.000000 0.250980 0.027451
0.000000 0.202941 0.034314
0.154902 0.249019 0.000000
0.567647 0.245098 0.000000
0.814706 0.263726 0.000000
1.000000 0.345098 0.032353
0.000000 0.494118 0.217647
0.000000 0.499020 0.225490
0.468627 0.558823 0.090196
0.830392 0.559804 0.000000
1.000000 0.537255 0.060785
0.011765 0.721569 0.396078
0.180392 0.717647 0.399019
0.396079 0.739216 0.383333
0.712745 0.779412 0.297059
1.000000 0.805883 0.231372
0.596078 0.941176 0.717647
0.615686 0.941176 0.722549
0.670588 0.945098 0.735294
0.764706 0.968627 0.713726
0.929412 0.992157 0.674510
0.000000 0.003922 0.204902
0.208824 0.010784 0.208824
0.532353 0.000000 0.190196
0.766667 0.193137 0.237255
0.992157 0.296078 0.259804
0.000000 0.244118 0.236275
0.236275 0.267647 0.259804
0.551961 0.288235 0.256863
0.790196 0.308824 0.248039
0.998039 0.379412 0.268627
0.218627 0.519608 0.372549
0.250000 0.519608 0.355882
0.506863 0.564705 0.311765
0.822549 0.551961 0.263726
1.000000 0.549019 0.279412
0.262745 0.728431 0.476471
0.305882 0.730392 0.473529
0.447059 0.737255 0.465686
0.724510 0.780392 0.401961
1.000000 0.801961 0.357843
0.611765 0.941176 0.737255
0.631373 0.941176 0.741176
0.685294 0.945098 0.752941
0.769607 0.964706 0.737255
0.929412 0.992157 0.701961
0.000000 0.072549 0.529411
0.263726 0.108823 0.537254
0.586275 0.192157 0.549019
0.803922 0.254902 0.496078
1.000000 0.296079 0.474510
0.000000 0.301960 0.547059
0.304902 0.324510 0.558824
0.591176 0.361765 0.563725
0.806863 0.375490 0.517648
0.999019 0.382353 0.487255
0.225490 0.550980 0.550980
0.356863 0.562745 0.563725
0.584313 0.576470 0.582353
0.795098 0.563725 0.549019
0.986274 0.574510 0.529412
0.489216 0.750000 0.646078
0.540196 0.753922 0.655882
0.578431 0.750981 0.635294
0.756863 0.784314 0.609804
0.998039 0.791176 0.580392
0.686275 0.943137 0.803922
0.692157 0.945098 0.800000
0.713726 0.949020 0.794118
0.791176 0.964706 0.797058
0.941176 0.992157 0.768627
0.217647 0.236274 0.800981
0.382353 0.259804 0.800000
0.635294 0.323530 0.800000
0.848039 0.394118 0.797058
0.988235 0.471569 0.758824
0.269608 0.378431 0.797059
0.403922 0.390196 0.797058
0.644118 0.434314 0.802941
0.843137 0.492157 0.800000
0.982353 0.544118 0.767647
0.201960 0.567647 0.778431
0.365686 0.576470 0.786275
0.623530 0.603921 0.797058
0.825490 0.648039 0.803922
0.973529 0.668628 0.784314
0.460784 0.771568 0.780393
0.520588 0.774510 0.788235
0.648039 0.779412 0.792157
0.809804 0.797058 0.812745
0.973530 0.786275 0.786275
0.725490 0.956863 0.875490
0.743137 0.954902 0.879412
0.790196 0.957843 0.884314
0.833334 0.965686 0.879412
0.960784 0.996078 0.870588
0.552941 0.486275 0.980392
0.607843 0.499020 0.977451
0.743137 0.545098 0.976471
0.891177 0.619608 0.968627
1.000000 0.674510 0.968627
0.569608 0.557843 0.979412
0.621568 0.567647 0.976471
0.747059 0.601961 0.972549
0.888236 0.658823 0.965686
1.000000 0.706863 0.967647
0.554902 0.672549 0.976471
0.602942 0.674510 0.974510
0.735294 0.698039 0.974510
0.883333 0.739215 0.967647
1.000000 0.776471 0.972549
0.540196 0.821569 0.972549
0.570588 0.820588 0.975491
0.660784 0.813726 0.978431
0.852941 0.833334 0.977451
1.000000 0.876471 0.981372
0.721569 0.984314 0.984314
0.737255 0.984314 0.984314
0.788235 0.986274 0.986274
0.875490 0.988235 0.989216
1.000000 1.000000 1.000000
