Color/Kodak/Kodak Portra 400 UC 1 - 65x.cube
TITLE "Kodak Portra 400 UC 1 -"
LUT_3D_SIZE 9
DOMAIN_MIN 0.000000 0.000000 0.000000
DOMAIN_MAX 1.000000 1.000000 1.000000
0.000000 0.000000 0.000000
0.053922 0.003432 0.000000
0.201961 0.023529 0.000000
0.391666 0.015686 0.000000
0.596078 0.000000 0.000000
0.774020 0.000000 0.000000
0.900000 0.000000 0.000000
1.000000 0.067157 0.000000
1.000000 0.192157 0.000000
0.000000 0.050000 0.003922
0.042647 0.058334 0.000000
0.217157 0.100490 0.000000
0.407353 0.112745 0.000000
0.601961 0.093138 0.000000
0.776961 0.076470 0.000000
0.900000 0.096569 0.000000
1.000000 0.149019 0.000000
1.000000 0.234804 0.000000
0.000000 0.201961 0.010784
0.000000 0.203922 0.014215
0.148039 0.225490 0.000000
0.413236 0.271079 0.000000
0.641177 0.249999 0.000000
0.788726 0.242647 0.000000
0.904902 0.247058 0.000000
0.996568 0.265196 0.000000
1.000000 0.316667 0.000000
0.000000 0.367157 0.062745
0.000000 0.383823 0.084314
0.000000 0.392157 0.067647
0.317157 0.420588 0.000000
0.607353 0.451961 0.000000
0.779411 0.416176 0.000000
0.897549 0.386765 0.000000
0.990686 0.391176 0.000000
1.000000 0.422059 0.000000
0.000000 0.519608 0.150981
0.000000 0.527451 0.162745
0.000000 0.523529 0.172549
0.202451 0.541176 0.147059
0.478432 0.558823 0.092157
0.726471 0.596569 0.000000
0.864706 0.571569 0.000000
0.980882 0.533333 0.000000
1.000000 0.535294 0.000000
0.000000 0.630392 0.225000
0.000000 0.644118 0.240196
0.000000 0.635294 0.250000
0.116667 0.643628 0.243627
0.398039 0.661765 0.220588
0.610784 0.678922 0.187255
0.820098 0.720588 0.125491
0.937745 0.706373 0.000000
1.000000 0.686765 0.000000
0.000000 0.752942 0.321569
0.000000 0.755882 0.330883
0.000000 0.751961 0.332353
0.166177 0.753431 0.344117
0.386274 0.761764 0.334313
0.561765 0.774019 0.320098
0.724510 0.786275 0.295098
0.895098 0.817157 0.283333
1.000000 0.817647 0.214706
0.140686 0.858824 0.455392
0.194607 0.859314 0.459804
0.268137 0.855882 0.464216
0.364216 0.855392 0.478921
0.465686 0.853922 0.481373
0.591176 0.868137 0.479411
0.711765 0.875000 0.471568
0.832353 0.882843 0.460295
0.956373 0.901961 0.459804
0.541176 0.952941 0.666667
0.552941 0.949020 0.670588
0.572549 0.950000 0.675490
0.610294 0.950490 0.686275
0.652941 0.949020 0.701961
0.707353 0.954412 0.699510
0.773529 0.963725 0.697059
0.851470 0.972549 0.694608
0.933333 0.980392 0.694118
0.000000 0.000000 0.057844
0.061765 0.000000 0.061765
0.193137 0.000000 0.069608
0.393137 0.000000 0.058334
0.594117 0.000000 0.057353
0.764215 0.000000 0.031863
0.887255 0.000000 0.002451
0.989215 0.078921 0.000000
1.000000 0.192157 0.000000
0.000000 0.066177 0.069608
0.069608 0.077451 0.081373
0.224510 0.088725 0.076470
0.411274 0.093138 0.065196
0.609804 0.073039 0.045588
0.771568 0.068627 0.018137
0.891667 0.100981 0.000000
0.989706 0.157843 0.000000
1.000000 0.238726 0.000000
0.000000 0.229412 0.130392
0.000000 0.227941 0.115686
0.177941 0.240686 0.100981
0.438235 0.267647 0.042647
0.640686 0.247549 0.000000
0.782353 0.240686 0.000000
0.896079 0.246569 0.000000
0.992647 0.272549 0.000000
1.000000 0.323529 0.000000
0.000000 0.382353 0.161274
0.000000 0.397059 0.166666
0.024020 0.400981 0.167156
0.345588 0.427941 0.139705
0.615196 0.451471 0.044118
0.780882 0.406373 0.000000
0.897549 0.389216 0.000000
0.990686 0.397059 0.000000
1.000000 0.428431 0.000000
0.000000 0.529411 0.215196
0.000000 0.535784 0.221078
0.000000 0.530392 0.229902
0.250000 0.545098 0.216667
0.498039 0.562745 0.185784
0.728431 0.592647 0.105882
0.866667 0.567157 0.000000
0.979902 0.529902 0.000000
1.000000 0.537255 0.000000
0.000000 0.636765 0.267647
0.000000 0.646078 0.279412
0.000000 0.644608 0.287255
0.197549 0.650000 0.291177
0.420588 0.662745 0.272059
0.622549 0.681863 0.244608
0.821078 0.719608 0.201961
0.936765 0.706863 0.075000
1.000000 0.685294 0.000000
0.000000 0.753432 0.346078
0.000000 0.758824 0.355882
0.000000 0.755882 0.363235
0.226961 0.753922 0.374510
0.407353 0.763725 0.367157
0.573039 0.775490 0.352941
0.731373 0.786275 0.333334
0.894608 0.817157 0.321569
0.999510 0.817647 0.261275
0.194118 0.855882 0.471568
0.241177 0.859314 0.476471
0.302941 0.858824 0.483824
0.387255 0.855882 0.495098
0.482843 0.859314 0.502941
0.595588 0.863725 0.496569
0.715687 0.874510 0.491176
0.835294 0.882353 0.482843
0.956373 0.901961 0.483333
0.549020 0.952941 0.674510
0.560784 0.952941 0.678431
0.580392 0.952451 0.685785
0.615686 0.950000 0.694118
0.658824 0.952451 0.709314
0.711765 0.956863 0.708333
0.776961 0.963235 0.705392
0.848530 0.969607 0.702451
0.933333 0.980392 0.701961
0.000000 0.000000 0.217647
0.074020 0.000000 0.221078
0.220588 0.000000 0.228432
0.373039 0.000000 0.214706
0.587255 0.000000 0.201961
0.760784 0.000000 0.188235
0.879412 0.111765 0.225490
0.984804 0.175981 0.216176
1.000000 0.250000 0.211764
0.000000 0.097059 0.221568
0.035784 0.089706 0.233824
0.233333 0.100981 0.241667
0.392647 0.093628 0.225980
0.614706 0.000981 0.213235
0.763725 0.129902 0.229902
0.883824 0.182353 0.225000
0.984314 0.222058 0.212255
1.000000 0.288726 0.212255
0.000000 0.243138 0.239215
0.000000 0.251961 0.248039
0.244118 0.271569 0.263726
0.454412 0.279412 0.259804
0.637255 0.278431 0.250980
0.774510 0.275490 0.232353
0.888236 0.284314 0.216667
0.985294 0.310785 0.204902
1.000000 0.354902 0.201961
0.000000 0.405392 0.283824
0.110784 0.424510 0.306863
0.217157 0.427451 0.300000
0.406373 0.442647 0.294608
0.631863 0.445588 0.249019
0.779412 0.411274 0.208824
0.889216 0.408824 0.194117
0.981373 0.419118 0.181863
1.000000 0.449019 0.182353
0.045098 0.547059 0.343137
0.101961 0.554412 0.342647
0.176471 0.550000 0.328431
0.337745 0.554412 0.333333
0.533334 0.569608 0.314706
0.736274 0.592647 0.270098
0.869608 0.563725 0.199020
0.976961 0.538725 0.139706
1.000000 0.549019 0.131372
0.000000 0.648529 0.366666
0.026471 0.658824 0.371568
0.156372 0.657844 0.366666
0.303431 0.652451 0.376961
0.467157 0.669608 0.365196
0.642157 0.686275 0.348039
0.824019 0.720588 0.319608
0.937745 0.704902 0.247059
1.000000 0.681372 0.146569
0.037255 0.759804 0.421569
0.100981 0.762745 0.420588
0.202941 0.761764 0.420588
0.324510 0.759804 0.432353
0.450000 0.763725 0.433334
0.594608 0.776961 0.423039
0.741176 0.788235 0.409804
0.899019 0.819608 0.403431
0.998039 0.816666 0.348039
0.298529 0.859314 0.518627
0.318137 0.859314 0.521079
0.366177 0.860294 0.526470
0.432353 0.856863 0.534313
0.513726 0.857843 0.547549
0.616177 0.866667 0.545588
0.726471 0.875000 0.541176
0.837255 0.882843 0.533823
0.960294 0.904902 0.541176
0.564706 0.950000 0.694118
0.573530 0.950000 0.695098
0.592157 0.950000 0.701961
0.625980 0.951471 0.709804
0.668627 0.951961 0.721569
0.719118 0.954412 0.725490
0.781373 0.960784 0.725490
0.851961 0.969117 0.722059
0.933333 0.980392 0.721569
0.000000 0.010294 0.377451
0.000000 0.006863 0.383823
0.223039 0.001471 0.398529
0.426961 0.000000 0.408824
0.574510 0.000000 0.377451
0.727451 0.000000 0.355392
0.870098 0.000000 0.333333
0.982843 0.000000 0.316177
1.000000 0.277451 0.359314
0.000000 0.100000 0.381373
0.000000 0.111274 0.395588
0.233824 0.124019 0.406373
0.438725 0.132353 0.416667
0.588236 0.127941 0.389216
0.737745 0.110784 0.364215
0.876961 0.081863 0.341176
0.980882 0.190686 0.340686
1.000000 0.347059 0.382843
0.000000 0.252451 0.379902
0.000000 0.264216 0.393137
0.236275 0.276470 0.420588
0.469608 0.305883 0.442157
0.604902 0.295098 0.409314
0.759804 0.275000 0.384314
0.880392 0.298529 0.374020
0.969117 0.373040 0.390196
1.000000 0.412255 0.387745
0.000000 0.416667 0.398529
0.000000 0.437255 0.418137
0.275000 0.451471 0.432353
0.483333 0.467647 0.455882
0.636765 0.453921 0.434314
0.762255 0.449019 0.413725
0.873039 0.450980 0.396078
0.965686 0.456373 0.377451
1.000000 0.487255 0.375980
0.128921 0.558823 0.430392
0.236765 0.569608 0.445588
0.372059 0.572549 0.463236
0.452451 0.573039 0.460294
0.580883 0.584313 0.455883
0.748529 0.592156 0.419118
0.875000 0.562745 0.375490
0.964706 0.562255 0.359314
1.000000 0.575000 0.350490
0.315196 0.662745 0.484804
0.369608 0.675000 0.500490
0.395588 0.674510 0.494608
0.426961 0.673529 0.479412
0.526471 0.675980 0.480882
0.670588 0.694608 0.471569
0.830392 0.720588 0.448529
0.940196 0.699510 0.386274
1.000000 0.675980 0.322549
0.354902 0.766177 0.527941
0.367647 0.770098 0.528432
0.382843 0.768628 0.518137
0.422549 0.770588 0.514216
0.507843 0.766177 0.522059
0.625490 0.779412 0.517157
0.757353 0.792647 0.511275
0.900490 0.820098 0.503922
1.000000 0.814706 0.450490
0.430883 0.857353 0.595588
0.445098 0.861765 0.599510
0.456373 0.859804 0.594608
0.491176 0.860785 0.592647
0.558824 0.858824 0.606373
0.642157 0.863235 0.609804
0.738725 0.871078 0.607353
0.844117 0.882843 0.607353
0.964216 0.909804 0.616666
0.602451 0.949020 0.729412
0.607843 0.952941 0.733333
0.618137 0.952941 0.729412
0.643137 0.952941 0.733333
0.680392 0.952941 0.743627
0.728431 0.954412 0.754412
0.789215 0.962255 0.752941
0.859314 0.972549 0.752941
0.937255 0.980392 0.751471
0.000000 0.043137 0.523529
0.000000 0.047549 0.529411
0.186275 0.057843 0.542157
0.430882 0.074510 0.560785
0.627451 0.078432 0.572549
0.724510 0.076470 0.521568
0.839216 0.135294 0.494117
0.957353 0.160784 0.481863
1.000000 0.225490 0.474510
0.000000 0.127451 0.522059
0.000000 0.136275 0.531373
0.202451 0.151961 0.545098
0.444608 0.179412 0.568627
0.633824 0.189706 0.576961
0.730882 0.185784 0.529411
0.841177 0.214216 0.501961
0.957353 0.223039 0.487745
1.000000 0.274509 0.478432
0.000000 0.278432 0.531373
0.000000 0.283334 0.545098
0.223529 0.287255 0.558824
0.461765 0.314215 0.575980
0.641177 0.334314 0.584314
0.733823 0.323529 0.540686
0.847059 0.329412 0.518628
0.960294 0.328431 0.498530
1.000000 0.355882 0.485294
0.000000 0.402941 0.515686
0.000000 0.420588 0.533334
0.212255 0.427451 0.542157
0.458333 0.448529 0.573039
0.639216 0.477451 0.590196
0.734804 0.465686 0.558333
0.857353 0.451471 0.536274
0.958333 0.447059 0.508823
1.000000 0.520588 0.533824
0.000000 0.558823 0.539216
0.147549 0.566666 0.547059
0.320588 0.572549 0.556863
0.481863 0.586765 0.572549
0.635294 0.605882 0.596078
0.750490 0.598529 0.576961
0.855883 0.592156 0.554902
0.945588 0.590196 0.534804
1.000000 0.601961 0.523529
0.279412 0.674020 0.554902
0.339705 0.685785 0.570098
0.422549 0.686765 0.578431
0.533824 0.691667 0.599510
0.600000 0.693137 0.599510
0.703431 0.706863 0.599510
0.836765 0.715687 0.569118
0.945098 0.685294 0.513725
1.000000 0.689706 0.503922
0.415687 0.773529 0.610784
0.447549 0.778432 0.619608
0.501961 0.777451 0.628431
0.551470 0.778432 0.629902
0.582353 0.778432 0.616667
0.661274 0.782353 0.621568
0.778432 0.799019 0.624510
0.902451 0.819608 0.608824
1.000000 0.809804 0.554902
0.543627 0.859804 0.686765
0.553921 0.861765 0.688726
0.562255 0.863235 0.684804
0.576961 0.863235 0.674509
0.607843 0.863235 0.672549
0.668628 0.862255 0.680882
0.755882 0.875000 0.684314
0.853431 0.884804 0.686765
0.968627 0.914215 0.692647
0.647059 0.950981 0.774510
0.652941 0.952941 0.778431
0.658824 0.952941 0.772549
0.672549 0.954902 0.770588
0.696079 0.952941 0.772549
0.741176 0.955392 0.784314
0.797058 0.961765 0.786274
0.863725 0.972549 0.788235
0.941176 0.980392 0.786274
0.000000 0.098039 0.656373
0.000000 0.103431 0.659804
0.158333 0.117647 0.670588
0.415196 0.138725 0.689216
0.624020 0.177941 0.703431
0.766176 0.197549 0.703431
0.840196 0.200981 0.656373
0.934313 0.256863 0.633334
1.000000 0.336274 0.634314
0.000000 0.167647 0.653922
0.000000 0.175490 0.667647
0.190196 0.189706 0.675980
0.425490 0.210785 0.692647
0.627941 0.244608 0.703921
0.768137 0.263726 0.705392
0.843627 0.263726 0.660785
0.933823 0.301961 0.638235
1.000000 0.367647 0.638235
0.000000 0.282843 0.664216
0.000000 0.288235 0.671079
0.217157 0.300000 0.678922
0.440196 0.321079 0.690686
0.631863 0.353922 0.705392
0.767647 0.377451 0.710294
0.843137 0.372059 0.668628
0.929902 0.391667 0.646078
1.000000 0.429412 0.643137
0.000000 0.404902 0.630392
0.000000 0.420098 0.649510
0.260294 0.433824 0.665686
0.436275 0.437745 0.681372
0.627451 0.475000 0.701470
0.762255 0.502941 0.713726
0.834804 0.488726 0.677451
0.924020 0.494118 0.655392
1.000000 0.512255 0.652451
0.000000 0.535294 0.634804
0.000000 0.541176 0.640687
0.232353 0.544118 0.648529
0.406372 0.549510 0.655392
0.600000 0.578431 0.693137
0.750000 0.617647 0.714706
0.828432 0.605392 0.687255
0.925980 0.593137 0.666667
1.000000 0.594118 0.648039
0.170098 0.668137 0.652451
0.248039 0.675980 0.660294
0.354902 0.681372 0.667157
0.477941 0.687745 0.678431
0.613725 0.700980 0.695588
0.742647 0.724510 0.723039
0.834804 0.716667 0.704902
0.918137 0.711275 0.684804
1.000000 0.716667 0.673529
0.374019 0.782353 0.678922
0.409804 0.784314 0.683824
0.472059 0.786275 0.691176
0.555392 0.786275 0.700000
0.652941 0.790196 0.717157
0.716177 0.793137 0.724020
0.799509 0.805883 0.729412
0.903922 0.813235 0.705392
1.000000 0.794118 0.658824
0.521079 0.864216 0.731373
0.540686 0.867157 0.735294
0.578922 0.867157 0.744608
0.633824 0.867157 0.751471
0.688726 0.868137 0.759804
0.715196 0.867157 0.750490
0.778432 0.875000 0.759314
0.867157 0.889706 0.765196
0.970098 0.911765 0.760294
0.673039 0.956863 0.819608
0.680882 0.953431 0.819608
0.699510 0.955392 0.825000
0.719118 0.954412 0.825000
0.731372 0.956863 0.817157
0.756863 0.960784 0.815686
0.808823 0.964706 0.828922
0.871078 0.972549 0.827451
0.949020 0.984314 0.827451
0.000000 0.173530 0.789215
0.000000 0.177451 0.789216
0.207843 0.188235 0.793137
0.424510 0.203922 0.797058
0.611765 0.237255 0.805883
0.768137 0.300000 0.814216
0.875490 0.323530 0.812745
0.933823 0.319608 0.775000
1.000000 0.397058 0.766667
0.000000 0.220098 0.781373
0.000000 0.231863 0.790196
0.227451 0.235294 0.793137
0.435785 0.252941 0.797058
0.613726 0.287255 0.807353
0.770588 0.346078 0.816667
0.873039 0.366667 0.814216
0.930392 0.357843 0.775000
1.000000 0.426961 0.769117
0.000000 0.310785 0.783333
0.000000 0.316667 0.785785
0.247058 0.323529 0.788235
0.447059 0.343137 0.797549
0.620588 0.375490 0.806863
0.769608 0.428922 0.816667
0.869608 0.449019 0.815686
0.924510 0.436765 0.780392
1.000000 0.488235 0.772549
0.000000 0.427451 0.760784
0.100490 0.437745 0.772059
0.229412 0.423529 0.778922
0.437255 0.441176 0.786275
0.609314 0.471079 0.797058
0.758824 0.521568 0.812745
0.857353 0.546078 0.814216
0.915686 0.532843 0.783333
0.992157 0.565686 0.775980
0.000000 0.521569 0.731372
0.000000 0.527451 0.741176
0.174510 0.533334 0.750000
0.411765 0.547549 0.766667
0.580392 0.561765 0.787255
0.740196 0.615687 0.804902
0.845098 0.645098 0.813726
0.903432 0.632353 0.787745
0.981373 0.645098 0.779412
0.000000 0.645098 0.739706
0.004902 0.652451 0.746079
0.220589 0.655392 0.747549
0.373039 0.653922 0.753921
0.518138 0.655883 0.761274
0.710294 0.696079 0.795588
0.835294 0.738725 0.816667
0.894608 0.724020 0.794118
0.983334 0.723039 0.785294
0.239216 0.771568 0.759804
0.292647 0.776961 0.765196
0.374510 0.778432 0.766667
0.481373 0.778432 0.771568
0.600980 0.784314 0.780392
0.720098 0.798039 0.797058
0.828432 0.820588 0.824510
0.902941 0.813236 0.806373
0.985294 0.813726 0.799019
0.482843 0.871078 0.789215
0.505882 0.872059 0.790686
0.545098 0.872549 0.794608
0.609314 0.874020 0.800981
0.681863 0.875000 0.810294
0.758824 0.875981 0.824509
0.812745 0.879412 0.828922
0.883333 0.895098 0.836765
0.980392 0.906372 0.821078
0.646079 0.960784 0.851961
0.654902 0.960784 0.854412
0.674510 0.958823 0.855883
0.708333 0.960784 0.859804
0.751961 0.961764 0.864706
0.800980 0.964706 0.871568
0.821569 0.968627 0.863726
0.879412 0.975981 0.871568
0.960784 0.988235 0.875490
0.116666 0.275000 0.890196
0.208823 0.275980 0.887255
0.344118 0.286765 0.890686
0.491667 0.302451 0.890686
0.633333 0.330392 0.892157
0.764215 0.378922 0.894608
0.875490 0.448530 0.898529
0.953431 0.468137 0.895098
1.000000 0.468137 0.883333
0.124510 0.302451 0.883333
0.231863 0.313726 0.890686
0.355883 0.321569 0.890686
0.496078 0.334313 0.890686
0.635294 0.362745 0.893628
0.761764 0.405883 0.894608
0.875490 0.478431 0.898529
0.950000 0.491176 0.895098
1.000000 0.494118 0.879902
0.162254 0.373039 0.884804
0.243137 0.378921 0.885785
0.363726 0.386765 0.886765
0.499510 0.401961 0.886765
0.635785 0.425980 0.887255
0.762745 0.466667 0.893628
0.868628 0.529902 0.893138
0.942157 0.548039 0.895098
0.996568 0.541176 0.877451
0.119118 0.452451 0.873039
0.202941 0.455883 0.878921
0.337745 0.461765 0.880882
0.487745 0.477451 0.882843
0.625490 0.502941 0.882843
0.756372 0.546078 0.891666
0.861765 0.603431 0.894608
0.933823 0.619118 0.894608
0.984314 0.610784 0.875000
0.000980 0.554902 0.860785
0.154902 0.560785 0.863235
0.309313 0.562745 0.863235
0.432353 0.555392 0.871078
0.592156 0.576470 0.876961
0.734804 0.615196 0.882843
0.845098 0.668137 0.888726
0.923530 0.692157 0.892647
0.972549 0.680883 0.873039
0.000000 0.646078 0.840196
0.000000 0.650000 0.842156
0.000000 0.646078 0.843627
0.305882 0.645098 0.850490
0.528431 0.656373 0.859804
0.695588 0.683824 0.873530
0.829412 0.735784 0.886765
0.913725 0.765196 0.894118
0.968627 0.758333 0.879902
0.003922 0.764215 0.845588
0.094118 0.767157 0.848530
0.238236 0.766667 0.851470
0.367647 0.761764 0.848530
0.495588 0.762745 0.850980
0.619608 0.755392 0.851470
0.798039 0.790686 0.875981
0.907353 0.833334 0.899510
0.969607 0.825980 0.887745
0.373529 0.871078 0.862745
0.400000 0.871078 0.862255
0.450490 0.871078 0.863235
0.525980 0.871078 0.864706
0.616176 0.873039 0.867157
0.712745 0.876471 0.875000
0.812745 0.883824 0.886765
0.910294 0.906372 0.910294
0.988235 0.899019 0.895098
0.607353 0.968137 0.898039
0.618137 0.967647 0.897549
0.639216 0.966176 0.898529
0.678431 0.968627 0.902451
0.726961 0.970588 0.906372
0.780882 0.971569 0.912745
0.848039 0.976471 0.921569
0.898529 0.976961 0.922059
0.976471 0.992157 0.929902
0.474510 0.454902 0.980392
0.498039 0.458824 0.980392
0.549020 0.462745 0.977451
0.625980 0.476961 0.976471
0.717647 0.500000 0.976471
0.809314 0.534804 0.976471
0.887255 0.581373 0.972549
0.960784 0.639216 0.972549
1.000000 0.650980 0.972549
0.470588 0.466667 0.976471
0.501961 0.478431 0.980392
0.551961 0.482353 0.976961
0.628432 0.497549 0.976471
0.715686 0.517647 0.976471
0.805392 0.550490 0.974020
0.887255 0.594118 0.972549
0.957353 0.647549 0.972059
1.000000 0.662255 0.972549
0.478431 0.517647 0.979412
0.504411 0.520588 0.977451
0.554902 0.527451 0.976471
0.628922 0.539215 0.976471
0.714706 0.558823 0.972549
0.804411 0.588726 0.972549
0.886274 0.630392 0.969607
0.953431 0.675000 0.969607
1.000000 0.687255 0.971569
0.444608 0.563235 0.972549
0.482353 0.575000 0.976471
0.537745 0.580392 0.976471
0.615686 0.590686 0.976471
0.705392 0.612255 0.974510
0.797549 0.636765 0.972549
0.874019 0.671569 0.967156
0.949510 0.716177 0.974510
1.000000 0.725490 0.972549
0.449020 0.656863 0.970588
0.474510 0.658824 0.972549
0.506863 0.649019 0.970588
0.575000 0.645098 0.972549
0.680392 0.662745 0.972549
0.782353 0.690196 0.973039
0.867647 0.719608 0.967647
0.943627 0.756862 0.974020
1.000000 0.766666 0.974510
0.288235 0.720588 0.962255
0.340195 0.728922 0.964706
0.419608 0.726961 0.968627
0.525000 0.724510 0.966176
0.629902 0.723039 0.971078
0.746569 0.736274 0.972549
0.851961 0.770098 0.972549
0.933823 0.801471 0.972549
1.000000 0.817157 0.976471
0.285294 0.814706 0.961765
0.314216 0.817647 0.964706
0.362746 0.813726 0.964706
0.429901 0.807353 0.964706
0.529411 0.801961 0.968627
0.688236 0.801961 0.972549
0.817647 0.813726 0.976471
0.925980 0.851961 0.980392
0.996078 0.864706 0.981372
0.455882 0.910784 0.972549
0.463725 0.910294 0.972549
0.497550 0.913725 0.975981
0.541666 0.907843 0.975981
0.602941 0.901471 0.973039
0.676471 0.902451 0.980392
0.750491 0.890686 0.976961
0.894608 0.894608 0.987745
0.996078 0.925980 0.988235
0.572549 0.992157 0.980392
0.580392 0.992157 0.980392
0.600000 0.992157 0.980392
0.635294 0.992157 0.981863
0.678431 0.992157 0.984314
0.734804 0.992157 0.984314
0.804902 0.992157 0.988235
0.887255 0.996078 0.992157
1.000000 1.000000 1.000000
