Color/Kodak/Kodak Kodachrome 64 Generic 65x.cube
TITLE "Kodak Kodachrome 64 Generic"
LUT_3D_SIZE 5
DOMAIN_MIN 0.000000 0.000000 0.000000
DOMAIN_MAX 1.000000 1.000000 1.000000
0.000000 0.000000 0.000000
0.170588 0.000000 0.000000
0.527451 0.000000 0.000000
0.900000 0.003922 0.000000
1.000000 0.007843 0.000000
0.050000 0.151961 0.014706
0.158823 0.158823 0.015686
0.527451 0.170588 0.019608
0.889216 0.182353 0.024510
1.000000 0.190196 0.031373
0.000000 0.488235 0.062745
0.048039 0.492157 0.062745
0.507844 0.501961 0.068628
0.856863 0.511764 0.074510
1.000000 0.519608 0.074510
0.000000 0.793137 0.054902
0.000000 0.794118 0.053921
0.484313 0.801961 0.054902
0.809804 0.809804 0.050980
0.996078 0.816667 0.050000
0.000000 1.000000 0.035294
0.132353 1.000000 0.039216
0.529411 1.000000 0.047059
0.789215 1.000000 0.058824
1.000000 1.000000 0.066667
0.000000 0.000000 0.140196
0.170588 0.000000 0.144118
0.527451 0.000000 0.151961
0.900000 0.003922 0.158823
1.000000 0.007843 0.163725
0.047059 0.150980 0.158823
0.162745 0.154902 0.162745
0.527451 0.166666 0.166666
0.889216 0.179412 0.174510
1.000000 0.187255 0.178431
0.000000 0.486274 0.178431
0.056863 0.490197 0.182353
0.509804 0.500000 0.186274
0.856863 0.509804 0.192157
1.000000 0.515686 0.197059
0.000000 0.790196 0.200981
0.000000 0.794118 0.200981
0.484314 0.800981 0.204902
0.812745 0.808823 0.210784
0.996078 0.813726 0.213725
0.000000 0.997059 0.248039
0.144118 1.000000 0.248039
0.529411 1.000000 0.251961
0.790196 1.000000 0.256863
1.000000 1.000000 0.263726
0.000000 0.000000 0.460784
0.170588 0.000000 0.464706
0.527451 0.000000 0.470588
0.900980 0.000000 0.478432
1.000000 0.003922 0.482353
0.050000 0.143137 0.478432
0.162745 0.147059 0.480393
0.527451 0.158823 0.486274
0.892157 0.171569 0.493137
1.000000 0.179412 0.497059
0.000000 0.478432 0.505883
0.073529 0.484314 0.507844
0.513726 0.492157 0.513726
0.858824 0.503922 0.519608
1.000000 0.509804 0.523529
0.000000 0.785294 0.535294
0.000000 0.786275 0.537254
0.490197 0.794118 0.541176
0.813726 0.801961 0.545098
0.999019 0.808823 0.547059
0.000000 0.992157 0.564705
0.164706 0.996078 0.564705
0.533334 1.000000 0.568628
0.790196 1.000000 0.572549
1.000000 1.000000 0.576470
0.000000 0.000000 0.743137
0.170588 0.000000 0.747059
0.529411 0.000000 0.751961
0.900980 0.000000 0.758824
1.000000 0.000000 0.762745
0.050000 0.135294 0.758824
0.166666 0.139215 0.760784
0.529411 0.151961 0.766667
0.892157 0.166666 0.773529
1.000000 0.174510 0.777451
0.000000 0.472549 0.783333
0.088236 0.476471 0.786275
0.515686 0.486274 0.790196
0.860785 0.498039 0.797058
1.000000 0.503922 0.799019
0.000000 0.778432 0.808823
0.000000 0.782353 0.809804
0.496078 0.789215 0.813726
0.817647 0.798039 0.817647
1.000000 0.801961 0.820588
0.000000 0.988235 0.828432
0.185294 0.988235 0.829412
0.537254 0.993137 0.832353
0.793137 1.000000 0.836274
1.000000 1.000000 0.837255
0.000000 0.000000 0.905882
0.170588 0.000000 0.909804
0.529411 0.000000 0.913725
0.900980 0.000000 0.921569
1.000000 0.000000 0.925490
0.050000 0.131372 0.921569
0.167647 0.135294 0.921569
0.529412 0.146079 0.929412
0.892157 0.162745 0.933333
1.000000 0.170588 0.937255
0.000000 0.468627 0.945098
0.098039 0.472549 0.949020
0.517648 0.482353 0.952941
0.860785 0.494117 0.956863
1.000000 0.500000 0.960784
0.000000 0.774510 0.972549
0.000000 0.778432 0.972549
0.498039 0.786275 0.976471
0.820588 0.794118 0.980392
1.000000 0.798039 0.984314
0.000000 0.984314 0.992157
0.196079 0.984314 0.992157
0.541176 0.992157 0.996078
0.794118 0.996078 1.000000
1.000000 1.000000 1.000000
