Color/Kodak/Kodak Ektar 100 65x.cube
TITLE "Kodak Ektar 100"
LUT_3D_SIZE 5
DOMAIN_MIN 0.000000 0.000000 0.000000
DOMAIN_MAX 1.000000 1.000000 1.000000
0.000000 0.000000 0.000000
0.261765 0.003922 0.000000
0.539216 0.029412 0.000000
0.832353 0.070588 0.000000
1.000000 0.105882 0.000000
0.090196 0.200000 0.074510
0.207843 0.210785 0.070588
0.507843 0.230392 0.057844
0.793137 0.230393 0.038236
1.000000 0.187255 0.011765
0.000000 0.445098 0.152941
0.106862 0.452941 0.149020
0.456863 0.472549 0.133333
0.716667 0.480392 0.117647
0.966666 0.445098 0.094118
0.000981 0.659804 0.207843
0.147059 0.667647 0.203922
0.405882 0.679412 0.192157
0.651960 0.695098 0.172549
0.874510 0.695098 0.133333
0.070588 0.870588 0.290196
0.179412 0.874510 0.286275
0.398039 0.886275 0.282353
0.585294 0.898039 0.266667
0.854902 0.913725 0.215686
0.000000 0.000000 0.180392
0.285295 0.007843 0.171568
0.573530 0.029412 0.155882
0.863726 0.070588 0.133333
1.000000 0.105882 0.101961
0.094118 0.211765 0.226470
0.222549 0.222549 0.222549
0.525490 0.242157 0.208823
0.812745 0.246079 0.191176
1.000000 0.199020 0.167647
0.000000 0.452941 0.277451
0.114706 0.460785 0.273529
0.469608 0.480392 0.258824
0.730392 0.491177 0.244117
0.980392 0.458823 0.220588
0.029412 0.663725 0.346078
0.183334 0.671569 0.344117
0.429412 0.683334 0.337255
0.671569 0.699019 0.325490
0.894118 0.702941 0.300000
0.125490 0.874510 0.434314
0.230392 0.878431 0.431373
0.423529 0.890196 0.426471
0.604902 0.901961 0.418627
0.878431 0.921569 0.387255
0.003922 0.007843 0.354902
0.297059 0.023529 0.350981
0.600000 0.039216 0.339216
0.895098 0.070588 0.327451
1.000000 0.105882 0.303921
0.098039 0.227451 0.437255
0.238235 0.238235 0.436275
0.549019 0.260784 0.429412
0.836274 0.265686 0.417647
1.000000 0.218627 0.400981
0.017647 0.464706 0.507843
0.132353 0.472549 0.506863
0.496078 0.496078 0.496078
0.757843 0.507843 0.488236
1.000000 0.482353 0.472549
0.079411 0.671569 0.557843
0.234314 0.679412 0.554902
0.460784 0.691176 0.550000
0.699019 0.706863 0.542156
0.925490 0.710784 0.527451
0.160784 0.886275 0.600000
0.266667 0.890196 0.600000
0.449020 0.901961 0.596078
0.625490 0.917647 0.590196
0.913725 0.937255 0.570588
0.011765 0.027451 0.584314
0.304902 0.053921 0.577451
0.613725 0.074510 0.568627
0.927451 0.070588 0.553921
1.000000 0.105882 0.542156
0.086275 0.253922 0.636275
0.231373 0.265686 0.634314
0.556863 0.284314 0.624510
0.851961 0.293137 0.614706
1.000000 0.250000 0.604902
0.005883 0.480392 0.687255
0.113725 0.490196 0.687255
0.503922 0.515686 0.675490
0.769607 0.527451 0.668628
1.000000 0.512745 0.659804
0.081372 0.682353 0.734314
0.250000 0.687255 0.730392
0.476471 0.702941 0.726471
0.718628 0.718628 0.718628
0.952941 0.726471 0.710784
0.184314 0.901961 0.768627
0.285295 0.906862 0.765686
0.464706 0.917647 0.764706
0.640196 0.933333 0.760784
0.949020 0.956863 0.745098
0.015686 0.078431 0.760784
0.281373 0.098039 0.756863
0.603921 0.117647 0.745098
0.930392 0.121569 0.733333
1.000000 0.101961 0.725490
0.044117 0.289216 0.807843
0.175490 0.301961 0.803922
0.533334 0.328431 0.792157
0.851961 0.336275 0.784314
1.000000 0.300980 0.772549
0.000000 0.501961 0.843137
0.000000 0.511765 0.843137
0.486274 0.539216 0.831373
0.767646 0.556863 0.823529
1.000000 0.550980 0.815686
0.000000 0.691176 0.886275
0.188236 0.701961 0.882353
0.464706 0.717647 0.879412
0.722549 0.737255 0.875490
0.968627 0.746079 0.871568
0.121569 0.921569 0.968627
0.242157 0.925490 0.968627
0.452941 0.941176 0.972549
0.647059 0.956863 0.980392
1.000000 0.992157 0.992157
