Color/Kodak/Kodak Elite 100 XPRO 65x.cube
TITLE "Kodak Elite 100 XPRO"
LUT_3D_SIZE 5
DOMAIN_MIN 0.000000 0.000000 0.000000
DOMAIN_MAX 1.000000 1.000000 1.000000
0.000000 0.000000 0.000000
0.136274 0.000000 0.000000
0.376471 0.007843 0.005882
0.754902 0.036275 0.031373
0.972549 0.090196 0.054902
0.089216 0.123529 0.003922
0.167647 0.139215 0.003922
0.413725 0.174510 0.011765
0.789215 0.241176 0.023529
1.000000 0.331372 0.031373
0.066666 0.464706 0.007843
0.201961 0.472549 0.007843
0.498039 0.496078 0.013725
0.839216 0.534314 0.019608
1.000000 0.584313 0.011765
0.213726 0.727451 0.007843
0.356863 0.731373 0.007843
0.660784 0.746079 0.011765
0.896079 0.761764 0.011765
1.000000 0.781373 0.000000
0.666667 0.882353 0.000000
0.720588 0.886275 0.000000
0.837255 0.890196 0.000000
0.972549 0.890196 0.000000
1.000000 0.894118 0.000000
0.000000 0.000000 0.027451
0.120589 0.003922 0.038235
0.368627 0.015686 0.050980
0.754902 0.050980 0.070588
0.980392 0.105882 0.050980
0.077451 0.147059 0.046079
0.150980 0.161765 0.050000
0.405883 0.200000 0.061765
0.786275 0.261765 0.074510
1.000000 0.354902 0.047059
0.019608 0.482353 0.053921
0.150980 0.490197 0.057843
0.482353 0.513726 0.061765
0.834314 0.551961 0.063725
1.000000 0.600000 0.034314
0.142157 0.742156 0.057844
0.315687 0.746079 0.057844
0.644118 0.758824 0.053922
0.888236 0.773529 0.042157
1.000000 0.789215 0.015686
0.639216 0.894118 0.003922
0.697059 0.898039 0.000000
0.821568 0.898039 0.000000
0.961765 0.901961 0.000000
1.000000 0.898039 0.000000
0.000000 0.007843 0.180393
0.093137 0.017647 0.184314
0.349020 0.035294 0.192157
0.747059 0.074510 0.183333
0.980392 0.133333 0.135294
0.050000 0.190196 0.243138
0.114706 0.207843 0.247058
0.368627 0.245098 0.256862
0.770588 0.302941 0.253922
0.996078 0.396078 0.161765
0.000000 0.527451 0.331372
0.000000 0.535294 0.335294
0.409804 0.558824 0.337255
0.801961 0.594117 0.317647
1.000000 0.635294 0.221569
0.000000 0.786275 0.469608
0.046079 0.791176 0.470588
0.557843 0.802941 0.476471
0.836274 0.817647 0.443137
1.000000 0.824510 0.283334
0.539216 0.937255 0.556863
0.608823 0.939215 0.556863
0.752941 0.941176 0.547059
0.904902 0.943137 0.510784
1.000000 0.927451 0.260784
0.000000 0.051960 0.548039
0.023529 0.070588 0.559804
0.285294 0.095098 0.575490
0.707843 0.134314 0.586275
0.955882 0.197059 0.487255
0.000000 0.269608 0.656863
0.024510 0.285294 0.664706
0.267647 0.319608 0.683333
0.711765 0.383333 0.700000
0.956863 0.478431 0.642157
0.000000 0.592156 0.725490
0.000000 0.600000 0.734313
0.231372 0.623530 0.750981
0.731373 0.661765 0.768628
0.952941 0.705882 0.733333
0.000000 0.828432 0.789215
0.000000 0.833334 0.794118
0.419608 0.848039 0.814706
0.766667 0.867647 0.829412
0.949020 0.887255 0.810784
0.390196 0.965686 0.848039
0.491177 0.968627 0.851961
0.676470 0.976471 0.863726
0.848039 0.980392 0.867647
0.996078 0.984314 0.841177
0.000000 0.105882 0.831373
0.000000 0.120589 0.839216
0.190196 0.147059 0.862745
0.652941 0.197059 0.898039
0.921569 0.294118 0.898039
0.000000 0.335294 0.866667
0.000000 0.350980 0.873530
0.076470 0.388235 0.894118
0.646078 0.461765 0.926470
0.921569 0.548039 0.936274
0.000000 0.635294 0.886275
0.000000 0.643138 0.892157
0.000000 0.666667 0.913725
0.653921 0.709804 0.949020
0.921569 0.754902 0.960784
0.000000 0.851961 0.906862
0.000000 0.855882 0.916667
0.023529 0.871568 0.937255
0.697059 0.895098 0.968627
0.921569 0.918627 0.980392
0.000000 0.972549 0.945098
0.000000 0.976471 0.949020
0.523529 0.984314 0.968627
0.789215 0.992157 0.984314
1.000000 1.000000 1.000000
