Color/Kodak/Kodak Kodachrome 200 65x.cube
TITLE "Kodak Kodachrome 200"
LUT_3D_SIZE 5
DOMAIN_MIN 0.000000 0.000000 0.000000
DOMAIN_MAX 1.000000 1.000000 1.000000
0.000000 0.000000 0.000000
0.158823 0.000000 0.000000
0.492157 0.000000 0.003922
0.750981 0.000000 0.007843
0.917647 0.000000 0.011765
0.086275 0.205882 0.089216
0.228432 0.205882 0.093137
0.537254 0.198039 0.100981
0.773529 0.178431 0.089216
0.936274 0.150000 0.057844
0.135294 0.525490 0.258823
0.326471 0.525490 0.260784
0.576470 0.525490 0.256863
0.782353 0.521568 0.229412
0.945098 0.509804 0.182353
0.416666 0.738235 0.467647
0.486274 0.738235 0.467647
0.629412 0.738235 0.463726
0.793137 0.735294 0.441177
0.952941 0.731373 0.378432
0.592157 0.949020 0.666667
0.619608 0.949020 0.666667
0.700000 0.952941 0.666667
0.828432 0.952941 0.662745
0.988235 0.952941 0.635294
0.000000 0.000000 0.069608
0.147059 0.000000 0.073529
0.490197 0.000000 0.081372
0.750981 0.000000 0.070588
0.921569 0.000000 0.042157
0.074510 0.201961 0.208824
0.216667 0.201961 0.212745
0.533334 0.194117 0.214706
0.769607 0.176470 0.190196
0.933333 0.146079 0.139215
0.100980 0.529411 0.383333
0.309804 0.529411 0.387255
0.564705 0.527451 0.387255
0.773529 0.521568 0.366667
0.939215 0.509804 0.309804
0.405883 0.739216 0.542156
0.474510 0.739216 0.545098
0.620588 0.739216 0.545098
0.785294 0.738235 0.534313
0.945098 0.734314 0.501961
0.588235 0.952941 0.705882
0.615686 0.952941 0.705882
0.696079 0.956863 0.708824
0.824510 0.956863 0.705882
0.984314 0.956863 0.689216
0.000000 0.000000 0.254902
0.123529 0.000000 0.263726
0.474510 0.000000 0.274509
0.738235 0.000000 0.262745
0.913725 0.000000 0.215687
0.057843 0.194117 0.389216
0.190196 0.191176 0.395098
0.516667 0.182353 0.404902
0.750981 0.162745 0.400981
0.917647 0.131372 0.367647
0.033334 0.529411 0.529411
0.282353 0.529411 0.537254
0.549019 0.525490 0.545098
0.757843 0.521568 0.545098
0.925490 0.505883 0.525490
0.384314 0.742156 0.648039
0.458824 0.742156 0.650000
0.606863 0.742156 0.653922
0.774510 0.739216 0.655883
0.937255 0.735294 0.646078
0.578431 0.964706 0.776471
0.607843 0.964706 0.776471
0.688236 0.964706 0.780392
0.816667 0.968627 0.782353
0.988235 0.968627 0.774510
0.000000 0.000000 0.424509
0.088235 0.000000 0.436275
0.454902 0.000000 0.455882
0.722549 0.000000 0.463726
0.894118 0.000000 0.455882
0.030392 0.166666 0.518628
0.156863 0.162745 0.525490
0.496078 0.150980 0.541176
0.738235 0.131372 0.546079
0.905882 0.099020 0.538235
0.000000 0.521568 0.641176
0.237255 0.521568 0.646078
0.533334 0.517648 0.657843
0.746079 0.509804 0.664706
0.917647 0.495098 0.661765
0.350000 0.742156 0.743137
0.431373 0.742156 0.747059
0.591176 0.739216 0.753922
0.765686 0.738235 0.758824
0.933333 0.734314 0.758824
0.560784 0.972549 0.859804
0.592157 0.973530 0.862745
0.676470 0.976471 0.867647
0.808823 0.980392 0.871568
0.992157 0.980392 0.871568
0.000000 0.000000 0.513726
0.052941 0.000000 0.525490
0.433334 0.000000 0.547059
0.710784 0.000000 0.560784
0.890196 0.000000 0.564706
0.007843 0.123529 0.595098
0.115686 0.119608 0.602942
0.474509 0.107843 0.618628
0.723530 0.088235 0.627451
0.894118 0.060784 0.627451
0.000000 0.501961 0.717647
0.166666 0.501961 0.723530
0.513726 0.498039 0.739216
0.738235 0.488235 0.747059
0.909804 0.468627 0.750981
0.289216 0.734314 0.824510
0.392156 0.734313 0.828431
0.567647 0.734314 0.836274
0.750981 0.731373 0.844118
0.926471 0.726471 0.851961
0.529412 0.980392 0.952941
0.560784 0.980392 0.956863
0.650980 0.984314 0.964706
0.789215 0.988235 0.976471
1.000000 0.996078 0.996078
