Color/Kodak/Kodak Portra 160 VC 1 - 65x.cube
TITLE "Kodak Portra 160 VC 1 -"
LUT_3D_SIZE 9
DOMAIN_MIN 0.000000 0.000000 0.000000
DOMAIN_MAX 1.000000 1.000000 1.000000
0.000000 0.000000 0.000000
0.038236 0.003432 0.000000
0.185294 0.027451 0.000000
0.386275 0.011765 0.000000
0.576470 0.000000 0.000000
0.748039 0.000000 0.000000
0.876471 0.029412 0.000000
0.980882 0.129902 0.000000
1.000000 0.223529 0.000000
0.000000 0.042157 0.003922
0.035294 0.057844 0.000000
0.198039 0.092647 0.000000
0.395588 0.104902 0.000000
0.574510 0.091667 0.000000
0.751471 0.102451 0.000000
0.874999 0.136275 0.000000
0.977451 0.187745 0.000000
1.000000 0.258334 0.000000
0.000000 0.199020 0.022549
0.000000 0.200000 0.025980
0.162745 0.225490 0.000000
0.407353 0.255883 0.000000
0.595098 0.236275 0.000000
0.747058 0.244118 0.000000
0.866666 0.255883 0.000000
0.969608 0.277942 0.000000
1.000000 0.325490 0.000000
0.000000 0.371078 0.112255
0.000000 0.383823 0.133824
0.090686 0.392157 0.106863
0.350000 0.416667 0.000000
0.582353 0.430882 0.000000
0.729902 0.396568 0.000000
0.850490 0.377451 0.000000
0.961274 0.387255 0.000000
1.000000 0.418137 0.000000
0.000000 0.519608 0.219608
0.000000 0.527451 0.229412
0.126471 0.519608 0.233333
0.303431 0.535784 0.187745
0.498039 0.550980 0.096078
0.705392 0.573039 0.000000
0.830392 0.539216 0.000000
0.946078 0.507844 0.000000
1.000000 0.515686 0.000000
0.000000 0.634314 0.299510
0.065196 0.648039 0.314706
0.207353 0.638235 0.315196
0.320588 0.642157 0.302451
0.462746 0.653922 0.259804
0.624020 0.669608 0.187255
0.809804 0.693137 0.022549
0.926470 0.674509 0.000000
1.000000 0.651471 0.000000
0.233333 0.755882 0.403922
0.266176 0.754902 0.409804
0.320588 0.749020 0.410784
0.399020 0.749510 0.420098
0.489216 0.758824 0.391176
0.603922 0.770588 0.354411
0.740196 0.778432 0.293137
0.910784 0.802451 0.204412
1.000000 0.791176 0.142157
0.440196 0.858824 0.545588
0.452451 0.855882 0.546569
0.479902 0.855882 0.550490
0.528431 0.854902 0.561274
0.575490 0.855392 0.553921
0.648529 0.867157 0.528922
0.738726 0.875000 0.491176
0.855392 0.883333 0.436274
0.995588 0.905882 0.362255
0.635294 0.956863 0.709804
0.639216 0.956863 0.709804
0.655883 0.956863 0.714706
0.684804 0.956863 0.721569
0.719608 0.956863 0.729412
0.755882 0.962255 0.719118
0.808823 0.972549 0.704902
0.875490 0.980882 0.681863
0.956863 0.992157 0.650980
0.000000 0.000000 0.053922
0.042157 0.000000 0.050000
0.185294 0.000000 0.061765
0.389216 0.000000 0.058334
0.574510 0.000000 0.073039
0.740196 0.000000 0.065196
0.863726 0.062745 0.052941
0.969117 0.149020 0.045588
1.000000 0.234804 0.064706
0.000000 0.061765 0.069608
0.046079 0.069117 0.077451
0.204902 0.081373 0.076470
0.399510 0.085294 0.072059
0.582353 0.084804 0.065196
0.742157 0.106372 0.056863
0.864216 0.148530 0.041667
0.970098 0.200980 0.034314
1.000000 0.266177 0.056863
0.000000 0.222059 0.137255
0.000000 0.220098 0.127451
0.181863 0.233333 0.100490
0.419608 0.248039 0.052941
0.597549 0.236275 0.029412
0.740196 0.244608 0.014706
0.860785 0.262255 0.004902
0.967647 0.291667 0.002942
1.000000 0.337745 0.032353
0.000000 0.382843 0.187255
0.000000 0.395588 0.201961
0.156863 0.396078 0.197549
0.365196 0.417647 0.142647
0.583823 0.426961 0.044608
0.729902 0.386765 0.000000
0.851961 0.381373 0.000000
0.957353 0.395098 0.000000
1.000000 0.424510 0.000000
0.000000 0.529411 0.268137
0.003921 0.531863 0.275980
0.192647 0.525490 0.281373
0.329412 0.537254 0.251470
0.507843 0.552941 0.187255
0.700980 0.567157 0.074020
0.828431 0.537254 0.000000
0.944608 0.505883 0.000000
1.000000 0.521568 0.000000
0.052451 0.642157 0.334314
0.154902 0.650000 0.344117
0.250490 0.644608 0.348529
0.351471 0.646078 0.342647
0.474510 0.654902 0.302941
0.630392 0.670098 0.244118
0.808823 0.692157 0.153921
0.928431 0.672549 0.064706
1.000000 0.651961 0.000000
0.267647 0.755882 0.426470
0.296569 0.758824 0.433334
0.347059 0.754902 0.436765
0.418628 0.750000 0.443627
0.501471 0.759804 0.421079
0.609314 0.770098 0.382843
0.743137 0.778432 0.330883
0.909804 0.801961 0.252941
1.000000 0.793627 0.203431
0.455392 0.856373 0.561274
0.468138 0.856373 0.562255
0.494608 0.855883 0.568627
0.536765 0.854902 0.573529
0.586765 0.855392 0.572549
0.650490 0.863725 0.546078
0.743137 0.875000 0.510784
0.855882 0.883333 0.459314
0.995098 0.905882 0.389706
0.639216 0.960784 0.717647
0.647059 0.956863 0.717647
0.662255 0.957353 0.721079
0.687255 0.956863 0.726470
0.723529 0.956863 0.737255
0.760784 0.964706 0.727941
0.811275 0.972059 0.712255
0.875981 0.980882 0.687255
0.956863 0.988725 0.658824
0.000000 0.006863 0.240196
0.050980 0.003922 0.229412
0.204902 0.006863 0.225490
0.384313 0.000000 0.211275
0.581372 0.000000 0.196078
0.741176 0.000000 0.211765
0.856863 0.181372 0.260784
0.965196 0.234804 0.259804
1.000000 0.296078 0.263726
0.000000 0.112745 0.245098
0.004412 0.100981 0.249019
0.217647 0.112745 0.241667
0.397549 0.062745 0.221568
0.595098 0.020588 0.217647
0.740196 0.171078 0.255883
0.857353 0.225980 0.260294
0.961764 0.265686 0.255393
1.000000 0.320588 0.263726
0.000000 0.247058 0.254902
0.000000 0.251471 0.259804
0.227451 0.251961 0.263726
0.427451 0.267647 0.267647
0.598040 0.278431 0.264706
0.736274 0.287255 0.255883
0.854902 0.304902 0.248039
0.960294 0.334314 0.244608
1.000000 0.376470 0.253922
0.000000 0.404902 0.300980
0.164706 0.417157 0.319608
0.258823 0.412745 0.315686
0.399510 0.426961 0.294608
0.588726 0.418137 0.249509
0.728431 0.395098 0.224510
0.846078 0.403431 0.221568
0.953431 0.421078 0.221078
1.000000 0.449510 0.233333
0.184314 0.545098 0.366667
0.205392 0.550490 0.363235
0.283334 0.539216 0.362745
0.379902 0.541176 0.354412
0.525490 0.556863 0.310785
0.702451 0.563725 0.256373
0.828431 0.532353 0.211765
0.945588 0.517157 0.180883
1.000000 0.533334 0.191176
0.207353 0.653922 0.400490
0.255392 0.660294 0.409314
0.319608 0.656373 0.413725
0.400000 0.647549 0.416667
0.498039 0.659314 0.384804
0.640686 0.672059 0.341666
0.809804 0.690196 0.286765
0.925980 0.669608 0.239706
1.000000 0.650000 0.182843
0.336275 0.762745 0.481372
0.357843 0.762745 0.483824
0.399020 0.760784 0.489216
0.458334 0.756863 0.495098
0.526471 0.759804 0.481373
0.623530 0.770588 0.449020
0.750981 0.780392 0.400980
0.910784 0.802451 0.343137
1.000000 0.790196 0.301961
0.487255 0.860785 0.597058
0.501471 0.861765 0.599510
0.525000 0.860294 0.604412
0.561274 0.856863 0.608333
0.610294 0.855392 0.612255
0.668137 0.866667 0.590686
0.750491 0.875000 0.557843
0.859804 0.883333 0.511275
0.998039 0.906372 0.453922
0.650980 0.957843 0.732353
0.655883 0.957843 0.733333
0.670588 0.956863 0.733333
0.696569 0.956863 0.741176
0.732353 0.956863 0.750000
0.766176 0.960784 0.745098
0.813725 0.969607 0.729412
0.879412 0.980882 0.709804
0.959804 0.991177 0.682353
0.000000 0.037745 0.424510
0.000000 0.048039 0.423039
0.259804 0.077451 0.416667
0.430882 0.091177 0.408824
0.570588 0.000000 0.377451
0.727451 0.000000 0.347549
0.862255 0.000000 0.337255
0.969117 0.152451 0.347549
1.000000 0.332353 0.402451
0.000000 0.146569 0.424510
0.000000 0.154902 0.430882
0.271569 0.175000 0.422059
0.434804 0.189706 0.416177
0.578922 0.141177 0.389216
0.730882 0.102941 0.360294
0.862255 0.126961 0.349020
0.964216 0.255882 0.373039
1.000000 0.385294 0.423039
0.000000 0.301960 0.426471
0.000000 0.307843 0.432353
0.271569 0.303431 0.436275
0.450000 0.325000 0.435294
0.587255 0.284804 0.401471
0.738235 0.278922 0.388235
0.853431 0.326471 0.396078
0.949510 0.400491 0.423529
1.000000 0.437255 0.425490
0.000000 0.429902 0.425980
0.109313 0.445098 0.437745
0.290687 0.443628 0.440196
0.440196 0.436275 0.440196
0.589706 0.433824 0.426470
0.723039 0.438725 0.416667
0.840196 0.448039 0.408824
0.945588 0.461765 0.401471
1.000000 0.491177 0.407353
0.219118 0.561275 0.455882
0.279902 0.570588 0.467647
0.373529 0.564705 0.471079
0.446568 0.553432 0.463726
0.552941 0.560785 0.440196
0.707353 0.556863 0.402941
0.829412 0.533334 0.373529
0.941176 0.541177 0.373530
1.000000 0.559314 0.377941
0.358333 0.666667 0.508334
0.399019 0.675000 0.522059
0.418137 0.670588 0.510294
0.465196 0.662745 0.504412
0.537254 0.662255 0.492647
0.656373 0.675980 0.455883
0.811275 0.686765 0.417157
0.927451 0.663235 0.375980
1.000000 0.642157 0.336765
0.441667 0.771568 0.570098
0.448039 0.770588 0.568627
0.467157 0.768628 0.563235
0.515686 0.766667 0.569118
0.571568 0.761274 0.569118
0.647549 0.772549 0.542157
0.759804 0.780882 0.503432
0.908823 0.799510 0.455882
1.000000 0.787255 0.414216
0.530392 0.863725 0.646078
0.540686 0.866177 0.650490
0.561764 0.863725 0.651470
0.596568 0.861275 0.655392
0.639706 0.858824 0.661275
0.688236 0.864706 0.649020
0.762255 0.875000 0.622059
0.863725 0.883333 0.583824
0.999510 0.910294 0.540196
0.662745 0.960784 0.752941
0.670588 0.960784 0.756863
0.686275 0.960784 0.760294
0.709804 0.960784 0.764706
0.743137 0.958824 0.770588
0.779412 0.960784 0.772549
0.824510 0.972549 0.760784
0.886765 0.980392 0.743137
0.960784 0.990686 0.716177
0.000000 0.121568 0.592156
0.000000 0.133333 0.592156
0.291177 0.161765 0.588236
0.485784 0.212255 0.580392
0.627451 0.229412 0.576470
0.714706 0.161275 0.525981
0.843137 0.121568 0.489216
0.961274 0.166667 0.474509
1.000000 0.245098 0.474510
0.000000 0.209314 0.588726
0.024020 0.222549 0.593627
0.308824 0.240686 0.591176
0.499020 0.281373 0.589706
0.627451 0.288235 0.580392
0.717157 0.233333 0.533334
0.841667 0.199510 0.492647
0.957353 0.229412 0.482353
1.000000 0.289706 0.482353
0.000000 0.367647 0.600000
0.154902 0.368627 0.605882
0.323530 0.359804 0.605882
0.503432 0.380883 0.599020
0.625490 0.385294 0.584314
0.717647 0.339215 0.540686
0.842157 0.318628 0.507843
0.955882 0.335784 0.498040
1.000000 0.386274 0.504902
0.000000 0.479412 0.581863
0.111274 0.493627 0.598530
0.291177 0.491667 0.596569
0.473529 0.475490 0.592156
0.609804 0.484804 0.582353
0.715196 0.447549 0.545098
0.839216 0.445588 0.529411
0.945588 0.470588 0.530392
1.000000 0.542156 0.571078
0.156863 0.586275 0.576470
0.236275 0.592156 0.584313
0.345098 0.588236 0.582353
0.467157 0.580392 0.578431
0.584313 0.568628 0.572549
0.707353 0.571078 0.563235
0.824510 0.576470 0.556863
0.929902 0.584314 0.550980
1.000000 0.600000 0.550980
0.346079 0.683824 0.590196
0.390686 0.692157 0.601471
0.451470 0.687745 0.601961
0.533824 0.683824 0.609804
0.591666 0.673529 0.601470
0.677451 0.679902 0.579902
0.812745 0.678432 0.545588
0.927451 0.650490 0.505883
1.000000 0.662255 0.510294
0.496078 0.782353 0.652941
0.515196 0.782353 0.655882
0.550000 0.781373 0.660784
0.583333 0.775980 0.654902
0.619608 0.772549 0.650000
0.675000 0.771568 0.636275
0.774510 0.786275 0.611765
0.910294 0.796078 0.572549
1.000000 0.781373 0.529412
0.610294 0.871078 0.725491
0.614706 0.871568 0.724020
0.619607 0.871078 0.719118
0.631863 0.869608 0.709804
0.672549 0.867157 0.712255
0.715687 0.863725 0.712745
0.778922 0.875000 0.693627
0.873039 0.885294 0.663236
1.000000 0.910294 0.629902
0.692157 0.962745 0.792157
0.696079 0.964706 0.792157
0.700000 0.964706 0.787255
0.723529 0.964706 0.794118
0.754902 0.962745 0.796078
0.793627 0.963235 0.803922
0.834314 0.969607 0.798039
0.890686 0.980882 0.782353
0.964706 0.990196 0.758823
0.000000 0.221078 0.734804
0.116666 0.230392 0.732843
0.340686 0.253922 0.732353
0.521079 0.294118 0.730882
0.660784 0.346569 0.719118
0.762255 0.344117 0.707353
0.827941 0.288236 0.660294
0.941176 0.277941 0.630392
1.000000 0.307353 0.610784
0.000000 0.287255 0.732353
0.185784 0.302451 0.738725
0.362745 0.317157 0.738725
0.526471 0.346079 0.730882
0.661275 0.385784 0.721079
0.760294 0.385294 0.709314
0.828922 0.333333 0.664216
0.938235 0.316177 0.631373
1.000000 0.342647 0.614706
0.155882 0.411274 0.738725
0.218627 0.402941 0.742647
0.376470 0.413725 0.738725
0.529412 0.432353 0.734314
0.658824 0.459804 0.723039
0.754412 0.462255 0.712745
0.826961 0.411765 0.670098
0.936765 0.393627 0.638235
1.000000 0.419607 0.629412
0.135784 0.524020 0.719118
0.260784 0.533824 0.731863
0.396078 0.530392 0.728431
0.509804 0.519118 0.724510
0.647058 0.543137 0.719118
0.744117 0.551471 0.712745
0.817647 0.504412 0.673529
0.931863 0.486275 0.645098
1.000000 0.514706 0.648529
0.198039 0.621569 0.710785
0.267647 0.626961 0.715196
0.363725 0.623530 0.713726
0.477451 0.620098 0.709804
0.615196 0.611274 0.708824
0.724510 0.625000 0.705392
0.813726 0.593137 0.677451
0.925980 0.591666 0.665686
1.000000 0.606373 0.668137
0.322059 0.704902 0.700980
0.363235 0.707353 0.703431
0.430882 0.706373 0.703922
0.516177 0.703431 0.703431
0.607843 0.695588 0.699510
0.703431 0.689216 0.697059
0.812745 0.691667 0.693137
0.916666 0.696569 0.688726
1.000000 0.708824 0.689216
0.489216 0.798039 0.725000
0.508823 0.798529 0.727941
0.546078 0.798039 0.728921
0.600490 0.794118 0.730392
0.666667 0.787745 0.733333
0.719118 0.781373 0.727941
0.790686 0.787745 0.712255
0.910294 0.786275 0.678432
1.000000 0.766667 0.642157
0.612255 0.882843 0.774020
0.620588 0.882843 0.774510
0.646569 0.881863 0.779902
0.684804 0.879902 0.781863
0.720588 0.876471 0.781373
0.750981 0.874020 0.774510
0.800980 0.878431 0.769117
0.883333 0.889706 0.746078
0.997549 0.903922 0.717157
0.727941 0.968627 0.840686
0.733333 0.968627 0.839216
0.749020 0.970098 0.843137
0.762255 0.968627 0.840686
0.772059 0.968627 0.832843
0.809314 0.968627 0.839216
0.851961 0.972549 0.844608
0.898529 0.980882 0.828922
0.968627 0.992157 0.809314
0.225490 0.334313 0.844118
0.295588 0.342156 0.844118
0.417647 0.356863 0.840196
0.550000 0.382843 0.835294
0.677451 0.424509 0.828432
0.783333 0.480882 0.820588
0.868628 0.476471 0.816667
0.925980 0.422059 0.777942
1.000000 0.433334 0.762745
0.248530 0.376961 0.840196
0.325490 0.388725 0.844118
0.429412 0.400490 0.840196
0.556372 0.421568 0.837255
0.678432 0.457353 0.830883
0.785784 0.513236 0.823039
0.865196 0.504902 0.814216
0.922059 0.449510 0.778432
1.000000 0.459314 0.765196
0.291177 0.459804 0.840196
0.348530 0.465196 0.840687
0.444118 0.473529 0.836274
0.564706 0.494608 0.836765
0.683334 0.524510 0.829412
0.783333 0.565195 0.823529
0.862745 0.559804 0.815686
0.916667 0.508824 0.780392
1.000000 0.508824 0.768627
0.361764 0.571078 0.824510
0.416176 0.582843 0.833334
0.460294 0.568627 0.832353
0.562745 0.573039 0.829412
0.675980 0.594608 0.824510
0.776961 0.625980 0.820588
0.851961 0.624510 0.816667
0.910294 0.581863 0.785294
1.000000 0.572059 0.772059
0.291177 0.657843 0.816667
0.348530 0.660784 0.820588
0.442157 0.658824 0.820588
0.557353 0.660295 0.819117
0.655882 0.657843 0.820588
0.768137 0.682353 0.821079
0.845098 0.687255 0.817647
0.907353 0.650981 0.790686
1.000000 0.635294 0.771568
0.383333 0.735294 0.810294
0.412745 0.736274 0.812745
0.466177 0.736274 0.813726
0.537254 0.735784 0.812745
0.622549 0.734314 0.811765
0.742156 0.733333 0.816667
0.836275 0.746569 0.816667
0.907843 0.716177 0.790196
0.999019 0.715196 0.785784
0.470589 0.810784 0.809804
0.492157 0.812745 0.812745
0.530392 0.813726 0.813726
0.588725 0.809804 0.812255
0.658824 0.806863 0.810784
0.735784 0.804412 0.812255
0.816667 0.797058 0.808823
0.910784 0.798039 0.801961
1.000000 0.805883 0.801961
0.608333 0.895098 0.832844
0.620098 0.895588 0.833824
0.644117 0.895098 0.836275
0.684314 0.894608 0.839216
0.735294 0.892647 0.840686
0.790196 0.890196 0.843627
0.832844 0.883333 0.836765
0.899019 0.894118 0.825000
1.000000 0.895098 0.797549
0.721569 0.976471 0.878431
0.728922 0.976471 0.879412
0.743137 0.974510 0.879412
0.771078 0.976471 0.883333
0.804902 0.973529 0.884314
0.844118 0.976471 0.891176
0.871568 0.976471 0.887255
0.910784 0.980882 0.883334
0.980392 0.996078 0.870588
0.400490 0.447549 0.925490
0.432353 0.451470 0.922549
0.508333 0.467157 0.922059
0.602941 0.490686 0.918137
0.705882 0.525981 0.911764
0.803431 0.571078 0.906862
0.890196 0.624510 0.901471
0.953921 0.616666 0.899019
1.000000 0.574020 0.879902
0.409314 0.475000 0.918627
0.451470 0.486765 0.925000
0.519608 0.500490 0.921569
0.610784 0.518627 0.916176
0.711275 0.550980 0.913235
0.803431 0.590196 0.906372
0.890686 0.640196 0.899510
0.953922 0.628922 0.899020
1.000000 0.589215 0.879902
0.444608 0.543137 0.921079
0.477451 0.548530 0.921079
0.536765 0.560294 0.919118
0.621078 0.574510 0.916176
0.714216 0.597549 0.910294
0.808824 0.633823 0.906862
0.887745 0.671079 0.902941
0.950000 0.662745 0.899019
1.000000 0.619118 0.878431
0.483333 0.626470 0.914215
0.509314 0.629902 0.918627
0.546569 0.624510 0.916176
0.626470 0.638235 0.914215
0.716177 0.653921 0.910294
0.810294 0.681372 0.910784
0.887255 0.712255 0.904412
0.946078 0.706863 0.902451
0.992157 0.665686 0.878921
0.488726 0.705882 0.910294
0.516177 0.708333 0.910294
0.566667 0.708333 0.907843
0.626470 0.704412 0.910294
0.706373 0.708333 0.910294
0.801471 0.727451 0.908823
0.879902 0.751471 0.904412
0.943137 0.752942 0.904412
0.990196 0.716177 0.882843
0.456863 0.774020 0.902451
0.480392 0.774510 0.906372
0.515687 0.774020 0.903922
0.591176 0.775490 0.907352
0.691176 0.772549 0.905882
0.781863 0.773039 0.908824
0.875490 0.794608 0.907353
0.937745 0.803922 0.908824
0.993137 0.774020 0.890686
0.524020 0.841667 0.902941
0.539216 0.844608 0.903432
0.572549 0.844117 0.908333
0.616176 0.839216 0.903432
0.679902 0.840686 0.906372
0.747549 0.836274 0.902941
0.852941 0.836765 0.907353
0.933823 0.856373 0.911274
1.000000 0.825980 0.892157
0.596568 0.913725 0.906372
0.607843 0.913235 0.906372
0.634314 0.912745 0.908824
0.671078 0.908333 0.907843
0.724020 0.908823 0.908823
0.786275 0.907843 0.910784
0.851961 0.906862 0.910784
0.918137 0.899019 0.906372
1.000000 0.902941 0.902941
0.717157 0.984314 0.925490
0.724510 0.984314 0.925980
0.737745 0.984314 0.925980
0.767157 0.984314 0.929902
0.805883 0.984804 0.931863
0.847549 0.984314 0.936275
0.899020 0.984804 0.941666
0.933823 0.984314 0.941666
0.988235 0.996078 0.933823
0.576471 0.596078 0.992157
0.596078 0.603922 0.996078
0.635294 0.611765 0.989216
0.696569 0.629902 0.988235
0.770588 0.652941 0.988235
0.848529 0.682353 0.984314
0.914706 0.713726 0.976471
0.973039 0.749020 0.972549
1.000000 0.737255 0.972549
0.584314 0.615196 0.992157
0.603922 0.619608 0.992647
0.642157 0.626961 0.988725
0.700490 0.646569 0.988235
0.772549 0.666667 0.986274
0.846078 0.691667 0.980392
0.914706 0.722549 0.976471
0.972549 0.756862 0.969117
1.000000 0.748530 0.976471
0.599019 0.653922 0.992157
0.615686 0.657843 0.992157
0.653922 0.665687 0.988235
0.708333 0.677451 0.988235
0.777451 0.693137 0.984314
0.848529 0.716667 0.980392
0.914705 0.741177 0.979412
0.972549 0.772549 0.972549
1.000000 0.763726 0.975490
0.606373 0.699020 0.988235
0.623529 0.700981 0.992157
0.657844 0.708824 0.988235
0.712255 0.716177 0.988235
0.778431 0.729412 0.986274
0.848529 0.746569 0.981863
0.914706 0.771078 0.976471
0.969117 0.798529 0.978432
1.000000 0.790686 0.976471
0.641177 0.770588 0.988235
0.652941 0.770588 0.990196
0.668627 0.764706 0.988235
0.700000 0.758823 0.988235
0.770588 0.766666 0.988235
0.845098 0.784804 0.984314
0.910784 0.801961 0.980392
0.967157 0.827451 0.978432
1.000000 0.821568 0.980392
0.590686 0.817157 0.988235
0.609804 0.823039 0.988235
0.643137 0.821078 0.988235
0.700490 0.818627 0.985784
0.761274 0.817157 0.988725
0.828922 0.819608 0.988235
0.905882 0.839216 0.984314
0.961274 0.860294 0.980392
1.000000 0.860294 0.980392
0.601961 0.879412 0.988235
0.612745 0.879412 0.988235
0.635295 0.881373 0.988235
0.667647 0.874019 0.988235
0.723529 0.877451 0.992157
0.812255 0.874020 0.988235
0.887255 0.876471 0.988235
0.961764 0.899020 0.988725
1.000000 0.906862 0.985294
0.663235 0.941666 0.988235
0.667157 0.941666 0.988235
0.686765 0.941666 0.991667
0.717647 0.941176 0.991667
0.753921 0.938235 0.988725
0.808333 0.940195 0.992157
0.863235 0.936765 0.992157
0.949020 0.941176 0.992157
1.000000 0.956863 0.992157
0.721569 1.000000 0.988235
0.728922 0.996078 0.988235
0.744117 1.000000 0.992157
0.768627 0.997549 0.992157
0.803922 0.998039 0.992157
0.844608 0.996078 0.992157
0.895098 0.996078 0.993137
0.949510 0.996568 0.996078
1.000000 1.000000 1.000000
