Color/Kodak/Kodak Kodachrome 200 65x.cube
TITLE "Kodak Kodachrome 200"
LUT_3D_SIZE 65
DOMAIN_MIN 0.000000 0.000000 0.000000
DOMAIN_MAX 1.000000 1.000000 1.000000
0.000000 0.000000 0.000000
0.003922 0.000000 0.000000
0.007843 0.000000 0.000000
0.014522 0.000000 0.000000
0.019363 0.000000 0.000000
0.028125 0.000000 0.000000
0.036887 0.000000 0.000000
0.049571 0.000000 0.000000
0.058334 0.000000 0.000000
0.071017 0.000000 0.000000
0.079779 0.000000 0.000000
0.088542 0.000000 0.000000
0.101226 0.000000 0.000000
0.114093 0.000000 0.000000
0.127696 0.000000 0.000000
0.143198 0.000000 0.000000
0.158823 0.000000 0.000000
0.176348 0.000000 0.000000
0.193873 0.000000 0.000000
0.211397 0.000000 0.000000
0.232843 0.000000 0.000000
0.250367 0.000000 0.000000
0.272426 0.000000 0.000000
0.293260 0.000000 0.000000
0.314706 0.000000 0.000000
0.336152 0.000000 0.000000
0.361519 0.000000 0.000000
0.382965 0.000000 0.000000
0.406618 0.000000 0.000000
0.428983 0.000000 0.000000
0.447427 0.000000 0.003922
0.469792 0.000000 0.003922
0.492157 0.000000 0.003922
0.511642 0.000000 0.003922
0.533088 0.000000 0.003922
0.550613 0.000000 0.003922
0.569853 0.000000 0.003922
0.589584 0.000000 0.003922
0.607108 0.000000 0.003922
0.620711 0.000000 0.003922
0.638235 0.000000 0.003922
0.653370 0.000000 0.003922
0.669363 0.000000 0.003922
0.682966 0.000000 0.007843
0.696569 0.000000 0.007843
0.711949 0.000000 0.007843
0.724632 0.000000 0.007843
0.737378 0.000000 0.007843
0.750981 0.000000 0.007843
0.764583 0.000000 0.007843
0.778186 0.000000 0.007843
0.788051 0.000000 0.007843
0.801471 0.000000 0.007843
0.815074 0.000000 0.011765
0.828677 0.000000 0.011765
0.842279 0.000000 0.011765
0.855392 0.000000 0.011765
0.865564 0.000000 0.011765
0.879167 0.000000 0.011765
0.892770 0.000000 0.011765
0.906127 0.000000 0.011765
0.917647 0.000000 0.011765
0.917647 0.000000 0.011765
0.917647 0.000000 0.011765
0.917647 0.000000 0.011765
0.000000 0.004841 0.000000
0.004841 0.004841 0.000000
0.013603 0.004841 0.000000
0.018444 0.004841 0.000000
0.027206 0.004841 0.000000
0.035968 0.004841 0.000000
0.046323 0.004841 0.000000
0.054412 0.004841 0.000000
0.066177 0.004841 0.000000
0.075858 0.004841 0.000000
0.087623 0.004841 0.000000
0.098652 0.004841 0.000000
0.106067 0.004841 0.000000
0.121937 0.004841 0.000000
0.136458 0.004841 0.000000
0.153064 0.004841 0.000000
0.167585 0.004841 0.000000
0.185110 0.004841 0.000000
0.205638 0.004841 0.000919
0.224939 0.004841 0.000919
0.241605 0.004841 0.000919
0.262132 0.004841 0.000919
0.284498 0.004841 0.000919
0.302022 0.004841 0.000919
0.323468 0.004841 0.003922
0.344915 0.004841 0.003922
0.369730 0.004841 0.003922
0.391728 0.003922 0.003922
0.413174 0.003922 0.003922
0.434620 0.003922 0.003922
0.455270 0.004841 0.003922
0.477513 0.003922 0.003922
0.500000 0.003922 0.003922
0.516483 0.003922 0.003922
0.540808 0.003922 0.007720
0.558456 0.000919 0.004841
0.575980 0.000919 0.004841
0.593505 0.000919 0.007843
0.611030 0.000919 0.007843
0.625551 0.000919 0.007843
0.642157 0.000919 0.007843
0.659681 0.000919 0.007843
0.673285 0.000919 0.007843
0.686888 0.000919 0.007843
0.700184 0.000919 0.007843
0.712868 0.000000 0.009988
0.728554 0.000000 0.008762
0.742156 0.000919 0.011765
0.754902 0.000919 0.011765
0.766605 0.000919 0.011765
0.779289 0.000919 0.011765
0.791973 -0.002819 0.011765
0.805576 0.000000 0.011765
0.817341 0.000000 0.011765
0.830025 0.000000 0.011765
0.842708 0.000000 0.011765
0.855392 0.000000 0.011765
0.868076 0.000000 0.011765
0.880760 0.000000 0.011765
0.893444 0.000000 0.011765
0.907046 0.000000 0.012684
0.917647 0.000000 0.012684
0.917647 0.000000 0.012684
0.917647 0.000000 0.012684
0.917647 0.000000 0.012684
0.001838 0.011765 0.000000
0.009681 0.011765 0.001838
0.013603 0.011765 0.001838
0.022365 0.011765 0.001838
0.029044 0.011765 0.001838
0.036642 0.011765 0.001838
0.048652 0.011765 0.001838
0.057415 0.011765 0.001838
0.068014 0.011765 0.001838
0.080698 0.009681 0.001838
0.088971 0.009681 0.001838
0.100306 0.009681 0.003922
0.110906 0.009681 0.003922
0.125858 0.009681 0.003922
0.144118 0.009681 0.003922
0.156985 0.009681 0.003922
0.174510 0.009681 0.003922
0.192034 0.009681 0.003922
0.209559 0.009681 0.003922
0.228921 0.009681 0.003922
0.246446 0.009681 0.003922
0.266054 0.009681 0.003922
0.289338 0.011765 0.003922
0.308946 0.011765 0.003922
0.328309 0.011765 0.003922
0.349755 0.011765 0.007292
0.373652 0.009681 0.005760
0.396017 0.009681 0.005760
0.418015 0.009681 0.005760
0.440747 0.009681 0.005760
0.459192 0.009681 0.007843
0.482353 0.009681 0.007843
0.501961 0.009681 0.007843
0.521324 0.009681 0.007843
0.540931 0.007843 0.007843
0.560294 0.007843 0.007843
0.577696 0.007843 0.007843
0.597427 0.007843 0.007843
0.612868 0.007843 0.007843
0.628554 0.007843 0.007843
0.646446 0.007843 0.007843
0.659681 0.005760 0.007843
0.677206 0.005760 0.009681
0.690502 0.005760 0.008149
0.705025 0.005760 0.011765
0.718015 0.003616 0.011765
0.731617 0.003922 0.011765
0.741299 0.005760 0.011765
0.754902 0.005760 0.011765
0.768505 0.005760 0.011765
0.782108 0.005760 0.011765
0.795710 0.003922 0.011765
0.805393 0.003922 0.011765
0.818995 0.004106 0.011765
0.832598 0.001838 0.014338
0.842708 0.001838 0.013603
0.855882 0.000000 0.013603
0.869486 0.000000 0.015686
0.883088 0.000000 0.015686
0.893444 0.000000 0.015686
0.906372 0.000000 0.015686
0.917647 0.000000 0.015686
0.917647 0.000000 0.015686
0.917647 0.000000 0.015686
0.917647 0.000000 0.015686
0.006679 0.018444 0.003922
0.011765 0.018444 0.003922
0.018444 0.018444 0.003922
0.022365 0.018444 0.003922
0.031128 0.018444 0.003922
0.039890 0.018444 0.003922
0.051410 0.018444 0.003922
0.061336 0.018444 0.003922
0.070098 0.018444 0.003922
0.082782 0.018444 0.003922
0.091544 0.018444 0.003922
0.102573 0.018444 0.003922
0.116176 0.018444 0.003922
0.129780 0.018444 0.003922
0.143382 0.018444 0.003922
0.160907 0.018444 0.003922
0.177267 0.018444 0.003922
0.194791 0.018444 0.003922
0.213481 0.018444 0.006679
0.231005 0.018444 0.006679
0.251287 0.018444 0.006679
0.269975 0.018444 0.006679
0.291421 0.018444 0.007843
0.310478 0.018444 0.007843
0.332843 0.018444 0.007843
0.354596 0.018444 0.007843
0.379963 0.018444 0.007843
0.401409 0.015686 0.007843
0.422855 0.015686 0.007843
0.441544 0.015686 0.010601
0.462990 0.015686 0.010601
0.484436 0.017401 0.010601
0.503922 0.014522 0.010601
0.523407 0.014522 0.010601
0.543689 0.014522 0.010601
0.562377 0.014522 0.010601
0.579902 0.014522 0.010601
0.597427 0.014522 0.010601
0.614951 0.014522 0.010601
0.634682 0.011765 0.010601
0.646078 0.011765 0.009314
0.663971 0.011765 0.011765
0.677206 0.011765 0.011765
0.690809 0.010601 0.011765
0.704412 0.010601 0.011765
0.718015 0.010601 0.011765
0.731617 0.010601 0.011765
0.745159 0.010601 0.011765
0.757843 0.010601 0.011765
0.770527 0.010601 0.011765
0.782047 0.010601 0.011765
0.795710 0.006862 0.014522
0.808578 0.007843 0.015686
0.818995 0.006679 0.015686
0.832598 0.006679 0.015686
0.846201 0.003922 0.015686
0.855882 0.003922 0.015686
0.869486 0.003922 0.015686
0.883088 0.003922 0.015686
0.896691 0.003922 0.015686
0.910049 0.003922 0.015686
0.920405 0.002758 0.015686
0.920405 0.002758 0.015686
0.920405 0.002758 0.015686
0.920405 0.002758 0.015686
0.007843 0.027206 0.003922
0.012684 0.027206 0.003922
0.017524 0.027206 0.003922
0.027206 0.027206 0.003922
0.031128 0.027206 0.007598
0.043567 0.027206 0.007598
0.052573 0.027206 0.007598
0.061336 0.027206 0.007598
0.073530 0.027206 0.007598
0.086458 0.027206 0.007598
0.092892 0.027206 0.007598
0.104228 0.027206 0.006189
0.120588 0.027206 0.007843
0.137193 0.027206 0.007843
0.147304 0.027206 0.007843
0.166482 0.027206 0.007843
0.182108 0.027206 0.007843
0.199632 0.027206 0.007843
0.217157 0.027206 0.007843
0.234927 0.027206 0.007843
0.256128 0.027206 0.007843
0.273591 0.027206 0.011520
0.292034 0.027206 0.011520
0.314400 0.027206 0.011520
0.336764 0.027206 0.010294
0.359130 0.027206 0.011765
0.381127 0.026837 0.011765
0.402573 0.023284 0.011765
0.424020 0.023284 0.011765
0.444669 0.023284 0.011765
0.463113 0.023284 0.011765
0.488113 0.023284 0.011765
0.505883 0.023284 0.011765
0.526287 0.023284 0.011765
0.544853 0.023284 0.011765
0.562377 0.019608 0.011765
0.583578 0.019608 0.011765
0.601103 0.019363 0.011765
0.614951 0.019363 0.011765
0.632476 0.019363 0.011765
0.648529 0.019363 0.011765
0.663603 0.019363 0.011765
0.677206 0.019363 0.011765
0.690809 0.019363 0.011765
0.704412 0.015686 0.011765
0.719792 0.015686 0.011765
0.732475 0.015441 0.011765
0.745221 0.015686 0.015441
0.761520 0.015686 0.015686
0.770527 0.015441 0.015686
0.783211 0.015441 0.015686
0.795894 0.015441 0.015686
0.808578 0.011765 0.015686
0.821262 0.011520 0.015686
0.833946 0.011520 0.015686
0.846201 0.011520 0.015686
0.859314 0.007843 0.015686
0.871997 0.007843 0.019363
0.883088 0.007843 0.019363
0.896691 0.007843 0.018934
0.910049 0.007598 0.019608
0.921569 0.007598 0.019608
0.921569 0.007598 0.019608
0.921569 0.007598 0.019608
0.921569 0.007598 0.019608
0.012439 0.039890 0.008517
0.020527 0.039890 0.008517
0.025367 0.039890 0.008517
0.030209 0.039890 0.008517
0.035724 0.039890 0.008517
0.043811 0.039890 0.008517
0.053247 0.036642 0.008517
0.065258 0.036642 0.008517
0.077451 0.036642 0.008517
0.086704 0.036642 0.008517
0.096814 0.036642 0.008517
0.108149 0.036642 0.011765
0.124019 0.036642 0.011765
0.138113 0.036642 0.011765
0.150797 0.035968 0.011765
0.168750 0.035968 0.011765
0.183027 0.035968 0.011765
0.203799 0.035968 0.011765
0.221324 0.035968 0.012623
0.238848 0.035968 0.012439
0.257046 0.035968 0.012439
0.277818 0.035968 0.012439
0.299264 0.035968 0.012439
0.317464 0.035968 0.015686
0.338909 0.035968 0.015686
0.360355 0.035968 0.015686
0.385723 0.035968 0.016360
0.406495 0.032721 0.016360
0.427941 0.032721 0.016360
0.446140 0.032721 0.016360
0.467035 0.032047 0.016360
0.489400 0.032047 0.019608
0.509804 0.032047 0.019608
0.530208 0.032047 0.019608
0.545528 0.032047 0.019608
0.566299 0.032047 0.019608
0.583823 0.032047 0.016360
0.601348 0.028799 0.016360
0.618873 0.028125 0.016360
0.632476 0.028125 0.016360
0.650000 0.028125 0.016360
0.661888 0.028125 0.016360
0.681128 0.028125 0.016360
0.694424 0.024203 0.015686
0.708333 0.024203 0.015686
0.721936 0.024203 0.015686
0.735539 0.024203 0.015686
0.749081 0.024203 0.015686
0.758517 0.024203 0.015686
0.772426 0.024203 0.015686
0.786029 0.024203 0.015686
0.799632 0.020282 0.019424
0.809314 0.020282 0.016360
0.822917 0.019608 0.019608
0.836520 0.016360 0.019608
0.846630 0.016360 0.019608
0.859804 0.016360 0.019608
0.873407 0.015686 0.019608
0.884682 0.015686 0.019608
0.897365 0.012439 0.019608
0.910294 0.012439 0.019608
0.921569 0.011765 0.019608
0.921569 0.011765 0.019608
0.921569 0.011765 0.019608
0.921569 0.011765 0.019608
0.017279 0.050245 0.011765
0.025122 0.050245 0.011765
0.029289 0.048652 0.011765
0.032966 0.048652 0.011765
0.040563 0.048652 0.011765
0.047733 0.048652 0.011765
0.056495 0.048652 0.011765
0.067769 0.048652 0.014277
0.077941 0.048652 0.013358
0.088297 0.048652 0.013358
0.099387 0.048652 0.013358
0.109742 0.048652 0.013358
0.122426 0.048652 0.013358
0.139216 0.048652 0.015686
0.155147 0.048652 0.015686
0.170343 0.048652 0.015686
0.187868 0.048652 0.015686
0.205392 0.048652 0.015686
0.222182 0.049387 0.017279
0.242770 0.048652 0.017279
0.261887 0.048652 0.017279
0.279412 0.048652 0.017279
0.299877 0.048652 0.016299
0.322243 0.048652 0.019608
0.343750 0.048652 0.019608
0.365196 0.046323 0.022978
0.388970 0.044730 0.021201
0.407782 0.044730 0.021201
0.429534 0.044730 0.021201
0.452512 0.044730 0.021201
0.472426 0.044730 0.023529
0.492279 0.045282 0.023529
0.511765 0.042402 0.023529
0.531250 0.042402 0.023529
0.548775 0.040809 0.023529
0.567892 0.040809 0.023529
0.585417 0.040809 0.023529
0.600306 0.040809 0.023529
0.618873 0.040809 0.023529
0.636397 0.041851 0.021201
0.650000 0.036887 0.021201
0.667524 0.036887 0.021201
0.681128 0.036887 0.021201
0.694731 0.036887 0.021201
0.708333 0.034559 0.019608
0.721936 0.032966 0.019608
0.734069 0.032966 0.019608
0.749081 0.032966 0.021140
0.761764 0.032966 0.019608
0.774449 0.032966 0.019608
0.784804 0.032966 0.019608
0.799632 0.029044 0.019608
0.812500 0.029044 0.019608
0.822855 0.025122 0.019608
0.836520 0.025122 0.019608
0.850122 0.025122 0.019608
0.859804 0.024632 0.019608
0.873407 0.021201 0.019608
0.887010 0.021201 0.019608
0.900613 0.021201 0.021201
0.910294 0.020956 0.021201
0.921569 0.017279 0.023529
0.921569 0.017279 0.023529
0.921569 0.017279 0.023529
0.921569 0.017279 0.023529
0.023529 0.061336 0.018199
0.029964 0.061336 0.018199
0.033211 0.061336 0.018199
0.040563 0.061336 0.018199
0.046814 0.061336 0.018199
0.051654 0.061336 0.018199
0.060417 0.061336 0.018199
0.069179 0.061336 0.018199
0.081373 0.061336 0.018199
0.090625 0.061336 0.018199
0.100735 0.061336 0.018199
0.114583 0.061336 0.018199
0.127941 0.061336 0.018199
0.141544 0.059926 0.019608
0.160478 0.059926 0.019608
0.175183 0.059926 0.019608
0.192708 0.059926 0.022120
0.210233 0.059926 0.022120
0.227757 0.057415 0.022120
0.246691 0.057415 0.022120
0.266912 0.057415 0.022120
0.284253 0.059926 0.023529
0.303799 0.059926 0.023529
0.326164 0.059926 0.023529
0.348590 0.057415 0.026042
0.370895 0.057415 0.026042
0.389338 0.057415 0.026042
0.411703 0.057415 0.026042
0.434375 0.056005 0.027451
0.453309 0.056005 0.027451
0.474755 0.056005 0.027451
0.494792 0.053493 0.029964
0.513725 0.053493 0.029964
0.534130 0.053493 0.029964
0.551286 0.053493 0.029964
0.570220 0.053493 0.029964
0.587745 0.054289 0.027451
0.605270 0.052083 0.027451
0.622794 0.049571 0.027451
0.636397 0.049571 0.027451
0.654963 0.049571 0.028493
0.667524 0.049571 0.026042
0.680331 0.049571 0.026042
0.694731 0.045650 0.026042
0.708333 0.045650 0.026042
0.723713 0.045650 0.023529
0.736397 0.045650 0.023529
0.749143 0.048100 0.022120
0.764276 0.044240 0.022120
0.774449 0.041728 0.019608
0.787132 0.041728 0.019608
0.799816 0.041728 0.019608
0.812500 0.037807 0.019608
0.825184 0.038664 0.022120
0.837868 0.033885 0.022120
0.850122 0.033885 0.022120
0.863235 0.035907 0.020098
0.873407 0.029964 0.023529
0.887010 0.029964 0.023529
0.900613 0.029964 0.023529
0.913970 0.026042 0.023529
0.925490 0.026042 0.023529
0.925490 0.026042 0.023529
0.925490 0.026042 0.023529
0.925490 0.026042 0.023529
0.030883 0.074020 0.023039
0.035724 0.074020 0.023039
0.040563 0.074020 0.023039
0.046569 0.074020 0.023039
0.050735 0.074020 0.023039
0.055576 0.076777 0.023039
0.066177 0.073530 0.023039
0.072611 0.073530 0.023039
0.081863 0.073530 0.023039
0.094056 0.073530 0.020037
0.103309 0.073530 0.023529
0.115992 0.073530 0.023529
0.132107 0.073530 0.023529
0.145466 0.073530 0.026961
0.165318 0.073530 0.026961
0.180025 0.073530 0.026961
0.197549 0.070098 0.026961
0.215073 0.070098 0.026961
0.232598 0.070098 0.024387
0.248468 0.070098 0.027451
0.268137 0.070098 0.030883
0.289093 0.070098 0.030883
0.307720 0.070098 0.030883
0.331985 0.070098 0.030883
0.353432 0.070098 0.030883
0.374878 0.070098 0.031373
0.393260 0.069608 0.034804
0.417769 0.069608 0.034804
0.435785 0.069608 0.034804
0.456434 0.069608 0.034804
0.478187 0.066177 0.034804
0.496201 0.066177 0.034804
0.517157 0.066177 0.034804
0.535172 0.066177 0.034804
0.552696 0.066177 0.034804
0.570220 0.065687 0.034804
0.587745 0.062255 0.034804
0.605270 0.062255 0.034804
0.622794 0.062255 0.034804
0.636397 0.065135 0.034804
0.653922 0.061765 0.034804
0.667524 0.061765 0.034804
0.685172 0.058334 0.034804
0.698345 0.058334 0.034804
0.711030 0.060540 0.033579
0.727145 0.057844 0.030883
0.739828 0.054412 0.030883
0.749143 0.054412 0.027451
0.762745 0.054412 0.029902
0.776348 0.054412 0.026961
0.790564 0.053922 0.023529
0.799816 0.050490 0.023529
0.813236 0.050000 0.023529
0.828615 0.046569 0.023529
0.837868 0.047426 0.023529
0.850551 0.046079 0.023529
0.863235 0.042647 0.023529
0.875919 0.042647 0.023529
0.888603 0.042157 0.023529
0.900613 0.038726 0.023529
0.917402 0.034804 0.023529
0.925490 0.034804 0.026961
0.925490 0.034804 0.026961
0.925490 0.034804 0.026961
0.925490 0.034804 0.026961
0.035723 0.086704 0.027880
0.040564 0.086704 0.027880
0.048897 0.086704 0.027880
0.053738 0.086704 0.027880
0.058579 0.086704 0.027880
0.063419 0.086704 0.027880
0.068689 0.086704 0.027880
0.074939 0.086704 0.027880
0.085785 0.086704 0.027880
0.094976 0.086704 0.031373
0.107230 0.083211 0.031802
0.122181 0.083211 0.031802
0.135784 0.083211 0.031802
0.149817 0.083211 0.031802
0.166912 0.083211 0.031802
0.184436 0.083211 0.031802
0.198469 0.083211 0.035294
0.219485 0.079351 0.035723
0.237010 0.082782 0.035723
0.254534 0.082782 0.035723
0.272488 0.082782 0.035723
0.293505 0.082782 0.035723
0.314951 0.082782 0.035723
0.332905 0.082782 0.040748
0.354351 0.082782 0.039645
0.375796 0.082782 0.039645
0.397181 0.079289 0.039645
0.419546 0.079289 0.039645
0.439706 0.079289 0.045343
0.457659 0.076164 0.043566
0.479105 0.078860 0.043566
0.500122 0.078860 0.043566
0.519608 0.078860 0.043566
0.535601 0.078860 0.043566
0.556618 0.075368 0.043566
0.574142 0.075368 0.043566
0.591666 0.074939 0.043566
0.609192 0.074939 0.043137
0.626716 0.074939 0.040012
0.640319 0.071446 0.043137
0.656373 0.071446 0.039645
0.671446 0.071017 0.039645
0.685049 0.071017 0.039645
0.698652 0.071017 0.039645
0.712255 0.067525 0.039645
0.725858 0.067096 0.039216
0.739460 0.067096 0.035723
0.753002 0.067096 0.035723
0.765686 0.067096 0.034742
0.774877 0.061704 0.031802
0.789951 0.063174 0.031802
0.803554 0.063174 0.031373
0.812929 0.059253 0.027880
0.826838 0.059253 0.027451
0.840441 0.053187 0.023958
0.854044 0.055331 0.023958
0.863725 0.051838 0.027451
0.877329 0.051409 0.027451
0.890932 0.051409 0.027451
0.901287 0.048161 0.027451
0.914215 0.047672 0.027451
0.925490 0.043566 0.027451
0.925490 0.043566 0.027451
0.925490 0.043566 0.027451
0.925490 0.043566 0.027451
0.044485 0.099387 0.036642
0.047978 0.099387 0.036642
0.052328 0.099387 0.036642
0.056250 0.099387 0.036642
0.060172 0.099387 0.036642
0.068689 0.099387 0.036642
0.076103 0.099387 0.036642
0.082292 0.099387 0.036642
0.089706 0.096814 0.036642
0.098468 0.096814 0.036642
0.108578 0.096814 0.036642
0.121262 0.096814 0.041483
0.139705 0.096814 0.040564
0.153309 0.096814 0.040564
0.170833 0.096814 0.040564
0.185784 0.096814 0.040564
0.203308 0.096814 0.040564
0.220833 0.096814 0.040564
0.237868 0.096814 0.044485
0.258456 0.095466 0.044485
0.277328 0.095466 0.044485
0.297426 0.095466 0.044485
0.318872 0.095466 0.044485
0.337745 0.095466 0.044485
0.359191 0.095466 0.049510
0.382660 0.095466 0.048407
0.401103 0.092892 0.048407
0.423530 0.092892 0.048407
0.441054 0.092892 0.048407
0.464277 0.092892 0.052328
0.482598 0.091544 0.048407
0.501164 0.091544 0.048101
0.521568 0.091544 0.052941
0.539093 0.088971 0.052328
0.557966 0.088971 0.052328
0.575490 0.088971 0.052328
0.593014 0.087623 0.048407
0.609192 0.087623 0.048407
0.626716 0.085049 0.048407
0.640319 0.085049 0.048407
0.657843 0.083701 0.048407
0.671446 0.083701 0.048407
0.685662 0.083701 0.048407
0.698652 0.081127 0.048407
0.712255 0.079779 0.047182
0.727635 0.079779 0.044485
0.740318 0.079779 0.044485
0.753002 0.077206 0.043137
0.765686 0.075858 0.040564
0.778370 0.075858 0.040564
0.791054 0.075858 0.037746
0.801164 0.069547 0.036642
0.816421 0.072549 0.035294
0.829106 0.067708 0.032721
0.839215 0.068015 0.030148
0.854044 0.068015 0.028799
0.867157 0.064093 0.027451
0.877267 0.064093 0.027451
0.890932 0.059191 0.027451
0.904534 0.060172 0.030699
0.917892 0.056250 0.028799
0.926838 0.056250 0.028799
0.926838 0.056250 0.028799
0.926838 0.056250 0.028799
0.926838 0.056250 0.028799
0.053247 0.114338 0.045404
0.057169 0.114338 0.045404
0.061091 0.114338 0.045404
0.065503 0.114338 0.045404
0.068934 0.114338 0.045404
0.076777 0.114338 0.045404
0.082292 0.114338 0.045404
0.088787 0.114338 0.045404
0.095894 0.114338 0.045404
0.102390 0.114338 0.045404
0.112500 0.114338 0.045404
0.126103 0.114338 0.047671
0.143627 0.114338 0.049326
0.157231 0.112071 0.049326
0.175919 0.112071 0.049326
0.190625 0.112071 0.049326
0.208150 0.110416 0.049326
0.225674 0.110416 0.049326
0.241789 0.110416 0.053247
0.262378 0.110416 0.053247
0.282170 0.110416 0.053247
0.301348 0.110416 0.053247
0.322794 0.110416 0.053247
0.341851 0.110416 0.053247
0.364032 0.110416 0.057169
0.386581 0.110416 0.057169
0.406924 0.108149 0.057169
0.426103 0.109130 0.057169
0.445895 0.106495 0.057169
0.465074 0.106495 0.057169
0.486520 0.106495 0.057169
0.506312 0.106495 0.057169
0.523836 0.104228 0.057169
0.543015 0.104228 0.057169
0.560539 0.104228 0.058824
0.578064 0.102573 0.060295
0.595588 0.102573 0.057169
0.613113 0.102573 0.057169
0.625429 0.100306 0.057169
0.644240 0.098652 0.057169
0.657843 0.098652 0.057169
0.672978 0.096385 0.057169
0.688971 0.096385 0.057169
0.702267 0.094730 0.053247
0.714951 0.094730 0.053247
0.727635 0.092463 0.053247
0.740318 0.092463 0.053247
0.753064 0.090809 0.049326
0.767954 0.090809 0.049326
0.778370 0.088542 0.049326
0.791054 0.088542 0.045404
0.803738 0.083150 0.045404
0.816421 0.082966 0.041483
0.829106 0.080698 0.039216
0.841789 0.080698 0.037561
0.854473 0.079044 0.034068
0.867157 0.076777 0.031373
0.879840 0.075122 0.031373
0.892525 0.072794 0.031373
0.903553 0.072855 0.031373
0.920159 0.068934 0.031373
0.929412 0.067279 0.031373
0.929412 0.067279 0.031373
0.929412 0.067279 0.031373
0.929412 0.067279 0.031373
0.062010 0.131862 0.054167
0.065932 0.131862 0.054167
0.067769 0.131862 0.054167
0.072611 0.131862 0.054167
0.077451 0.131862 0.054167
0.082292 0.131862 0.054167
0.089461 0.131862 0.054167
0.095894 0.131862 0.054167
0.101471 0.131862 0.054167
0.109497 0.131862 0.057353
0.116421 0.131862 0.058089
0.130024 0.131862 0.058089
0.146814 0.131862 0.058089
0.161152 0.131862 0.058089
0.177941 0.131862 0.058089
0.195466 0.131127 0.058089
0.212990 0.131127 0.058089
0.230515 0.127941 0.058089
0.245711 0.127941 0.062010
0.266299 0.127941 0.062010
0.287010 0.127941 0.062010
0.305269 0.127941 0.062010
0.326715 0.127941 0.062010
0.345772 0.127941 0.062010
0.368137 0.127941 0.065932
0.390503 0.127941 0.065932
0.411765 0.130760 0.065932
0.430024 0.124019 0.065932
0.450735 0.124019 0.065932
0.468995 0.124019 0.065932
0.489706 0.124019 0.065932
0.507966 0.124019 0.065932
0.525490 0.124019 0.065932
0.546201 0.120098 0.065932
0.563726 0.120098 0.065932
0.581250 0.120098 0.065932
0.598775 0.120098 0.065932
0.613113 0.120098 0.065932
0.630638 0.116176 0.065932
0.644240 0.116176 0.065932
0.663481 0.116176 0.065932
0.675367 0.113786 0.062745
0.688848 0.112254 0.062010
0.702574 0.112254 0.062010
0.716177 0.112254 0.062010
0.729779 0.108333 0.062010
0.743382 0.108333 0.058947
0.753064 0.108333 0.058089
0.766667 0.105147 0.058089
0.780270 0.104411 0.056189
0.793872 0.104411 0.054167
0.803738 0.101226 0.050428
0.817157 0.097304 0.050245
0.832291 0.096568 0.048591
0.841789 0.096568 0.046324
0.854473 0.093383 0.043137
0.867647 0.092647 0.041912
0.883027 0.091238 0.038481
0.892525 0.088725 0.035294
0.905208 0.085478 0.035294
0.918137 0.081618 0.035294
0.929412 0.080882 0.035294
0.929412 0.080882 0.035294
0.929412 0.080882 0.035294
0.929412 0.080882 0.035294
0.066851 0.149388 0.062929
0.071691 0.149388 0.062929
0.076532 0.149388 0.062929
0.078615 0.149388 0.062929
0.082537 0.149388 0.062929
0.090380 0.149388 0.062929
0.095895 0.149388 0.062929
0.100735 0.149388 0.062929
0.109497 0.149388 0.062929
0.118260 0.149388 0.062929
0.127022 0.149388 0.062929
0.138051 0.149388 0.066851
0.148468 0.149388 0.066851
0.165074 0.149388 0.066851
0.182598 0.149388 0.066851
0.200123 0.149388 0.066851
0.217647 0.149388 0.066851
0.235171 0.145649 0.066851
0.253554 0.145466 0.067709
0.270405 0.145466 0.070772
0.291667 0.145466 0.070772
0.309376 0.145466 0.070772
0.330821 0.145466 0.070772
0.353615 0.145466 0.070772
0.375980 0.145466 0.070772
0.391238 0.145466 0.077880
0.412684 0.145466 0.074694
0.433946 0.144179 0.074694
0.451655 0.141544 0.074694
0.472917 0.141544 0.074694
0.490564 0.141544 0.074694
0.511887 0.141544 0.074694
0.529411 0.141544 0.074694
0.547120 0.134926 0.074694
0.564645 0.137623 0.074694
0.582169 0.137623 0.074694
0.599510 0.137623 0.074694
0.617035 0.134988 0.074694
0.634559 0.133701 0.074694
