Color/Kodak/Kodak Ektachrome 100 VS Generic 65x.cube
TITLE "Kodak Ektachrome 100 VS Generic"
LUT_3D_SIZE 65
DOMAIN_MIN 0.000000 0.000000 0.000000
DOMAIN_MAX 1.000000 1.000000 1.000000
0.000000 0.000000 0.000000
0.008762 0.000000 0.000000
0.019362 0.000000 0.000000
0.032966 0.000000 0.000000
0.046569 0.000000 0.000000
0.060172 0.000000 0.000000
0.076103 0.000000 0.000000
0.091299 0.000000 0.000000
0.104902 0.000000 0.000000
0.118505 0.000000 0.000000
0.132108 0.000000 0.000000
0.145711 0.000000 0.000000
0.160049 0.000000 0.000000
0.176839 0.000000 0.000000
0.193260 0.000000 0.000000
0.207966 0.000000 0.000000
0.225490 0.000000 0.000000
0.243014 0.000000 0.000000
0.260540 0.000000 0.000000
0.278064 0.000000 0.000000
0.298284 0.000000 0.000000
0.320650 0.000000 0.000000
0.343014 0.000000 0.000000
0.369302 0.000000 0.000000
0.399510 0.000000 0.000000
0.425797 0.000000 0.000000
0.452083 0.000000 0.000000
0.477083 0.000000 0.000000
0.500735 0.000000 0.000000
0.523100 0.000000 0.000000
0.545466 0.000000 0.000000
0.571752 0.000000 0.000000
0.598040 0.000000 0.000000
0.624326 0.000000 0.000000
0.654412 0.000000 0.000000
0.681617 0.000000 0.000000
0.711029 0.000000 0.000000
0.739951 0.000000 0.000000
0.767524 0.000000 0.000000
0.793811 0.000000 0.000000
0.820098 0.000000 0.000000
0.842463 0.000000 0.000000
0.868750 0.000000 0.000000
0.894731 0.000000 0.000000
0.917402 0.000000 0.000000
0.939767 0.000000 0.000000
0.962990 0.000000 0.000000
0.988358 0.000000 0.000000
1.000000 0.000000 0.000000
1.000000 0.000000 0.000000
1.000000 0.000000 0.000000
1.000000 0.000000 0.000000
1.000000 0.000000 0.000000
1.000000 0.000000 0.000000
1.000000 0.000000 0.000000
1.000000 0.000000 0.000000
1.000000 0.000000 0.000000
1.000000 0.000000 0.000000
1.000000 0.000000 0.000000
1.000000 0.000000 0.000000
1.000000 0.000000 0.000000
1.000000 0.000000 0.000000
1.000000 0.000000 0.000000
1.000000 0.000000 0.000000
1.000000 0.000000 0.000000
0.000000 0.004841 0.000000
0.004841 0.004841 0.000000
0.013603 0.004841 0.000000
0.028125 0.004841 0.000000
0.041728 0.004841 0.000000
0.052328 0.004841 0.000000
0.068934 0.004841 0.000000
0.080944 0.004841 0.000000
0.097059 0.004841 0.000000
0.110662 0.003922 0.000000
0.122917 0.003922 0.000000
0.140870 0.003922 0.000000
0.154473 0.003922 0.000000
0.168995 0.003922 0.000000
0.185417 0.000919 0.000000
0.200123 0.000919 0.000000
0.217647 0.000919 0.000000
0.235171 0.000919 0.000000
0.252696 0.000919 0.000000
0.270221 0.000919 0.000000
0.293444 0.000919 0.000000
0.315809 0.003922 0.000000
0.338174 0.000919 0.000000
0.365992 0.000919 0.000000
0.391666 0.000000 0.000000
0.417954 0.000000 0.000000
0.444240 0.000000 0.000000
0.469240 0.000000 0.000000
0.492892 0.000000 0.000000
0.518260 0.000000 0.000000
0.541421 0.000000 0.000000
0.563909 0.000000 0.000000
0.590196 0.000000 0.000000
0.616483 0.000000 0.000000
0.649571 0.000000 0.000000
0.676900 0.000000 0.000000
0.703186 0.000000 0.000000
0.735110 0.000000 0.000000
0.759681 0.000000 0.000000
0.785968 0.000000 0.000000
0.812255 0.000000 0.000000
0.836152 0.000000 0.000000
0.863909 0.000000 0.000000
0.886275 0.000000 0.000000
0.912561 0.000000 0.000000
0.933701 0.000000 0.000000
0.955147 0.000000 0.000000
0.980515 0.000000 0.000000
0.997059 0.000000 0.000000
1.000000 0.000000 0.000000
1.000000 0.000000 0.000000
1.000000 0.000000 0.000000
1.000000 0.000000 0.000000
1.000000 0.000000 0.000000
1.000000 0.000000 0.000000
1.000000 0.000000 0.000000
1.000000 0.000000 0.000000
1.000000 0.000000 0.000000
1.000000 0.000000 0.000000
1.000000 0.000000 0.000000
1.000000 0.000000 0.000000
1.000000 0.000000 0.000000
1.000000 0.000000 0.000000
1.000000 0.000000 0.000000
1.000000 0.000000 0.000000
0.000000 0.013603 0.000000
0.004841 0.013603 0.000000
0.013603 0.013603 0.000000
0.022365 0.011765 0.000000
0.035049 0.011765 0.000000
0.051654 0.009681 0.000000
0.064093 0.009681 0.000000
0.079534 0.009681 0.000000
0.095221 0.009681 0.000000
0.110233 0.009681 0.000000
0.122917 0.009681 0.000000
0.136029 0.009681 0.000000
0.151470 0.009681 0.000000
0.168811 0.009681 0.000000
0.182598 0.009681 0.000000
0.198284 0.007659 0.000000
0.213725 0.007843 0.000000
0.231250 0.007843 0.000000
0.248775 0.007843 0.000000
0.270221 0.007843 0.000000
0.287745 0.007843 0.000000
0.312807 0.007843 0.000000
0.335171 0.005760 0.000000
0.361458 0.005760 0.000000
0.387745 0.003309 0.000000
0.419485 0.003922 0.000000
0.443872 0.003922 0.000000
0.466605 0.003922 0.000000
0.490687 0.003922 0.000000
0.512133 0.001838 0.000000
0.535784 0.001838 0.000000
0.562867 0.001838 0.000000
0.586275 0.001838 0.000000
0.617524 0.001838 0.000000
0.642769 -0.001961 0.000000
0.672978 0.000000 0.000000
0.703186 0.000000 0.000000
0.729473 0.000000 0.000000
0.755760 0.000000 0.000000
0.782046 0.000000 0.000000
0.808334 0.000000 0.000000
0.834620 0.000000 0.000000
0.860907 0.000000 0.000000
0.883272 0.000000 0.000000
0.907720 0.000000 0.000000
0.931924 0.000000 0.000000
0.956373 0.000000 0.000000
0.974817 0.000000 0.000000
0.997059 0.000000 0.000000
1.000000 0.000000 0.000000
1.000000 0.000000 0.000000
1.000000 0.000000 0.000000
1.000000 0.000000 0.000000
1.000000 0.000000 0.000000
1.000000 0.000000 0.000000
1.000000 0.000000 0.000000
1.000000 0.000000 0.000000
1.000000 0.000000 0.000000
1.000000 0.000000 0.000000
1.000000 0.000000 0.000000
1.000000 0.000000 0.000000
1.000000 0.000000 0.000000
1.000000 0.000000 0.000000
1.000000 0.000000 0.000000
1.000000 0.000000 0.000000
0.002758 0.022365 0.000000
0.010601 0.022365 0.000000
0.013603 0.020527 0.000000
0.022365 0.018444 0.000000
0.034804 0.018444 0.000000
0.045649 0.018444 0.000000
0.062010 0.018444 0.000000
0.077022 0.018444 0.000000
0.093138 0.018444 0.000000
0.103983 0.018444 0.000000
0.118995 0.018444 0.000000
0.133946 0.018444 0.000000
0.148714 0.015257 0.000000
0.165074 0.014522 0.000000
0.181495 0.014522 0.000000
0.196201 0.014522 0.000000
0.213725 0.014522 0.000000
0.231250 0.014522 0.000000
0.248775 0.014522 0.000000
0.266299 0.014522 0.000000
0.287745 0.014522 0.000000
0.310049 0.014522 0.000000
0.332414 0.011765 0.000000
0.361458 0.012991 0.000000
0.387745 0.010601 0.000000
0.414032 0.010601 0.000000
0.440319 0.007843 0.000000
0.463848 0.007843 0.000000
0.488971 0.007843 0.000000
0.512500 0.006679 0.000000
0.537500 0.006679 0.000000
0.559988 0.006679 0.000000
0.586275 0.003922 0.000000
0.612561 0.003922 0.000000
0.642769 0.003922 0.000000
0.672978 0.003922 0.000000
0.698223 0.004964 0.000000
0.729473 0.002758 0.000000
0.755760 0.003922 0.000000
0.782046 0.003922 0.000000
0.808334 0.002758 0.000000
0.831863 0.000000 0.000000
0.858150 0.000000 0.000000
0.883272 0.000000 0.000000
0.905637 0.000000 0.000000
0.929779 0.000000 0.000000
0.954289 0.000000 0.000000
0.976594 0.000000 0.000000
0.994118 0.000000 0.000000
1.000000 0.000000 0.000000
1.000000 0.000000 0.000000
1.000000 0.000000 0.000000
1.000000 0.000000 0.000000
1.000000 0.000000 0.000000
1.000000 0.000000 0.000000
1.000000 0.000000 0.000000
1.000000 0.000000 0.000000
1.000000 0.000000 0.000000
1.000000 0.000000 0.000000
1.000000 0.000000 0.000000
1.000000 0.000000 0.000000
1.000000 0.000000 0.000000
1.000000 0.000000 0.000000
1.000000 0.000000 0.000000
1.000000 0.000000 0.000000
0.003922 0.031128 0.000000
0.008762 0.031128 0.000000
0.013603 0.032966 0.000000
0.022365 0.027206 0.000000
0.031128 0.027206 0.000000
0.047733 0.027206 0.000000
0.058333 0.027206 0.000000
0.075612 0.027206 0.000000
0.089706 0.027206 0.000000
0.106311 0.027206 0.000000
0.118995 0.027206 0.000000
0.131679 0.027206 0.000000
0.147549 0.023284 0.000000
0.164890 0.023284 0.000000
0.178677 0.023284 0.000000
0.192524 0.023284 0.000000
0.210784 0.023284 0.000000
0.227328 0.023284 0.000000
0.242034 0.023284 0.000000
0.266299 0.019608 0.000000
0.286519 0.019608 0.000000
0.308885 0.019363 0.000000
0.331250 0.019363 0.000000
0.355392 0.019363 0.000000
0.387745 0.016911 0.000000
0.414032 0.015441 0.000000
0.440319 0.015441 0.000000
0.465318 0.015441 0.000000
0.485294 0.011765 0.000000
0.511336 0.011765 0.000000
0.533701 0.011520 0.000000
0.556312 0.011520 0.000000
0.586275 0.011520 0.000000
0.612561 0.011520 0.000000
0.642647 0.011520 0.000000
0.669853 0.007843 0.000000
0.699265 0.009803 0.000000
0.724510 0.007598 0.000000
0.752083 0.007475 0.000000
0.778370 0.010968 0.000000
0.804658 0.003922 0.000000
0.830698 0.003922 0.000000
0.856986 0.003922 0.000000
0.882966 0.003922 0.000000
0.905637 0.003922 0.000000
0.928002 0.003922 0.000000
0.951225 0.003677 0.000000
0.972733 0.003677 0.000000
0.994118 0.003677 0.000000
1.000000 0.000000 0.000000
1.000000 0.000000 0.000000
1.000000 0.000000 0.000000
1.000000 0.000000 0.000000
1.000000 0.000000 0.000000
1.000000 0.000000 0.000000
1.000000 0.000000 0.000000
1.000000 0.000000 0.000000
1.000000 0.000000 0.000000
1.000000 0.000000 0.000000
1.000000 0.000000 0.000000
1.000000 0.000000 0.000000
1.000000 0.000000 0.000000
1.000000 0.000000 0.000000
1.000000 0.000000 0.000000
1.000000 0.000000 0.000000
0.004596 0.040564 0.000000
0.012684 0.040564 0.000000
0.017524 0.040564 0.000000
0.026287 0.039890 0.000000
0.034804 0.039890 0.000000
0.043811 0.039890 0.000000
0.058088 0.039890 0.000000
0.074939 0.039890 0.000000
0.085785 0.036642 0.000000
0.102390 0.036642 0.000000
0.115073 0.036642 0.000000
0.127757 0.035968 0.000000
0.143627 0.035968 0.000000
0.161152 0.035968 0.000000
0.174755 0.035968 0.000000
0.192279 0.032721 0.000000
0.209804 0.032047 0.000000
0.227328 0.032047 0.000000
0.244853 0.032047 0.000000
0.262378 0.032047 0.000000
0.283824 0.032047 0.000000
0.305269 0.028799 0.000000
0.331250 0.028125 0.000000
0.357537 0.028125 0.000000
0.383823 0.022426 0.000000
0.413358 0.024203 0.000000
0.436397 0.024203 0.000000
0.462684 0.024203 0.000000
0.485049 0.018750 0.000000
0.508211 0.020282 0.000000
0.533578 0.020282 0.000000
0.556066 0.020282 0.000000
0.582353 0.016360 0.000000
0.611519 0.016360 0.000000
0.638848 0.016360 0.000000
0.669057 0.016360 0.000000
0.697059 0.012439 0.000000
0.725552 0.012439 0.000000
0.751838 0.012439 0.000000
0.778125 0.012439 0.000000
0.804412 0.012439 0.000000
0.830698 0.011765 0.000000
0.856312 0.008517 0.000000
0.879350 0.008517 0.000000
0.901716 0.008517 0.000000
0.925858 0.008517 0.000000
0.950367 0.005453 0.000000
0.972672 0.007843 0.000000
0.993137 0.007843 0.000000
1.000000 0.004596 0.000000
1.000000 0.004596 0.000000
1.000000 0.004596 0.000000
1.000000 0.004596 0.000000
1.000000 0.004596 0.000000
1.000000 0.004596 0.000000
1.000000 0.001104 0.000000
1.000000 0.003922 0.000000
1.000000 0.003922 0.000000
1.000000 0.003922 0.000000
1.000000 0.003922 0.000000
1.000000 0.003922 0.000000
1.000000 0.003922 0.000000
1.000000 0.003922 0.000000
1.000000 0.003922 0.000000
1.000000 0.003922 0.000000
0.007843 0.052573 0.000000
0.012684 0.052573 0.000000
0.021446 0.052573 0.000000
0.026287 0.052573 0.000000
0.035049 0.052573 0.000000
0.043811 0.052573 0.000000
0.056495 0.050245 0.000000
0.071691 0.050245 0.000000
0.085294 0.050245 0.000000
0.097304 0.048652 0.000000
0.112500 0.048652 0.000000
0.128431 0.048652 0.000000
0.143627 0.048652 0.000000
0.160968 0.046323 0.000000
0.174755 0.044730 0.000000
0.190686 0.044730 0.000000
0.208211 0.044730 0.000000
0.223406 0.044730 0.000000
0.244853 0.042402 0.000000
0.262378 0.042402 0.000000
0.284927 0.039706 0.000000
0.307291 0.040809 0.000000
0.331250 0.040809 0.000000
0.357537 0.036887 0.000000
0.383823 0.036887 0.000000
0.410111 0.036887 0.000000
0.436397 0.032966 0.000000
0.461397 0.032966 0.000000
0.485049 0.032966 0.000000
0.507414 0.027513 0.000000
0.529780 0.029044 0.000000
0.556066 0.029044 0.000000
0.582353 0.026716 0.000000
0.608640 0.025122 0.000000
0.638848 0.025122 0.000000
0.669057 0.025122 0.000000
0.695343 0.021078 0.000000
0.726593 0.021201 0.000000
0.751838 0.021201 0.000000
0.778125 0.021201 0.000000
0.804412 0.019731 0.000000
0.829105 0.017279 0.000000
0.853064 0.017279 0.000000
0.879044 0.017279 0.000000
0.901716 0.017279 0.000000
0.926410 0.013358 0.000000
0.947304 0.013358 0.000000
0.972672 0.013358 0.000000
0.993137 0.013358 0.000000
1.000000 0.011459 0.000000
1.000000 0.011765 0.000000
1.000000 0.009436 0.000000
1.000000 0.009436 0.000000
1.000000 0.009436 0.000000
1.000000 0.009436 0.000000
1.000000 0.009436 0.000000
1.000000 0.009436 0.000000
1.000000 0.009436 0.000000
1.000000 0.007108 0.000000
1.000000 0.007843 0.000000
1.000000 0.007843 0.000000
1.000000 0.007843 0.000000
1.000000 0.007843 0.000000
1.000000 0.007843 0.000000
1.000000 0.007843 0.000000
0.011765 0.065258 0.000000
0.016605 0.065258 0.000000
0.021446 0.065258 0.000000
0.030209 0.065258 0.000000
0.037562 0.063848 0.000000
0.044485 0.063848 0.000000
0.056495 0.063848 0.000000
0.069179 0.061336 0.000000
0.081863 0.061336 0.000000
0.098468 0.061336 0.000000
0.111152 0.061336 0.000000
0.126103 0.061336 0.000000
0.141115 0.059926 0.000000
0.157231 0.059926 0.000000
0.173652 0.057415 0.000000
0.188358 0.057415 0.000000
0.205882 0.057415 0.000000
0.223406 0.056005 0.000000
0.239277 0.053493 0.000000
0.262378 0.053493 0.000000
0.282598 0.053493 0.000000
0.304963 0.053493 0.000000
0.330637 0.055392 0.000000
0.357537 0.049571 0.000000
0.383823 0.049632 0.000000
0.410111 0.044792 0.000000
0.436397 0.045650 0.000000
0.458762 0.046875 0.000000
0.482537 0.044240 0.000000
0.507414 0.041728 0.000000
0.529780 0.041728 0.000000
0.553554 0.040318 0.000000
0.582353 0.037807 0.000000
0.608640 0.037807 0.000000
0.638726 0.037807 0.000000
0.665931 0.033885 0.000000
0.695343 0.033885 0.000000
0.721630 0.032475 0.000000
0.749326 0.029964 0.000000
0.777574 0.029964 0.000000
0.800490 0.031005 0.000000
0.826777 0.026042 0.000000
0.853064 0.026042 0.000000
0.875429 0.026042 0.000000
0.899203 0.026042 0.000000
0.924081 0.022120 0.000000
0.946446 0.022120 0.000000
0.966299 0.022120 0.000000
0.990196 0.022120 0.000000
1.000000 0.018199 0.000000
1.000000 0.018199 0.000000
1.000000 0.018199 0.000000
1.000000 0.018199 0.000000
1.000000 0.018199 0.000000
1.000000 0.018199 0.000000
1.000000 0.015686 0.000000
1.000000 0.014277 0.000000
1.000000 0.014277 0.000000
1.000000 0.014277 0.000000
1.000000 0.014277 0.000000
1.000000 0.014277 0.000000
1.000000 0.014277 0.000000
1.000000 0.014277 0.000000
1.000000 0.014277 0.000000
1.000000 0.014277 0.000000
0.015196 0.077941 0.003922
0.023039 0.080453 0.003922
0.025367 0.077451 0.003922
0.030209 0.077451 0.003922
0.038971 0.077451 0.003432
0.047733 0.074020 0.003432
0.059926 0.074020 0.003432
0.069179 0.074020 0.003432
0.081373 0.074020 0.000000
0.091544 0.074020 0.000000
0.108578 0.076103 0.000000
0.123836 0.073530 0.000000
0.139705 0.073530 0.000000
0.157047 0.070098 0.000000
0.170833 0.070098 0.000000
0.188358 0.070098 0.000000
0.205882 0.069608 0.000000
0.223835 0.069608 0.000000
0.240932 0.066177 0.000000
0.262378 0.066177 0.000000
0.279167 0.066177 0.000000
0.304963 0.066177 0.000000
0.327328 0.062255 0.000000
0.355147 0.062255 0.000000
0.383823 0.061765 0.000000
0.410111 0.058334 0.000000
0.436029 0.058334 0.000000
0.458762 0.060479 0.000000
0.482843 0.054412 0.000000
0.503982 0.054412 0.000000
0.526349 0.053922 0.000000
0.552145 0.050490 0.000000
0.576961 0.050490 0.000000
0.608640 0.051041 0.000000
0.634926 0.050000 0.000000
0.665135 0.046569 0.000000
0.695343 0.046079 0.000000
0.721630 0.042647 0.000000
0.747917 0.042647 0.000000
0.774203 0.042647 0.000000
0.800490 0.038726 0.000000
0.826777 0.038726 0.000000
0.849755 0.038848 0.000000
0.875429 0.034804 0.000000
0.897794 0.034804 0.000000
0.921936 0.034804 0.000000
0.946446 0.034314 0.000000
0.968750 0.030883 0.000000
0.990196 0.030883 0.000000
1.000000 0.032415 0.000000
1.000000 0.026961 0.000000
1.000000 0.026961 0.000000
1.000000 0.026961 0.000000
1.000000 0.026961 0.000000
1.000000 0.026961 0.000000
1.000000 0.023468 0.000000
1.000000 0.023039 0.000000
1.000000 0.023039 0.000000
1.000000 0.023039 0.000000
1.000000 0.023039 0.000000
1.000000 0.023039 0.000000
1.000000 0.023039 0.000000
1.000000 0.023039 0.000000
1.000000 0.023039 0.000000
1.000000 0.023039 0.000000
0.019608 0.087133 0.003922
0.024448 0.087133 0.003922
0.027880 0.087133 0.003922
0.038052 0.086704 0.003922
0.039645 0.086704 0.003922
0.051654 0.086704 0.003922
0.060417 0.086704 0.003922
0.069608 0.086704 0.003922
0.081863 0.086704 0.003922
0.091054 0.083211 0.003922
0.108149 0.083211 0.003922
0.122181 0.080944 0.003922
0.139705 0.082782 0.003922
0.153309 0.082782 0.003922
0.170404 0.082782 0.003922
0.184436 0.079289 0.003922
0.201961 0.079289 0.003922
0.219485 0.078860 0.003922
0.240932 0.078860 0.003922
0.258456 0.078860 0.003922
0.279902 0.078860 0.003922
0.304963 0.075368 0.003922
0.327328 0.074939 0.000429
0.355147 0.074939 0.000429
0.383823 0.068995 -0.002022
0.410111 0.071017 0.000000
0.436029 0.071078 0.000429
0.458762 0.067525 0.000429
0.481128 0.067096 -0.001777
0.504289 0.067096 0.000000
0.529657 0.063603 0.000000
0.552145 0.063174 0.000000
0.578431 0.063174 0.000000
0.607598 0.063174 0.000000
0.634926 0.055882 0.000000
0.665135 0.059253 0.000000
0.693138 0.055760 0.000000
0.721630 0.055331 0.000000
0.747917 0.055331 0.000000
0.774203 0.055331 0.000000
0.800490 0.051409 0.000000
0.826348 0.051409 0.000000
0.849142 0.047917 0.000000
0.875123 0.047488 0.000000
0.897794 0.047488 0.000000
0.920159 0.043995 0.000000
0.946017 0.040932 0.000000
0.964890 0.043566 0.000000
0.986275 0.043566 0.000000
0.997978 0.038174 0.000000
1.000000 0.039645 0.000000
1.000000 0.039645 0.000000
1.000000 0.036152 0.000000
1.000000 0.034498 0.000000
1.000000 0.035723 0.000000
1.000000 0.035723 0.000000
1.000000 0.032231 0.000000
1.000000 0.032231 0.000000
1.000000 0.029902 0.000000
1.000000 0.031802 0.000000
1.000000 0.031802 0.000000
1.000000 0.031802 0.000000
1.000000 0.031802 0.000000
1.000000 0.031802 0.000000
1.000000 0.031802 0.000000
0.023529 0.099387 0.007843
0.028799 0.099387 0.007843
0.032721 0.099387 0.007843
0.041973 0.099387 0.007843
0.046814 0.099387 0.007843
0.055576 0.099387 0.007843
0.064338 0.096814 0.005270
0.073101 0.096814 0.005270
0.081863 0.096814 0.005270
0.091973 0.095466 0.005270
0.104657 0.095466 0.005270
0.120834 0.095466 0.003922
0.135784 0.095466 0.003922
0.153125 0.092892 0.003922
0.166912 0.092892 0.003922
0.184436 0.090870 0.003922
0.201961 0.091544 0.003922
0.219485 0.091544 0.003922
0.237868 0.092034 0.003922
0.258456 0.088971 0.003922
0.279902 0.086275 0.003922
0.304963 0.087623 0.003922
0.327328 0.087623 0.003922
0.355147 0.085049 0.003922
0.383823 0.083701 0.003922
0.410111 0.083701 0.003922
0.432476 0.081127 0.003922
0.457475 0.079779 0.003922
0.481128 0.079779 0.003922
0.503492 0.077206 0.003922
0.525858 0.075858 0.001348
0.552145 0.075858 0.001348
0.578431 0.073284 -0.000613
0.607598 0.070405 0.000000
0.634926 0.071936 0.000000
0.665135 0.069363 0.000000
0.691422 0.068015 0.000000
0.721630 0.068015 0.000000
0.747917 0.065441 0.000000
0.774203 0.064093 0.000000
0.799142 0.064093 0.000000
0.822855 0.061520 0.000000
0.849142 0.058211 0.000000
0.871507 0.060172 0.000000
0.896446 0.057598 0.000000
0.920159 0.057598 0.000000
0.942524 0.056250 0.000000
0.963542 0.053676 0.000000
0.986275 0.052328 0.000000
0.997978 0.052328 0.000000
1.000000 0.052328 0.000000
1.000000 0.049755 0.000000
1.000000 0.048407 0.000000
1.000000 0.048407 0.000000
1.000000 0.048407 0.000000
1.000000 0.045833 0.000000
1.000000 0.044485 0.000000
1.000000 0.044485 0.000000
1.000000 0.044485 0.000000
1.000000 0.044485 0.000000
1.000000 0.044485 0.000000
1.000000 0.044485 0.000000
1.000000 0.044485 0.000000
1.000000 0.044485 0.000000
1.000000 0.044485 0.000000
0.027451 0.112071 0.010110
0.033640 0.112071 0.007843
0.037132 0.112071 0.007843
0.044240 0.112071 0.007843
0.050735 0.112071 0.007843
0.057843 0.110416 0.007843
0.066605 0.110416 0.007843
0.075367 0.110416 0.007843
0.081863 0.110416 0.007843
0.091054 0.108149 0.007843
0.103309 0.108149 0.007843
0.118260 0.108149 0.007843
0.135784 0.108149 0.007843
0.149388 0.106495 0.007843
0.164644 0.106495 0.007843
0.182169 0.104228 0.007843
0.199693 0.104228 0.007843
0.221079 0.104228 0.007843
0.237010 0.102573 0.007843
0.258456 0.102573 0.006189
0.279902 0.100306 0.006189
0.301348 0.100306 0.006189
0.327328 0.101961 0.003922
0.355147 0.098652 0.003922
0.383823 0.096385 0.003922
0.410111 0.096385 0.003922
0.432476 0.094730 0.003922
0.457475 0.092463 0.003922
0.478860 0.092525 0.003922
0.503492 0.090809 0.003922
0.525858 0.088542 0.003922
0.552145 0.089767 0.003922
0.578431 0.086887 0.003922
0.604718 0.084008 0.003922
0.634926 0.084620 0.003922
0.665135 0.082966 0.002267
0.691422 0.080698 0.000000
0.721998 0.080698 0.000000
0.747917 0.079044 0.000000
0.773652 0.076777 0.000000
0.796569 0.077573 0.000000
0.822855 0.075122 0.000000
0.845834 0.071814 0.000000
0.871507 0.074816 0.000000
0.896569 0.071201 0.000000
0.918015 0.068934 0.000000
0.939460 0.068934 0.000000
0.964829 0.067279 0.000000
0.986275 0.065012 0.000000
0.997978 0.065012 0.000000
1.000000 0.063358 0.000000
1.000000 0.063358 0.000000
1.000000 0.061091 0.000000
1.000000 0.061091 0.000000
1.000000 0.061091 0.000000
1.000000 0.059436 0.000000
1.000000 0.057169 0.000000
1.000000 0.057169 0.000000
1.000000 0.057169 0.000000
1.000000 0.057169 0.000000
1.000000 0.057169 0.000000
1.000000 0.057169 0.000000
1.000000 0.057169 0.000000
1.000000 0.057169 0.000000
1.000000 0.057169 0.000000
0.031373 0.124755 0.011765
0.036213 0.124755 0.011765
0.041054 0.124755 0.011765
0.049080 0.124755 0.011765
0.054657 0.124755 0.011765
0.059498 0.124019 0.011765
0.068260 0.124019 0.011765
0.077022 0.124019 0.012439
0.085785 0.124019 0.011030
0.094547 0.120834 0.011030
0.104657 0.120834 0.011030
0.118260 0.120834 0.007843
0.131862 0.120834 0.007843
0.149204 0.120098 0.007843
0.162990 0.120098 0.007843
0.180515 0.116912 0.007843
0.198039 0.116912 0.007843
0.215563 0.116912 0.007843
0.237010 0.116176 0.007843
0.256311 0.116176 0.007843
0.278676 0.112990 0.007843
0.301348 0.112990 0.007843
0.327328 0.115564 0.007843
0.353615 0.112254 0.007108
0.383823 0.109069 0.007108
0.410111 0.109069 0.007108
0.432476 0.108333 0.007108
0.454840 0.105147 0.007108
0.478922 0.106127 0.003922
0.503492 0.104411 0.003922
0.525858 0.101226 0.003922
0.552145 0.101226 0.003922
0.578431 0.100490 0.003922
0.604718 0.100490 0.003922
0.634926 0.097304 0.003922
0.665135 0.096568 0.003922
0.691422 0.093383 0.003922
0.717709 0.093383 0.003922
0.743995 0.092647 0.003922
0.770281 0.092647 0.003187
0.796569 0.089461 0.000000
0.822855 0.088725 0.000000
0.845956 0.088725 0.000000
0.868321 0.085540 0.000000
0.893873 0.084804 0.000000
0.918015 0.084804 0.000000
0.939460 0.081618 0.000000
0.960968 0.084742 0.000000
0.982353 0.080882 0.000000
0.997978 0.077696 0.000000
1.000000 0.077696 0.000000
1.000000 0.077696 0.000000
1.000000 0.076960 0.000000
1.000000 0.073775 0.000000
1.000000 0.073775 0.000000
1.000000 0.073775 0.000000
1.000000 0.073039 0.000000
1.000000 0.073039 0.000000
1.000000 0.069853 0.000000
1.000000 0.069853 0.000000
1.000000 0.069853 0.000000
1.000000 0.069853 0.000000
1.000000 0.069853 0.000000
1.000000 0.069853 0.000000
1.000000 0.069853 0.000000
0.039216 0.137439 0.011949
0.044056 0.137439 0.011949
0.048897 0.137439 0.011949
0.051164 0.137439 0.011949
0.055086 0.137439 0.011949
0.063603 0.137439 0.011949
0.072181 0.137439 0.011765
0.080944 0.137439 0.011765
0.085968 0.133701 0.011765
0.098468 0.133701 0.011765
0.108578 0.133701 0.011765
0.119914 0.131434 0.011765
0.131862 0.133517 0.011765
0.145282 0.133517 0.011765
0.162806 0.133517 0.011765
0.180331 0.129780 0.011765
0.197855 0.129780 0.011765
0.215563 0.125919 0.011765
0.237684 0.129596 0.011765
0.256311 0.129596 0.011765
0.278676 0.125858 0.011765
0.301348 0.125858 0.008027
0.327328 0.125674 0.007843
0.353800 0.125674 0.007843
0.383823 0.121937 0.007843
0.410111 0.121753 0.007843
0.432476 0.121753 0.007843
0.454840 0.118015 0.007843
0.477206 0.115809 0.007843
0.500368 0.117831 0.007843
0.525858 0.114093 0.007904
0.552145 0.114093 0.004106
0.578431 0.113909 0.004106
0.604718 0.113909 0.001226
0.634926 0.110172 0.003922
0.662010 0.109988 0.003922
0.691422 0.109988 0.003922
0.717709 0.103615 0.003922
