Color/Kodak/Kodak Elite Color 200 65x.cube
TITLE "Kodak Elite Color 200"
LUT_3D_SIZE 5
DOMAIN_MIN 0.000000 0.000000 0.000000
DOMAIN_MAX 1.000000 1.000000 1.000000
0.000000 0.000000 0.000000
0.151961 0.000000 0.000000
0.364706 0.003922 0.003922
0.677451 0.023529 0.023529
0.968627 0.094118 0.074510
0.085295 0.140196 0.015686
0.179412 0.147059 0.023529
0.392157 0.163725 0.039216
0.697059 0.195098 0.067647
0.976471 0.257844 0.121569
0.117647 0.341176 0.021569
0.226470 0.345098 0.025490
0.452941 0.360784 0.037255
0.741177 0.384313 0.061764
0.996078 0.433334 0.113725
0.228432 0.561764 0.000000
0.329411 0.561764 0.000000
0.557843 0.561764 0.000000
0.813726 0.573530 0.000000
1.000000 0.604902 0.026471
0.462745 0.721569 0.000000
0.528431 0.721569 0.000000
0.692157 0.721569 0.000000
0.900000 0.717647 0.000000
1.000000 0.717647 0.000000
0.000000 0.015686 0.167647
0.166666 0.022549 0.186274
0.380393 0.039216 0.202941
0.689216 0.071569 0.230393
0.968627 0.145098 0.277451
0.097059 0.174510 0.171568
0.183334 0.182353 0.182353
0.400000 0.199020 0.201961
0.703922 0.231373 0.229412
0.976471 0.293137 0.277451
0.111765 0.376471 0.155882
0.218627 0.380393 0.160784
0.456863 0.396079 0.176471
0.743137 0.420588 0.206863
0.992157 0.471569 0.260784
0.218627 0.589215 0.056863
0.326470 0.592157 0.060784
0.553922 0.597059 0.076470
0.806863 0.611765 0.102941
1.000000 0.644118 0.159804
0.490196 0.725490 0.000000
0.551961 0.725490 0.000000
0.709804 0.721569 0.000000
0.910784 0.721569 0.000000
1.000000 0.721569 0.000000
0.003922 0.068628 0.360784
0.179412 0.070588 0.378432
0.396079 0.084314 0.400000
0.700000 0.119608 0.427451
0.968627 0.192157 0.472549
0.094118 0.222549 0.400000
0.183333 0.232353 0.410784
0.411764 0.250000 0.431373
0.711765 0.282353 0.462745
0.969607 0.346079 0.505883
0.101961 0.437255 0.431373
0.199020 0.443137 0.439215
0.458823 0.458823 0.458823
0.739216 0.484314 0.486274
0.980392 0.537254 0.529411
0.141176 0.672549 0.398039
0.290196 0.673529 0.404902
0.532353 0.681372 0.424510
0.786275 0.696079 0.456863
0.999019 0.726471 0.510784
0.525490 0.745098 0.013725
0.580392 0.747059 0.015686
0.727451 0.747059 0.023530
0.910784 0.755882 0.041176
1.000000 0.782353 0.107843
0.016667 0.145098 0.613726
0.195098 0.146079 0.629412
0.423530 0.146079 0.646078
0.715687 0.165686 0.664706
0.968627 0.235294 0.696079
0.108824 0.273529 0.674510
0.203922 0.280392 0.683333
0.440196 0.295098 0.698039
0.723530 0.325490 0.715687
0.967647 0.388235 0.741176
0.059804 0.494117 0.720588
0.213725 0.498039 0.727451
0.476471 0.510784 0.736274
0.743137 0.537254 0.751961
0.972549 0.586275 0.774510
0.125490 0.750981 0.743137
0.281373 0.754902 0.747059
0.525490 0.758824 0.754902
0.770588 0.770588 0.770588
0.980392 0.797058 0.794118
0.442157 0.895098 0.610784
0.507843 0.899020 0.615687
0.664706 0.899020 0.627451
0.848039 0.906862 0.650981
1.000000 0.918627 0.700980
0.054902 0.207843 0.827451
0.242157 0.207843 0.839216
0.474510 0.203922 0.847059
0.742156 0.200000 0.854902
0.972549 0.243137 0.870588
0.171568 0.277451 0.877451
0.284314 0.281373 0.882353
0.501961 0.295098 0.889216
0.754902 0.321568 0.895098
0.972549 0.387255 0.908824
0.245098 0.498039 0.917647
0.344117 0.498039 0.921569
0.549019 0.509804 0.925490
0.778432 0.534314 0.933333
0.980392 0.588236 0.941176
0.322549 0.782353 0.952941
0.411764 0.785294 0.952941
0.600000 0.789215 0.956863
0.798039 0.798039 0.961765
0.980392 0.821569 0.969607
0.513726 0.992157 0.972549
0.563725 0.992157 0.972549
0.688236 0.992157 0.980392
0.840196 0.996078 0.988235
1.000000 1.000000 1.000000
