Color/Kodak/Kodak Kodachrome 64 65x.cube
TITLE "Kodak Kodachrome 64"
LUT_3D_SIZE 65
DOMAIN_MIN 0.000000 0.000000 0.000000
DOMAIN_MAX 1.000000 1.000000 1.000000
0.000000 0.000000 0.000000
0.003922 0.000000 0.000000
0.009681 0.000000 0.000000
0.014522 0.000000 0.000000
0.023284 0.000000 0.000000
0.032047 0.000000 0.000000
0.040809 0.000000 0.000000
0.053493 0.000000 0.000000
0.062255 0.000000 0.000000
0.074939 0.000000 0.000000
0.083701 0.000000 0.000000
0.096385 0.000000 0.000000
0.108333 0.000000 0.000000
0.121937 0.000000 0.000000
0.139461 0.000000 0.000000
0.156985 0.003922 0.000000
0.177451 0.003922 0.000000
0.195955 0.003922 0.000000
0.217402 0.003922 0.000000
0.234927 0.007843 0.000000
0.256373 0.007843 0.000000
0.277818 0.011765 0.000000
0.303799 0.012378 0.000000
0.331617 0.017218 0.000000
0.364216 0.019608 0.000000
0.394424 0.023529 0.000000
0.424632 0.027451 0.000000
0.450919 0.031373 0.000000
0.473284 0.035294 0.000000
0.496446 0.039216 0.000000
0.517892 0.043137 0.000000
0.535416 0.044179 0.000000
0.554902 0.049019 0.000000
0.574387 0.050980 0.000000
0.591912 0.054902 0.000000
0.609436 0.058824 0.000000
0.626961 0.062745 0.000000
0.644486 0.065380 0.000000
0.662010 0.066667 0.000000
0.679534 0.070588 0.000000
0.697059 0.074510 0.000000
0.710662 0.074510 0.000000
0.728187 0.078431 0.000000
0.741789 0.082353 0.000000
0.758088 0.083579 0.000000
0.772917 0.086275 0.000000
0.786519 0.090196 0.000000
0.800123 0.090257 0.000000
0.816667 0.094118 0.000000
0.829351 0.098039 0.000000
0.844853 0.098039 0.000000
0.858456 0.101961 0.000000
0.872059 0.102696 0.000000
0.887929 0.105882 0.000000
0.900613 0.109804 0.000000
0.916789 0.113296 0.000000
0.930392 0.113725 0.000000
0.943995 0.117647 0.000000
0.957598 0.117647 0.000000
0.971875 0.121569 0.000000
0.988480 0.125490 0.000000
0.992157 0.125490 0.000000
0.992157 0.125490 0.000000
0.992157 0.125490 0.000000
0.992157 0.125490 0.000000
0.000000 0.004841 0.000000
0.005760 0.004841 0.000000
0.013603 0.004841 0.000000
0.022365 0.004841 0.000000
0.028125 0.004841 0.000000
0.036642 0.007843 0.000000
0.048652 0.009436 0.000000
0.058333 0.008762 0.000000
0.070098 0.008762 0.000000
0.079289 0.008762 0.000000
0.091544 0.008762 0.000000
0.101225 0.008762 0.000000
0.116176 0.011948 0.000000
0.129780 0.012684 0.000000
0.147304 0.012684 0.000000
0.164828 0.012684 0.000000
0.185294 0.013603 0.000000
0.200797 0.016605 0.000000
0.222243 0.017463 0.000000
0.239767 0.020527 0.000000
0.262990 0.021446 0.000000
0.285356 0.028064 0.000000
0.308639 0.029289 0.000000
0.334927 0.033824 0.000000
0.367586 0.033211 0.000000
0.401716 0.037132 0.000000
0.428554 0.040503 0.000000
0.454840 0.044975 0.000000
0.477206 0.050184 0.000000
0.496446 0.048897 0.000000
0.517892 0.052818 0.000000
0.536458 0.055821 0.000000
0.553860 0.056740 0.000000
0.574387 0.059743 0.000000
0.591912 0.063542 0.000000
0.609436 0.063664 0.000000
0.626961 0.063664 0.000000
0.644486 0.064583 0.000000
0.662010 0.064583 0.000000
0.675613 0.068138 0.000000
0.693137 0.071507 0.000000
0.706740 0.076899 0.000000
0.724265 0.075429 0.000000
0.737868 0.078737 0.000000
0.754167 0.082353 0.000000
0.768995 0.087501 0.000000
0.785600 0.086275 0.000000
0.800061 0.090196 0.000000
0.812745 0.094179 0.000000
0.827328 0.094118 0.000000
0.843934 0.098039 0.000000
0.854718 0.101777 0.000000
0.871140 0.101777 0.000000
0.885662 0.105882 0.000000
0.900613 0.109804 0.000000
0.913296 0.109804 0.000000
0.929902 0.113725 0.000000
0.943995 0.117647 0.000000
0.957598 0.117647 0.000000
0.971875 0.121569 0.000000
0.988480 0.125490 0.000000
0.992157 0.125490 0.000000
0.992157 0.125490 0.000000
0.992157 0.125490 0.000000
0.992157 0.125490 0.000000
0.003922 0.009681 0.000000
0.008762 0.013603 0.000000
0.017524 0.013603 0.000000
0.021446 0.013603 0.000000
0.031128 0.013603 0.000000
0.040564 0.013603 0.000000
0.052573 0.013603 0.000000
0.063848 0.013603 0.000000
0.071937 0.017524 0.000000
0.084620 0.017524 0.000000
0.095466 0.017524 0.000000
0.106495 0.017524 0.000000
0.120098 0.020710 0.000000
0.133701 0.021446 0.000000
0.151226 0.021446 0.000000
0.168750 0.023284 0.000000
0.189216 0.025367 0.000000
0.205637 0.029228 0.000000
0.225245 0.029289 0.000000
0.244547 0.033211 0.000000
0.266912 0.035907 0.000000
0.289277 0.040747 0.000000
0.313480 0.042892 0.000000
0.339461 0.044975 0.000000
0.372426 0.046813 0.000000
0.405637 0.050735 0.000000
0.432476 0.058578 0.000000
0.454840 0.058027 0.000000
0.478922 0.062868 0.000000
0.498284 0.064583 0.000000
0.518015 0.064706 0.000000
0.539338 0.068505 0.000000
0.556863 0.070343 0.000000
0.577267 0.072426 0.000000
0.593750 0.076225 0.000000
0.611275 0.076348 0.000000
0.628799 0.078186 0.000000
0.644486 0.078186 0.000000
0.662010 0.078186 0.000000
0.677451 0.080269 0.000000
0.693137 0.080269 0.000000
0.708272 0.080269 0.000000
0.724265 0.080269 0.000000
0.737868 0.084191 0.000000
0.754167 0.084191 0.000000
0.766850 0.084191 0.000000
0.782598 0.089338 0.000000
0.796201 0.090196 0.000000
0.812745 0.091176 0.000000
0.825429 0.094118 0.000000
0.840931 0.099019 0.000000
0.856617 0.098039 0.000000
0.871323 0.101961 0.000000
0.883824 0.105882 0.000000
0.899265 0.108456 0.000000
0.914951 0.109804 0.000000
0.929902 0.113725 0.000000
0.943995 0.117647 0.000000
0.957598 0.117647 0.000000
0.971875 0.121569 0.000000
0.988480 0.125490 0.000000
0.992157 0.125490 0.000000
0.992157 0.125490 0.000000
0.992157 0.125490 0.000000
0.992157 0.125490 0.000000
0.007843 0.018444 0.003922
0.012684 0.018444 0.003922
0.017524 0.019608 0.003922
0.026287 0.022365 0.003922
0.035049 0.022365 0.003922
0.043811 0.022365 0.002758
0.055331 0.022365 0.002758
0.065258 0.022365 0.002758
0.077451 0.022365 0.002758
0.086704 0.026287 0.002758
0.098223 0.026287 0.002758
0.108149 0.026287 0.002758
0.119669 0.026287 0.002758
0.137623 0.030209 0.002758
0.156801 0.032966 0.002758
0.171508 0.034130 0.002758
0.190196 0.034130 -0.000184
0.210478 0.038052 0.000000
0.229167 0.038909 0.000000
0.249449 0.041973 0.000000
0.268137 0.045895 0.000000
0.288419 0.048652 0.000000
0.315564 0.053738 0.000000
0.343382 0.055270 0.000000
0.374510 0.060110 0.000000
0.406189 0.064951 0.000000
0.435234 0.065870 0.000000
0.458762 0.072182 0.000000
0.481128 0.073346 0.000000
0.503492 0.076470 0.000000
0.521814 0.077267 0.000000
0.542096 0.078309 0.000000
0.560785 0.081189 0.000000
0.578309 0.084069 0.000000
0.595833 0.085111 0.000000
0.613358 0.087868 0.000000
0.630882 0.089032 0.000000
0.648407 0.089032 0.000000
0.664767 0.089032 0.000000
0.679534 0.091790 0.000000
0.695588 0.092954 0.000000
0.710662 0.092954 0.000000
0.723713 0.092954 0.000000
0.737868 0.092954 0.000000
0.756924 0.092954 0.000000
0.768995 0.092954 0.000000
0.782598 0.092954 0.000000
0.796201 0.094118 0.000000
0.809804 0.094118 0.000000
0.825429 0.094118 0.000000
0.838113 0.096936 0.000000
0.854534 0.098039 0.000000
0.868138 0.101961 0.000000
0.884008 0.103615 0.000000
0.896507 0.105698 0.000000
0.912867 0.109804 0.000000
0.926470 0.113725 0.000000
0.942585 0.115134 0.000000
0.957598 0.117647 0.000000
0.972365 0.122059 0.000000
0.988480 0.125490 0.000000
0.992157 0.125490 0.000000
0.992157 0.125490 0.000000
0.992157 0.125490 0.000000
0.992157 0.125490 0.000000
0.011765 0.027206 0.003922
0.016605 0.027206 0.003922
0.021446 0.027206 0.003922
0.029964 0.026287 0.003922
0.038726 0.031128 0.003922
0.047733 0.031128 0.003922
0.056495 0.031128 0.003922
0.068933 0.031128 0.003922
0.077941 0.034559 0.003922
0.090381 0.035049 0.003922
0.099387 0.035049 0.003922
0.110416 0.035049 0.003922
0.124019 0.038236 0.003922
0.141300 0.038971 0.003922
0.155147 0.040073 0.003922
0.176347 0.042892 0.003922
0.193137 0.045834 0.003922
0.211642 0.046814 0.003922
0.232844 0.050735 0.003922
0.250613 0.052513 0.003922
0.270833 0.058334 0.003922
0.293199 0.058579 0.003922
0.316177 0.062500 0.006986
0.347304 0.066422 0.003677
0.378431 0.068872 0.003677
0.409559 0.073713 0.003677
0.436397 0.078186 0.003677
0.461397 0.079473 0.003677
0.486519 0.082108 0.000000
0.504289 0.085233 0.000000
0.521937 0.086151 0.000000
0.543260 0.089951 0.000000
0.560785 0.089951 0.000000
0.581986 0.092831 0.000000
0.599510 0.093873 0.000000
0.617034 0.094669 0.000000
0.630882 0.097794 0.000000
0.648407 0.097794 0.000000
0.665932 0.097794 0.000000
0.679534 0.101716 0.000000
0.697059 0.101716 0.000000
0.710662 0.101716 0.000000
0.728554 0.101716 0.000000
0.741789 0.101716 0.000000
0.755392 0.105392 0.000000
0.768995 0.105392 0.000000
0.783456 0.105637 0.000000
0.796201 0.101716 0.000000
0.812745 0.101716 0.000000
0.829106 0.101716 0.000000
0.840931 0.101716 0.000000
0.854534 0.101961 0.000000
0.868138 0.101961 0.000000
0.881740 0.099939 0.000000
0.896691 0.105882 0.000000
0.912867 0.109804 0.000000
0.926470 0.113725 0.000000
0.940074 0.113725 0.000000
0.953922 0.117647 0.000000
0.971201 0.120895 0.000000
0.984804 0.121814 0.000000
0.992157 0.125490 0.000000
0.992157 0.125490 0.000000
0.992157 0.125490 0.000000
0.992157 0.125490 0.000000
0.016360 0.036642 0.007843
0.021201 0.036642 0.007843
0.029289 0.039890 0.007843
0.032047 0.039890 0.007843
0.042892 0.039890 0.007843
0.048407 0.039890 0.007843
0.060417 0.040564 0.007843
0.071691 0.040564 0.007843
0.078616 0.043811 0.007843
0.091299 0.043811 0.007843
0.103309 0.045159 0.007843
0.114338 0.047733 0.007843
0.127941 0.047733 0.007843
0.141727 0.047917 0.007843
0.159743 0.051654 0.007843
0.177267 0.052328 0.007843
0.194791 0.055576 0.004596
0.215563 0.056250 0.004596
0.233763 0.060356 0.004596
0.254534 0.063419 0.004596
0.272733 0.064093 0.004596
0.294179 0.070957 0.004596
0.323407 0.071875 0.003922
0.350367 0.076716 0.003922
0.386275 0.079105 0.003922
0.414032 0.083027 0.003922
0.440319 0.087623 0.003922
0.465318 0.090870 0.003922
0.486765 0.093076 0.003922
0.508211 0.094792 0.003922
0.526409 0.098713 0.003922
0.547181 0.098713 0.003922
0.564705 0.099387 0.003922
0.582231 0.102635 0.003922
0.599755 0.102635 0.003922
0.617279 0.106556 0.000674
0.634804 0.106556 -0.001042
0.652329 0.106556 0.000000
0.669853 0.107230 0.000000
0.683456 0.110478 0.000000
0.699510 0.110478 0.000000
0.714583 0.110478 0.000000
0.725552 0.110478 0.000000
0.741789 0.110784 0.000000
0.759314 0.114399 0.000000
0.772917 0.114399 0.000000
0.786519 0.114399 0.000000
0.800123 0.114399 0.000000
0.813726 0.114399 0.000000
0.826103 0.114399 0.000000
0.838786 0.108333 0.000000
0.854718 0.110478 0.000000
0.868138 0.110478 0.000000
0.880760 0.110478 0.000000
0.896691 0.110478 0.000000
0.909375 0.109804 0.000000
0.925980 0.110294 0.000000
0.938664 0.113725 0.000000
0.953677 0.116054 0.000000
0.967953 0.117647 0.000000
0.984559 0.121569 0.000000
0.988235 0.121569 0.000000
0.988235 0.121569 0.000000
0.988235 0.121569 0.000000
0.988235 0.121569 0.000000
0.021201 0.048652 0.011765
0.029044 0.048652 0.011765
0.032966 0.048652 0.011765
0.039644 0.051410 0.011765
0.046814 0.050245 0.009436
0.053247 0.052573 0.009436
0.062010 0.052573 0.009436
0.073101 0.052573 0.009436
0.085294 0.056005 0.009436
0.094547 0.056495 0.009436
0.104902 0.056495 0.009436
0.118260 0.056495 0.009436
0.131862 0.058088 0.009436
0.147059 0.060417 0.009436
0.162990 0.062010 0.009436
0.182537 0.064338 0.009436
0.199633 0.067279 0.006495
0.219485 0.068260 0.007843
0.238603 0.072181 0.007843
0.258456 0.073958 0.007843
0.277573 0.076103 0.007843
0.301042 0.077696 0.007843
0.327328 0.083946 0.007843
0.355147 0.085478 0.007843
0.385417 0.090319 0.007843
0.415625 0.095159 0.007843
0.444240 0.096079 0.007843
0.466605 0.099632 0.008149
0.488358 0.103554 0.005515
0.511336 0.103554 0.005515
0.529657 0.107475 0.003922
0.547181 0.109068 0.003922
0.566299 0.111397 0.003922
0.583824 0.111397 0.003922
0.603677 0.115196 0.003922
0.618872 0.115318 0.003922
0.636397 0.115318 0.003922
0.652329 0.115318 0.003922
0.669853 0.119240 0.003922
0.683456 0.119240 0.001593
0.700980 0.119240 0.001593
0.713787 0.119240 0.001593
0.732108 0.122549 0.000000
0.746997 0.123162 0.000000
0.759314 0.123162 0.000000
0.772365 0.123162 0.000000
0.787377 0.123162 0.000000
0.800123 0.123162 0.000000
0.816666 0.123162 0.000000
0.829351 0.123162 0.000000
0.844853 0.123162 0.000000
0.858456 0.117096 0.000000
0.871323 0.119240 0.000000
0.884008 0.119240 0.000000
0.896691 0.119240 0.000000
0.912867 0.113419 0.000000
0.925980 0.115318 0.000000
0.938664 0.113725 0.000000
0.953677 0.116054 0.000000
0.967279 0.117647 0.000000
0.984559 0.121569 0.000000
0.988235 0.121569 0.000000
0.988235 0.121569 0.000000
0.988235 0.121569 0.000000
0.988235 0.121569 0.000000
0.027451 0.059926 0.015686
0.032292 0.058333 0.014277
0.039644 0.061336 0.014277
0.045895 0.061336 0.014277
0.049571 0.061336 0.014277
0.058088 0.061336 0.014277
0.066850 0.063848 0.014277
0.075612 0.063848 0.014277
0.085785 0.065258 0.014277
0.097059 0.065258 0.014277
0.107230 0.067769 0.014277
0.118260 0.067524 0.014277
0.134375 0.069179 0.014277
0.151900 0.069363 0.011765
0.166912 0.073101 0.011765
0.184436 0.075612 0.011765
0.204473 0.077022 0.011765
0.223406 0.080883 0.011765
0.240932 0.080944 0.011765
0.260233 0.082721 0.011765
0.282598 0.087561 0.011765
0.304963 0.088787 0.011765
0.331250 0.095220 0.013665
0.359068 0.096630 0.010356
0.390196 0.100552 0.010356
0.420465 0.103063 0.010356
0.450307 0.108395 0.010356
0.471752 0.109681 0.010356
0.493199 0.112316 0.007843
0.512133 0.115441 0.007843
0.532169 0.116238 0.007843
0.551103 0.117279 0.007843
0.568627 0.120160 0.007843
0.586152 0.120160 0.007843
0.603677 0.124081 0.007843
0.621201 0.124081 0.006434
0.638725 0.126593 0.003922
0.656250 0.126593 0.003922
0.668811 0.128003 0.003922
0.687378 0.128003 0.003922
0.700980 0.128003 0.003922
0.718505 0.130514 0.003922
0.732108 0.131924 0.003922
0.745711 0.131924 0.003922
0.759314 0.131924 0.003922
0.774694 0.131924 0.002513
0.790441 0.131924 0.002513
0.803983 0.131924 0.000000
0.819178 0.131924 0.000000
0.831250 0.131924 0.000000
0.844853 0.131924 0.000000
0.858456 0.131924 0.000000
0.872059 0.128003 0.000000
0.885662 0.128003 0.000000
0.899265 0.128003 0.000000
0.912867 0.128003 0.000000
0.928492 0.124081 0.000000
0.941177 0.124081 0.000000
0.953677 0.120160 0.000000
0.967279 0.116912 0.000000
0.980882 0.121569 0.000000
0.988235 0.121569 0.000000
0.988235 0.121569 0.000000
0.988235 0.121569 0.000000
0.988235 0.121569 0.000000
0.034804 0.073530 0.019608
0.042647 0.073530 0.019608
0.046569 0.073530 0.019608
0.049816 0.073530 0.019608
0.058089 0.074020 0.019118
0.062930 0.074020 0.019118
0.071692 0.074020 0.019118
0.080454 0.074020 0.019118
0.089216 0.077451 0.019118
0.098468 0.077941 0.019118
0.108578 0.077941 0.019118
0.122181 0.077941 0.019118
0.139215 0.081128 0.019118
0.153309 0.081863 0.019118
0.170833 0.085295 0.019118
0.188358 0.085785 0.019118
0.209314 0.089216 0.019118
0.226838 0.089706 0.015686
0.244853 0.090564 0.015686
0.264155 0.093628 0.015686
0.287255 0.097549 0.015686
0.308885 0.101164 0.015686
0.335171 0.102083 0.015196
0.362990 0.106924 0.015196
0.395588 0.112745 0.015196
0.425245 0.113235 0.015196
0.448162 0.117157 0.011765
0.473161 0.121079 0.011765
0.494608 0.121079 0.011765
0.515564 0.125000 0.011765
0.533578 0.128432 0.011765
0.554534 0.128922 0.011765
0.572059 0.128922 0.011275
0.589583 0.131801 0.011275
0.607108 0.132843 0.011275
0.624633 0.132843 0.007843
0.638725 0.134559 0.007843
0.656250 0.136765 0.007843
0.673775 0.136765 0.007843
0.687378 0.136765 0.010722
0.704902 0.138235 0.007353
0.718505 0.140686 0.007353
0.732720 0.140686 0.003922
0.749326 0.140686 0.003922
0.765440 0.140686 0.003922
0.776838 0.140686 0.003922
0.790441 0.140686 0.003922
0.804045 0.140686 0.003922
0.817647 0.140686 0.006373
0.831250 0.140686 0.003432
0.844853 0.140686 0.000000
0.858640 0.140686 0.000000
0.872059 0.136765 0.000000
0.885662 0.136765 0.000000
0.899265 0.136765 0.000000
0.913296 0.136765 0.000000
0.926470 0.132843 0.000000
0.940074 0.132843 0.000000
0.953677 0.128922 0.000000
0.967279 0.128922 0.000000
0.980882 0.125000 0.000000
0.988235 0.125000 0.000000
0.988235 0.125000 0.000000
0.988235 0.125000 0.000000
0.988235 0.125000 0.000000
0.043566 0.082782 0.027451
0.048407 0.083211 0.027451
0.053247 0.083211 0.023958
0.058088 0.083211 0.023958
0.062930 0.083211 0.023958
0.067770 0.086704 0.023958
0.074939 0.086704 0.023958
0.084866 0.086704 0.023958
0.093628 0.090136 0.023958
0.102390 0.087133 0.023958
0.111581 0.090625 0.023958
0.124265 0.090625 0.023958
0.143627 0.091054 0.023958
0.157660 0.094547 0.023958
0.175184 0.095650 0.023958
0.192708 0.094976 0.023958
0.210233 0.098468 0.021016
0.231250 0.098897 0.023529
0.249633 0.103248 0.023529
0.266728 0.106311 0.023529
0.288174 0.109007 0.020037
0.313236 0.110233 0.020037
0.339522 0.114767 0.020037
0.369731 0.118076 0.020037
0.399939 0.118505 0.019608
0.429719 0.125368 0.019608
0.456066 0.126287 0.019608
0.478370 0.129841 0.019608
0.498530 0.132047 0.019608
0.516483 0.133762 0.016115
0.537500 0.137684 0.015686
0.555024 0.137684 0.015686
0.572549 0.139645 0.015686
0.590074 0.141605 0.015686
0.607598 0.141605 0.012194
0.625122 0.142402 0.012194
0.642647 0.145527 0.010478
0.660172 0.145527 0.011765
0.670650 0.145527 0.011765
0.691299 0.145527 0.011765
0.704902 0.145527 0.008272
0.722426 0.149449 0.008272
0.736030 0.149449 0.008272
0.749633 0.149449 0.007843
0.763235 0.149449 0.007843
0.778615 0.149449 0.007843
0.794362 0.149449 0.007843
0.804045 0.149449 0.004351
0.820588 0.149449 0.003371
0.835172 0.149449 0.003922
0.848774 0.149449 0.003922
0.862377 0.149020 0.003922
0.875245 0.145527 0.003922
0.887929 0.145527 0.000429
0.903186 0.145527 0.000429
0.916789 0.145098 0.000000
0.929902 0.141605 0.000000
0.942585 0.140196 0.000000
0.955270 0.137684 0.000000
0.971201 0.134437 0.000000
0.980882 0.133333 0.000000
0.988235 0.133333 0.000000
0.988235 0.133333 0.000000
0.988235 0.133333 0.000000
0.988235 0.133333 0.000000
0.052328 0.096814 0.032721
0.056250 0.096814 0.032721
0.060172 0.096814 0.032721
0.064093 0.096814 0.032721
0.068015 0.096814 0.032721
0.075184 0.096140 0.032721
0.081373 0.099387 0.032721
0.090135 0.099387 0.032721
0.097549 0.099387 0.032721
0.106311 0.100735 0.032721
0.116421 0.100735 0.031373
0.129105 0.103309 0.031373
0.147549 0.106495 0.031373
0.162500 0.103493 0.028799
0.180025 0.108578 0.028799
0.197549 0.108578 0.028799
0.217647 0.111152 0.028799
0.235171 0.115013 0.028799
0.254044 0.115073 0.028799
0.271569 0.116421 0.028799
0.293015 0.118995 0.028799
0.318076 0.120343 0.025184
0.344975 0.123530 0.024877
0.376103 0.128186 0.024877
0.404779 0.133211 0.024877
0.434988 0.134681 0.024877
0.460907 0.138603 0.024877
0.481005 0.139890 0.023529
0.499878 0.142524 0.023529
0.519976 0.145650 0.023529
0.537623 0.146446 0.020956
0.558946 0.147794 0.020956
0.576470 0.147794 0.018995
0.593995 0.150368 0.019608
0.611520 0.150368 0.019608
0.629044 0.151165 0.017034
0.643995 0.154289 0.017034
0.658885 0.154289 0.014399
0.677696 0.154289 0.015686
0.691299 0.154289 0.015686
0.708824 0.155637 0.013113
0.722426 0.158211 0.013113
0.736642 0.158211 0.011765
0.749633 0.158211 0.011765
0.765931 0.158211 0.011765
0.780760 0.158211 0.011765
0.794362 0.158211 0.009191
0.809252 0.158211 0.007843
0.821569 0.158211 0.007843
0.835172 0.158211 0.007843
0.848774 0.155393 0.007843
0.862377 0.154289 0.005270
0.875981 0.154289 0.003922
0.889584 0.154289 0.003922
0.903186 0.152941 0.003922
0.916789 0.150368 0.003922
0.931250 0.150368 0.001348
0.943995 0.148959 -0.000061
0.957598 0.146446 0.000000
0.971201 0.143198 0.000000
0.984559 0.142279 0.000000
0.988235 0.138603 0.000000
0.988235 0.138603 0.000000
0.988235 0.138603 0.000000
0.988235 0.138603 0.000000
0.061091 0.110416 0.041483
0.065012 0.112071 0.041483
0.068934 0.112071 0.041483
0.072855 0.114828 0.041483
0.076777 0.114338 0.041483
0.084620 0.114338 0.041483
0.090135 0.114338 0.041483
0.096630 0.114338 0.041483
0.103737 0.114338 0.041483
0.110233 0.112500 0.041483
0.120343 0.115992 0.042402
0.136213 0.118260 0.037561
0.150551 0.118260 0.037561
0.171078 0.122181 0.037561
0.184865 0.122181 0.037561
0.202144 0.121936 0.037561
0.221568 0.126777 0.037561
0.239093 0.126103 0.037561
0.258885 0.130024 0.037561
0.280331 0.130024 0.037561
0.297855 0.134375 0.035294
0.324571 0.133946 0.033640
0.353126 0.136213 0.033640
0.383334 0.141054 0.033640
0.413542 0.145711 0.033640
0.439828 0.150735 0.030270
0.465748 0.151287 0.033273
0.484926 0.153554 0.029718
0.504718 0.153493 0.029718
0.523897 0.155208 0.029718
0.543688 0.155330 0.029596
0.561213 0.159130 0.025796
0.578738 0.161397 0.025796
0.596262 0.161397 0.025796
0.613787 0.163051 0.025796
0.629044 0.163051 0.023529
0.646568 0.163051 0.021875
0.664094 0.165318 0.021875
0.676409 0.165318 0.021875
0.696937 0.166973 0.019608
0.708824 0.166973 0.020405
0.726348 0.166973 0.017953
0.739951 0.166973 0.017953
0.755514 0.166973 0.015686
0.767157 0.166973 0.015686
0.780760 0.166973 0.015809
0.793566 0.166973 0.014032
0.807966 0.166973 0.011765
0.821569 0.166973 0.011765
0.835172 0.166973 0.012133
0.849877 0.166973 0.010110
0.862561 0.163051 0.006372
0.875981 0.163051 0.007843
0.889584 0.163051 0.008456
0.902880 0.163051 0.006189
0.915564 0.159130 0.002697
0.930392 0.159130 0.003922
0.943995 0.157721 0.003922
0.957598 0.155208 0.003922
0.970221 0.151960 -0.000981
0.986826 0.151042 0.000000
0.990502 0.147365 0.000000
0.990502 0.147365 0.000000
0.990502 0.147365 0.000000
0.990502 0.147365 0.000000
0.069853 0.131862 0.050245
0.074693 0.131862 0.050245
0.080882 0.131862 0.050245
0.084804 0.131862 0.050245
0.089216 0.131862 0.050245
0.093383 0.131862 0.050245
0.098898 0.131862 0.050245
0.103737 0.131862 0.050245
0.112500 0.131862 0.050245
0.124019 0.135049 0.050245
0.130024 0.135784 0.050245
0.142708 0.135784 0.051164
0.158578 0.138970 0.046324
0.172917 0.139705 0.046324
0.190441 0.139705 0.046324
0.211152 0.142892 0.046324
0.228677 0.143627 0.046324
0.246201 0.143627 0.046324
0.261397 0.147549 0.046324
0.285171 0.147549 0.044546
0.306618 0.150245 0.042402
0.331679 0.151470 0.042402
0.361888 0.155392 0.042402
0.392096 0.159313 0.042402
0.417647 0.163235 0.039216
0.445405 0.163235 0.038481
0.470588 0.167156 0.038481
0.492034 0.165257 0.038481
0.509559 0.171078 0.038481
0.527819 0.171078 0.038481
0.548530 0.171814 0.034559
0.566054 0.175000 0.034559
0.583578 0.175000 0.034559
0.601103 0.175000 0.031373
0.618628 0.175736 0.030638
0.632966 0.178921 0.030638
0.650490 0.178921 0.027451
0.667279 0.178921 0.028003
0.681618 0.178921 0.026716
0.695221 0.178921 0.026716
0.714461 0.178921 0.023529
0.726348 0.178921 0.024325
0.740563 0.178921 0.022794
0.753554 0.182537 0.022794
0.773039 0.178921 0.019608
0.785723 0.178921 0.020650
0.798284 0.178921 0.018873
0.815013 0.175736 0.015686
0.827696 0.175736 0.015686
0.840380 0.175736 0.014951
0.852696 0.175736 0.011765
0.866299 0.175736 0.011765
0.882353 0.175000 0.014216
0.895036 0.171814 0.011030
0.907721 0.171814 0.007843
0.920711 0.171814 0.007843
0.933823 0.167892 0.007108
0.946507 0.167892 0.003922
0.962378 0.163971 0.003922
0.975123 0.163971 0.003922
0.984804 0.160049 0.003187
0.992157 0.160049 0.003187
0.992157 0.160049 0.003187
0.992157 0.160049 0.003187
0.992157 0.160049 0.003187
0.082537 0.149388 0.059008
0.086459 0.149388 0.059008
0.090380 0.149388 0.059008
0.090564 0.149388 0.059008
0.097979 0.149388 0.059008
0.102819 0.149388 0.059008
0.107659 0.150981 0.059008
0.112500 0.149571 0.059008
0.121262 0.153309 0.059008
0.130025 0.153309 0.059008
0.138787 0.153309 0.059008
0.147733 0.155576 0.059008
0.167156 0.157231 0.055086
0.180943 0.157231 0.055086
0.198468 0.158333 0.055086
0.215993 0.161152 0.055086
0.233517 0.161152 0.055086
0.251041 0.165012 0.055086
0.273162 0.165074 0.055086
0.290013 0.165074 0.055086
0.311458 0.168995 0.051164
0.340442 0.168995 0.051164
0.367341 0.172917 0.051164
0.398469 0.176839 0.051164
0.427145 0.177022 0.047243
0.450061 0.180760 0.047243
0.475613 0.184682 0.047243
0.496691 0.184682 0.047243
0.514400 0.184682 0.045037
0.531924 0.188603 0.043321
0.553186 0.188603 0.043321
0.570711 0.188603 0.042279
0.588236 0.188603 0.039400
0.605760 0.188603 0.039400
0.623284 0.192341 0.039400
0.637071 0.192341 0.039216
0.654412 0.192341 0.035478
0.671937 0.192341 0.035478
0.682169 0.192341 0.035294
