Color/Kodak/Kodak Portra 400 NC 1 - 65x.cube
TITLE "Kodak Portra 400 NC 1 -"
LUT_3D_SIZE 65
DOMAIN_MIN 0.000000 0.000000 0.000000
DOMAIN_MAX 1.000000 1.000000 1.000000
0.000000 0.000000 0.000000
0.000000 0.000000 0.000000
0.001838 0.000000 0.000000
0.001164 0.000000 0.000000
0.003922 0.000000 0.000000
0.007843 0.000000 0.000000
0.013358 0.003922 0.000000
0.018199 0.000000 0.000000
0.026961 0.003432 0.000000
0.039645 0.000000 0.000000
0.053676 0.003922 0.000000
0.067279 0.003922 0.000000
0.084804 0.007108 0.000000
0.102329 0.007843 0.000000
0.119853 0.011765 0.000000
0.139399 0.013787 0.000000
0.158823 0.015686 0.000000
0.180208 0.019547 0.000000
0.201716 0.023529 0.000000
0.224939 0.025306 0.000000
0.251225 0.027451 0.000000
0.273897 0.027451 0.000000
0.303799 0.027451 0.000000
0.330086 0.027451 0.000000
0.358824 0.023529 0.000000
0.386581 0.020159 0.000000
0.416789 0.019240 0.000000
0.443076 0.014399 0.000000
0.471079 0.009559 0.000000
0.495649 0.003922 0.000000
0.521937 0.000000 0.000000
0.547181 0.000000 0.000000
0.572549 0.000000 0.000000
0.596875 0.000000 0.000000
0.615441 0.000000 0.000000
0.636887 0.000000 0.000000
0.660049 0.000000 0.000000
0.683701 0.000000 0.000000
0.705147 0.000000 0.000000
0.722672 0.000000 0.000000
0.742647 0.000000 0.000000
0.757720 0.000000 0.000000
0.775245 0.000000 0.000000
0.784927 0.000000 0.000000
0.802451 0.000000 0.000000
0.816054 0.000000 0.000000
0.826593 0.000000 0.000000
0.843198 0.000061 0.000000
0.852941 0.005883 0.000000
0.866544 0.013664 0.000000
0.880147 0.025245 0.000000
0.890012 0.035110 0.000000
0.903432 0.044608 0.000000
0.917034 0.060478 0.000000
0.930637 0.069240 0.000000
0.940747 0.078002 0.000000
0.953431 0.086765 0.000000
0.963603 0.095527 0.000000
0.977206 0.106618 0.000000
0.986887 0.116299 0.000000
1.000000 0.125490 0.000000
1.000000 0.130576 0.000000
1.000000 0.143260 0.000000
1.000000 0.155025 0.000000
1.000000 0.168627 0.000000
0.000000 0.000000 0.000000
0.003003 0.003003 0.000000
0.000000 0.000000 0.000000
0.000000 0.000000 0.000000
0.006924 0.003003 0.000000
0.011765 0.003922 0.000000
0.013358 0.004596 0.000000
0.018199 0.002513 0.000000
0.024448 0.003922 0.000000
0.040074 0.004841 0.000000
0.057598 0.005270 0.000000
0.071201 0.007108 0.000000
0.088725 0.011765 0.000000
0.101593 0.011949 0.000000
0.120956 0.016789 0.000000
0.141299 0.020527 0.000000
0.161765 0.023468 0.000000
0.184130 0.028309 0.000000
0.203493 0.029228 0.000000
0.228860 0.032292 0.000000
0.253922 0.034988 0.000000
0.274816 0.036213 0.000000
0.308639 0.036826 0.000000
0.334007 0.036213 0.000000
0.364216 0.033762 0.000000
0.387501 0.032292 0.000000
0.416789 0.028370 0.000000
0.443995 0.024081 0.000000
0.473284 0.023529 0.000000
0.496569 0.016605 0.000000
0.525858 0.012562 0.000000
0.551103 0.004841 0.000000
0.574510 -0.000122 0.000000
0.597917 0.000000 0.000000
0.619240 0.000000 0.000000
0.637806 0.000000 0.000000
0.660049 0.000000 0.000000
0.680699 0.000000 0.000000
0.708701 0.000000 0.000000
0.725674 0.000000 0.000000
0.744669 0.000000 0.000000
0.757720 0.000000 0.000000
0.775245 0.000000 0.000000
0.788541 0.000000 0.000000
0.801226 -0.000306 0.000000
0.813909 0.003064 0.000000
0.829657 0.005760 0.000000
0.839339 0.013664 0.000000
0.852880 0.022488 0.000000
0.868566 0.031189 0.000000
0.875429 0.039951 0.000000
0.893750 0.048713 0.000000
0.902696 0.057292 0.000000
0.917034 0.069241 0.000000
0.928064 0.076348 0.000000
0.946814 0.090257 0.000000
0.953431 0.095527 0.000000
0.966605 0.104289 0.000000
0.974878 0.113052 0.000000
0.987561 0.121813 0.000000
1.000000 0.129657 0.000000
1.000000 0.138419 0.000000
1.000000 0.143014 0.000000
1.000000 0.156863 0.000000
1.000000 0.172549 0.000000
0.000000 0.001838 0.001838
0.000000 0.000000 0.000000
0.001838 0.001838 0.000000
0.001838 0.001838 0.000000
0.007598 0.003922 0.000000
0.011091 0.005086 0.000000
0.013358 0.003922 0.000000
0.020036 0.003922 0.000000
0.034314 0.007843 0.000000
0.043995 0.007843 0.000000
0.057598 0.009681 0.000000
0.073468 0.011948 0.000000
0.088725 0.014951 0.000000
0.106250 0.019608 0.000000
0.121691 0.021446 0.000000
0.141299 0.025367 0.000000
0.162745 0.029289 0.000000
0.184191 0.035233 0.000000
0.206495 0.033089 0.000000
0.230698 0.038909 0.000000
0.254290 0.043137 0.000000
0.281434 0.046753 0.000000
0.312868 0.044975 0.000000
0.337929 0.047365 0.000000
0.366054 0.044975 0.000000
0.395956 0.043137 0.000000
0.420711 0.037132 0.000000
0.448836 0.037684 0.000000
0.472917 0.028922 0.000000
0.499571 0.024081 0.000000
0.525858 0.021446 0.000000
0.552145 0.021201 0.000000
0.574510 0.013480 0.000000
0.596875 0.007598 0.000000
0.617279 0.001715 0.000000
0.642647 0.001838 0.000000
0.664093 0.000000 0.000000
0.687623 0.000000 0.000000
0.705147 0.000000 0.000000
0.726593 0.001838 0.000000
0.742279 0.000000 0.000000
0.761642 0.001838 0.000000
0.771936 0.003676 0.000000
0.784927 0.003983 0.000000
0.801226 0.011519 0.000000
0.813909 0.015441 0.000000
0.826593 0.019362 0.000000
0.839339 0.029105 0.000000
0.855883 0.038112 0.000000
0.868628 0.044792 0.000000
0.880147 0.054535 0.000000
0.890012 0.058578 0.000000
0.904535 0.071079 0.000000
0.917218 0.078003 0.000000
0.930637 0.089338 0.000000
0.944240 0.097610 0.000000
0.952083 0.104290 0.000000
0.963603 0.110539 0.000000
0.976716 0.121814 0.000000
0.985478 0.126655 0.000000
0.996323 0.135416 0.000000
1.000000 0.144179 0.000000
1.000000 0.153187 0.000000
1.000000 0.162868 0.000000
1.000000 0.176471 0.000000
0.000000 0.002758 0.000000
0.005760 0.003922 0.005760
-0.000919 0.003922 0.000000
0.002758 0.003922 0.000000
0.007598 0.007598 0.000000
0.008517 0.004596 0.000000
0.013358 0.003922 0.000000
0.022120 0.006434 0.000000
0.035478 0.011275 0.000000
0.046752 0.008272 0.000000
0.058762 0.011765 0.000000
0.072365 0.015686 0.000000
0.088296 0.018444 0.000000
0.109007 0.022549 0.000000
0.123775 0.024632 0.000000
0.143321 0.032230 0.000000
0.165686 0.034130 0.000000
0.188051 0.043076 0.000000
0.209253 0.042831 0.000000
0.235539 0.049816 0.000000
0.257843 0.052512 0.000000
0.288971 0.054596 0.000000
0.314399 0.056495 0.000000
0.340686 0.053738 0.000000
0.366667 0.053738 0.000000
0.397794 0.053738 0.000000
0.421079 0.049816 0.000000
0.450919 0.048652 0.000000
0.477206 0.041973 0.000000
0.502328 0.037684 0.000000
0.529657 0.036765 0.000000
0.552145 0.029044 0.000000
0.573713 0.023529 0.000000
0.599633 0.021078 0.000000
0.623161 0.021201 0.000000
0.640809 0.016483 0.000000
0.663971 0.013358 0.000000
0.687623 0.010723 0.000000
0.708701 0.012990 0.000000
0.726593 0.009988 0.000000
0.744117 0.012071 0.000000
0.759252 0.014522 0.000000
0.771936 0.017280 0.000000
0.791298 0.021507 0.000000
0.798529 0.025123 0.000000
0.816054 0.031188 0.000000
0.826593 0.035723 0.000000
0.843198 0.045895 0.000000
0.854902 0.052574 0.000000
0.866544 0.058394 0.000000
0.877328 0.064400 0.000000
0.894914 0.073162 0.000000
0.906617 0.081924 0.000000
0.918137 0.086765 0.000000
0.930637 0.095527 0.000000
0.941483 0.100797 0.000000
0.953431 0.110294 0.000000
0.964950 0.117892 0.000000
0.974449 0.123897 0.000000
0.987561 0.132169 0.000000
0.996323 0.140258 0.000000
1.000000 0.149019 0.000000
1.000000 0.157782 0.000000
1.000000 0.166544 0.000000
1.000000 0.179228 0.000000
0.000000 0.003922 0.000000
0.000000 0.003922 0.000000
0.000245 0.002084 0.000000
0.004841 0.007598 0.000000
0.003922 0.007598 0.000000
0.011520 0.007843 0.000000
0.013602 0.011765 0.000000
0.022120 0.011520 0.000000
0.034314 0.015441 0.000000
0.051165 0.015441 0.000000
0.061520 0.019363 0.000000
0.075122 0.021629 0.000000
0.096323 0.030883 0.000000
0.110172 0.031128 0.000000
0.127696 0.035049 0.000000
0.147242 0.040992 0.000000
0.170343 0.045834 0.000000
0.191728 0.050674 0.000000
0.217157 0.054657 0.000000
0.240380 0.056434 0.000000
0.262990 0.058824 0.000000
0.289338 0.058885 0.000000
0.315564 0.062500 0.000000
0.345527 0.062500 0.000000
0.371814 0.062500 0.000000
0.397794 0.062500 0.000000
0.431863 0.065809 0.000000
0.453554 0.060969 0.000000
0.478922 0.057843 0.000000
0.507169 0.054412 0.000000
0.525980 0.050490 0.000000
0.555024 0.046569 0.000000
0.576470 0.042647 0.000000
0.600797 0.039767 0.000000
0.619608 0.034926 0.000000
0.641606 0.030883 0.000000
0.667892 0.030883 0.000000
0.691299 0.031924 0.000000
0.709069 0.030883 0.000000
0.726593 0.027513 0.000000
0.744117 0.030883 0.000000
0.762929 0.039768 0.000000
0.771569 0.038113 0.000000
0.784927 0.039032 0.000000
0.804902 0.046569 0.000000
0.812377 0.048713 0.000000
0.830270 0.057231 0.000000
0.843198 0.062255 0.000000
0.852941 0.063481 0.000000
0.862868 0.068321 0.000000
0.876470 0.075980 0.000000
0.893750 0.085662 0.000000
0.903432 0.093628 0.000000
0.913357 0.095772 0.000000
0.926961 0.104289 0.000000
0.940747 0.109375 0.000000
0.953431 0.121079 0.000000
0.962193 0.125245 0.000000
0.974878 0.130147 0.000000
0.983211 0.136581 0.000000
0.996323 0.148775 0.000000
1.000000 0.153861 0.000000
1.000000 0.162623 0.000000
1.000000 0.170711 0.000000
1.000000 0.184069 0.000000
0.000000 0.008517 0.000000
0.000674 0.008517 0.000674
0.000000 0.008517 0.000000
0.003922 0.011274 0.002758
0.003922 0.008517 0.000000
0.008517 0.012439 0.000000
0.014032 0.013113 0.000000
0.022794 0.018872 0.000000
0.038236 0.020282 0.000000
0.048591 0.021385 0.000000
0.062868 0.026225 0.000000
0.083639 0.029473 0.000000
0.104351 0.039154 0.000000
0.116115 0.040748 0.000000
0.134069 0.045588 0.000000
0.154412 0.050306 0.000000
0.174878 0.055269 0.000000
0.200490 0.063359 0.000000
0.218750 0.063419 0.000000
0.241973 0.065870 0.000000
0.270282 0.070711 0.000000
0.293872 0.068321 0.000000
0.323407 0.075184 0.000000
0.348836 0.075184 0.000000
0.376654 0.073407 0.000000
0.402941 0.075184 0.000000
0.429902 0.071936 0.000000
0.460049 0.072549 0.000000
0.481802 0.071262 0.000000
0.508762 0.068015 0.000000
0.534926 0.067892 0.000000
0.557414 0.060846 0.000000
0.581066 0.060172 0.000000
0.605392 0.060172 0.000000
0.623958 0.056250 0.000000
0.646997 0.053125 0.000000
0.669240 0.054044 0.000000
0.692218 0.052328 0.000000
0.713297 0.052328 0.000000
0.727267 0.052328 0.000000
0.743995 0.053002 0.000000
0.759068 0.055392 0.000000
0.773284 0.056924 0.000000
0.786275 0.060846 0.000000
0.803125 0.065319 0.000000
0.811336 0.064767 0.000000
0.827267 0.071078 0.000000
0.840012 0.076532 0.000000
0.853615 0.080759 0.000000
0.867218 0.085601 0.000000
0.878003 0.090441 0.000000
0.890687 0.092218 0.000000
0.903370 0.100122 0.000000
0.917034 0.108210 0.000000
0.928737 0.116973 0.000000
0.940992 0.115747 0.000000
0.950858 0.127512 0.000000
0.959620 0.131434 0.000000
0.973958 0.139338 0.000000
0.981066 0.145771 0.000000
0.993076 0.151716 0.000000
1.000000 0.156127 0.000000
1.000000 0.168138 0.000000
1.000000 0.173652 0.000000
1.000000 0.179841 0.000000
0.000000 0.015686 0.002329
0.000000 0.013358 -0.000674
0.002084 0.015686 0.002084
0.003922 0.018444 0.002758
0.003922 0.015686 0.000000
0.012684 0.020527 0.000000
0.013358 0.021201 0.000000
0.022120 0.021201 0.000000
0.040564 0.030883 0.000000
0.056924 0.038480 0.000000
0.069363 0.040564 0.000000
0.086887 0.046997 0.000000
0.105147 0.050245 0.000000
0.125858 0.056495 0.000000
0.144975 0.059191 0.000000
0.162500 0.062010 0.000000
0.183946 0.065931 0.000000
0.207659 0.076041 0.000000
0.227696 0.074632 0.000000
0.252206 0.080024 0.000000
0.276348 0.082721 0.000000
0.302634 0.085232 0.000000
0.332230 0.088848 0.000000
0.357598 0.087868 0.000000
0.383823 0.087868 0.000000
0.410111 0.087868 0.000000
0.437990 0.089094 0.000000
0.464277 0.085539 0.000000
0.488971 0.083946 0.000000
0.518383 0.083946 0.000000
0.537623 0.081495 0.000000
0.564461 0.077696 0.000000
0.586275 0.076103 0.000000
0.610969 0.078983 0.000000
0.631005 0.073774 0.000000
0.653370 0.071446 0.000000
0.677329 0.073774 0.000000
0.698101 0.074816 0.000000
0.714583 0.067893 0.000000
0.735477 0.075368 0.000000
0.749510 0.075245 0.000000
0.764767 0.077696 0.000000
0.782476 0.081005 0.000000
0.791176 0.078003 0.000000
0.806373 0.082843 0.000000
0.819975 0.085539 0.000000
0.833578 0.087133 0.000000
0.847120 0.093444 0.000000
0.859804 0.097304 0.000000
0.870160 0.101225 0.000000
0.886398 0.107965 0.000000
0.893934 0.109068 0.000000
0.908210 0.112868 0.000000
0.919302 0.120894 0.000000
0.931985 0.127328 0.000000
0.946568 0.134498 0.000000
0.957353 0.139338 0.000000
0.965931 0.144179 0.000000
0.976471 0.150613 0.000000
0.990809 0.157781 0.000000
1.000000 0.162622 0.000000
1.000000 0.169791 0.000000
1.000000 0.177819 0.000000
1.000000 0.187990 0.000000
1.000000 0.199265 0.000000
0.000000 0.020710 0.002513
0.000000 0.022120 0.000919
0.001838 0.022120 0.001838
0.003922 0.021875 0.002513
0.007598 0.025797 0.003677
0.010356 0.026042 0.000000
0.015686 0.029964 0.000000
0.022120 0.032475 0.000000
0.033394 0.036397 0.000000
0.051838 0.046078 0.000000
0.066851 0.053493 0.000000
0.086887 0.058272 0.000000
0.104411 0.064523 0.000000
0.125858 0.065441 0.000000
0.147304 0.073101 0.000000
0.168750 0.077022 0.000000
0.185845 0.079963 0.000000
0.211581 0.084804 0.000000
0.232536 0.085723 0.000000
0.258824 0.090564 0.000000
0.282415 0.095220 0.000000
0.306373 0.095220 0.000000
0.335171 0.099142 0.000000
0.364951 0.099142 0.000000
0.387745 0.099142 0.000000
0.416544 0.102512 0.000000
0.446385 0.103063 0.000000
0.469117 0.101777 0.000000
0.497120 0.100858 0.000000
0.518566 0.096017 0.000000
0.541544 0.095220 0.000000
0.566422 0.096691 0.000000
0.590196 0.095220 0.000000
0.612561 0.094179 0.000000
0.637439 0.091422 0.000000
0.662929 0.091299 0.000000
0.680454 0.091299 0.000000
0.702022 0.091299 0.000000
0.719424 0.093811 0.000000
0.740319 0.095220 0.000000
0.751961 0.095220 0.000000
0.767095 0.095220 0.000000
0.783089 0.099939 0.000000
0.796384 0.099142 0.000000
0.806373 0.097856 0.000000
0.819240 0.103063 0.000000
0.833578 0.106127 0.000000
0.847120 0.113357 0.000000
0.859804 0.116360 0.000000
0.870466 0.114216 0.000000
0.881250 0.118750 0.000000
0.893934 0.122671 0.000000
0.909129 0.130514 0.000000
0.919302 0.133579 0.000000
0.930637 0.138419 0.000000
0.944669 0.143689 0.000000
0.954841 0.151532 0.000000
0.966115 0.157965 0.000000
0.977206 0.161887 0.000000
0.987561 0.165808 0.000000
1.000000 0.171385 0.000000
1.000000 0.181495 0.000000
1.000000 0.186826 0.000000
1.000000 0.193750 0.000000
1.000000 0.208946 0.000000
0.000000 0.030392 0.003432
0.000000 0.030883 0.006435
0.000000 0.030883 -0.001593
0.000000 0.030883 0.000000
0.003922 0.030883 0.000000
0.008517 0.038236 0.000000
0.019118 0.042157 0.000000
0.022120 0.041237 0.000000
0.030883 0.046569 0.000000
0.044485 0.047917 0.000000
0.068015 0.065687 0.000000
0.086397 0.069608 0.000000
0.104411 0.077451 0.000000
0.122610 0.081557 0.000000
0.144485 0.088725 0.000000
0.172182 0.094547 0.000000
0.193137 0.092647 0.000000
0.218934 0.097059 0.000000
0.244363 0.101471 0.000000
0.267586 0.106679 0.000000
0.293382 0.108824 0.000000
0.316544 0.112928 0.000000
0.339706 0.109926 0.000000
0.371201 0.118566 0.000000
0.395098 0.113235 0.000000
0.425306 0.116667 0.000000
0.451593 0.116667 0.000000
0.474448 0.113235 0.000000
0.501961 0.113235 0.000000
0.527329 0.116667 0.000000
0.552696 0.112745 0.000000
0.574141 0.112745 0.000000
0.588725 0.107353 0.000000
0.620465 0.113296 0.000000
0.642402 0.108946 0.000000
0.666973 0.111948 0.000000
0.683578 0.107108 0.000000
0.702022 0.112255 0.000000
0.724387 0.112867 0.000000
0.741238 0.112745 0.000000
0.755392 0.116176 0.000000
0.767095 0.114277 0.000000
0.783089 0.113235 0.000000
0.796201 0.116667 0.000000
0.806373 0.117893 0.000000
0.818688 0.118812 0.000000
0.833578 0.120588 0.000000
0.847182 0.124571 0.000000
0.859804 0.128432 0.000000
0.872488 0.132353 0.000000
0.884069 0.131740 0.000000
0.897671 0.140196 0.000000
0.903922 0.141422 0.000000
0.919302 0.146262 0.000000
0.931985 0.151103 0.000000
0.944730 0.156373 0.000000
0.950491 0.163726 0.000000
0.966115 0.168137 0.000000
0.978799 0.172059 0.000000
0.987561 0.175981 0.000000
0.996323 0.180148 0.000000
0.997242 0.182720 0.000000
1.000000 0.193749 0.000000
1.000000 0.202513 0.000000
1.000000 0.215196 0.000000
0.000000 0.043566 0.003922
0.000000 0.044485 0.003922
0.000000 0.043995 0.003922
0.000000 0.043566 0.003922
0.007598 0.043995 0.003922
0.008272 0.047917 0.003248
0.018443 0.053002 0.000000
0.025612 0.055331 0.000000
0.034804 0.055760 0.000000
0.047488 0.063603 0.000000
0.061520 0.068873 0.000000
0.082536 0.082966 0.000000
0.100919 0.090319 0.000000
0.122120 0.095160 0.000000
0.143811 0.100000 0.000000
0.170772 0.108333 0.000000
0.190625 0.107169 0.000000
0.219852 0.111091 0.000000
0.249633 0.115441 0.000000
0.276348 0.122427 0.000000
0.298713 0.124694 0.000000
0.325001 0.125919 0.000000
0.351287 0.126164 0.000000
0.377573 0.130270 0.000000
0.407353 0.130270 0.000000
0.430147 0.130270 0.000000
0.456005 0.133823 0.000000
0.478799 0.130270 0.000000
0.505086 0.132475 0.000000
0.534069 0.130270 0.000000
0.553309 0.130270 0.000000
0.575061 0.129228 0.000000
0.598468 0.129841 0.000000
0.624755 0.130270 0.000000
0.647119 0.130270 0.000000
0.669057 0.130270 0.000000
0.691422 0.130270 0.000000
0.705025 0.130270 0.000000
0.724755 0.130270 0.000000
0.738235 0.130270 0.000000
0.755882 0.131740 0.000000
0.769485 0.130270 0.000000
0.789889 0.137070 0.000000
0.796691 0.134191 0.000000
0.809069 0.134191 0.000000
0.818259 0.134191 0.000000
0.833578 0.140748 0.000000
0.847182 0.138174 0.000000
0.859804 0.142034 0.000000
0.868996 0.145956 0.000000
0.881679 0.149878 0.000000
0.901164 0.157107 0.000000
0.907353 0.158027 0.000000
0.920956 0.159375 0.000000
0.931985 0.165135 0.000000
0.941177 0.169485 0.000000
0.953860 0.173407 0.000000
0.967525 0.180821 0.000000
0.974878 0.181250 0.000000
0.987561 0.188664 0.000000
1.000000 0.192831 0.000000
1.000000 0.196936 0.000000
1.000000 0.208089 0.000000
1.000000 0.211274 0.000000
1.000000 0.223958 0.000000
0.000000 0.053676 0.003922
0.000000 0.057598 0.001348
0.000000 0.060172 0.003922
0.000000 0.057598 0.003922
0.003922 0.057598 0.003922
0.011765 0.064767 0.003248
0.017279 0.065441 0.002329
0.024632 0.070527 0.000000
0.034804 0.072794 0.000000
0.047917 0.076287 0.000000
0.061520 0.082475 0.000000
0.076470 0.087316 0.000000
0.102329 0.098652 0.000000
0.125858 0.112500 0.000000
0.144240 0.116176 0.000000
0.170772 0.124265 0.000000
0.194117 0.129779 0.000000
0.219485 0.134621 0.000000
0.250490 0.136029 0.000000
0.279841 0.139951 0.000000
0.307476 0.139951 0.000000
0.333763 0.139951 0.000000
0.360049 0.143137 0.000000
0.384804 0.143872 0.000000
0.412623 0.146446 0.000000
0.437562 0.149816 0.000000
0.463848 0.147794 0.000000
0.487561 0.147794 0.000000
0.509069 0.147794 0.000000
0.537990 0.147794 0.000000
0.558456 0.149020 0.000000
0.580944 0.143566 0.000000
0.607230 0.147794 0.000000
0.629596 0.147794 0.000000
0.652083 0.147794 0.000000
0.676655 0.149142 0.000000
0.691054 0.147794 0.000000
0.707292 0.146507 0.000000
0.728677 0.147794 0.000000
0.742279 0.146997 0.000000
0.758456 0.149265 0.000000
0.771017 0.151716 0.000000
0.783701 0.149142 0.000000
0.796384 0.152758 0.000000
0.808946 0.151716 0.000000
0.821752 0.151716 0.000000
0.834436 0.154289 0.000000
0.845833 0.154350 0.000000
0.859437 0.158211 0.000000
0.873039 0.164031 0.000000
0.883824 0.164950 0.000000
0.893934 0.166054 0.000000
0.909191 0.169975 0.000000
0.919302 0.175551 0.000000
0.930638 0.177819 0.000000
0.944240 0.182659 0.000000
0.952574 0.186152 0.000000
0.964767 0.187010 0.000000
0.977451 0.193505 0.000000
0.986214 0.194853 0.000000
0.998652 0.200245 0.000000
1.000000 0.205086 0.000000
1.000000 0.213113 0.000000
1.000000 0.218689 0.000000
1.000000 0.228677 0.000000
0.000000 0.080698 0.003922
0.000000 0.077696 0.003922
0.000000 0.083395 0.003922
0.000000 0.081802 0.003922
0.007598 0.082966 0.007843
0.011765 0.082966 0.003248
0.015012 0.086887 0.002329
0.024632 0.089400 0.000000
0.034804 0.091974 0.000000
0.050184 0.098652 0.000000
0.065441 0.099081 0.000000
0.080698 0.106495 0.000000
0.097304 0.110416 0.000000
0.129780 0.127941 0.000000
0.150062 0.136703 0.000000
0.174693 0.141912 0.000000
0.198039 0.145711 0.000000
0.228860 0.155148 0.000000
0.253554 0.155208 0.000000
0.284252 0.157475 0.000000
0.310049 0.157475 0.000000
0.345221 0.161397 0.000000
0.368811 0.161397 0.000000
0.395098 0.166053 0.000000
0.421385 0.163664 0.000000
0.446017 0.163664 0.000000
0.473591 0.165318 0.000000
0.496323 0.167586 0.000000
0.518627 0.165257 0.000000
0.544976 0.164460 0.000000
0.571139 0.169118 0.000000
0.593627 0.167586 0.000000
0.617647 0.166973 0.000000
0.639400 0.167586 0.000000
0.664645 0.169240 0.000000
0.682291 0.166115 0.000000
0.702022 0.169240 0.000000
0.716360 0.169240 0.000000
0.731311 0.167586 0.000000
0.748468 0.167586 0.000000
0.764522 0.169240 0.000000
0.777328 0.169240 0.000000
0.790932 0.169240 0.000000
0.800613 0.169240 0.000000
0.817953 0.171936 0.000000
0.829718 0.173162 0.000000
0.841421 0.173162 0.000000
0.857169 0.177083 0.000000
0.864706 0.177083 0.000000
0.874387 0.176716 0.000000
0.889093 0.183823 0.000000
0.897855 0.179535 0.000000
0.909007 0.186581 0.000000
0.923223 0.188236 0.000000
0.934253 0.192769 0.000000
0.944669 0.196691 0.000000
0.953921 0.200613 0.000000
0.970036 0.203676 0.000000
0.981128 0.210784 0.000000
0.992463 0.213357 0.000000
1.000000 0.216544 0.000000
1.000000 0.223039 0.000000
1.000000 0.227880 0.000000
1.000000 0.235723 0.000000
1.000000 0.245404 0.000000
0.000000 0.096568 0.004657
0.000000 0.097488 0.007108
0.000000 0.097304 0.002574
0.000000 0.097733 0.003922
0.000735 0.096568 0.003922
0.005330 0.097243 0.003922
0.011765 0.098898 0.000735
0.022120 0.104411 0.000000
0.035049 0.108579 0.000000
0.047917 0.112254 0.000000
0.064093 0.121936 0.000000
0.079044 0.119179 0.000000
0.096568 0.127941 0.000000
0.115012 0.129044 0.000000
0.145220 0.151470 0.000000
0.174693 0.159313 0.000000
0.198039 0.162990 0.000000
0.222671 0.170343 0.000000
0.255882 0.177328 0.000000
0.278432 0.178921 0.000000
0.312745 0.182108 0.000000
0.340257 0.182108 0.000000
0.374387 0.182843 0.000000
0.407046 0.182108 0.000000
0.431617 0.182843 0.000000
0.455699 0.182843 0.000000
0.478799 0.182843 0.000000
0.501899 0.185478 0.000000
0.529166 0.187745 0.000000
0.553738 0.185968 0.000000
0.576226 0.186153 0.000000
0.600245 0.186764 0.000000
0.625490 0.186764 0.000000
0.648162 0.190993 0.000000
0.669485 0.190564 0.000000
0.684743 0.187561 0.000000
0.706863 0.192157 0.000000
0.723468 0.189951 0.000000
0.736152 0.187132 0.000000
0.755944 0.189951 0.000000
0.766176 0.185049 0.000000
0.777328 0.186764 0.000000
0.790809 0.186642 0.000000
0.804535 0.190686 0.000000
0.812255 0.184803 0.000000
0.829596 0.191728 0.000000
0.841421 0.189828 0.000000
0.854963 0.194607 0.000000
0.863725 0.194607 0.000000
0.876409 0.196630 0.000000
0.891177 0.197426 0.000000
0.901593 0.198529 0.000000
0.911275 0.200000 0.000000
0.923223 0.204105 0.000000
0.935907 0.207108 0.000000
0.944363 0.210294 0.000000
0.960540 0.218137 0.000000
0.967525 0.216361 0.000000
0.981986 0.221201 0.000000
0.991483 0.225980 0.000000
1.000000 0.230638 0.000000
1.000000 0.234559 0.000000
1.000000 0.238481 0.000000
1.000000 0.245405 0.000000
1.000000 0.257353 0.000000
0.000000 0.114093 0.007659
0.000000 0.118015 0.006924
0.000000 0.114276 0.002268
0.000000 0.118015 0.007843
0.000000 0.114276 0.004106
0.000674 0.114767 0.007843
0.009252 0.119424 0.003922
0.018199 0.120710 0.003922
0.034131 0.129105 0.000000
0.047733 0.129780 0.000000
0.060172 0.133701 0.000000
0.081128 0.141974 0.000000
0.093383 0.141544 0.000000
0.114093 0.145649 0.000000
0.136642 0.159253 0.000000
0.156985 0.161152 0.000000
0.198836 0.185479 0.000000
0.223345 0.188541 0.000000
0.250674 0.192708 0.000000
0.283762 0.196629 0.000000
0.312745 0.203064 0.000000
0.340257 0.200551 0.000000
0.375000 0.204473 0.000000
0.404596 0.208211 0.000000
0.431066 0.204473 0.000000
0.468382 0.204473 0.000000
0.491483 0.204657 0.000000
0.515135 0.205576 0.000000
0.540318 0.204473 0.000000
0.563481 0.205269 0.000000
0.588970 0.208394 0.000000
0.614032 0.208394 0.000000
0.635478 0.208394 0.000000
0.659620 0.211091 0.000000
0.678063 0.212010 0.000000
0.691973 0.207598 0.000000
0.711520 0.208211 0.000000
0.726839 0.208211 0.000000
0.744179 0.208211 0.000000
