Color/Kodak/Kodak Portra 400 NC 1 - 65x.cube
TITLE "Kodak Portra 400 NC 1 -"
LUT_3D_SIZE 5
DOMAIN_MIN 0.000000 0.000000 0.000000
DOMAIN_MAX 1.000000 1.000000 1.000000
0.000000 0.000000 0.000000
0.158823 0.015686 0.000000
0.572549 0.000000 0.000000
0.852941 0.005883 0.000000
1.000000 0.168627 0.000000
0.000000 0.182353 0.010784
0.178431 0.224510 0.000000
0.657843 0.273530 0.000000
0.873529 0.263726 0.000000
1.000000 0.301960 0.000000
0.003921 0.543137 0.217647
0.249019 0.542157 0.220588
0.547059 0.586275 0.000000
0.861765 0.583333 0.000000
1.000000 0.535294 0.000000
0.408824 0.755882 0.448039
0.450981 0.749020 0.448040
0.552941 0.760784 0.421569
0.744117 0.786275 0.306863
1.000000 0.799019 0.205882
0.717647 0.937255 0.737255
0.733333 0.934313 0.741176
0.772549 0.937255 0.749020
0.831373 0.959804 0.724510
0.949020 0.988235 0.678431
0.000000 0.000000 0.200981
0.200981 0.000000 0.208824
0.607843 0.000000 0.197059
0.831373 0.000000 0.204902
1.000000 0.174510 0.200981
0.000000 0.238235 0.250000
0.247058 0.259804 0.274509
0.641177 0.259804 0.253922
0.852941 0.260784 0.219607
1.000000 0.315686 0.212745
0.266667 0.580392 0.392157
0.366666 0.570588 0.394117
0.573530 0.594118 0.323529
0.860785 0.575490 0.248039
1.000000 0.545098 0.240196
0.466667 0.763725 0.524510
0.502941 0.762745 0.525490
0.585294 0.761764 0.509804
0.754902 0.787255 0.429412
1.000000 0.798039 0.366667
0.725490 0.937255 0.756863
0.741176 0.937255 0.756863
0.780392 0.938235 0.764706
0.836274 0.956863 0.745098
0.952941 0.988235 0.704902
0.000000 0.001961 0.572549
0.264706 0.000000 0.578431
0.654902 0.000000 0.592156
0.869608 0.205883 0.528431
1.000000 0.266667 0.490197
0.000000 0.304902 0.590196
0.297059 0.305883 0.602941
0.657843 0.349020 0.606863
0.855883 0.395098 0.555882
1.000000 0.369608 0.501961
0.300000 0.611765 0.605882
0.442157 0.619607 0.614706
0.635294 0.623530 0.623530
0.820588 0.595098 0.576470
0.998039 0.580392 0.537255
0.576470 0.793137 0.677451
0.612745 0.792157 0.683333
0.662745 0.780392 0.666667
0.779412 0.794118 0.623530
1.000000 0.794118 0.588235
0.745098 0.945098 0.803922
0.756863 0.945098 0.803922
0.792157 0.945098 0.807843
0.850000 0.957843 0.801961
0.958824 0.988235 0.766666
0.034314 0.174510 0.804902
0.343137 0.193137 0.803922
0.642157 0.264706 0.800981
0.867647 0.370588 0.800981
1.000000 0.490196 0.758824
0.208823 0.360784 0.802941
0.390196 0.374510 0.800981
0.651961 0.426471 0.805883
0.858824 0.492157 0.803922
0.997059 0.567647 0.770588
0.266667 0.603921 0.777451
0.413725 0.611765 0.786275
0.631373 0.624510 0.797058
0.833334 0.667647 0.803922
0.981373 0.699020 0.788235
0.546078 0.805883 0.802941
0.593137 0.809804 0.805883
0.694118 0.809804 0.809804
0.828432 0.816667 0.820588
0.980392 0.790196 0.782353
0.780392 0.960784 0.886275
0.793137 0.962745 0.887255
0.825490 0.961764 0.888236
0.875490 0.964706 0.883333
0.976471 0.992157 0.862745
0.513726 0.494118 0.976471
0.572549 0.502941 0.973530
0.709804 0.545098 0.970588
0.868628 0.612745 0.964706
1.000000 0.666667 0.964706
0.531372 0.565686 0.972549
0.586274 0.575490 0.972549
0.711765 0.605882 0.968627
0.870589 0.657843 0.961764
1.000000 0.699020 0.964706
0.549019 0.701960 0.968627
0.580392 0.694117 0.968627
0.703921 0.707843 0.968627
0.863725 0.736274 0.964706
1.000000 0.766666 0.970588
0.560785 0.836274 0.968627
0.589216 0.836274 0.968627
0.660784 0.828431 0.972549
0.837255 0.829412 0.976471
1.000000 0.860785 0.980392
0.752941 0.984314 0.984314
0.768627 0.988235 0.984314
0.811765 0.988235 0.986274
0.887255 0.989216 0.989216
1.000000 1.000000 1.000000
