Color/Kodak/Kodak Portra 160 NC 1 - 65x.cube
TITLE "Kodak Portra 160 NC 1 -"
LUT_3D_SIZE 65
DOMAIN_MIN 0.000000 0.000000 0.000000
DOMAIN_MAX 1.000000 1.000000 1.000000
0.000000 0.000000 0.000000
0.003003 0.000000 0.000000
0.005760 0.001838 0.000000
0.005086 0.000000 0.000000
0.007843 0.000000 0.000000
0.015686 0.000000 0.000000
0.025122 0.003922 0.000000
0.033885 0.003922 0.000000
0.049509 0.007353 0.000000
0.059253 0.004351 0.000000
0.073284 0.009191 0.000000
0.086887 0.011765 0.000000
0.101226 0.015686 0.000000
0.118015 0.019792 0.000000
0.134436 0.023529 0.000000
0.151164 0.029473 0.000000
0.170588 0.031373 0.000000
0.188112 0.031373 0.000000
0.212623 0.035294 0.000000
0.232782 0.037071 0.000000
0.255147 0.039216 0.000000
0.273897 0.039216 0.000000
0.299877 0.039216 0.000000
0.322243 0.039216 0.000000
0.344608 0.039216 0.000000
0.366973 0.035294 0.000000
0.392892 0.038848 0.000000
0.414338 0.034007 0.000000
0.433579 0.033088 0.000000
0.456434 0.031373 0.000000
0.474755 0.027451 0.000000
0.496201 0.027451 0.000000
0.513726 0.027451 0.000000
0.535172 0.027451 0.000000
0.548897 0.023652 0.000000
0.566299 0.023529 0.000000
0.587745 0.027451 0.000000
0.605270 0.027451 0.000000
0.626716 0.031373 0.000000
0.644240 0.031924 0.000000
0.664216 0.039216 0.000000
0.679289 0.041605 0.000000
0.697426 0.047059 0.000000
0.714339 0.051286 0.000000
0.731863 0.060049 0.000000
0.745466 0.067034 0.000000
0.762990 0.073652 0.000000
0.780453 0.082353 0.000000
0.791176 0.088236 0.000000
0.807721 0.096017 0.000000
0.824142 0.104779 0.000000
0.835110 0.109804 0.000000
0.852451 0.122304 0.000000
0.869976 0.131066 0.000000
0.883579 0.139828 0.000000
0.897181 0.148591 0.000000
0.910294 0.157353 0.000000
0.922978 0.170036 0.000000
0.937990 0.178799 0.000000
0.951593 0.190809 0.000000
0.964951 0.200245 0.000000
0.973713 0.209007 0.000000
0.988481 0.221691 0.000000
0.999081 0.233456 0.006005
1.000000 0.250980 0.027451
0.000000 0.000000 0.000000
0.003003 0.003922 0.003003
0.003922 0.003922 0.000000
0.007843 0.003922 0.000000
0.014523 0.003922 0.000000
0.020282 0.007843 0.003003
0.026716 0.008517 0.000000
0.036397 0.004841 0.000000
0.047487 0.005330 0.000000
0.064093 0.012684 0.000000
0.076287 0.014032 0.000000
0.087806 0.018872 0.000000
0.104411 0.026716 0.000000
0.118015 0.024632 0.000000
0.132537 0.029473 0.000000
0.153983 0.034314 0.000000
0.173530 0.036213 0.000000
0.192034 0.040135 0.000000
0.210417 0.040993 0.000000
0.235785 0.044056 0.000000
0.257843 0.046752 0.000000
0.274816 0.044363 0.000000
0.303799 0.047978 0.000000
0.324633 0.047978 0.000000
0.348529 0.045527 0.000000
0.367524 0.044608 0.000000
0.392892 0.044056 0.000000
0.411336 0.044056 0.000000
0.435785 0.041850 0.000000
0.454229 0.037929 0.000000
0.478676 0.040135 0.000000
0.496201 0.040135 0.000000
0.514645 0.037132 0.000000
0.532291 0.034253 0.000000
0.549693 0.033211 0.000000
0.566299 0.036213 0.000000
0.587745 0.037929 0.000000
0.603554 0.037132 0.000000
0.626716 0.043689 0.000000
0.647610 0.043689 0.000000
0.666238 0.049449 0.000000
0.682291 0.051899 0.000000
0.697733 0.059130 0.000000
0.714339 0.063664 0.000000
0.730637 0.068812 0.000000
0.748468 0.076654 0.000000
0.762990 0.082414 0.000000
0.776594 0.087255 0.000000
0.794118 0.095037 0.000000
0.809743 0.103860 0.000000
0.822426 0.109619 0.000000
0.838848 0.118382 0.000000
0.852451 0.126225 0.000000
0.869057 0.136642 0.000000
0.881005 0.142095 0.000000
0.897181 0.156005 0.000000
0.910294 0.165625 0.000000
0.922978 0.173958 0.000000
0.937990 0.182721 0.000000
0.948346 0.194730 0.000000
0.961274 0.200490 0.000000
0.977880 0.212929 0.000000
0.987317 0.222611 0.000000
1.002084 0.234375 0.006006
1.000000 0.251899 0.027451
0.000000 0.005760 0.001838
0.000000 0.003922 0.000000
0.003922 0.005760 0.001838
0.006679 0.005760 0.000000
0.011520 0.011520 0.000000
0.019608 0.007843 0.000000
0.026961 0.009681 0.000000
0.037807 0.009681 0.000000
0.053922 0.013603 0.000000
0.063603 0.016115 0.000000
0.077696 0.021446 0.000000
0.090809 0.025796 0.000000
0.104411 0.027451 0.000000
0.121753 0.031557 0.000000
0.135539 0.034314 0.000000
0.152880 0.039216 0.000000
0.174510 0.042034 0.000000
0.195894 0.044975 0.000000
0.214338 0.047917 0.000000
0.236765 0.050735 0.000000
0.258211 0.052818 0.000000
0.281434 0.052818 0.000000
0.305025 0.057966 0.000000
0.328554 0.057047 0.000000
0.347916 0.054289 0.000000
0.372978 0.054902 0.000000
0.393260 0.052818 0.000000
0.416176 0.052818 0.000000
0.435417 0.048529 0.000000
0.457231 0.048897 0.000000
0.474878 0.048897 0.000000
0.500919 0.048897 0.000000
0.513603 0.046813 0.000000
0.533088 0.046813 0.000000
0.550612 0.043015 0.000000
0.571262 0.049939 0.000000
0.587745 0.048897 0.000000
0.609192 0.048100 0.000000
0.626716 0.050735 0.000000
0.646078 0.053370 0.000000
0.661398 0.056373 0.000000
0.683211 0.062500 0.000000
0.697426 0.066421 0.000000
0.714339 0.068812 0.000000
0.730024 0.075735 0.000000
0.745466 0.082414 0.000000
0.759926 0.087255 0.000000
0.778432 0.097794 0.000000
0.794118 0.102941 0.000000
0.809804 0.109681 0.000000
0.821323 0.114461 0.000000
0.835110 0.123223 0.000000
0.852451 0.131986 0.000000
0.866054 0.140748 0.000000
0.883579 0.149510 0.000000
0.899265 0.160355 0.000000
0.908946 0.165686 0.000000
0.924817 0.175796 0.000000
0.937990 0.188481 0.000000
0.951593 0.198652 0.000000
0.961274 0.204412 0.000000
0.974877 0.214093 0.000000
0.988481 0.225613 0.000000
0.999081 0.240380 0.006005
1.000000 0.254902 0.025613
0.000000 0.006679 0.002758
0.005760 0.010601 0.003922
0.001838 0.010601 0.000000
0.006679 0.010601 0.002758
0.011520 0.014277 0.000000
0.017034 0.012439 0.000000
0.026716 0.014522 0.000000
0.040318 0.014277 0.000000
0.055086 0.018444 0.000000
0.066360 0.022795 0.000000
0.077206 0.024877 0.000000
0.090809 0.029718 0.000000
0.103982 0.034130 0.000000
0.124510 0.040809 0.000000
0.138297 0.041973 0.000000
0.155086 0.047916 0.000000
0.174510 0.049816 0.000000
0.197058 0.054841 0.000000
0.214338 0.056495 0.000000
0.241606 0.057660 0.000000
0.261765 0.060355 0.000000
0.285356 0.061581 0.000000
0.306556 0.061581 0.000000
0.328554 0.061581 0.000000
0.352451 0.061581 0.000000
0.374817 0.061581 0.000000
0.399570 0.061581 0.000000
0.415625 0.061581 0.000000
0.437990 0.057108 0.000000
0.457231 0.057660 0.000000
0.478676 0.057660 0.000000
0.498958 0.057660 0.000000
0.517648 0.054902 0.000000
0.535172 0.056495 0.000000
0.552696 0.057660 0.000000
0.570220 0.057660 0.000000
0.590502 0.057660 0.000000
0.609192 0.057660 0.000000
0.630270 0.061581 0.000000
0.646998 0.062133 0.000000
0.665686 0.066973 0.000000
0.680453 0.069056 0.000000
0.696814 0.073346 0.000000
0.714339 0.080332 0.000000
0.727941 0.082414 0.000000
0.745466 0.091177 0.000000
0.762990 0.092954 0.000000
0.780453 0.104718 0.000000
0.793137 0.108640 0.000000
0.807721 0.114461 0.000000
0.821323 0.120466 0.000000
0.840012 0.131985 0.000000
0.852451 0.137990 0.000000
0.868321 0.145588 0.000000
0.883579 0.154167 0.000000
0.893689 0.160355 0.000000
0.908027 0.175307 0.000000
0.925736 0.180638 0.000000
0.935233 0.187806 0.000000
0.948346 0.199326 0.000000
0.961274 0.210845 0.000000
0.974877 0.218014 0.000000
0.989155 0.228370 0.000000
1.000245 0.241054 0.003003
1.000000 0.257660 0.023529
0.000000 0.011520 0.003677
0.000000 0.014523 0.006680
0.000245 0.011765 0.000245
0.003922 0.015441 0.000000
0.007843 0.015441 0.000000
0.020036 0.023039 0.000000
0.029044 0.021201 0.000000
0.040318 0.023284 0.000000
0.053922 0.030883 0.000000
0.067096 0.031128 0.000000
0.083456 0.035049 0.000000
0.092463 0.037317 0.000000
0.112009 0.046569 0.000000
0.129350 0.046814 0.000000
0.142279 0.050735 0.000000
0.159007 0.053002 0.000000
0.178431 0.058579 0.000000
0.199816 0.058579 0.000000
0.221324 0.065563 0.000000
0.240625 0.064278 0.000000
0.264216 0.066667 0.000000
0.285356 0.066728 0.000000
0.307720 0.066667 0.000000
0.330086 0.070343 0.000000
0.352451 0.070343 0.000000
0.374817 0.070343 0.000000
0.397181 0.070343 0.000000
0.418259 0.069057 0.000000
0.439706 0.068138 0.000000
0.460355 0.069546 0.000000
0.482352 0.070098 0.000000
0.502757 0.066422 0.000000
0.517648 0.066422 0.000000
0.535172 0.066422 0.000000
0.552696 0.066422 0.000000
0.570220 0.066422 0.000000
0.591666 0.070343 0.000000
0.614154 0.070343 0.000000
0.630638 0.073897 0.000000
0.644240 0.074265 0.000000
0.662010 0.078186 0.000000
0.684498 0.081863 0.000000
0.697426 0.086030 0.000000
0.714339 0.086335 0.000000
0.731863 0.097549 0.000000
0.745466 0.096262 0.000000
0.762990 0.104779 0.000000
0.780453 0.109559 0.000000
0.791176 0.111765 0.000000
0.807721 0.121324 0.000000
0.820465 0.128064 0.000000
0.838848 0.136826 0.000000
0.852451 0.145588 0.000000
0.866299 0.150674 0.000000
0.879902 0.158088 0.000000
0.893505 0.167953 0.000000
0.913971 0.176715 0.000000
0.922978 0.185477 0.000000
0.937990 0.192892 0.000000
0.947243 0.202574 0.000000
0.964705 0.215441 0.000000
0.973713 0.223284 0.000000
0.986397 0.233210 0.000000
0.999081 0.244302 0.002329
1.000000 0.262500 0.027451
0.000000 0.017034 0.003922
0.000000 0.020037 0.003677
0.000000 0.020282 0.003922
0.002758 0.023714 0.003922
0.007598 0.027880 0.000674
0.016360 0.028799 0.000000
0.026716 0.030392 0.000000
0.040993 0.039155 0.000000
0.057844 0.040564 0.000000
0.068199 0.045159 0.000000
0.081801 0.045833 0.000000
0.099326 0.048407 0.000000
0.119363 0.054841 0.000000
0.127206 0.056250 0.000000
0.144730 0.060601 0.000000
0.165502 0.062071 0.000000
0.185969 0.067035 0.000000
0.207659 0.074449 0.000000
0.222856 0.071262 0.000000
0.244118 0.076961 0.000000
0.267586 0.077880 0.000000
0.293199 0.079105 0.000000
0.311642 0.079105 0.000000
0.333150 0.079105 0.000000
0.358517 0.077328 0.000000
0.376041 0.079105 0.000000
0.397855 0.079105 0.000000
0.423468 0.079105 0.000000
0.440380 0.079105 0.000000
0.461826 0.082230 0.000000
0.483272 0.079105 0.000000
0.500796 0.080147 0.000000
0.518321 0.079105 0.000000
0.533640 0.079105 0.000000
0.553370 0.079105 0.000000
0.571691 0.076655 0.000000
0.594056 0.080821 0.000000
0.611152 0.083027 0.000000
0.634191 0.086580 0.000000
0.645588 0.083578 0.000000
0.663113 0.087623 0.000000
0.680637 0.091544 0.000000
0.698101 0.092157 0.000000
0.715380 0.099387 0.000000
0.732537 0.103861 0.000000
0.746139 0.108700 0.000000
0.760601 0.113542 0.000000
0.777267 0.118995 0.000000
0.793811 0.122917 0.000000
0.808395 0.131986 0.000000
0.825245 0.136825 0.000000
0.835785 0.138603 0.000000
0.852389 0.150429 0.000000
0.866728 0.156924 0.000000
0.881679 0.167954 0.000000
0.891115 0.176286 0.000000
0.907536 0.182230 0.000000
0.920404 0.186336 0.000000
0.934743 0.198162 0.000000
0.945771 0.204596 0.000000
0.959130 0.214032 0.000000
0.971139 0.222120 0.000000
0.983824 0.234804 0.000000
0.993505 0.246569 0.003676
1.000000 0.254350 0.008640
0.000000 0.029044 0.006250
0.000000 0.029044 0.003248
0.000000 0.031128 0.003677
0.000000 0.035724 0.003922
0.006006 0.038971 0.003922
0.015686 0.040809 0.003248
0.022794 0.042402 0.000000
0.036397 0.047242 0.000000
0.062010 0.058334 0.000000
0.072610 0.063175 0.000000
0.084804 0.061765 0.000000
0.102573 0.064338 0.000000
0.120098 0.068260 0.000000
0.137623 0.068260 0.000000
0.152819 0.073774 0.000000
0.170343 0.073774 0.000000
0.188848 0.077696 0.000000
0.211642 0.083885 0.000000
0.230760 0.080882 0.000000
0.252206 0.083763 0.000000
0.272426 0.085539 0.000000
0.297120 0.091483 0.000000
0.320466 0.092770 0.000000
0.340319 0.090257 0.000000
0.361765 0.089338 0.000000
0.383211 0.088419 0.000000
0.406250 0.093015 0.000000
0.427696 0.092096 0.000000
0.445833 0.089461 0.000000
0.468198 0.089461 0.000000
0.486520 0.087868 0.000000
0.504044 0.089461 0.000000
0.521568 0.089461 0.000000
0.544302 0.091789 0.000000
0.560416 0.091789 0.000000
0.578064 0.088665 0.000000
0.597304 0.093505 0.000000
0.617035 0.094424 0.000000
0.634559 0.093382 0.000000
0.653676 0.097856 0.000000
0.669486 0.101103 0.000000
0.686336 0.102757 0.000000
0.704657 0.108456 0.000000
0.716973 0.106495 0.000000
0.735784 0.114216 0.000000
0.751716 0.119240 0.000000
0.766911 0.123897 0.000000
0.780515 0.132598 0.000000
0.798652 0.136519 0.000000
0.811336 0.140748 0.000000
0.829167 0.150735 0.000000
0.839032 0.150613 0.000000
0.857230 0.159192 0.000000
0.868321 0.166299 0.000000
0.882598 0.174142 0.000000
0.903003 0.183885 0.000000
0.914215 0.190318 0.000000
0.926899 0.197487 0.000000
0.934926 0.205515 0.000000
0.951593 0.218260 0.000000
0.964951 0.225367 0.000000
0.977635 0.232537 0.000000
0.987990 0.242892 0.000000
0.999081 0.254657 0.009008
1.000000 0.272181 0.029044
0.000000 0.040318 0.006434
0.000000 0.044240 0.004841
0.000000 0.043566 0.005760
0.000000 0.044240 0.007843
0.003677 0.049325 0.007598
0.011765 0.052083 0.005760
0.021201 0.056005 0.002329
0.033885 0.056005 0.000000
0.051409 0.063848 0.000000
0.071446 0.075612 0.000000
0.086459 0.077022 0.000000
0.102573 0.079289 0.000000
0.120098 0.084130 0.000000
0.137623 0.083456 0.000000
0.160478 0.086275 0.000000
0.176593 0.086887 0.000000
0.192708 0.087377 0.000000
0.215502 0.092648 0.000000
0.233946 0.091054 0.000000
0.256311 0.096630 0.000000
0.278493 0.096630 0.000000
0.299939 0.099142 0.000000
0.322794 0.100552 0.000000
0.342831 0.100552 0.000000
0.364216 0.100552 0.000000
0.389093 0.103921 0.000000
0.411091 0.106618 0.000000
0.427389 0.103063 0.000000
0.450061 0.104779 0.000000
0.467586 0.099939 0.000000
0.486520 0.100552 0.000000
0.506557 0.103063 0.000000
0.525490 0.102512 0.000000
0.543015 0.103063 0.000000
0.563051 0.104473 0.000000
0.581985 0.106985 0.000000
0.599510 0.106985 0.000000
0.621078 0.108395 0.000000
0.637071 0.109497 0.000000
0.656005 0.112316 0.000000
0.668567 0.111274 0.000000
0.688664 0.116238 0.000000
0.706066 0.120160 0.000000
0.724388 0.124081 0.000000
0.735784 0.125307 0.000000
0.750797 0.127635 0.000000
0.766911 0.134988 0.000000
0.784375 0.142279 0.000000
0.797059 0.146201 0.000000
0.811642 0.149510 0.000000
0.824939 0.154044 0.000000
0.842769 0.159375 0.000000
0.858149 0.169730 0.000000
0.867463 0.174204 0.000000
0.883579 0.181557 0.000000
0.897610 0.190319 0.000000
0.914215 0.196568 0.000000
0.924388 0.203921 0.000000
0.937990 0.212684 0.000000
0.950858 0.221446 0.000000
0.964951 0.230208 0.000000
0.974877 0.238970 0.000000
0.990319 0.249142 0.000000
0.999081 0.259497 0.006005
1.000000 0.277022 0.029964
0.000000 0.053922 0.007843
0.000000 0.054412 0.007843
0.000000 0.054412 0.007843
0.000000 0.054412 0.007353
0.000000 0.057843 0.003922
0.005085 0.065687 0.003922
0.017279 0.069608 0.005760
0.026532 0.068688 0.000000
0.042647 0.074020 0.000000
0.057169 0.075368 0.000000
0.085049 0.093138 0.000000
0.102573 0.095404 0.000000
0.124264 0.101226 0.000000
0.137806 0.100981 0.000000
0.158579 0.100981 0.000000
0.180025 0.106311 0.000000
0.198039 0.100490 0.000000
0.218995 0.105330 0.000000
0.240932 0.105392 0.000000
0.263664 0.107169 0.000000
0.286765 0.111519 0.000000
0.304779 0.112745 0.000000
0.323407 0.109926 0.000000
0.351593 0.113235 0.000000
0.368137 0.113235 0.000000
0.391054 0.117218 0.000000
0.415931 0.117157 0.000000
0.431311 0.114522 0.000000
0.451471 0.114950 0.000000
0.472917 0.117463 0.000000
0.493873 0.116667 0.000000
0.507966 0.116667 0.000000
0.525490 0.116667 0.000000
0.546446 0.116667 0.000000
0.564093 0.117157 0.000000
0.588542 0.117157 0.000000
0.601225 0.120588 0.000000
0.619669 0.120588 0.000000
0.642034 0.124632 0.000000
0.656005 0.125000 0.000000
0.673529 0.126471 0.000000
0.688664 0.128922 0.000000
0.705269 0.132843 0.000000
0.721691 0.136275 0.000000
0.735784 0.140196 0.000000
0.753309 0.142831 0.000000
0.766911 0.148040 0.000000
0.780576 0.148590 0.000000
0.800490 0.153432 0.000000
0.813664 0.160294 0.000000
0.824632 0.162500 0.000000
0.842463 0.171569 0.000000
0.856373 0.176715 0.000000
0.872243 0.182047 0.000000
0.884069 0.189461 0.000000
0.897610 0.199081 0.000000
0.910784 0.203921 0.000000
0.926899 0.215196 0.000000
0.939583 0.221446 0.000000
0.948346 0.226961 0.000000
0.961274 0.235050 0.000000
0.974877 0.241544 0.000000
0.988481 0.256495 0.000000
0.999081 0.264829 0.006005
1.000000 0.281863 0.027451
0.000000 0.067525 0.008272
0.000000 0.071017 0.012255
0.000000 0.067954 0.008272
0.000000 0.071017 0.005514
0.000000 0.071446 0.008272
0.003493 0.075368 0.007169
0.009007 0.080453 0.009007
0.017769 0.085294 0.001409
0.033886 0.086704 -0.003003
0.054902 0.094547 0.000000
0.074203 0.099816 0.000000
0.102329 0.113909 0.000000
0.120526 0.115012 0.000000
0.141544 0.118505 0.000000
0.160172 0.118505 0.000000
0.182537 0.122427 0.000000
0.198469 0.118934 0.000000
0.220343 0.115503 0.000000
0.245711 0.118505 0.000000
0.270221 0.122427 0.000000
0.290441 0.122427 0.000000
0.312807 0.125919 0.000000
0.331066 0.126348 0.000000
0.352513 0.126348 0.000000
0.377451 0.132292 0.000000
0.391912 0.126348 0.000000
0.416421 0.129841 0.000000
0.434375 0.126348 0.000000
0.457598 0.132047 0.000000
0.476838 0.132966 0.000000
0.494363 0.129841 0.000000
0.511887 0.129841 0.000000
0.529411 0.129841 0.000000
0.550858 0.133762 0.000000
0.568811 0.130270 0.000000
0.586336 0.133762 0.000000
0.607353 0.134191 0.000000
0.624878 0.137684 0.000000
0.638910 0.134191 0.000000
0.656005 0.138235 0.000000
0.678493 0.143076 0.000000
0.691054 0.142034 0.000000
0.708579 0.148835 0.000000
0.722182 0.149878 0.000000
0.739277 0.150674 0.000000
0.753309 0.149878 0.000000
0.766911 0.157292 0.000000
0.780576 0.161274 0.000000
0.797487 0.165564 0.000000
0.813542 0.170956 0.000000
0.829167 0.173407 0.000000
0.846262 0.187867 0.000000
0.856373 0.188970 0.000000
0.871630 0.194240 0.000000
0.884927 0.200429 0.000000
0.901103 0.204780 0.000000
0.910723 0.212623 0.000000
0.926899 0.221446 0.000000
0.935662 0.224387 0.000000
0.951593 0.238542 0.000000
0.961274 0.243198 0.000000
0.974142 0.252573 0.000000
0.991973 0.262991 0.000000
0.999081 0.270099 0.006005
1.000000 0.286275 0.027451
0.000000 0.081127 0.009191
0.000000 0.082046 0.009191
0.000000 0.085049 0.013603
0.000000 0.082292 0.011765
0.000000 0.087377 0.011765
0.000000 0.088971 0.011091
0.002574 0.092892 0.007843
0.011520 0.097978 0.003922
0.021692 0.100735 0.001348
0.041728 0.104167 0.000000
0.065441 0.112500 0.000000
0.087806 0.118688 0.000000
0.116666 0.130024 0.000000
0.142892 0.141115 0.000000
0.160172 0.137132 0.000000
0.186458 0.141299 0.000000
0.205882 0.142524 0.000000
0.227328 0.137438 0.000000
0.249633 0.141299 0.000000
0.274142 0.139951 0.000000
0.295711 0.139951 0.000000
0.314460 0.138603 0.000000
0.339829 0.142524 0.000000
0.357353 0.139951 0.000000
0.378799 0.142524 0.000000
0.398897 0.142524 0.000000
0.421691 0.143872 0.000000
0.439154 0.142524 0.000000
0.458456 0.143872 0.000000
0.479963 0.145650 0.000000
0.495711 0.143872 0.000000
0.512929 0.142524 0.000000
0.535294 0.143872 0.000000
0.552206 0.143872 0.000000
0.569853 0.143996 0.000000
0.594302 0.147794 0.000000
0.606986 0.147794 0.000000
0.626226 0.146507 0.000000
0.642402 0.150368 0.000000
0.659927 0.150920 0.000000
0.677451 0.155760 0.000000
0.692586 0.158211 0.000000
0.708579 0.159559 0.000000
0.722182 0.163174 0.000000
0.739706 0.166054 0.000000
0.753309 0.165625 0.000000
0.769485 0.167402 0.000000
0.783088 0.172610 0.000000
0.799632 0.177451 0.000000
0.814216 0.183639 0.000000
0.827818 0.188481 0.000000
0.839032 0.189583 0.000000
0.855025 0.196813 0.000000
0.869976 0.203002 0.000000
0.886152 0.210417 0.000000
0.897610 0.216606 0.000000
0.910784 0.221446 0.000000
0.922978 0.228799 0.000000
0.938236 0.237623 0.000000
0.948346 0.240564 0.000000
0.959926 0.249877 0.000000
0.972365 0.256066 0.000000
0.985049 0.266667 0.000000
0.999387 0.276165 0.000000
1.000000 0.290074 0.020711
0.000000 0.104228 0.015686
0.000000 0.103492 0.010417
0.000000 0.106495 0.016115
0.000000 0.106985 0.014032
0.000000 0.106495 0.015686
0.000000 0.104902 0.011765
0.000000 0.112745 0.012439
0.000000 0.116851 0.007843
0.010171 0.119424 0.003922
0.030393 0.124265 0.000000
0.051838 0.129105 0.000000
0.080698 0.137867 0.000000
0.102145 0.141789 0.000000
0.145466 0.161397 0.000000
0.165747 0.162500 0.000000
0.186458 0.163419 0.000000
0.209804 0.165318 0.000000
0.235110 0.165318 0.000000
0.253554 0.161397 0.000000
0.278554 0.161887 0.000000
0.297855 0.161397 0.000000
0.324571 0.161091 0.000000
0.344668 0.157475 0.000000
0.366115 0.157475 0.000000
0.383640 0.157475 0.000000
0.405085 0.157475 0.000000
0.426531 0.155576 0.000000
0.445343 0.159743 0.000000
0.465441 0.157414 0.000000
0.483028 0.156617 0.000000
0.502206 0.159130 0.000000
0.521998 0.161397 0.000000
0.541176 0.159130 0.000000
0.560968 0.161397 0.000000
0.578492 0.165196 0.000000
0.594547 0.159927 0.000000
0.615196 0.165318 0.000000
0.632721 0.165318 0.000000
0.648591 0.165318 0.000000
0.666115 0.165870 0.000000
0.681372 0.169240 0.000000
0.698897 0.173284 0.000000
0.712500 0.173162 0.000000
0.728370 0.177083 0.000000
0.744669 0.178738 0.000000
0.761275 0.182782 0.000000
0.774755 0.185723 0.000000
0.790563 0.192708 0.000000
0.801961 0.191482 0.000000
0.815564 0.196691 0.000000
0.833088 0.203431 0.000000
0.842953 0.204534 0.000000
0.858027 0.208578 0.000000
0.874509 0.215687 0.000000
0.887194 0.222794 0.000000
0.902757 0.229289 0.000000
0.910784 0.235907 0.000000
0.928309 0.242893 0.000000
0.941912 0.250061 0.000000
0.952267 0.256495 0.000000
0.967218 0.261336 0.000000
0.978799 0.272855 0.000000
0.990319 0.278860 0.000000
0.999081 0.290625 0.009008
1.000000 0.304228 0.033027
0.000000 0.120098 0.015686
0.000000 0.124019 0.018873
0.000000 0.120834 0.014338
0.000000 0.120834 0.015686
0.000000 0.120343 0.015196
0.000000 0.120772 0.015686
0.000000 0.127941 0.011765
0.000000 0.127268 0.009252
0.000000 0.135294 0.007843
0.010600 0.139705 0.003187
0.039461 0.149387 0.000000
0.063174 0.151470 0.000000
0.092647 0.158578 0.000000
0.115932 0.160233 0.000000
0.160906 0.180025 0.000000
0.191544 0.184865 0.000000
0.209559 0.186764 0.000000
0.234436 0.185355 0.000000
0.259804 0.186029 0.000000
0.279841 0.182843 0.000000
0.302206 0.182843 0.000000
0.324142 0.178492 0.000000
0.346936 0.178186 0.000000
0.370956 0.176654 0.000000
0.392402 0.175000 0.000000
0.409927 0.174265 0.000000
0.431373 0.175000 0.000000
0.449632 0.177635 0.000000
0.470343 0.175000 0.000000
0.487806 0.175000 0.000000
0.509436 0.175122 0.000000
0.530760 0.172855 0.000000
0.545098 0.175736 0.000000
0.566850 0.178921 0.000000
0.583946 0.179534 0.000000
0.598468 0.176531 0.000000
0.620588 0.181128 0.000000
0.637194 0.183395 0.000000
0.650612 0.179289 0.000000
0.673591 0.186029 0.000000
0.685294 0.186764 0.000000
0.698897 0.186764 0.000000
0.715564 0.186642 0.000000
0.733639 0.191422 0.000000
0.743627 0.191912 0.000000
0.762194 0.199571 0.000000
0.774755 0.198529 0.000000
0.792218 0.199326 0.000000
0.804902 0.206372 0.000000
0.820772 0.210294 0.000000
0.833088 0.213848 0.000000
0.846691 0.218689 0.000000
0.860295 0.222794 0.000000
0.873897 0.226103 0.000000
0.888848 0.233211 0.000000
0.901532 0.237745 0.000000
0.917402 0.249509 0.000000
0.928309 0.251655 0.000000
0.942770 0.256495 0.000000
0.952267 0.265258 0.000000
0.962010 0.273775 0.000000
0.977635 0.278861 0.000000
0.990319 0.288725 0.000000
1.000000 0.296385 0.006924
1.000000 0.312991 0.034559
0.000000 0.137623 0.019608
0.000000 0.140624 0.018873
0.000000 0.137806 0.017954
0.000000 0.141544 0.023529
0.000000 0.137806 0.019792
0.000000 0.138297 0.019792
0.000000 0.141544 0.019608
0.000000 0.147978 0.015870
0.000000 0.152819 0.015686
0.000000 0.157231 0.007598
0.019178 0.161152 0.003922
0.049817 0.169425 0.000000
0.072119 0.168995 0.000000
0.102329 0.177022 0.000000
0.137377 0.185784 0.000000
0.166666 0.192525 0.000000
0.214338 0.213909 0.000000
0.238848 0.212133 0.000000
0.257659 0.208578 0.000000
0.283762 0.212133 0.000000
0.308824 0.210907 0.000000
0.325061 0.204473 0.000000
0.351042 0.204473 0.000000
0.376961 0.200368 0.000000
0.393321 0.194179 0.000000
0.414767 0.192708 0.000000
0.436213 0.192525 0.000000
0.455024 0.188786 0.000000
0.475184 0.192525 0.000000
0.496630 0.189583 0.000000
0.514277 0.192708 0.000000
0.535600 0.191667 0.000000
0.554902 0.196262 0.000000
0.573346 0.199142 0.000000
0.591789 0.196262 0.000000
0.604902 0.195649 0.000000
0.623039 0.196446 0.000000
0.640564 0.196446 0.000000
0.657904 0.200184 0.000000
