Color/Kodak/Kodak Elite Color 400 65x.cube
TITLE "Kodak Elite Color 400"
LUT_3D_SIZE 9
DOMAIN_MIN 0.000000 0.000000 0.000000
DOMAIN_MAX 1.000000 1.000000 1.000000
0.000000 0.000000 0.000000
0.065687 0.000000 0.000000
0.154902 0.000000 0.000000
0.255883 0.000000 0.000000
0.372549 0.000000 0.000000
0.516667 0.000000 0.000000
0.660785 0.000000 0.000000
0.800980 0.000000 0.003922
0.929412 0.003922 0.003922
0.046569 0.074020 0.007353
0.108824 0.062255 0.007353
0.194117 0.047059 0.007843
0.287255 0.026961 0.007843
0.403921 0.009313 0.007843
0.539706 0.000000 0.007353
0.679902 0.000000 0.003432
0.815687 0.000000 0.003922
0.937255 0.000000 0.003922
0.120589 0.175490 0.035294
0.151470 0.167647 0.038235
0.222549 0.154902 0.038235
0.319118 0.132843 0.038236
0.431372 0.097059 0.038235
0.563725 0.050000 0.031373
0.696079 0.003922 0.023529
0.826961 0.000000 0.011765
0.945098 0.000981 0.003922
0.159314 0.287255 0.069118
0.194117 0.283334 0.069118
0.264216 0.273039 0.070588
0.357843 0.255883 0.070588
0.470588 0.230393 0.066667
0.599019 0.187745 0.062745
0.728921 0.121569 0.053431
0.844117 0.031863 0.035294
0.960784 0.000000 0.011765
0.225490 0.427451 0.094118
0.256373 0.423530 0.094118
0.322549 0.414706 0.094118
0.408334 0.403431 0.094118
0.519608 0.384313 0.090196
0.640196 0.349020 0.082353
0.758824 0.299020 0.074510
0.876961 0.220588 0.054902
0.984314 0.072549 0.027451
0.316667 0.575490 0.105882
0.338725 0.575490 0.105882
0.392647 0.566176 0.105882
0.473039 0.559804 0.105882
0.574019 0.543627 0.101961
0.682843 0.524510 0.098039
0.790196 0.485294 0.086275
0.899019 0.427451 0.070588
1.000000 0.314216 0.039216
0.429412 0.714706 0.098039
0.445098 0.711765 0.098039
0.490197 0.711765 0.098039
0.556372 0.703922 0.098039
0.638235 0.696079 0.094118
0.728431 0.684314 0.093137
0.820588 0.660785 0.085295
0.919118 0.625980 0.070098
1.000000 0.548039 0.039216
0.565686 0.840196 0.054412
0.577451 0.839706 0.054412
0.604902 0.836274 0.054412
0.653922 0.836274 0.054412
0.712255 0.832353 0.057844
0.778432 0.824510 0.054412
0.852451 0.812745 0.050490
0.941666 0.793137 0.042647
1.000000 0.753921 0.019608
0.717647 0.972549 0.000000
0.721569 0.972549 0.000000
0.740196 0.972549 0.000000
0.764706 0.972549 0.000000
0.801961 0.972549 0.000000
0.848529 0.968627 0.000000
0.906862 0.964706 0.000000
0.976961 0.960784 0.000000
1.000000 0.941176 0.000000
0.000000 0.000000 0.058334
0.042647 0.000000 0.058334
0.131862 0.000000 0.058334
0.236765 0.000000 0.058334
0.357353 0.000000 0.054412
0.504902 0.000000 0.050490
0.656863 0.000000 0.038726
0.800980 0.000000 0.022549
0.933333 0.003922 0.003922
0.030883 0.093138 0.081373
0.081863 0.081373 0.081373
0.175000 0.062745 0.081863
0.273039 0.042647 0.081863
0.392157 0.017157 0.081863
0.528431 0.000000 0.077451
0.672549 0.000000 0.064706
0.808823 0.000000 0.045588
0.937255 0.000000 0.015196
0.108823 0.187255 0.104411
0.140196 0.182353 0.104411
0.206863 0.167647 0.104411
0.303921 0.147549 0.104412
0.423530 0.113725 0.101471
0.558824 0.063726 0.096569
0.692157 0.011275 0.085785
0.820588 0.000000 0.066177
0.945098 0.000000 0.030883
0.137255 0.296078 0.124020
0.175000 0.292157 0.125000
0.248529 0.283334 0.125000
0.346078 0.265196 0.125000
0.465196 0.238235 0.121079
0.594118 0.199510 0.117157
0.723530 0.133333 0.105392
0.844117 0.039706 0.085785
0.960784 0.000000 0.054412
0.205882 0.434804 0.136765
0.240686 0.431373 0.136765
0.307353 0.423530 0.138725
0.400490 0.411764 0.136765
0.511764 0.392157 0.136765
0.636275 0.360784 0.132843
0.757353 0.308333 0.121079
0.873039 0.228921 0.102941
0.984314 0.080393 0.072059
0.303431 0.579412 0.140686
0.326961 0.579412 0.140686
0.380883 0.575490 0.140686
0.462745 0.566176 0.141176
0.568137 0.551961 0.140686
0.677451 0.528431 0.137255
0.786765 0.493627 0.131863
0.896079 0.435294 0.113235
1.000000 0.321569 0.081863
0.417647 0.715687 0.136765
0.437255 0.715687 0.136765
0.480392 0.711765 0.136765
0.548530 0.707843 0.133823
0.630392 0.700000 0.130882
0.721078 0.688236 0.125000
0.816667 0.664706 0.120098
0.914706 0.629412 0.108333
1.000000 0.551961 0.080882
0.561764 0.840196 0.136275
0.573529 0.840196 0.136275
0.600980 0.840196 0.132353
0.648039 0.836274 0.128432
0.706863 0.832353 0.120589
0.774510 0.826470 0.104902
0.851961 0.816666 0.077451
0.938235 0.797058 0.069608
1.000000 0.754412 0.046569
0.713726 0.975981 0.097059
0.721569 0.975981 0.093628
0.737255 0.972549 0.089216
0.763235 0.972549 0.082843
0.800000 0.972549 0.069608
0.848529 0.972549 0.037745
0.905882 0.968627 0.000000
0.973039 0.960784 0.000000
1.000000 0.941176 0.000000
0.000000 0.003922 0.143137
0.026961 0.000000 0.143137
0.112745 0.000000 0.144118
0.222059 0.000000 0.143137
0.349020 0.000000 0.140196
0.497059 0.000000 0.131372
0.652941 0.000000 0.116667
0.797059 0.000000 0.093137
0.929412 0.000000 0.057844
0.020098 0.112255 0.163725
0.066177 0.097549 0.163725
0.155392 0.081373 0.167157
0.259804 0.058334 0.167156
0.380883 0.028922 0.166666
0.524020 0.003922 0.159804
0.668628 0.000000 0.147549
0.805393 0.000000 0.123529
0.937255 0.000000 0.084804
0.087255 0.202941 0.183334
0.124510 0.198039 0.183334
0.186274 0.183334 0.183334
0.287745 0.164216 0.186274
0.411764 0.131372 0.186274
0.550981 0.078921 0.182353
0.688236 0.021569 0.171569
0.819118 0.000000 0.150980
0.945098 0.000000 0.111764
0.104412 0.311275 0.199020
0.136765 0.307353 0.201471
0.222549 0.299020 0.202941
0.329902 0.280882 0.205392
0.450981 0.253922 0.205392
0.585784 0.215196 0.201961
0.717157 0.152941 0.195098
0.840196 0.055392 0.178431
0.956863 0.000000 0.142647
0.167647 0.447059 0.214706
0.205392 0.443137 0.216667
0.283334 0.437255 0.217647
0.380883 0.425981 0.218628
0.498039 0.404902 0.218627
0.626470 0.374020 0.214706
0.750981 0.326471 0.209804
0.867647 0.244608 0.195098
0.982353 0.098039 0.166666
0.274510 0.591176 0.229412
0.300000 0.587255 0.229412
0.357353 0.583333 0.229412
0.446569 0.575490 0.229412
0.555392 0.562255 0.227941
0.669608 0.540196 0.225490
0.779902 0.505392 0.217647
0.891176 0.447059 0.202941
1.000000 0.336765 0.175490
0.398039 0.723530 0.245098
0.417647 0.722549 0.245098
0.463726 0.719608 0.243137
0.536274 0.715687 0.241176
0.621568 0.707843 0.239216
0.712255 0.693628 0.233333
0.809804 0.672549 0.222549
0.910784 0.637745 0.205392
1.000000 0.562745 0.167647
0.547549 0.844117 0.260784
0.561764 0.844117 0.260784
0.589215 0.843627 0.256863
0.638235 0.840196 0.256863
0.696569 0.836274 0.251470
0.766667 0.829902 0.243627
0.844608 0.820588 0.228432
0.933823 0.800980 0.200490
1.000000 0.758333 0.139215
0.705882 0.976471 0.237255
0.713726 0.976471 0.237255
0.729412 0.976471 0.233333
0.756863 0.976471 0.229412
0.794118 0.976471 0.221568
0.841667 0.972549 0.208824
0.899020 0.968627 0.184314
0.969117 0.964706 0.139215
1.000000 0.945098 0.000000
0.000000 0.015686 0.225980
0.012745 0.003922 0.225980
0.093137 0.000000 0.228432
0.206373 0.000000 0.229902
0.333334 0.000000 0.228432
0.489216 0.000000 0.222059
0.645098 0.000000 0.214216
0.793137 0.000000 0.192647
0.929412 0.000000 0.153922
0.011275 0.132843 0.249019
0.050000 0.121079 0.249510
0.125490 0.103921 0.252451
0.241176 0.077941 0.255883
0.368137 0.046569 0.256863
0.512745 0.011275 0.253431
0.660785 0.000000 0.245588
0.800980 0.000000 0.228432
0.933333 0.000000 0.193137
0.050980 0.221568 0.271569
0.089706 0.217157 0.272059
0.163725 0.202941 0.275490
0.264216 0.183333 0.276961
0.396079 0.154902 0.279412
0.539216 0.102451 0.276961
0.680392 0.037255 0.271569
0.812745 0.000000 0.256373
0.941176 0.000000 0.224510
0.060294 0.330392 0.295098
0.086275 0.326471 0.296569
0.183333 0.318628 0.299020
0.302941 0.300490 0.302941
0.433824 0.275490 0.302941
0.571569 0.234804 0.301470
0.707843 0.176471 0.295098
0.836274 0.076961 0.283333
0.952941 0.000000 0.255883
0.113235 0.462746 0.318628
0.149020 0.458823 0.322059
0.240686 0.454412 0.322549
0.353432 0.443137 0.322549
0.477941 0.423530 0.325981
0.610784 0.392647 0.322549
0.739216 0.346078 0.318628
0.861275 0.268137 0.308334
0.978432 0.122059 0.283334
0.220098 0.602941 0.345098
0.254902 0.600000 0.345098
0.322059 0.595098 0.346079
0.419608 0.587255 0.346079
0.532843 0.575490 0.346079
0.652941 0.555882 0.346079
0.768627 0.521078 0.342157
0.883333 0.466667 0.330392
1.000000 0.357353 0.306863
0.362745 0.731373 0.369608
0.384314 0.730392 0.369608
0.433824 0.727451 0.369608
0.511765 0.723530 0.369608
0.602451 0.715687 0.369608
0.696569 0.703922 0.368137
0.798039 0.684314 0.361765
0.899510 0.649510 0.348039
1.000000 0.576961 0.318628
0.526470 0.848039 0.389216
0.539216 0.848039 0.389216
0.570098 0.848039 0.389216
0.620588 0.844117 0.389216
0.682353 0.840686 0.389216
0.754902 0.836274 0.385294
0.833334 0.824510 0.373529
0.924020 0.808333 0.357843
1.000000 0.766177 0.318628
0.698039 0.980392 0.385294
0.701961 0.980392 0.385294
0.720589 0.980392 0.381373
0.747549 0.980392 0.381373
0.786274 0.976471 0.377451
0.834314 0.976471 0.369608
0.892647 0.972549 0.355392
0.961274 0.968627 0.328431
1.000000 0.949020 0.256863
0.000000 0.029412 0.319608
0.003922 0.011765 0.319608
0.067647 0.003922 0.323530
0.185294 0.000000 0.325491
0.313725 0.000000 0.327451
0.476961 0.000000 0.323530
0.633334 0.000000 0.316667
0.785294 0.000000 0.301470
0.925490 0.000000 0.270589
0.003432 0.158333 0.349020
0.028431 0.146569 0.350490
0.094608 0.130882 0.354412
0.212745 0.106372 0.358333
0.345098 0.071569 0.360784
0.497059 0.026961 0.360784
0.649020 0.000000 0.356863
0.793137 0.000000 0.344118
0.929412 0.000000 0.313725
0.030392 0.245098 0.376471
0.053921 0.238236 0.377451
0.122549 0.228432 0.381373
0.229412 0.209804 0.385294
0.371569 0.182353 0.388235
0.520588 0.132843 0.389216
0.668628 0.063726 0.388235
0.804902 0.000000 0.380392
0.934314 0.000000 0.352942
0.024510 0.353922 0.407844
0.042647 0.350000 0.407843
0.110784 0.342157 0.411765
0.256373 0.326471 0.415686
0.403922 0.302941 0.419608
0.550490 0.262255 0.419607
0.693627 0.205882 0.419608
0.826470 0.111765 0.413725
0.949020 0.000000 0.394608
0.041176 0.482353 0.435295
0.072059 0.480393 0.437255
0.162745 0.474510 0.439215
0.306863 0.462746 0.443137
0.447059 0.447059 0.447059
0.587255 0.417647 0.447059
0.723530 0.373529 0.447058
0.851470 0.299510 0.441177
0.972549 0.160784 0.425490
0.119608 0.618627 0.466176
0.168627 0.615196 0.466666
0.260294 0.612745 0.468137
0.374510 0.606373 0.470589
0.501470 0.593137 0.472059
0.626470 0.573529 0.474019
0.750981 0.544118 0.470589
0.871078 0.490196 0.466176
0.992157 0.384804 0.448529
0.306863 0.739216 0.494117
0.333823 0.739216 0.494117
0.392157 0.738235 0.497059
0.476961 0.734314 0.498039
0.575490 0.727451 0.498039
0.676961 0.715687 0.498039
0.782353 0.697059 0.494117
0.887255 0.665196 0.486274
1.000000 0.595098 0.466667
0.495098 0.855882 0.520098
0.509314 0.855882 0.520098
0.543137 0.855392 0.521568
0.595588 0.851961 0.521568
0.661275 0.848039 0.521568
0.738725 0.844117 0.517648
0.821078 0.832353 0.513726
0.914705 0.816666 0.501961
1.000000 0.777451 0.474509
0.682353 0.982353 0.521568
0.690196 0.982353 0.521568
0.705882 0.982353 0.521568
0.735784 0.980392 0.521568
0.774510 0.980392 0.521568
0.825000 0.980392 0.517648
0.883333 0.976471 0.509804
0.953431 0.972549 0.490196
1.000000 0.956863 0.443137
0.000000 0.058824 0.422549
0.000000 0.033334 0.426470
0.028922 0.021078 0.431863
0.151471 0.009314 0.436765
0.288726 0.000000 0.440686
0.453922 0.000000 0.442157
0.618627 0.000000 0.438235
0.777451 0.000000 0.429902
0.917647 0.000000 0.406863
0.000000 0.189216 0.457843
0.007843 0.179902 0.461765
0.061765 0.165686 0.467647
0.164216 0.144118 0.472059
0.310294 0.106863 0.477451
0.475490 0.058334 0.481372
0.633334 0.007353 0.481372
0.781372 0.000000 0.475490
0.921569 0.000000 0.455883
0.010294 0.276470 0.490687
0.025490 0.271079 0.493137
0.075000 0.259314 0.497059
0.172059 0.242647 0.502451
0.329902 0.215686 0.506863
0.493137 0.173039 0.511765
0.649020 0.103431 0.512745
0.793137 0.015686 0.508824
0.926961 0.000000 0.493137
0.000000 0.381373 0.524510
0.000000 0.380392 0.524510
0.020098 0.372549 0.528431
0.182353 0.357843 0.533333
0.360784 0.334314 0.537255
0.520588 0.299020 0.541176
0.673529 0.243137 0.544117
0.813726 0.154412 0.542157
0.941176 0.010294 0.530882
0.000000 0.507353 0.555882
0.000000 0.505883 0.555882
0.023039 0.499510 0.559804
0.228921 0.490196 0.563725
0.400490 0.474019 0.567647
0.553922 0.447059 0.571569
0.700000 0.405882 0.571568
0.836274 0.335784 0.571569
0.964706 0.201960 0.561765
0.000000 0.634314 0.583333
0.011765 0.634314 0.584804
0.154902 0.630392 0.587255
0.310785 0.625490 0.591176
0.456372 0.614706 0.595098
0.595098 0.595098 0.595098
0.727451 0.567647 0.599019
0.855392 0.517647 0.595098
0.984314 0.417647 0.587255
0.216666 0.751471 0.614216
0.252451 0.750981 0.614216
0.328921 0.750981 0.614706
0.428922 0.747059 0.618137
0.537745 0.739216 0.618627
0.649510 0.731373 0.622059
0.758824 0.712255 0.622059
0.872059 0.684314 0.618627
0.998529 0.618627 0.606863
0.450980 0.863725 0.638235
0.466667 0.863725 0.638235
0.504902 0.863235 0.641177
0.562745 0.859804 0.642157
0.634804 0.855882 0.642157
0.715687 0.851961 0.642157
0.804412 0.843627 0.642157
0.899019 0.825490 0.638235
1.000000 0.789215 0.622549
0.665196 0.985784 0.650000
0.670588 0.985784 0.650000
0.690196 0.985784 0.650000
0.718628 0.985784 0.650000
0.760784 0.984314 0.650000
0.811765 0.984314 0.650000
0.871568 0.984314 0.646078
0.945588 0.980392 0.638235
1.000000 0.962255 0.608333
0.000000 0.102941 0.538235
0.000000 0.075980 0.542157
0.003922 0.059804 0.547059
0.098039 0.036275 0.553921
0.251961 0.011765 0.558824
0.426471 0.000000 0.562745
0.598039 0.000000 0.562745
0.761764 0.000000 0.558824
0.909804 0.000000 0.543137
0.000000 0.227941 0.574510
0.000000 0.219118 0.576961
0.014706 0.204412 0.582353
0.118627 0.184804 0.588725
0.265196 0.157843 0.594118
0.444608 0.104902 0.600490
0.609804 0.038726 0.604412
0.765686 0.000000 0.604412
0.912745 0.000000 0.590196
0.000000 0.315686 0.603922
0.000000 0.309804 0.605883
0.011765 0.300000 0.609804
0.108823 0.282353 0.615686
0.271569 0.254902 0.621569
0.454412 0.217157 0.626961
0.625490 0.155883 0.633334
0.781372 0.052941 0.633334
0.917647 0.000000 0.627451
0.000000 0.415196 0.633334
0.000000 0.412745 0.634804
0.000000 0.407353 0.638725
0.049510 0.395588 0.645098
0.292648 0.373529 0.650490
0.478922 0.341667 0.656863
0.645098 0.287255 0.660785
0.797058 0.205392 0.662255
0.933333 0.046568 0.660785
0.000000 0.537254 0.661765
0.000000 0.534314 0.663726
0.000000 0.529411 0.665686
0.056372 0.521568 0.669608
0.330392 0.505883 0.676471
0.509804 0.481863 0.681372
0.669608 0.443137 0.685294
0.816666 0.380883 0.688236
0.952941 0.252941 0.688236
0.000000 0.657353 0.688726
0.000000 0.657353 0.692157
0.001961 0.653922 0.692647
0.196569 0.646078 0.696569
0.390686 0.638235 0.700490
0.552451 0.622549 0.704412
0.696569 0.596569 0.708333
0.832844 0.552451 0.711765
0.969117 0.458824 0.708333
0.041176 0.766667 0.718628
0.079902 0.766667 0.719608
0.211765 0.765686 0.719608
0.350980 0.762745 0.723530
0.483333 0.754902 0.727451
0.610784 0.747059 0.731373
0.731373 0.731373 0.731373
0.851961 0.704412 0.734314
0.984314 0.646078 0.731373
0.377451 0.875000 0.743137
0.399510 0.872059 0.746078
0.446078 0.871568 0.746569
0.513236 0.871568 0.747059
0.596079 0.867647 0.750491
0.684804 0.863725 0.753922
0.781863 0.855882 0.754412
0.883333 0.840196 0.754412
1.000000 0.804902 0.747059
0.638235 0.992157 0.761764
0.647059 0.992157 0.761764
0.665687 0.992157 0.762745
0.698039 0.992157 0.762745
0.741176 0.992157 0.765686
0.793627 0.992157 0.765686
0.859804 0.988235 0.765686
0.933823 0.985294 0.762745
1.000000 0.972549 0.747059
0.000000 0.157353 0.647549
0.000000 0.133823 0.651470
0.000000 0.117647 0.655392
0.033824 0.092157 0.659804
0.200000 0.057353 0.667647
0.388235 0.015686 0.675000
0.567647 0.000000 0.679412
0.746078 0.000000 0.679412
0.901471 0.000000 0.671568
0.000000 0.277451 0.678921
0.000000 0.266667 0.682353
0.000000 0.254902 0.686275
0.037745 0.235294 0.691176
0.189706 0.207843 0.699019
0.398040 0.164706 0.706863
0.578922 0.099510 0.714216
0.750000 0.010785 0.718627
0.901961 0.000000 0.714706
0.000000 0.360294 0.702941
0.000000 0.356373 0.705392
0.000000 0.348530 0.710294
0.022059 0.332843 0.717157
0.171569 0.310294 0.722549
0.400000 0.271569 0.730392
0.590196 0.214216 0.738235
0.760294 0.123039 0.744608
0.905882 0.000000 0.746078
0.000000 0.455882 0.729902
0.000000 0.453921 0.732353
0.000000 0.448039 0.736274
0.000000 0.438235 0.741666
0.171569 0.418627 0.748039
0.411765 0.392157 0.755882
0.602451 0.345588 0.761764
0.773529 0.267647 0.769117
0.921569 0.119608 0.773039
0.000000 0.571078 0.755392
0.000000 0.569118 0.757353
0.000000 0.565196 0.761274
0.000000 0.559314 0.765686
0.200490 0.545098 0.771078
0.436765 0.525490 0.778922
0.625490 0.490687 0.785294
0.789215 0.435295 0.790686
0.938725 0.320098 0.794608
0.000000 0.681372 0.782353
0.000000 0.681372 0.784804
0.000000 0.680392 0.786275
0.005392 0.675980 0.790196
0.274510 0.668628 0.796568
0.482353 0.653922 0.801961
0.652451 0.633824 0.808333
0.804412 0.595098 0.812745
0.952941 0.510294 0.816666
0.000000 0.785294 0.812255
0.000000 0.785294 0.812255
0.000000 0.782353 0.813235
0.192157 0.781373 0.817157
0.393137 0.777451 0.821079
0.549019 0.770098 0.825000
0.692157 0.757843 0.831863
0.824510 0.734314 0.835784
0.968627 0.680882 0.836274
0.225000 0.887255 0.840196
0.263235 0.887255 0.840196
0.333333 0.886765 0.840196
0.428922 0.883333 0.844117
0.531863 0.883333 0.848039
0.638235 0.879412 0.851961
0.746078 0.871568 0.855882
0.859314 0.859314 0.855882
0.992157 0.824510 0.855882
0.595588 0.992157 0.863725
0.603922 0.992647 0.863725
0.626961 0.996078 0.867157
0.662745 0.996078 0.867647
0.711275 0.996078 0.871078
0.769607 0.996078 0.871568
0.839706 0.996078 0.875000
0.918137 0.996078 0.875490
1.000000 0.984314 0.867647
0.000000 0.223529 0.741176
0.000000 0.200490 0.745098
0.000000 0.184314 0.749020
0.000000 0.164706 0.756863
0.111765 0.133333 0.764706
0.329902 0.080882 0.772549
0.531373 0.018627 0.780392
0.719118 0.000000 0.788235
0.886275 0.000000 0.784314
0.000000 0.336765 0.772059
0.000000 0.328922 0.772549
0.000000 0.317157 0.776471
0.000000 0.302451 0.783824
0.094117 0.274020 0.791667
0.318138 0.234804 0.800000
0.531373 0.182353 0.807843
0.723040 0.080392 0.819118
0.886275 0.000000 0.823039
0.000000 0.414706 0.795098
0.000000 0.410784 0.796078
0.000000 0.402941 0.799020
0.000000 0.391176 0.803922
0.005882 0.371569 0.811765
0.300980 0.340196 0.822549
0.528431 0.291177 0.831373
0.726961 0.212745 0.839216
0.894118 0.050000 0.847059
0.000000 0.508333 0.818137
0.000000 0.504412 0.819608
0.000000 0.500490 0.822059
0.000000 0.492647 0.827451
-0.000490 0.477451 0.835294
0.296078 0.454411 0.843137
0.536274 0.415686 0.853431
0.736765 0.349510 0.862745
0.904412 0.219118 0.870588
0.000000 0.613725 0.843137
0.000000 0.611764 0.843137
0.000000 0.609804 0.847059
0.000000 0.603921 0.850980
0.000000 0.594118 0.858824
0.303922 0.578922 0.866667
0.548039 0.551961 0.874510
0.742647 0.503431 0.884314
0.913725 0.405883 0.890196
0.000000 0.712745 0.870588
0.000000 0.712745 0.870588
0.000000 0.711275 0.874510
0.000000 0.708823 0.878431
0.000000 0.703431 0.883824
0.344608 0.693137 0.891667
0.571568 0.677451 0.899510
0.754412 0.646078 0.907353
0.921569 0.579412 0.913725
0.000000 0.808823 0.899020
0.000000 0.808823 0.901961
0.000000 0.808823 0.902941
0.000000 0.805883 0.906862
0.144118 0.804902 0.913725
0.425981 0.798039 0.918627
0.614706 0.789215 0.926471
0.774020 0.769607 0.933333
0.937255 0.727451 0.938235
0.000000 0.902941 0.933333
0.000000 0.902941 0.933823
0.000000 0.902941 0.937255
0.158823 0.902941 0.941176
0.375980 0.902941 0.945098
0.533334 0.899019 0.949510
0.673039 0.895098 0.956863
0.808823 0.886765 0.961274
0.961274 0.855882 0.968627
0.486275 0.992157 0.968627
0.498039 0.992157 0.968627
0.528431 0.992157 0.972549
0.575000 0.996078 0.972549
0.637255 0.996078 0.976471
0.707353 0.996078 0.980392
0.789215 0.996078 0.988235
0.882843 1.000000 0.992157
1.000000 1.000000 1.000000
