Color/Kodak/Kodak Portra 400 UC 1 - 65x.cube
TITLE "Kodak Portra 400 UC 1 -"
LUT_3D_SIZE 65
DOMAIN_MIN 0.000000 0.000000 0.000000
DOMAIN_MAX 1.000000 1.000000 1.000000
0.000000 0.000000 0.000000
0.003003 0.000000 0.000000
0.003922 0.000000 0.000000
0.003922 0.000000 0.000000
0.007843 0.000000 0.000000
0.015686 0.000000 0.000000
0.025122 0.003922 0.000000
0.036397 0.000000 0.000000
0.053922 0.003432 0.000000
0.067525 0.003922 0.000000
0.085049 0.007843 0.000000
0.102573 0.010110 0.000000
0.120098 0.015686 0.000000
0.141544 0.019608 0.000000
0.161887 0.019608 0.000000
0.182537 0.025551 0.000000
0.201961 0.023529 0.000000
0.223406 0.027390 0.000000
0.248775 0.027451 0.000000
0.269853 0.029228 0.000000
0.294363 0.027451 0.000000
0.316728 0.023835 0.000000
0.343014 0.023529 0.000000
0.369302 0.019608 0.000000
0.391666 0.015686 0.000000
0.417954 0.011765 0.000000
0.447794 0.007475 0.000000
0.470527 0.000000 0.000000
0.498530 0.000000 0.000000
0.523100 0.000000 0.000000
0.545466 0.000000 0.000000
0.571752 0.000000 0.000000
0.596078 0.000000 0.000000
0.620404 0.000000 0.000000
0.639093 0.000000 0.000000
0.660417 0.000000 0.000000
0.687500 0.000000 0.000000
0.707231 0.000000 0.000000
0.732230 0.000000 0.000000
0.750674 0.000000 0.000000
0.774020 0.000000 0.000000
0.790625 0.000000 0.000000
0.810540 0.000000 0.000000
0.824448 0.000000 0.000000
0.844363 0.000000 0.000000
0.859191 0.000000 0.000000
0.872794 0.000000 0.000000
0.890257 0.000000 0.000000
0.900000 0.000000 0.000000
0.913603 0.000000 0.000000
0.927206 0.000000 0.000000
0.940992 0.000000 0.000000
0.954412 0.000000 0.000000
0.968015 0.004963 0.000000
0.979044 0.024755 0.000000
0.991299 0.045772 0.000000
1.000000 0.067157 0.000000
1.000000 0.083762 0.000000
1.000000 0.098775 0.000000
1.000000 0.115625 0.000000
1.000000 0.129657 0.000000
1.000000 0.139583 0.000000
1.000000 0.155025 0.000000
1.000000 0.169792 0.000000
1.000000 0.192157 0.000000
0.000000 0.000000 0.000000
0.003003 0.003003 0.000000
0.001838 0.000000 0.000000
0.003922 -0.001838 0.000000
0.014523 0.003922 0.000000
0.020282 0.003922 0.000000
0.029718 0.005515 0.000000
0.040318 0.006434 0.000000
0.051410 0.004841 0.000000
0.071936 0.008762 0.000000
0.086397 0.012684 0.000000
0.104841 0.018872 0.000000
0.124019 0.026716 0.000000
0.140809 0.023713 0.000000
0.160172 0.025551 0.000000
0.181434 0.032292 0.000000
0.204902 0.032292 0.000000
0.223406 0.033211 0.000000
0.249633 0.036152 0.000000
0.271998 0.036213 0.000000
0.297059 0.038909 0.000000
0.317034 0.032598 0.000000
0.346936 0.036213 0.000000
0.369302 0.030760 0.000000
0.395588 0.028370 0.000000
0.418505 0.021078 0.000000
0.443688 0.016237 0.000000
0.470159 0.008395 0.000000
0.499817 0.002635 0.000000
0.523100 0.000000 0.000000
0.548469 0.000000 0.000000
0.574755 0.000000 0.000000
0.598040 0.000000 0.000000
0.620527 0.000000 0.000000
0.642769 0.000000 0.000000
0.661214 0.000000 0.000000
0.686581 0.000000 0.000000
0.709866 0.000000 0.000000
0.729596 0.000000 0.000000
0.754044 0.000000 0.000000
0.776042 0.000000 0.000000
0.792095 0.000000 0.000000
0.810540 0.000000 0.000000
0.827757 0.000000 0.000000
0.844363 0.000000 0.000000
0.858272 0.000000 0.000000
0.872794 0.000000 0.000000
0.886398 0.000000 0.000000
0.900000 0.000000 0.000000
0.915625 0.000000 0.000000
0.925307 0.000000 0.000000
0.944547 0.000000 0.000000
0.953676 0.002574 0.000000
0.966360 0.019914 0.000000
0.979044 0.036704 0.000000
0.994301 0.062377 0.000000
1.000000 0.076410 0.000000
1.000000 0.093015 0.000000
1.000000 0.105209 0.000000
1.000000 0.117892 0.000000
1.000000 0.133578 0.000000
1.000000 0.146262 0.000000
1.000000 0.158027 0.000000
1.000000 0.174633 0.000000
1.000000 0.196078 0.000000
0.000000 0.001838 0.001838
0.000000 0.001838 0.000000
0.001838 0.003922 0.000000
0.003922 0.003922 0.000000
0.011520 0.007598 0.000000
0.019608 0.009007 0.000000
0.026716 0.005515 0.000000
0.040318 0.007843 0.000000
0.057844 0.015196 0.000000
0.071446 0.017524 0.000000
0.089461 0.021446 0.000000
0.104841 0.023713 0.000000
0.120098 0.025367 0.000000
0.141544 0.031373 0.000000
0.160907 0.035049 0.000000
0.180515 0.037132 0.000000
0.200858 0.041054 0.000000
0.227267 0.041054 0.000000
0.246569 0.041912 0.000000
0.272059 0.044975 0.000000
0.295588 0.044975 0.000000
0.320650 0.046753 0.000000
0.348162 0.046201 0.000000
0.373529 0.043443 0.000000
0.394975 0.036520 0.000000
0.421875 0.035294 0.000000
0.448162 0.025367 0.000000
0.474448 0.021997 0.000000
0.496446 0.013235 0.000000
0.523100 0.004473 0.000000
0.543750 0.000000 0.000000
0.574632 0.000000 0.000000
0.593995 0.000000 0.000000
0.620404 0.000000 0.000000
0.642769 0.000000 0.000000
0.664338 0.000000 0.000000
0.687623 0.000000 0.000000
0.711152 0.000000 0.000000
0.732230 0.000000 0.000000
0.755882 0.000000 0.000000
0.771201 0.000000 0.000000
0.793014 0.000000 0.000000
0.810540 0.000000 0.000000
0.824142 0.000000 0.000000
0.844363 0.000000 0.000000
0.855270 0.000000 0.000000
0.869730 0.000000 0.000000
0.888175 0.000000 0.000000
0.902941 0.000000 0.000000
0.915686 0.000000 0.000000
0.927206 0.000000 0.000000
0.938909 0.000000 0.000000
0.955514 0.018015 0.000000
0.966360 0.034436 0.000000
0.979534 0.054534 0.000000
0.991728 0.071569 0.000000
1.000000 0.083333 0.000000
1.000000 0.098775 0.000000
1.000000 0.113971 0.000000
1.000000 0.125980 0.000000
1.000000 0.137745 0.000000
1.000000 0.151348 0.000000
1.000000 0.164951 0.000000
1.000000 0.176470 0.000000
1.000000 0.197916 0.000000
0.000000 0.006679 0.000000
0.002758 0.009681 0.005760
0.001838 0.005760 0.000000
0.006679 0.006679 0.000000
0.006679 0.006679 0.000000
0.016360 0.008517 0.000000
0.023958 0.009436 0.000000
0.040073 0.014522 0.000000
0.059008 0.019118 0.000000
0.074203 0.025123 0.000000
0.088971 0.024877 0.000000
0.103738 0.030209 0.000000
0.124019 0.034130 0.000000
0.144301 0.040809 0.000000
0.160172 0.041973 0.000000
0.182537 0.043995 0.000000
0.204902 0.045895 0.000000
0.228432 0.049816 0.000000
0.251532 0.052574 0.000000
0.274142 0.053738 0.000000
0.297059 0.053738 0.000000
0.325429 0.053738 0.000000
0.346936 0.050429 0.000000
0.369302 0.049816 0.000000
0.395588 0.047365 0.000000
0.425245 0.045895 0.000000
0.450919 0.040441 0.000000
0.474448 0.035601 0.000000
0.497978 0.023529 0.000000
0.523100 0.018076 0.000000
0.552022 0.013113 0.000000
0.571752 0.000000 0.000000
0.595282 0.000000 0.000000
0.620404 0.000000 0.000000
0.643933 0.000000 0.000000
0.661214 0.000000 0.000000
0.687500 0.000000 0.000000
0.711152 0.000000 0.000000
0.732598 0.000000 0.000000
0.750674 0.000000 0.000000
0.773039 0.000000 0.000000
0.790257 0.000000 0.000000
0.806618 0.000000 0.000000
0.826899 0.000000 0.000000
0.837745 0.000000 0.000000
0.855270 0.000000 0.000000
0.868566 0.000000 0.000000
0.883640 0.000000 0.000000
0.901961 0.000000 0.000000
0.913603 0.000000 0.000000
0.924387 0.002819 0.000000
0.941973 0.016912 0.000000
0.951655 0.031679 0.000000
0.966360 0.050306 0.000000
0.977696 0.065380 0.000000
0.987806 0.076838 0.000000
1.000000 0.094608 0.000000
1.000000 0.106128 0.000000
1.000000 0.118382 0.000000
1.000000 0.131495 0.000000
1.000000 0.144179 0.000000
1.000000 0.152512 0.000000
1.000000 0.164951 0.000000
1.000000 0.182476 0.000000
1.000000 0.200000 0.000000
0.000000 0.007843 0.000000
0.000000 0.007843 0.000000
0.000245 0.007843 -0.001838
0.003922 0.011520 0.000000
0.007598 0.011520 0.000000
0.012439 0.015441 0.000000
0.023039 0.015686 0.000000
0.036642 0.019363 0.000000
0.057843 0.026716 0.000000
0.071446 0.023958 0.000000
0.088971 0.035049 0.000000
0.106495 0.033640 0.000000
0.127696 0.042157 0.000000
0.145466 0.046814 0.000000
0.162990 0.050735 0.000000
0.186458 0.052758 0.000000
0.205882 0.054657 0.000000
0.230944 0.058518 0.000000
0.252696 0.065319 0.000000
0.275919 0.060355 0.000000
0.299510 0.062500 0.000000
0.320956 0.062500 0.000000
0.346936 0.062500 0.000000
0.373223 0.062255 0.000000
0.395588 0.058579 0.000000
0.421875 0.054657 0.000000
0.455391 0.057965 0.000000
0.474448 0.049203 0.000000
0.498530 0.042157 0.000000
0.526226 0.035600 0.000000
0.552941 0.026838 0.000000
0.571752 0.018076 0.000000
0.596078 0.011274 0.000000
0.616728 0.000000 0.000000
0.639216 0.000000 0.000000
0.661214 0.000000 0.000000
0.687746 0.000000 0.000000
0.711152 0.000000 0.000000
0.732475 0.000000 0.000000
0.754044 0.000000 0.000000
0.771568 0.000000 0.000000
0.792769 0.000000 0.000000
0.806863 0.000000 0.000000
0.824142 0.000000 0.000000
0.841667 0.000000 0.000000
0.855270 0.000000 0.000000
0.872549 0.000000 0.000000
0.886336 0.000000 0.000000
0.900000 0.000000 0.000000
0.911703 0.007353 0.000000
0.923529 0.016912 0.000000
0.940808 0.034436 0.000000
0.950491 0.048039 0.000000
0.966360 0.061888 0.000000
0.975368 0.075490 0.000000
0.987622 0.089093 0.000000
1.000000 0.105882 0.000000
1.000000 0.114890 0.000000
1.000000 0.125981 0.000000
1.000000 0.135907 0.000000
1.000000 0.149019 0.000000
1.000000 0.158946 0.000000
1.000000 0.174387 0.000000
1.000000 0.185478 0.000000
1.000000 0.207598 0.000000
0.000000 0.013113 0.000674
0.000000 0.016360 0.003922
0.000000 0.016360 0.000000
0.002758 0.019117 0.002758
0.007598 0.016360 0.000000
0.012439 0.017034 0.000000
0.017953 0.020956 0.000000
0.038909 0.029228 0.000000
0.053922 0.028799 0.000000
0.072120 0.037071 0.000000
0.089645 0.041912 0.000000
0.111090 0.045159 0.000000
0.131802 0.054841 0.000000
0.147488 0.056250 0.000000
0.168689 0.057353 0.000000
0.187684 0.062071 0.000000
0.210172 0.067035 0.000000
0.235110 0.071202 0.000000
0.254228 0.071262 0.000000
0.275490 0.071936 0.000000
0.301654 0.071936 0.000000
0.325246 0.075184 0.000000
0.350858 0.075184 0.000000
0.377145 0.075184 0.000000
0.400184 0.075184 0.000000
0.425797 0.071262 0.000000
0.448836 0.067647 0.000000
0.478370 0.063419 0.000000
0.499204 0.059498 0.000000
0.527696 0.053125 0.000000
0.550613 0.048836 0.000000
0.573100 0.040564 0.000000
0.596753 0.030760 0.000000
0.621079 0.022672 0.000000
0.639645 0.013909 0.000000
0.663358 0.005944 0.000000
0.688848 0.001348 0.000000
0.711826 -0.001286 0.000000
0.733272 0.000000 0.000000
0.751471 0.000000 0.000000
0.769669 0.000000 0.000000
0.790441 0.000000 0.000000
0.804657 0.000000 0.000000
0.821569 0.000000 0.000000
0.837868 0.000674 0.000000
0.852696 0.002818 0.000000
0.869546 0.002022 0.000000
0.883150 0.007353 0.000000
0.896753 0.019362 0.000000
0.915503 0.030024 0.000000
0.925062 0.040809 0.000000
0.934497 0.046507 0.000000
0.950429 0.065502 0.000000
0.964093 0.079167 0.000000
0.975796 0.092770 0.000000
0.985233 0.099633 0.000000
1.000000 0.112316 0.000000
1.000000 0.121078 0.000000
1.000000 0.132169 0.000000
1.000000 0.142524 0.000000
1.000000 0.151961 0.000000
1.000000 0.160723 0.000000
1.000000 0.173406 0.000000
1.000000 0.185172 0.000000
1.000000 0.196875 0.000000
0.000000 0.025122 0.002329
0.000000 0.025122 -0.000674
0.000000 0.025122 0.002084
0.000000 0.027880 0.001593
0.006006 0.027451 0.002329
0.011765 0.029044 0.003248
0.018872 0.030637 0.000000
0.029964 0.030637 0.000000
0.052328 0.042647 0.000000
0.071446 0.050245 0.000000
0.088726 0.056495 0.000000
0.111090 0.058088 0.000000
0.131862 0.067524 0.000000
0.157231 0.068260 0.000000
0.176348 0.073774 0.000000
0.193872 0.073774 0.000000
0.215319 0.077696 0.000000
0.241361 0.083885 0.000000
0.259069 0.081618 0.000000
0.281985 0.083763 0.000000
0.303799 0.083946 0.000000
0.332108 0.085539 0.000000
0.355760 0.088848 0.000000
0.379535 0.087929 0.000000
0.403431 0.083089 0.000000
0.426348 0.083946 0.000000
0.457231 0.082843 0.000000
0.479963 0.077696 0.000000
0.504657 0.073774 0.000000
0.530943 0.069853 0.000000
0.553309 0.065809 0.000000
0.578554 0.058640 0.000000
0.600000 0.052206 0.000000
0.624326 0.050245 0.000000
0.646691 0.042402 0.000000
0.670650 0.033027 0.000000
0.695343 0.028309 0.000000
0.717709 0.020466 0.000000
0.736520 0.014583 0.000000
0.759559 0.014215 0.000000
0.776961 0.014093 0.000000
0.794546 0.011826 0.000000
0.814461 0.014215 0.000000
0.826777 0.015258 0.000000
0.843260 0.019363 0.000000
0.859191 0.026532 0.000000
0.875858 0.034436 0.000000
0.890257 0.040134 0.000000
0.902941 0.048897 0.000000
0.915625 0.057659 0.000000
0.931127 0.068750 0.000000
0.938664 0.077512 0.000000
0.955269 0.086275 0.000000
0.966360 0.095037 0.000000
0.979044 0.107720 0.000000
0.993627 0.120711 0.000000
1.000000 0.127573 0.000000
1.000000 0.136152 0.000000
1.000000 0.144363 0.000000
1.000000 0.159436 0.000000
1.000000 0.168138 0.000000
1.000000 0.177635 0.000000
1.000000 0.190074 0.000000
1.000000 0.202757 0.000000
1.000000 0.221201 0.000000
0.000000 0.036397 0.002513
0.000000 0.036397 0.003922
0.000000 0.035723 0.001838
0.000000 0.037561 0.003922
0.003677 0.041482 0.002513
0.008517 0.043566 0.000000
0.017279 0.041728 0.000000
0.029964 0.044240 0.000000
0.047488 0.048161 0.000000
0.065012 0.057843 0.000000
0.086459 0.065258 0.000000
0.106250 0.071446 0.000000
0.128616 0.077696 0.000000
0.147060 0.077206 0.000000
0.174755 0.084866 0.000000
0.196201 0.086887 0.000000
0.216238 0.087377 0.000000
0.239032 0.092648 0.000000
0.255821 0.091054 0.000000
0.283762 0.096630 0.000000
0.305944 0.096630 0.000000
0.331311 0.099142 0.000000
0.354779 0.102451 0.000000
0.382047 0.099142 0.000000
0.403431 0.096630 0.000000
0.433088 0.100000 0.000000
0.456005 0.098775 0.000000
0.483517 0.093934 0.000000
0.508885 0.091299 0.000000
0.530943 0.084253 0.000000
0.553309 0.083333 0.000000
0.578186 0.075612 0.000000
0.601961 0.073652 0.000000
0.624326 0.070282 0.000000
0.650612 0.063971 0.000000
0.676103 0.059926 0.000000
0.697549 0.055393 0.000000
0.718996 0.052083 0.000000
0.739032 0.049265 0.000000
0.763847 0.048713 0.000000
0.774448 0.044301 0.000000
0.794424 0.042831 0.000000
0.815257 0.046752 0.000000
0.831679 0.050674 0.000000
0.840380 0.050674 0.000000
0.856679 0.054228 0.000000
0.872794 0.061581 0.000000
0.886398 0.066422 0.000000
0.902941 0.074203 0.000000
0.913603 0.079412 0.000000
0.927206 0.086274 0.000000
0.942218 0.095037 0.000000
0.956188 0.103799 0.000000
0.965502 0.110048 0.000000
0.977696 0.118811 0.000000
0.991728 0.130086 0.000000
1.000000 0.140258 0.000000
1.000000 0.147610 0.000000
1.000000 0.157782 0.000000
1.000000 0.166544 0.000000
1.000000 0.177819 0.000000
1.000000 0.186581 0.000000
1.000000 0.196753 0.000000
1.000000 0.208517 0.000000
1.000000 0.228554 0.000000
0.000000 0.050000 0.003922
0.000000 0.053002 0.003922
0.000000 0.050000 0.001838
0.000000 0.050000 0.000000
0.000000 0.050000 0.000000
0.008517 0.054412 0.003248
0.020710 0.057844 0.005760
0.029964 0.057844 0.000000
0.042647 0.058334 0.000000
0.053248 0.059253 0.000000
0.081127 0.071447 0.000000
0.100919 0.080209 0.000000
0.124019 0.089216 0.000000
0.145649 0.093321 0.000000
0.170833 0.097059 0.000000
0.196201 0.102880 0.000000
0.217157 0.100490 0.000000
0.242953 0.104902 0.000000
0.267892 0.108824 0.000000
0.287684 0.112745 0.000000
0.313480 0.112745 0.000000
0.336336 0.113235 0.000000
0.355392 0.109926 0.000000
0.386887 0.115135 0.000000
0.407353 0.112745 0.000000
0.433640 0.113296 0.000000
0.459927 0.112745 0.000000
0.480147 0.108824 0.000000
0.508579 0.105392 0.000000
0.535172 0.105698 0.000000
0.557231 0.100981 0.000000
0.579596 0.099448 0.000000
0.601961 0.093138 0.000000
0.628799 0.089767 0.000000
0.654534 0.085417 0.000000
0.679535 0.084008 0.000000
0.699265 0.077451 0.000000
0.722426 0.076961 0.000000
0.743995 0.076961 0.000000
0.761336 0.076410 0.000000
0.776961 0.076470 0.000000
0.793505 0.074571 0.000000
0.811030 0.073652 0.000000
0.828064 0.076961 0.000000
0.845098 0.078187 0.000000
0.859191 0.079595 0.000000
0.872794 0.084804 0.000000
0.886398 0.085416 0.000000
0.900000 0.096569 0.000000
0.915625 0.100981 0.000000
0.927206 0.103186 0.000000
0.940992 0.112745 0.000000
0.953676 0.117892 0.000000
0.966360 0.126655 0.000000
0.979044 0.134069 0.000000
0.991789 0.144179 0.000000
1.000000 0.149019 0.000000
1.000000 0.160294 0.000000
1.000000 0.170466 0.000000
1.000000 0.175307 0.000000
1.000000 0.184068 0.000000
0.997242 0.190563 0.000000
1.000000 0.205514 0.000000
1.000000 0.213848 0.000000
1.000000 0.234804 0.000000
0.000000 0.063603 0.003922
0.000000 0.067096 0.003922
0.000000 0.063603 0.003922
0.000000 0.063603 0.003922
0.000000 0.067096 0.003922
0.003493 0.066851 0.003248
0.014522 0.071017 0.005086
0.024203 0.071017 0.000000
0.034804 0.071446 0.000000
0.055331 0.075368 0.000000
0.069363 0.080208 0.000000
0.096140 0.088542 0.000000
0.116176 0.098162 0.000000
0.137561 0.102758 0.000000
0.163664 0.110662 0.000000
0.189951 0.114583 0.000000
0.212745 0.118505 0.000000
0.235600 0.118934 0.000000
0.265319 0.122427 0.000000
0.290258 0.125919 0.000000
0.316667 0.128615 0.000000
0.336642 0.126348 0.000000
0.362438 0.126164 0.000000
0.385416 0.128738 0.000000
0.415196 0.132292 0.000000
0.434069 0.126348 0.000000
0.463480 0.126348 0.000000
0.486213 0.122427 0.000000
0.512500 0.122427 0.000000
0.534865 0.122427 0.000000
0.561029 0.118382 0.000000
0.582475 0.113541 0.000000
0.605882 0.114154 0.000000
0.629718 0.110662 0.000000
0.654963 0.103369 0.000000
0.680024 0.102819 0.000000
0.703186 0.102819 0.000000
0.722917 0.102819 0.000000
0.740441 0.098897 0.000000
0.757966 0.095405 0.000000
0.780454 0.100368 0.000000
0.796936 0.098897 0.000000
0.817340 0.102206 0.000000
0.828064 0.099326 0.000000
0.841667 0.100122 0.000000
0.853554 0.099326 0.000000
0.869730 0.103248 0.000000
0.885969 0.106862 0.000000
0.899019 0.114583 0.000000
0.913603 0.120405 0.000000
0.924817 0.125245 0.000000
0.944301 0.133579 0.000000
0.953983 0.134926 0.000000
0.964093 0.140196 0.000000
0.981189 0.152023 0.000000
0.991299 0.157292 0.000000
1.000000 0.165564 0.000000
1.000000 0.174387 0.000000
1.000000 0.177329 0.000000
1.000000 0.187991 0.000000
1.000000 0.196752 0.000000
1.000000 0.205515 0.000000
1.000000 0.215932 0.000000
1.000000 0.223040 0.000000
1.000000 0.243137 0.000000
0.000000 0.077206 0.003922
0.000000 0.078125 0.003922
0.000000 0.081618 0.005760
0.000000 0.078370 0.003922
0.000000 0.079779 0.003922
0.000000 0.084375 0.003922
0.006740 0.083456 0.002329
0.018014 0.086213 0.002513
0.029535 0.086397 -0.002084
0.046998 0.089400 0.000000
0.065441 0.094240 0.000000
0.085233 0.096814 0.000000
0.106985 0.106495 0.000000
0.136274 0.120343 0.000000
0.158824 0.124020 0.000000
0.185110 0.132108 0.000000
0.211398 0.137622 0.000000
0.233824 0.136029 0.000000
0.265319 0.140809 0.000000
0.292035 0.143872 0.000000
0.317892 0.142647 0.000000
0.340257 0.139951 0.000000
0.366544 0.143872 0.000000
0.388909 0.142340 0.000000
0.415196 0.143872 0.000000
0.437562 0.142524 0.000000
0.463848 0.142524 0.000000
0.488787 0.139890 0.000000
0.511642 0.139951 0.000000
0.537990 0.141728 0.000000
0.557231 0.135906 0.000000
0.583517 0.132108 0.000000
0.611765 0.129534 0.000000
0.636091 0.126654 0.000000
0.656006 0.128186 0.000000
0.683946 0.128737 0.000000
0.701470 0.121691 0.000000
0.722917 0.121691 0.000000
0.740441 0.120343 0.000000
0.761887 0.120343 0.000000
0.779535 0.120343 0.000000
0.796936 0.120343 0.000000
0.808579 0.120343 0.000000
0.827757 0.120343 0.000000
0.844363 0.124265 0.000000
0.855270 0.121691 0.000000
0.871446 0.124265 0.000000
0.885049 0.126899 0.000000
0.898652 0.131740 0.000000
0.912255 0.137929 0.000000
0.925858 0.141422 0.000000
0.937071 0.143872 0.000000
0.952328 0.151103 0.000000
0.964093 0.157292 0.000000
0.978922 0.164705 0.000000
0.987806 0.170895 0.000000
1.000000 0.174878 0.000000
1.000000 0.183149 0.000000
1.000000 0.190564 0.000000
1.000000 0.196753 0.000000
1.000000 0.204167 0.000000
1.000000 0.212929 0.000000
1.000000 0.221691 0.000000
1.000000 0.232108 0.000000
1.000000 0.243015 0.000000
0.000000 0.104228 0.003922
0.000000 0.101225 0.003922
0.000000 0.104657 0.006005
0.000000 0.102573 0.003922
0.000000 0.102573 0.007843
0.000000 0.102573 0.003922
0.000000 0.106495 0.003922
0.006679 0.106495 0.002267
0.021936 0.111580 0.000000
0.041728 0.110845 0.000000
0.060601 0.111764 0.000000
0.080698 0.118260 0.000000
0.102145 0.118260 0.000000
0.131617 0.131863 0.000000
0.155086 0.140625 0.000000
0.180270 0.147733 0.000000
0.205882 0.153554 0.000000
0.236703 0.159068 0.000000
0.259131 0.159130 0.000000
0.287684 0.161887 0.000000
0.313970 0.161397 0.000000
0.345527 0.161397 0.000000
0.368811 0.155821 0.000000
0.393566 0.162133 0.000000
0.417463 0.157291 0.000000
0.440380 0.159743 0.000000
0.467770 0.161030 0.000000
0.492402 0.159743 0.000000
0.516422 0.157475 0.000000
0.541054 0.152697 0.000000
0.565074 0.153554 0.000000
0.593627 0.154780 0.000000
0.617647 0.149632 0.000000
0.639400 0.149019 0.000000
0.666299 0.149632 0.000000
0.684743 0.145711 0.000000
0.709314 0.145711 0.000000
0.726471 0.143076 0.000000
0.746630 0.140502 0.000000
0.764154 0.140135 0.000000
0.783333 0.141789 0.000000
0.800858 0.144179 0.000000
0.816115 0.141789 0.000000
0.831986 0.142096 0.000000
0.848284 0.146752 0.000000
0.860968 0.147978 0.000000
0.873652 0.150429 0.000000
0.890257 0.155760 0.000000
0.900000 0.154534 0.000000
0.913603 0.155453 0.000000
0.931127 0.164215 0.000000
0.940992 0.165318 0.000000
0.952145 0.170894 0.000000
0.966360 0.174816 0.000000
0.977390 0.179351 0.000000
0.991299 0.184926 0.000000
1.000000 0.190992 0.000000
1.000000 0.199755 0.000000
1.000000 0.208518 0.000000
1.000000 0.213357 0.000000
1.000000 0.220465 0.000000
1.000000 0.231985 0.000000
1.000000 0.235723 0.000000
1.000000 0.247488 0.000000
1.000000 0.261091 0.000000
0.000000 0.116912 0.003922
0.000000 0.120098 0.007108
0.000000 0.118750 0.002574
0.000000 0.120098 0.003922
0.000000 0.120098 0.004167
0.000000 0.116851 0.003922
0.000000 0.118505 0.002329
0.000000 0.119424 0.003922
0.007598 0.124019 -0.000245
0.029044 0.127941 0.000000
0.053064 0.133700 0.000000
0.071936 0.131862 0.000000
0.093383 0.135784 0.000000
0.111826 0.136703 0.000000
0.148039 0.155392 0.000000
0.176593 0.163235 0.000000
0.198774 0.167892 0.000000
0.227267 0.174265 0.000000
0.256618 0.181250 0.000000
0.280576 0.178921 0.000000
0.309559 0.181618 0.000000
0.336336 0.182108 0.000000
0.367157 0.182108 0.000000
0.398407 0.180576 0.000000
0.423774 0.178921 0.000000
0.445405 0.178370 0.000000
0.467770 0.175000 0.000000
0.494056 0.177635 0.000000
0.521324 0.175000 0.000000
0.545895 0.171017 0.000000
0.569117 0.171202 0.000000
0.596324 0.171078 0.000000
0.621568 0.167892 0.000000
0.648162 0.171385 0.000000
0.670220 0.167156 0.000000
0.688665 0.167156 0.000000
0.714706 0.168627 0.000000
0.731311 0.166421 0.000000
0.748285 0.162868 0.000000
0.768996 0.162500 0.000000
0.783333 0.163235 0.000000
0.800858 0.161703 0.000000
0.814338 0.162500 0.000000
0.831986 0.163235 0.000000
0.845588 0.161275 0.000000
0.860968 0.168198 0.000000
0.875980 0.166299 0.000000
0.890257 0.171078 0.000000
0.902941 0.171078 0.000000
0.915625 0.175000 0.000000
0.930392 0.177818 0.000000
0.941544 0.183395 0.000000
0.956862 0.187500 0.000000
0.964093 0.189155 0.000000
0.979044 0.198529 0.000000
0.987806 0.198958 0.000000
1.000000 0.210294 0.000000
1.000000 0.212438 0.000000
1.000000 0.220466 0.000000
1.000000 0.225980 0.000000
1.000000 0.230882 0.000000
1.000000 0.239644 0.000000
1.000000 0.249509 0.000000
1.000000 0.257169 0.000000
1.000000 0.273039 0.000000
0.000000 0.137439 0.007659
0.000000 0.136887 0.006924
0.000000 0.135968 0.004106
0.000000 0.138786 0.007843
0.000000 0.141300 0.011520
0.000000 0.137623 0.008517
0.000000 0.137623 0.007843
0.000000 0.137806 0.004106
0.000000 0.144975 0.007353
0.008333 0.145466 0.003922
0.031128 0.150552 0.000000
0.057414 0.151654 0.000000
0.080699 0.153309 0.000000
0.106066 0.153492 0.000000
0.133456 0.162255 0.000000
0.154902 0.165074 0.000000
0.191973 0.182721 0.000000
0.219239 0.192279 0.000000
0.245711 0.193566 0.000000
0.277512 0.200368 0.000000
0.308639 0.203064 0.000000
0.335846 0.200551 0.000000
0.362622 0.204290 0.000000
0.392647 0.202758 0.000000
0.419117 0.194362 0.000000
0.449326 0.196629 0.000000
0.475613 0.192708 0.000000
0.499449 0.193812 0.000000
0.526654 0.192525 0.000000
0.551532 0.189583 0.000000
0.577022 0.192525 0.000000
0.607047 0.192525 0.000000
0.629412 0.192525 0.000000
0.651777 0.191483 0.000000
0.674142 0.188603 0.000000
0.691973 0.184069 0.000000
0.713235 0.188419 0.000000
0.733395 0.184682 0.000000
0.752023 0.184682 0.000000
