Color/Kodak/Kodak Portra 400 VC 1 - 65x.cube
TITLE "Kodak Portra 400 VC 1 -"
LUT_3D_SIZE 9
DOMAIN_MIN 0.000000 0.000000 0.000000
DOMAIN_MAX 1.000000 1.000000 1.000000
0.000000 0.000000 0.000000
0.050000 0.003922 0.000000
0.186274 0.031373 0.000000
0.356372 0.043137 0.000000
0.537254 0.019608 0.000000
0.700980 0.003922 0.000000
0.821569 0.048039 0.000000
0.925980 0.117647 0.000000
1.000000 0.192157 0.000000
0.000000 0.050490 0.003922
0.039216 0.066177 0.000000
0.209314 0.104902 0.000000
0.379902 0.116667 0.000000
0.550980 0.109314 0.000000
0.712745 0.110294 0.000000
0.827941 0.132353 0.000000
0.923040 0.172059 0.000000
1.000000 0.226961 0.000000
0.000000 0.202941 0.034314
0.000000 0.204412 0.041176
0.147059 0.232353 0.000000
0.402941 0.271569 0.000000
0.606863 0.245098 0.000000
0.740686 0.244118 0.000000
0.842157 0.248039 0.000000
0.930392 0.262256 0.000000
1.000000 0.299020 0.000000
0.000000 0.361765 0.116176
0.000000 0.372059 0.130392
0.022059 0.384314 0.114706
0.325000 0.416667 0.040196
0.592156 0.448039 0.000000
0.748040 0.409804 0.000000
0.852941 0.378922 0.000000
0.942156 0.381373 0.000000
1.000000 0.398529 0.000000
0.000000 0.503922 0.203922
0.000000 0.508333 0.210295
0.000000 0.504902 0.217647
0.266177 0.523529 0.188235
0.482353 0.547059 0.131373
0.707353 0.584804 0.000000
0.834314 0.553922 0.000000
0.947549 0.513235 0.000000
1.000000 0.503922 0.000000
0.000000 0.610784 0.275980
0.000000 0.620588 0.287745
0.112255 0.607843 0.291667
0.276961 0.616177 0.282844
0.436765 0.636765 0.255883
0.610784 0.659314 0.214706
0.797549 0.700980 0.136764
0.914705 0.678432 0.000000
1.000000 0.651471 0.000000
0.146078 0.721569 0.369608
0.197548 0.723530 0.375490
0.265686 0.716667 0.375490
0.350490 0.714216 0.382353
0.456863 0.726470 0.365686
0.580392 0.747059 0.348039
0.712745 0.759804 0.309804
0.879902 0.794608 0.271569
0.996078 0.787255 0.209804
0.381372 0.824019 0.495098
0.400489 0.824510 0.499019
0.425000 0.820588 0.499510
0.475000 0.820098 0.506862
0.530392 0.820588 0.504902
0.614706 0.835784 0.495098
0.710784 0.848530 0.479411
0.824510 0.863235 0.456373
0.959804 0.886765 0.436274
0.600000 0.929412 0.678431
0.607843 0.929412 0.682353
0.623529 0.930392 0.683334
0.650980 0.929412 0.690196
0.688236 0.929412 0.701961
0.730882 0.938725 0.694118
0.788235 0.949020 0.689216
0.859314 0.964706 0.678431
0.941176 0.976471 0.666667
0.000000 0.000490 0.065687
0.053922 0.000000 0.069117
0.185784 0.000000 0.066177
0.357843 0.000000 0.054412
0.529411 0.000000 0.049509
0.689706 0.000000 0.016667
0.804902 0.019608 0.000000
0.910294 0.102451 0.000000
1.000000 0.176471 0.000000
0.000000 0.070098 0.081373
0.053922 0.081373 0.092647
0.205392 0.092647 0.084314
0.375980 0.100000 0.069117
0.552941 0.094608 0.045588
0.701470 0.097059 0.010294
0.814216 0.121079 0.000000
0.915196 0.161764 0.000000
1.000000 0.219118 0.000000
0.000000 0.229902 0.145589
0.000000 0.224510 0.138725
0.167157 0.244608 0.119608
0.422059 0.263726 0.069608
0.602451 0.244118 0.027451
0.727941 0.236765 0.000000
0.831863 0.242647 0.000000
0.928431 0.264216 0.000000
1.000000 0.298040 0.000000
0.000000 0.378431 0.187255
0.000000 0.389216 0.201471
0.114216 0.389216 0.197549
0.345588 0.424020 0.163235
0.595098 0.444608 0.080882
0.746569 0.399510 0.000000
0.848039 0.380392 0.000000
0.938725 0.381373 0.000000
1.000000 0.397059 0.000000
0.000000 0.517647 0.254412
0.000000 0.520098 0.260294
0.109804 0.510784 0.264216
0.294608 0.529411 0.245588
0.496078 0.550980 0.206863
0.704902 0.580883 0.127451
0.833334 0.549019 0.000000
0.944608 0.506863 0.000000
1.000000 0.507844 0.000000
0.000000 0.617157 0.310785
0.014216 0.626470 0.322549
0.185784 0.618627 0.325000
0.310294 0.620098 0.322549
0.451961 0.637255 0.297549
0.617157 0.661765 0.264216
0.797549 0.698039 0.205882
0.917157 0.676471 0.118627
1.000000 0.648039 0.000000
0.200490 0.724510 0.392157
0.242647 0.727451 0.401471
0.299510 0.723530 0.402451
0.374020 0.715686 0.405882
0.471079 0.729412 0.394608
0.585294 0.744607 0.375000
0.719118 0.762745 0.344117
0.882353 0.794608 0.309804
0.996078 0.789706 0.254902
0.397059 0.824019 0.510784
0.413726 0.825000 0.514706
0.443627 0.824510 0.518627
0.486765 0.820588 0.522549
0.543627 0.824019 0.522549
0.617647 0.833824 0.511275
0.714706 0.850980 0.499019
0.824510 0.862745 0.478921
0.959804 0.886765 0.455882
0.607843 0.933333 0.686275
0.615686 0.929902 0.690196
0.630883 0.929902 0.690686
0.654902 0.930392 0.695588
0.692157 0.929412 0.705882
0.733333 0.937745 0.702451
0.789216 0.949020 0.696569
0.859314 0.961764 0.686765
0.941176 0.976961 0.674510
0.000000 0.003922 0.232353
0.027451 0.000000 0.229412
0.190196 0.000000 0.236275
0.373039 0.000000 0.221568
0.561764 0.000000 0.189216
0.695588 0.000000 0.172549
0.793137 0.089216 0.189216
0.902451 0.136765 0.165686
1.000000 0.195098 0.141177
0.000000 0.104902 0.241176
0.000000 0.097549 0.249019
0.205392 0.108824 0.249509
0.385784 0.104902 0.233333
0.572059 0.006863 0.199020
0.690686 0.123530 0.206373
0.801471 0.156863 0.190196
0.906372 0.187745 0.165196
1.000000 0.234804 0.142157
0.000000 0.250981 0.258823
0.000000 0.255883 0.263726
0.219608 0.263726 0.275490
0.418137 0.268627 0.263726
0.586275 0.266667 0.245098
0.710294 0.259804 0.220588
0.817647 0.263726 0.193137
0.917157 0.279412 0.165686
1.000000 0.308824 0.139216
0.000000 0.408824 0.303921
0.118628 0.421078 0.322549
0.228432 0.413235 0.315686
0.390196 0.434804 0.302451
0.604412 0.433824 0.260784
0.737255 0.399510 0.224510
0.835784 0.390196 0.195588
0.929902 0.392647 0.165196
1.000000 0.408824 0.141667
0.115686 0.539216 0.358823
0.150981 0.544608 0.354412
0.244118 0.531373 0.351961
0.356863 0.534804 0.348040
0.521568 0.556863 0.322549
0.708824 0.576961 0.275980
0.834314 0.544118 0.219608
0.939706 0.513726 0.175000
1.000000 0.511764 0.134314
0.155392 0.632843 0.384804
0.219118 0.640686 0.393627
0.287255 0.632843 0.395098
0.370098 0.624020 0.397059
0.485294 0.643628 0.380883
0.630392 0.662745 0.357353
0.800490 0.697059 0.318628
0.917157 0.673039 0.257843
1.000000 0.642157 0.181372
0.288235 0.732353 0.449020
0.315687 0.734804 0.452451
0.359804 0.730392 0.454902
0.419118 0.724510 0.456863
0.497059 0.728431 0.451961
0.600980 0.745588 0.436275
0.725490 0.763725 0.413726
0.887255 0.798039 0.387745
0.996078 0.786275 0.337255
0.433824 0.829412 0.550000
0.450980 0.830883 0.553431
0.475490 0.828922 0.557353
0.513726 0.824019 0.557843
0.563235 0.822549 0.561764
0.632843 0.835784 0.553431
0.722549 0.849020 0.542156
0.829412 0.863725 0.523039
0.963235 0.890686 0.509804
0.615686 0.933333 0.701961
0.623529 0.930392 0.702941
0.639216 0.930392 0.705882
0.665196 0.931863 0.712255
0.698039 0.930392 0.720589
0.738725 0.937255 0.717647
0.793137 0.949020 0.713726
0.859804 0.961274 0.704902
0.944118 0.979412 0.697059
0.000000 0.022059 0.393137
0.000000 0.025980 0.395588
0.182843 0.034314 0.398529
0.383823 0.022059 0.404902
0.566666 0.000000 0.385294
0.724510 0.000000 0.352451
0.830882 0.000000 0.301961
0.916667 0.000000 0.278922
1.000000 0.195098 0.288726
0.000000 0.116667 0.399510
0.000000 0.127451 0.407353
0.198529 0.139705 0.408824
0.399510 0.148040 0.412745
0.579902 0.146079 0.397059
0.723039 0.120098 0.358823
0.828922 0.013725 0.304902
0.912745 0.153431 0.296569
1.000000 0.259804 0.303921
0.000000 0.272059 0.404412
0.000000 0.280883 0.413725
0.216667 0.284314 0.428431
0.430392 0.302941 0.435785
0.596569 0.300980 0.413725
0.720588 0.257843 0.366666
0.813726 0.271569 0.342647
0.895098 0.311765 0.330392
0.998039 0.334804 0.311765
0.000000 0.425980 0.422059
0.000000 0.444118 0.437745
0.271079 0.448039 0.447549
0.450490 0.451961 0.451961
0.590196 0.433824 0.422549
0.707353 0.420588 0.394117
0.812745 0.412745 0.367157
0.906862 0.410784 0.336274
1.000000 0.424510 0.317157
0.193628 0.563235 0.455882
0.270098 0.570588 0.468137
0.375490 0.564705 0.475000
0.446568 0.553432 0.467647
0.557353 0.565196 0.453922
0.716667 0.570589 0.418627
0.832843 0.537254 0.379412
0.925490 0.526961 0.347549
1.000000 0.524020 0.319118
0.351961 0.654902 0.499020
0.393627 0.661275 0.512255
0.411274 0.658824 0.500490
0.455883 0.647059 0.491177
0.527941 0.648039 0.484804
0.648529 0.668137 0.469118
0.804902 0.693137 0.440686
0.917157 0.666667 0.387745
1.000000 0.636765 0.342157
0.405882 0.745098 0.539706
0.415686 0.747059 0.537745
0.432843 0.744117 0.531863
0.481373 0.739216 0.533823
0.537255 0.730882 0.529902
0.623039 0.748039 0.520098
0.737745 0.766177 0.505883
0.887255 0.796569 0.484314
0.997059 0.783333 0.437745
0.483333 0.833824 0.603432
0.497549 0.838235 0.609314
0.517157 0.835294 0.608333
0.549510 0.829412 0.610294
0.594608 0.825980 0.612745
0.651961 0.834804 0.609804
0.734314 0.847549 0.602451
0.836274 0.863725 0.591176
0.968137 0.894608 0.581372
0.627451 0.933333 0.724020
0.636765 0.937255 0.729412
0.650980 0.936765 0.729412
0.674510 0.934804 0.733333
0.707843 0.933333 0.739216
0.748040 0.936274 0.745098
0.800981 0.949020 0.741176
0.867157 0.964706 0.733333
0.945098 0.978922 0.724020
0.000000 0.068628 0.541176
0.000000 0.076470 0.541176
0.150000 0.092157 0.546078
0.383823 0.111765 0.549019
0.580392 0.117647 0.556863
0.706863 0.115686 0.524020
0.836274 0.181372 0.497059
0.933823 0.163726 0.458333
1.000000 0.129412 0.417647
0.000000 0.154412 0.541176
0.000000 0.163726 0.546569
0.176471 0.175490 0.549019
0.404902 0.197549 0.559804
0.584804 0.205392 0.561275
0.713235 0.205392 0.530392
0.837745 0.247549 0.504412
0.932353 0.213235 0.460294
1.000000 0.185784 0.417647
0.000000 0.309804 0.553921
0.000000 0.313725 0.564215
0.218627 0.306863 0.567647
0.429902 0.322059 0.568137
0.596078 0.333334 0.568627
0.715686 0.332843 0.542157
0.833334 0.345098 0.513726
0.926470 0.300000 0.464706
1.000000 0.292157 0.427451
0.000000 0.432353 0.545098
0.000000 0.448039 0.562255
0.243628 0.449019 0.561765
0.442647 0.451961 0.573039
0.598039 0.465686 0.575000
0.716667 0.467157 0.555392
0.820588 0.430883 0.512255
0.906862 0.406863 0.467157
0.999510 0.434314 0.454902
0.117647 0.570588 0.562745
0.222549 0.578431 0.572549
0.345098 0.579412 0.574510
0.475000 0.580392 0.580392
0.596078 0.580392 0.584313
0.703921 0.563235 0.555392
0.804902 0.548039 0.522549
0.899019 0.533334 0.487745
0.998039 0.531373 0.458823
0.350490 0.675980 0.586275
0.395588 0.685785 0.596078
0.455392 0.680392 0.598039
0.537255 0.677451 0.605882
0.588236 0.664216 0.593627
0.675980 0.677451 0.586275
0.808823 0.684314 0.556863
0.918627 0.650000 0.509314
1.000000 0.642157 0.478431
0.473529 0.761764 0.630392
0.496569 0.764706 0.635294
0.532353 0.761764 0.638235
0.562255 0.755392 0.631373
0.592157 0.747059 0.619608
0.651471 0.749020 0.612255
0.755882 0.771568 0.607843
0.891176 0.792647 0.585294
1.000000 0.775490 0.538235
0.575000 0.841667 0.690687
0.582843 0.844608 0.692647
0.584314 0.843627 0.686275
0.592647 0.841176 0.672549
0.629902 0.835784 0.673039
0.675490 0.832353 0.672059
0.750000 0.848529 0.669118
0.846078 0.865196 0.663236
0.975981 0.898529 0.657353
0.658824 0.939215 0.762745
0.662745 0.941176 0.764706
0.664706 0.941176 0.758823
0.688236 0.941176 0.762745
0.719608 0.937255 0.766666
0.760784 0.937255 0.772549
0.808823 0.949020 0.772549
0.875000 0.964706 0.768627
0.949020 0.980392 0.758823
0.000000 0.130882 0.669608
0.000000 0.138725 0.670098
0.133823 0.152941 0.673529
0.387745 0.174020 0.679902
0.571078 0.203922 0.679412
0.715196 0.217157 0.677451
0.812255 0.228432 0.648529
0.922549 0.295098 0.626470
1.000000 0.357353 0.612255
0.000000 0.200981 0.669608
0.000000 0.210785 0.679412
0.178922 0.223039 0.679902
0.402941 0.238236 0.683334
0.578431 0.260294 0.681863
0.715687 0.275490 0.680392
0.816176 0.285785 0.652941
0.921079 0.337255 0.630392
1.000000 0.380883 0.614706
0.000000 0.325980 0.681373
0.000000 0.323529 0.685294
0.228922 0.331372 0.686765
0.425000 0.343627 0.687255
0.584804 0.361765 0.685294
0.716667 0.375980 0.685294
0.815196 0.385294 0.659804
0.918137 0.418137 0.640686
1.000000 0.425490 0.618137
0.000000 0.448039 0.661765
0.106863 0.461275 0.676961
0.305392 0.468137 0.679902
0.436275 0.457353 0.682843
0.587745 0.475000 0.684804
0.713726 0.491177 0.690196
0.808823 0.492647 0.667157
0.912255 0.513726 0.652451
1.000000 0.482353 0.614706
0.080883 0.568627 0.667647
0.194118 0.574510 0.673529
0.313235 0.572549 0.671078
0.438726 0.572549 0.674510
0.584313 0.576470 0.685294
0.708824 0.596078 0.693627
0.806373 0.600000 0.678922
0.902451 0.565196 0.636765
0.998039 0.527451 0.589216
0.300980 0.679902 0.677451
0.346079 0.685294 0.683824
0.416176 0.685294 0.686765
0.508333 0.686275 0.687745
0.605882 0.687745 0.691667
0.707353 0.691667 0.700980
0.797058 0.675980 0.672059
0.889216 0.655882 0.637745
0.989706 0.646078 0.608333
0.479412 0.782353 0.709313
0.500490 0.783824 0.713236
0.537745 0.782353 0.715196
0.589706 0.778432 0.714706
0.654902 0.772058 0.717647
0.700490 0.762745 0.709313
0.775980 0.775980 0.705883
0.892647 0.781863 0.679412
1.000000 0.758824 0.642647
0.580882 0.855392 0.746569
0.596568 0.855882 0.750490
0.620588 0.858334 0.753432
0.657353 0.853431 0.754412
0.692647 0.849020 0.753922
0.715687 0.843627 0.741666
0.770588 0.850980 0.742157
0.862255 0.870098 0.739216
0.977451 0.896079 0.728431
0.694118 0.949020 0.815686
0.698529 0.945588 0.815686
0.715196 0.947549 0.817157
0.726961 0.945098 0.813235
0.735294 0.947059 0.801961
0.774020 0.945098 0.807843
0.820588 0.949020 0.813235
0.878921 0.964706 0.807843
0.956863 0.980392 0.801471
0.000000 0.215686 0.789215
0.000000 0.219118 0.789216
0.200000 0.227451 0.788235
0.402451 0.243137 0.785294
0.567647 0.268628 0.785294
0.703922 0.312745 0.785294
0.820588 0.331373 0.785294
0.902941 0.338235 0.758824
1.000000 0.419608 0.750000
0.000000 0.261765 0.784804
0.000000 0.271078 0.790196
0.229412 0.274510 0.789216
0.416177 0.289706 0.787745
0.575000 0.314706 0.787745
0.707843 0.353922 0.787745
0.818137 0.367157 0.786765
0.899510 0.372549 0.759314
0.999019 0.446569 0.753431
0.000000 0.354902 0.787255
0.063725 0.359804 0.788235
0.271569 0.362745 0.785294
0.439706 0.376961 0.789706
0.585294 0.398039 0.790196
0.710784 0.430882 0.786765
0.818628 0.444118 0.788235
0.898039 0.444608 0.764706
0.995098 0.503922 0.756863
0.164215 0.476961 0.772549
0.251471 0.487255 0.782353
0.309804 0.470588 0.782843
0.449019 0.474020 0.782353
0.584313 0.490687 0.780882
0.707843 0.517648 0.784314
0.811765 0.533333 0.786765
0.892157 0.534313 0.767647
0.989706 0.576471 0.764216
0.068627 0.570588 0.761765
0.189706 0.573040 0.765686
0.326471 0.576470 0.767647
0.466177 0.583333 0.774510
0.580392 0.581373 0.781373
0.704412 0.607843 0.785294
0.805883 0.620588 0.788235
0.888726 0.624510 0.772549
0.983334 0.649019 0.768628
0.270098 0.675980 0.765686
0.315196 0.679902 0.769607
0.382843 0.679412 0.772549
0.467157 0.677451 0.770588
0.566666 0.675980 0.769607
0.694608 0.687745 0.784314
0.804902 0.707843 0.793137
0.887746 0.711765 0.782353
0.983334 0.688236 0.757353
0.421569 0.776471 0.779412
0.448529 0.781373 0.784804
0.491177 0.782353 0.784314
0.553431 0.780882 0.784804
0.631373 0.780392 0.787255
0.719608 0.784804 0.792647
0.805883 0.789215 0.800981
0.883824 0.767157 0.771078
0.984314 0.758824 0.748039
0.589215 0.872059 0.812745
0.604412 0.872549 0.814216
0.627941 0.873039 0.816666
0.666667 0.874020 0.819608
0.715196 0.871078 0.820588
0.770098 0.866667 0.821078
0.805393 0.855882 0.813236
0.879412 0.874510 0.816176
0.987745 0.886765 0.794118
0.690196 0.956863 0.855883
0.698039 0.956863 0.855883
0.711765 0.957843 0.857843
0.737255 0.956863 0.859804
0.769607 0.956863 0.860784
0.808823 0.958333 0.863726
0.836274 0.956863 0.855883
0.887255 0.968137 0.855883
0.968627 0.988235 0.854902
0.108823 0.313726 0.882353
0.197058 0.314216 0.878921
0.326961 0.325000 0.878921
0.460294 0.337745 0.878921
0.588236 0.359314 0.875000
0.705392 0.394608 0.871568
0.812745 0.444117 0.871078
0.910784 0.456373 0.871568
0.996568 0.467647 0.863725
0.143627 0.342156 0.875490
0.235784 0.352941 0.882353
0.346569 0.360784 0.878921
0.470098 0.372549 0.876961
0.592156 0.392157 0.875000
0.705392 0.421569 0.869117
0.816176 0.467647 0.874510
0.910294 0.479411 0.871568
0.992157 0.490686 0.863725
0.221078 0.416177 0.877941
0.276961 0.419118 0.877941
0.371079 0.426961 0.878921
0.486274 0.437255 0.875000
0.601471 0.452451 0.871568
0.710784 0.481373 0.871568
0.813235 0.518628 0.871568
0.906862 0.532353 0.871568
0.983824 0.534314 0.858824
0.280392 0.506863 0.869118
0.319608 0.508333 0.875491
0.384314 0.506372 0.873039
0.493137 0.516667 0.875000
0.604412 0.528431 0.871078
0.713235 0.556373 0.871078
0.814706 0.583823 0.871078
0.902941 0.595588 0.871568
0.972549 0.598529 0.855882
0.308334 0.601961 0.861275
0.349510 0.606373 0.863725
0.421569 0.606373 0.863235
0.495098 0.600000 0.867157
0.596569 0.604412 0.867647
0.707353 0.625490 0.867157
0.806373 0.651471 0.869118
0.900000 0.662745 0.873039
0.968627 0.664706 0.859314
0.280392 0.683824 0.851961
0.316667 0.688236 0.853921
0.370589 0.682353 0.855392
0.465686 0.684314 0.858334
0.589215 0.687745 0.859314
0.691667 0.691667 0.865686
0.805883 0.716177 0.868138
0.897059 0.734804 0.875000
0.972059 0.739706 0.867157
0.405882 0.779902 0.860294
0.426960 0.782843 0.860294
0.467647 0.782353 0.863235
0.521568 0.777452 0.860294
0.596079 0.778432 0.858824
0.673529 0.770588 0.856373
0.791176 0.782353 0.868137
0.899510 0.805883 0.879902
0.977451 0.813726 0.879902
0.537745 0.875000 0.875000
0.552451 0.874510 0.874510
0.579412 0.875000 0.875000
0.624019 0.873039 0.875000
0.682843 0.875000 0.877451
0.750981 0.876471 0.880392
0.825490 0.879412 0.886765
0.906372 0.886765 0.894608
0.988725 0.867647 0.867157
0.685785 0.968627 0.909804
0.693138 0.968137 0.909314
0.709804 0.968627 0.910294
0.737255 0.969117 0.914215
0.774510 0.970588 0.914215
0.816176 0.971569 0.917157
0.867157 0.972549 0.918627
0.906372 0.972549 0.914215
0.980392 0.991667 0.917647
0.427451 0.466667 0.968627
0.450980 0.474510 0.969117
0.498039 0.475490 0.965686
0.571078 0.490196 0.968627
0.658824 0.509804 0.964706
0.750490 0.537255 0.964706
0.837255 0.568627 0.956863
0.922059 0.607843 0.956863
1.000000 0.615686 0.960784
0.427451 0.485785 0.968627
0.458824 0.494118 0.969117
0.504902 0.498039 0.965196
0.577451 0.508333 0.967157
0.660784 0.525490 0.964706
0.750490 0.550490 0.960784
0.837255 0.581373 0.957843
0.925491 0.616176 0.953431
1.000000 0.627451 0.960784
0.454902 0.537254 0.967647
0.473529 0.539215 0.968627
0.519608 0.543137 0.968627
0.585294 0.554902 0.964706
0.667647 0.565686 0.963725
0.751961 0.587255 0.960784
0.840196 0.614706 0.959804
0.922059 0.646079 0.956863
0.999019 0.651961 0.959804
0.452451 0.586765 0.964706
0.482353 0.595097 0.968627
0.525980 0.598529 0.966176
0.590686 0.606373 0.964706
0.670588 0.620098 0.962745
0.753432 0.635294 0.959803
0.838726 0.657353 0.955393
0.922059 0.684804 0.959314
1.000000 0.692647 0.963235
0.500000 0.678432 0.964706
0.517648 0.678921 0.964706
0.538235 0.670589 0.962745
0.578922 0.660784 0.964706
0.662745 0.672549 0.964706
0.750490 0.686275 0.965196
0.837255 0.700980 0.960784
0.924020 0.725491 0.964215
0.996078 0.733333 0.964706
0.441667 0.736274 0.958333
0.465196 0.738725 0.960784
0.511275 0.737255 0.964706
0.575000 0.738725 0.962255
0.649510 0.734804 0.965196
0.734804 0.734804 0.964706
0.836274 0.754412 0.964706
0.919608 0.774020 0.964706
0.996078 0.785784 0.968627
0.469608 0.818627 0.961765
0.481372 0.821569 0.964706
0.506863 0.817647 0.964706
0.549510 0.813726 0.964706
0.610784 0.809804 0.965686
0.715196 0.808823 0.968627
0.813726 0.805883 0.969607
0.922549 0.832353 0.976961
0.996078 0.841177 0.973530
0.565196 0.910294 0.972549
0.569608 0.906862 0.972549
0.592647 0.910294 0.975981
0.624019 0.906372 0.975981
0.669608 0.902941 0.973039
0.727451 0.902451 0.976961
0.789706 0.890196 0.975981
0.901961 0.890196 0.983824
0.999510 0.910294 0.984314
0.647059 0.988235 0.980392
0.654902 0.988235 0.980392
0.670588 0.988235 0.981372
0.698039 0.988235 0.981863
0.737255 0.988235 0.984314
0.785784 0.988235 0.984314
0.844118 0.989216 0.988235
0.914705 0.992157 0.992157
1.000000 1.000000 1.000000
