Color/Kodak/Kodak Kodachrome 25 65x.cube
TITLE "Kodak Kodachrome 25"
LUT_3D_SIZE 9
DOMAIN_MIN 0.000000 0.000000 0.000000
DOMAIN_MAX 1.000000 1.000000 1.000000
0.000000 0.000000 0.000000
0.034804 0.000000 0.000000
0.097059 0.000000 0.000000
0.177451 0.000000 0.000000
0.366667 0.000000 0.000000
0.702941 0.000000 0.000000
1.000000 0.000000 0.000000
1.000000 0.021079 0.000000
1.000000 0.262745 0.117647
0.030883 0.065687 0.015686
0.074020 0.069608 0.015196
0.170098 0.070098 0.011275
0.345589 0.069608 0.003432
0.521079 0.089216 0.003922
0.837255 0.089216 0.000000
0.978432 0.180882 0.012254
1.000000 0.309315 0.098040
1.000000 0.411275 0.183824
0.094118 0.225490 0.104902
0.144608 0.228432 0.100981
0.241176 0.232353 0.093137
0.409313 0.237255 0.081372
0.622549 0.256862 0.075490
0.767156 0.312255 0.100000
0.872550 0.367647 0.132353
0.958824 0.429412 0.167647
1.000000 0.489216 0.223529
0.151961 0.458333 0.223529
0.234804 0.455883 0.218137
0.355392 0.454412 0.206373
0.481863 0.458333 0.194608
0.607843 0.466177 0.186765
0.726961 0.480883 0.181373
0.826961 0.502941 0.185294
0.922059 0.531863 0.210294
1.000000 0.565686 0.239216
0.443137 0.600000 0.284314
0.462745 0.600000 0.282353
0.506863 0.600000 0.278431
0.569118 0.600000 0.272549
0.647058 0.601961 0.264706
0.730882 0.607843 0.258824
0.816666 0.615687 0.252941
0.910294 0.629412 0.249020
1.000000 0.645098 0.247059
0.585784 0.700980 0.330882
0.593627 0.703431 0.330882
0.614706 0.703431 0.329412
0.652451 0.703431 0.325490
0.703921 0.703431 0.319118
0.763725 0.707353 0.315196
0.833824 0.711275 0.309804
0.922059 0.716667 0.303431
1.000000 0.726961 0.295588
0.675490 0.801961 0.381373
0.682843 0.801961 0.381373
0.695098 0.801961 0.381373
0.722549 0.801961 0.377451
0.759804 0.804902 0.376471
0.809314 0.805883 0.369607
0.868628 0.808823 0.365686
0.949510 0.813726 0.361274
1.000000 0.821569 0.353921
0.777451 0.918137 0.439706
0.781372 0.918137 0.439706
0.793137 0.918137 0.439706
0.812745 0.918137 0.439216
0.840196 0.918627 0.435784
0.880392 0.918627 0.431863
0.926470 0.918627 0.427451
0.988725 0.922059 0.420098
1.000000 0.925980 0.415686
0.874510 0.984314 0.470588
0.878431 0.984314 0.470588
0.886275 0.984314 0.470588
0.898039 0.984314 0.470588
0.917647 0.984314 0.466667
0.945098 0.984314 0.465196
0.977451 0.984314 0.462745
1.000000 0.988235 0.458824
1.000000 0.992157 0.450980
0.000000 0.000000 0.046569
0.011765 0.000000 0.053922
0.062745 0.000000 0.062255
0.143627 0.000000 0.066177
0.320098 0.000000 0.051961
0.664216 0.000000 0.011275
1.000000 0.000000 0.000000
1.000000 0.008823 0.066667
1.000000 0.255392 0.258334
0.019608 0.054412 0.061765
0.054412 0.058334 0.062255
0.146569 0.061765 0.062255
0.324510 0.054412 0.046079
0.501961 0.075490 0.053922
0.821569 0.077451 0.038236
0.969608 0.162255 0.098529
1.000000 0.298039 0.206863
1.000000 0.403432 0.316667
0.085295 0.217647 0.135784
0.135784 0.220588 0.131862
0.228432 0.224510 0.128432
0.393627 0.229412 0.120588
0.618137 0.245588 0.111764
0.760784 0.304412 0.143137
0.862255 0.363725 0.187745
0.946569 0.422059 0.246569
1.000000 0.485295 0.321079
0.140686 0.454902 0.229902
0.222059 0.454412 0.223039
0.350490 0.451961 0.217647
0.477941 0.454412 0.209804
0.603921 0.463726 0.207353
0.721078 0.479412 0.213725
0.823039 0.500490 0.225980
0.914215 0.528431 0.250980
1.000000 0.563235 0.306372
0.441176 0.600000 0.284314
0.462255 0.600000 0.282353
0.504902 0.600000 0.278431
0.569118 0.600000 0.272549
0.647058 0.601961 0.264706
0.732353 0.607843 0.258824
0.816667 0.615687 0.252941
0.910294 0.627941 0.254412
1.000000 0.645098 0.274510
0.585784 0.703431 0.330882
0.593627 0.703431 0.330882
0.616177 0.703431 0.329412
0.652451 0.703431 0.325490
0.703431 0.703431 0.321079
0.763725 0.707353 0.315196
0.833824 0.711275 0.310294
0.922549 0.716667 0.303431
1.000000 0.728431 0.295588
0.675490 0.801961 0.381373
0.682843 0.801961 0.381373
0.695098 0.801961 0.381373
0.722549 0.804902 0.377451
0.759804 0.804902 0.376471
0.808823 0.805883 0.372059
0.871568 0.808823 0.365686
0.950000 0.813726 0.360784
1.000000 0.821569 0.353921
0.777451 0.918627 0.439706
0.781372 0.918627 0.439706
0.793137 0.918627 0.439706
0.812745 0.918627 0.439216
0.842157 0.918627 0.435784
0.880392 0.918627 0.431863
0.930392 0.918627 0.427941
0.989215 0.922059 0.420098
1.000000 0.926470 0.415686
0.874510 0.984314 0.470588
0.878431 0.984314 0.470588
0.886275 0.984314 0.470588
0.900490 0.984314 0.470588
0.919608 0.984314 0.466667
0.945098 0.988235 0.466667
0.980392 0.988235 0.462745
1.000000 0.988235 0.458824
1.000000 0.992157 0.450980
0.000000 0.000000 0.175490
0.000000 0.000000 0.175490
0.027451 0.000000 0.182353
0.108333 0.000000 0.183333
0.287255 0.000000 0.165686
0.640196 0.000000 0.107353
1.000000 0.000000 0.055883
1.000000 0.004412 0.130392
1.000000 0.251960 0.309804
0.003922 0.046569 0.170588
0.026961 0.050000 0.174510
0.104411 0.050490 0.182353
0.285784 0.039216 0.171079
0.471078 0.057843 0.178922
0.796079 0.061765 0.159313
0.954902 0.145588 0.207843
0.996078 0.287255 0.308824
1.000000 0.399510 0.391176
0.058824 0.205882 0.225490
0.109314 0.208824 0.224510
0.195098 0.212745 0.224510
0.358333 0.217647 0.224510
0.594117 0.227451 0.223529
0.738235 0.288725 0.268137
0.839216 0.351961 0.319608
0.924510 0.414215 0.371079
1.000000 0.477451 0.426471
0.100490 0.447549 0.296078
0.175980 0.446569 0.296078
0.320098 0.444118 0.292157
0.454412 0.446569 0.294608
0.583823 0.455392 0.302451
0.699510 0.471569 0.318137
0.799019 0.493137 0.348039
0.886765 0.522549 0.394117
0.984314 0.555392 0.445098
0.433334 0.598039 0.299019
0.453432 0.597059 0.297059
0.497059 0.596078 0.297059
0.561275 0.598039 0.297059
0.639215 0.600000 0.297059
0.723039 0.603921 0.300980
0.805883 0.612745 0.312746
0.893628 0.625490 0.340196
0.996078 0.641177 0.388235
0.583333 0.700980 0.330882
0.591176 0.700980 0.330882
0.614706 0.703431 0.329412
0.652451 0.703431 0.325490
0.703431 0.703431 0.319118
0.763725 0.705882 0.315196
0.836275 0.711275 0.309804
0.923530 0.716667 0.303431
1.000000 0.726961 0.315196
0.675490 0.801961 0.381373
0.679412 0.801961 0.381373
0.695098 0.803922 0.381373
0.722549 0.804902 0.377451
0.759804 0.805883 0.376471
0.809314 0.805883 0.372059
0.871568 0.809804 0.365686
0.950491 0.813726 0.360784
1.000000 0.824510 0.353921
0.777942 0.918627 0.443137
0.785294 0.918627 0.443137
0.796078 0.918627 0.439706
0.815196 0.918627 0.439706
0.844117 0.918627 0.435784
0.880392 0.918627 0.431863
0.930883 0.922059 0.427941
0.992647 0.922549 0.420098
1.000000 0.926470 0.416176
0.878431 0.988235 0.474510
0.882353 0.988235 0.474020
0.890196 0.988235 0.470588
0.901961 0.988235 0.470588
0.921569 0.988235 0.470588
0.948040 0.988235 0.466667
0.981372 0.988235 0.462745
1.000000 0.992157 0.458824
1.000000 0.996078 0.454902
0.000000 0.000000 0.254902
0.000000 0.000000 0.247059
0.011765 0.000000 0.249510
0.084804 0.000000 0.247059
0.250980 0.000000 0.229412
0.614216 0.000000 0.165686
1.000000 0.000000 0.100490
1.000000 0.000490 0.169607
1.000000 0.248529 0.349020
0.000000 0.032353 0.284804
0.007353 0.034804 0.288235
0.064216 0.036275 0.284804
0.245588 0.026961 0.269118
0.448039 0.037255 0.257844
0.777941 0.042157 0.233333
0.954902 0.120588 0.265196
0.993137 0.274510 0.361274
1.000000 0.391667 0.437745
0.023039 0.189216 0.358333
0.072059 0.190196 0.356863
0.158823 0.193137 0.354412
0.312745 0.198039 0.346569
0.566666 0.203431 0.331372
0.725000 0.265686 0.359314
0.827451 0.336274 0.399020
0.915196 0.402451 0.440686
0.997058 0.473529 0.485295
0.007353 0.432353 0.462255
0.090687 0.430882 0.459804
0.249020 0.430882 0.454412
0.403431 0.430882 0.450490
0.543137 0.442157 0.451961
0.667157 0.457353 0.461275
0.771078 0.483333 0.475490
0.865196 0.512745 0.499020
0.970098 0.551471 0.524020
0.379902 0.589706 0.443137
0.400490 0.588236 0.444608
0.447059 0.588236 0.450980
0.513726 0.588236 0.458823
0.593627 0.589706 0.472059
0.675980 0.594118 0.487255
0.761274 0.602941 0.504412
0.851961 0.615687 0.524510
0.968137 0.633333 0.546078
0.569117 0.699510 0.368137
0.576961 0.699510 0.368137
0.599510 0.699510 0.372059
0.638235 0.699510 0.374510
0.687255 0.699510 0.382353
0.745588 0.700980 0.398039
0.810294 0.704902 0.422549
0.890196 0.710294 0.457843
0.995098 0.719118 0.512745
0.671569 0.801961 0.381373
0.679412 0.801961 0.381373
0.695098 0.801961 0.381373
0.721078 0.804902 0.377451
0.758823 0.804902 0.376471
0.808823 0.805883 0.372059
0.872549 0.809804 0.365686
0.953921 0.813726 0.360784
1.000000 0.823039 0.364706
0.777942 0.922059 0.443627
0.785294 0.922059 0.443627
0.796078 0.922059 0.439706
0.815196 0.922059 0.439706
0.844117 0.922059 0.435784
0.883333 0.922059 0.431863
0.930883 0.922549 0.427941
0.992647 0.922549 0.423529
1.000000 0.929902 0.416176
0.882353 0.992157 0.474510
0.885785 0.992157 0.474510
0.893137 0.992157 0.474510
0.905882 0.992157 0.470588
0.925490 0.992157 0.470588
0.950490 0.992157 0.466667
0.984314 0.992157 0.466667
1.000000 0.996078 0.462745
1.000000 1.000000 0.454902
0.000000 0.000000 0.307843
0.000000 0.000000 0.300000
0.003922 0.000000 0.294118
0.065196 0.000000 0.292157
0.215686 0.000000 0.274510
0.583333 0.000000 0.210294
1.000000 0.000000 0.131373
1.000000 0.000000 0.197058
1.000000 0.231373 0.374510
0.000000 0.019608 0.344608
0.000000 0.023039 0.343137
0.029902 0.023039 0.342647
0.196079 0.015686 0.325000
0.425000 0.014706 0.301471
0.754412 0.020588 0.274510
0.964706 0.080882 0.294118
0.997059 0.249510 0.394117
1.000000 0.379902 0.474020
0.002942 0.161765 0.421568
0.031373 0.163725 0.420588
0.126471 0.167647 0.412745
0.271569 0.175490 0.407353
0.541177 0.173530 0.382353
0.726471 0.228922 0.400000
0.827451 0.312745 0.443137
0.915196 0.386765 0.483824
0.996078 0.461765 0.528431
0.000000 0.411765 0.549510
0.006373 0.411274 0.545588
0.181372 0.409314 0.537745
0.366176 0.411274 0.526471
0.519608 0.423039 0.525981
0.650000 0.442157 0.527941
0.759314 0.467647 0.537745
0.856863 0.502941 0.555882
0.964706 0.543627 0.576961
0.301960 0.576470 0.600000
0.328921 0.576470 0.600000
0.385294 0.576470 0.600000
0.463236 0.576470 0.596078
0.554902 0.578431 0.596078
0.646078 0.584313 0.596078
0.737255 0.594117 0.600000
0.834314 0.606373 0.605882
0.952941 0.625490 0.617647
0.491177 0.687745 0.606373
0.502451 0.687745 0.607843
0.525490 0.687745 0.607843
0.566666 0.687745 0.611764
0.621078 0.687745 0.615687
0.683824 0.689216 0.619607
0.757843 0.693137 0.625490
0.848039 0.700000 0.633333
0.968627 0.711275 0.641177
0.647059 0.798039 0.463726
0.653432 0.798039 0.465687
0.666667 0.798039 0.472549
0.690196 0.798039 0.484314
0.725490 0.800000 0.500000
0.768627 0.800000 0.521569
0.826471 0.801961 0.552941
0.898529 0.804902 0.589706
0.997059 0.812745 0.626470
0.777451 0.922549 0.443627
0.781372 0.922549 0.443627
0.793137 0.922549 0.443627
0.813235 0.922549 0.439706
0.844117 0.922549 0.435784
0.883333 0.922549 0.431863
0.930883 0.922549 0.427941
0.993137 0.925980 0.424019
1.000000 0.930392 0.416176
0.886275 0.996078 0.474510
0.886275 0.996078 0.474510
0.894118 0.996078 0.474510
0.908333 0.996078 0.474510
0.925490 0.996078 0.472549
0.952941 0.996078 0.470588
0.985294 0.996078 0.466667
1.000000 1.000000 0.462745
1.000000 1.000000 0.454902
0.000000 0.000000 0.352941
0.000000 0.000000 0.354412
0.000000 0.000000 0.335784
0.037745 0.000000 0.329412
0.173039 0.000000 0.317647
0.536765 0.000000 0.254902
1.000000 0.000000 0.161274
1.000000 0.000000 0.216176
1.000000 0.202451 0.396078
0.000000 0.007843 0.387745
0.000000 0.009804 0.385784
0.006863 0.011275 0.383824
0.124019 0.007843 0.372549
0.386274 0.000000 0.334804
0.721079 0.003432 0.305392
0.975000 0.031373 0.309804
1.000000 0.207843 0.411765
1.000000 0.360294 0.505392
0.000000 0.116176 0.450490
0.003922 0.121078 0.452941
0.083334 0.128922 0.449019
0.230882 0.140686 0.442157
0.491667 0.137745 0.418627
0.738235 0.172549 0.415196
0.837255 0.274019 0.469608
0.919118 0.363235 0.516177
0.996078 0.447549 0.565196
0.000000 0.375490 0.591666
0.001471 0.378431 0.589216
0.088726 0.379902 0.581373
0.328921 0.382353 0.569608
0.501961 0.396569 0.565686
0.639706 0.419117 0.568627
0.752451 0.449019 0.580392
0.852941 0.487255 0.596078
0.960784 0.531863 0.619608
0.235784 0.564705 0.666176
0.272549 0.564705 0.664706
0.340196 0.564705 0.662255
0.428431 0.564705 0.658333
0.529411 0.567157 0.654412
0.628922 0.572549 0.652941
0.722549 0.582353 0.654412
0.823039 0.598039 0.660294
0.945098 0.618137 0.668137
0.446078 0.679902 0.700980
0.457843 0.679902 0.700980
0.485294 0.679902 0.700980
0.530882 0.679902 0.699510
0.590196 0.679902 0.699510
0.657843 0.681372 0.699510
0.735294 0.685294 0.699510
0.831863 0.692157 0.700980
0.956863 0.707353 0.707353
0.565196 0.786275 0.716667
0.572549 0.786275 0.716667
0.588725 0.786275 0.719118
0.616667 0.786275 0.720588
0.657353 0.789216 0.723039
0.710784 0.790196 0.724510
0.777451 0.792647 0.726961
0.863235 0.797058 0.730882
0.976471 0.805883 0.738725
0.756373 0.921079 0.510784
0.760294 0.921079 0.510784
0.772059 0.918627 0.515686
0.788725 0.918627 0.524510
0.815196 0.918627 0.542647
0.846569 0.918627 0.567647
0.889706 0.918627 0.599020
0.944118 0.918627 0.641177
1.000000 0.921079 0.690687
0.886275 0.996078 0.478431
0.890196 0.996078 0.478431
0.898039 0.997549 0.478431
0.909804 1.000000 0.474510
0.929412 1.000000 0.474510
0.952941 1.000000 0.474510
0.988235 1.000000 0.470588
1.000000 1.000000 0.466667
1.000000 1.000000 0.458824
0.000000 0.000000 0.397058
0.000000 0.000000 0.400980
0.000000 0.000000 0.393137
0.007843 0.000000 0.369607
0.128431 0.000000 0.356863
0.466667 0.000000 0.297549
0.975490 0.000000 0.199020
1.000000 0.000000 0.220588
1.000000 0.155883 0.403922
0.000000 0.000000 0.424509
0.000000 0.000000 0.423039
0.000000 0.000000 0.420588
0.058333 0.000000 0.415196
0.313725 0.000000 0.375491
0.663725 0.000000 0.327451
0.978432 0.000000 0.320589
1.000000 0.139706 0.411765
1.000000 0.331863 0.528922
0.000000 0.067647 0.474510
0.000000 0.070588 0.476470
0.027451 0.075490 0.473529
0.197059 0.081373 0.460784
0.410784 0.098039 0.452941
0.738235 0.099510 0.421568
0.863726 0.207843 0.472549
0.930882 0.324020 0.537255
1.000000 0.424510 0.595098
0.005392 0.309314 0.607353
0.012255 0.315686 0.611274
0.048039 0.325000 0.607353
0.277942 0.332843 0.597059
0.481863 0.351960 0.593137
0.631863 0.380392 0.597059
0.751471 0.419117 0.611274
0.852941 0.463726 0.630883
0.958333 0.516177 0.657353
0.140196 0.549019 0.719608
0.185784 0.548039 0.716667
0.277452 0.546078 0.712745
0.385784 0.545098 0.707843
0.501961 0.549019 0.700980
0.606863 0.555882 0.700980
0.706863 0.566666 0.700980
0.812255 0.583823 0.704902
0.937255 0.606863 0.711765
0.398039 0.668137 0.767157
0.413235 0.668137 0.766176
0.444118 0.668137 0.765686
0.497059 0.668137 0.763235
0.560294 0.668137 0.761274
0.632843 0.669608 0.759314
0.714706 0.675980 0.759314
0.813236 0.683824 0.759314
0.945098 0.695588 0.761764
0.522549 0.777451 0.805883
0.530392 0.778432 0.805883
0.550000 0.778432 0.805883
0.581373 0.778432 0.805883
0.622549 0.778432 0.805883
0.679902 0.781373 0.805883
0.750000 0.782353 0.805883
0.840196 0.786275 0.808824
0.960784 0.798039 0.809804
0.656373 0.906862 0.821078
0.663235 0.906862 0.821078
0.675000 0.906862 0.821078
0.695098 0.906862 0.821569
0.727451 0.906862 0.825000
0.769607 0.906862 0.825490
0.824510 0.906862 0.828922
0.890686 0.909804 0.832353
0.988235 0.914706 0.840196
0.863726 0.999019 0.567647
0.866176 0.999019 0.568628
0.871569 0.999019 0.574510
0.882353 0.999019 0.585294
0.895098 0.999019 0.604902
0.913725 0.999019 0.630882
0.942157 0.999019 0.659804
0.977941 1.000000 0.699510
1.000000 1.000000 0.750000
0.000000 0.000000 0.439706
0.000000 0.000000 0.443137
0.000000 0.000000 0.443627
0.000000 0.000000 0.427941
0.068137 0.000000 0.394608
0.354412 0.000000 0.347549
0.882353 0.000000 0.241667
1.000000 0.000000 0.200980
1.000000 0.065687 0.383824
0.000000 0.000000 0.454412
0.000000 0.000000 0.454412
0.000000 0.000000 0.450980
0.010294 0.000000 0.446569
0.177451 0.000000 0.425980
0.551961 0.000000 0.362745
0.979412 0.000000 0.312255
1.000000 0.019608 0.373039
1.000000 0.280882 0.532843
0.000000 0.022549 0.500980
0.000000 0.025000 0.500980
0.000000 0.026471 0.497059
0.093628 0.022549 0.482843
0.349510 0.017157 0.456863
0.685785 0.025000 0.426471
0.921078 0.083334 0.438236
0.967157 0.252451 0.531862
1.000000 0.386765 0.606863
0.000000 0.232843 0.616667
0.005882 0.232843 0.612745
0.056373 0.236765 0.608824
0.195588 0.244608 0.600981
0.468137 0.260294 0.587745
0.635785 0.310784 0.602941
0.759313 0.364706 0.624510
0.860785 0.424510 0.650000
0.962255 0.488726 0.680882
0.000000 0.521078 0.762745
0.008334 0.519118 0.758823
0.152450 0.517157 0.751471
0.322059 0.515196 0.743627
0.462746 0.517648 0.735784
0.585784 0.525490 0.731863
0.694118 0.537745 0.733333
0.804412 0.560294 0.739216
0.933333 0.587745 0.745588
0.325490 0.652451 0.820098
0.347058 0.652451 0.817647
0.385784 0.650000 0.817157
0.448039 0.650000 0.813235
0.524510 0.650000 0.809804
0.602941 0.652451 0.805883
0.692157 0.657353 0.805392
0.797059 0.665196 0.801961
0.937255 0.679902 0.801961
0.475490 0.762745 0.872059
0.486274 0.762745 0.872059
0.505392 0.762745 0.872059
0.538235 0.765686 0.872059
0.585294 0.765686 0.871569
0.645098 0.766177 0.868138
0.722549 0.769607 0.867647
0.817157 0.773529 0.864216
0.949020 0.785294 0.864216
0.600490 0.899019 0.930392
0.604902 0.899019 0.930392
0.619118 0.899019 0.930392
0.642157 0.899019 0.930392
0.676961 0.898529 0.930392
0.723530 0.898529 0.930392
0.781863 0.898529 0.930392
0.855882 0.899019 0.930392
0.964706 0.902941 0.930392
0.751961 0.988235 0.934804
0.752451 0.988235 0.934804
0.760294 0.988235 0.934804
0.775981 0.988235 0.938235
0.795588 0.988235 0.942156
0.820588 0.988235 0.943627
0.855392 0.992157 0.947059
0.905882 0.992157 0.950491
1.000000 0.996078 0.953921
0.000000 0.000000 0.447059
0.000000 0.000000 0.450980
0.000000 0.000000 0.453921
0.000000 0.000000 0.440686
0.047059 0.000000 0.405883
0.324020 0.000000 0.357843
0.851961 0.000000 0.252941
1.000000 0.000000 0.196568
1.000000 0.039216 0.372549
0.000000 0.000000 0.458334
0.000000 0.000000 0.458334
0.000000 0.000000 0.454902
0.007353 0.000000 0.450980
0.148039 0.000000 0.436764
0.522059 0.000000 0.370587
0.979412 0.000000 0.304902
1.000000 0.004412 0.361274
1.000000 0.265687 0.528922
0.000000 0.015686 0.504902
0.000000 0.018627 0.504902
0.000000 0.018627 0.500980
0.061765 0.015686 0.490196
0.331372 0.006863 0.453921
0.668137 0.010785 0.427941
0.929411 0.052941 0.426471
0.978922 0.229902 0.524510
1.000000 0.375491 0.606863
0.000000 0.215196 0.620588
0.000000 0.215196 0.616667
0.040686 0.217647 0.608824
0.174510 0.221569 0.600980
0.462745 0.231863 0.579902
0.641176 0.285785 0.595588
0.761765 0.348040 0.620588
0.864707 0.413235 0.651961
0.966176 0.480882 0.684804
0.000000 0.511764 0.770588
0.000000 0.509804 0.766666
0.099020 0.507844 0.758823
0.302941 0.505883 0.749019
0.452941 0.507844 0.741177
0.579412 0.515686 0.737254
0.695098 0.530392 0.736274
0.804412 0.552941 0.743137
0.933333 0.582353 0.750981
0.303922 0.648529 0.828922
0.325490 0.646078 0.828922
0.370589 0.646078 0.825000
0.436765 0.646078 0.821078
0.513235 0.646078 0.817157
0.597549 0.646078 0.813235
0.688726 0.652451 0.813235
0.793137 0.660294 0.809314
0.933333 0.675980 0.809314
0.463726 0.758824 0.883333
0.471569 0.758824 0.883333
0.494117 0.758824 0.883333
0.528921 0.758824 0.883333
0.575490 0.758824 0.883333
0.637745 0.761764 0.879412
0.715687 0.762745 0.879412
0.813236 0.766177 0.875490
0.945098 0.778432 0.875490
0.585294 0.895098 0.949510
0.589706 0.895098 0.949510
0.604902 0.895098 0.949510
0.628431 0.895098 0.949510
0.663725 0.895098 0.949510
0.711765 0.895098 0.949510
0.769607 0.895098 0.949510
0.848039 0.895098 0.945588
0.960784 0.899019 0.945588
0.733333 0.984314 0.968627
0.737255 0.984314 0.968627
0.745098 0.984314 0.972549
0.760784 0.984314 0.972549
0.780392 0.988235 0.976471
0.807843 0.988235 0.980392
0.843137 0.988235 0.984314
0.894608 0.992157 0.988235
1.000000 0.996078 0.996078
