Color/Kodak/Kodak Portra 160 NC 1 - 65x.cube
TITLE "Kodak Portra 160 NC 1 -"
LUT_3D_SIZE 9
DOMAIN_MIN 0.000000 0.000000 0.000000
DOMAIN_MAX 1.000000 1.000000 1.000000
0.000000 0.000000 0.000000
0.049509 0.007353 0.000000
0.170588 0.031373 0.000000
0.344608 0.039216 0.000000
0.513726 0.027451 0.000000
0.664216 0.039216 0.000000
0.791176 0.088236 0.000000
0.910294 0.157353 0.000000
1.000000 0.250980 0.027451
0.000000 0.053922 0.007843
0.042647 0.074020 0.000000
0.198039 0.100490 0.000000
0.368137 0.113235 0.000000
0.525490 0.116667 0.000000
0.673529 0.126471 0.000000
0.800490 0.153432 0.000000
0.910784 0.203921 0.000000
1.000000 0.281863 0.027451
0.000000 0.202941 0.034314
0.000000 0.208334 0.034314
0.154902 0.249019 0.000000
0.407353 0.275490 0.000000
0.567647 0.245098 0.000000
0.696079 0.249019 0.000000
0.814706 0.263726 0.000000
0.914705 0.289707 0.000000
1.000000 0.345098 0.032353
0.000000 0.361765 0.112255
0.000000 0.372059 0.125981
0.000000 0.389216 0.096078
0.326471 0.428431 0.000000
0.580392 0.450490 0.000000
0.714216 0.407353 0.000000
0.828431 0.389216 0.000000
0.924020 0.399019 0.000000
1.000000 0.437745 0.048529
0.000000 0.494118 0.217647
0.000000 0.500000 0.225490
0.000000 0.499020 0.225490
0.234804 0.527941 0.183824
0.468627 0.558823 0.090196
0.717157 0.596569 0.000000
0.830392 0.559804 0.000000
0.930392 0.527451 0.000000
1.000000 0.537255 0.060785
0.000000 0.602941 0.303431
0.000000 0.610784 0.311275
0.058824 0.606863 0.313726
0.227451 0.621078 0.300000
0.400000 0.646078 0.261275
0.600490 0.677451 0.195098
0.821569 0.716667 0.011765
0.922059 0.686765 0.070098
1.000000 0.671079 0.136274
0.011765 0.721569 0.396078
0.079902 0.723530 0.399019
0.180392 0.717647 0.399019
0.278431 0.718137 0.405883
0.396079 0.739216 0.383333
0.549020 0.759804 0.351961
0.712745 0.779412 0.297059
0.902451 0.817157 0.206373
1.000000 0.805883 0.231372
0.330882 0.827941 0.530392
0.353922 0.828431 0.537745
0.380883 0.828431 0.534804
0.430392 0.827941 0.542156
0.487255 0.832353 0.536274
0.578432 0.851470 0.518627
0.692157 0.868138 0.491176
0.824019 0.886765 0.448039
0.975490 0.913725 0.386275
0.596078 0.941176 0.717647
0.600000 0.941176 0.721569
0.615686 0.941176 0.722549
0.639216 0.941176 0.729412
0.670588 0.945098 0.735294
0.707353 0.954412 0.725490
0.764706 0.968627 0.713726
0.836274 0.980882 0.698039
0.929412 0.992157 0.674510
0.003922 0.003922 0.053922
0.057844 0.003922 0.054412
0.174020 0.000000 0.057844
0.350000 0.000980 0.066177
0.512255 0.037255 0.077451
0.654412 0.074020 0.079902
0.778432 0.120588 0.083824
0.895098 0.180392 0.093628
1.000000 0.258824 0.128922
0.000000 0.070098 0.066177
0.058334 0.081373 0.077451
0.200981 0.097059 0.077451
0.372059 0.111274 0.077451
0.528921 0.124510 0.076961
0.665686 0.145588 0.080882
0.786765 0.175981 0.084314
0.899510 0.220588 0.097549
1.000000 0.289706 0.132353
0.000000 0.226471 0.137255
0.000000 0.227941 0.123529
0.181863 0.255883 0.092647
0.415686 0.267647 0.065687
0.564215 0.252451 0.072549
0.688726 0.256863 0.076470
0.802451 0.274020 0.082353
0.910294 0.304412 0.100000
1.000000 0.355882 0.140686
0.000000 0.374510 0.191177
0.000000 0.385294 0.194117
0.101961 0.393137 0.185784
0.345588 0.431863 0.127941
0.580392 0.444118 0.055883
0.712745 0.402451 0.065196
0.823529 0.396078 0.080882
0.922059 0.410294 0.104902
1.000000 0.444118 0.150980
0.000000 0.503922 0.267647
0.000000 0.506373 0.270589
0.113725 0.502941 0.273039
0.271079 0.529411 0.245098
0.482353 0.562745 0.185294
0.711274 0.589216 0.080882
0.825490 0.554902 0.094608
0.928922 0.525980 0.112745
1.000000 0.541176 0.159804
0.000000 0.609314 0.334314
0.001471 0.618627 0.342157
0.151961 0.614706 0.342647
0.267157 0.623529 0.338235
0.415686 0.649020 0.303431
0.609314 0.677941 0.251961
0.820588 0.713726 0.156373
0.921079 0.687255 0.172059
1.000000 0.669608 0.202941
0.105392 0.721569 0.415687
0.160785 0.727451 0.422549
0.225980 0.724510 0.423039
0.306372 0.721078 0.427941
0.413235 0.739706 0.410294
0.553922 0.760294 0.378432
0.716667 0.779412 0.331863
0.902451 0.816666 0.254902
1.000000 0.805392 0.274020
0.354412 0.828431 0.546078
0.374020 0.831863 0.550000
0.403922 0.831373 0.553431
0.446569 0.828431 0.557843
0.503922 0.835294 0.553921
0.584314 0.849020 0.534804
0.696079 0.868137 0.510294
0.824510 0.886275 0.468138
0.975490 0.913725 0.412745
0.600000 0.941176 0.725490
0.607843 0.941176 0.725490
0.623039 0.941666 0.728922
0.643137 0.942157 0.733333
0.676470 0.945098 0.741176
0.711765 0.953431 0.733823
0.765686 0.968137 0.721079
0.836765 0.977451 0.702451
0.925980 0.992157 0.678921
0.000000 0.003922 0.204902
0.081863 0.003922 0.201961
0.208824 0.010784 0.208824
0.365196 0.000000 0.199020
0.532353 0.000000 0.190196
0.660294 0.067157 0.200000
0.766667 0.193137 0.237255
0.886765 0.237255 0.245098
0.992157 0.296078 0.259804
0.000000 0.097059 0.217647
0.062255 0.101471 0.225980
0.225000 0.117157 0.228922
0.380392 0.125000 0.214706
0.541176 0.119608 0.209804
0.655882 0.197549 0.236765
0.775000 0.233823 0.241667
0.890686 0.266177 0.245098
0.996078 0.324020 0.264216
0.000000 0.244118 0.236275
0.048529 0.251961 0.244118
0.236275 0.267647 0.259804
0.407843 0.279412 0.259804
0.551961 0.288235 0.256863
0.673529 0.295098 0.249019
0.790196 0.308824 0.248039
0.899019 0.335784 0.249509
0.998039 0.379412 0.268627
0.101961 0.394608 0.299510
0.192647 0.408824 0.318628
0.244118 0.409314 0.310295
0.384314 0.435785 0.289216
0.577451 0.433333 0.264216
0.704412 0.411274 0.255883
0.810784 0.413725 0.252941
0.910294 0.428922 0.256863
1.000000 0.460784 0.277451
0.218627 0.519608 0.372549
0.229902 0.525000 0.371078
0.250000 0.519608 0.355882
0.337255 0.530882 0.350000
0.506863 0.564705 0.311765
0.709314 0.580883 0.271569
0.822549 0.551961 0.263726
0.923530 0.534804 0.266177
1.000000 0.549019 0.279412
0.212745 0.622549 0.412255
0.228432 0.630882 0.412745
0.258333 0.628922 0.406863
0.330882 0.624020 0.408334
0.449020 0.651471 0.384804
0.622549 0.678431 0.345588
0.818627 0.709804 0.297059
0.918137 0.682353 0.296078
1.000000 0.667157 0.306372
0.262745 0.728431 0.476471
0.275490 0.731373 0.475490
0.305882 0.730392 0.473529
0.368137 0.728431 0.476471
0.447059 0.737255 0.465686
0.571078 0.761274 0.438235
0.724510 0.780392 0.401961
0.908333 0.817647 0.344608
1.000000 0.801961 0.357843
0.412745 0.831863 0.585294
0.423039 0.834804 0.585294
0.444117 0.832843 0.588725
0.481863 0.831863 0.589215
0.531863 0.831863 0.592647
0.605392 0.850980 0.576961
0.706863 0.867157 0.553921
0.828431 0.884314 0.519118
0.979902 0.914215 0.475000
0.611765 0.941176 0.737255
0.620588 0.942157 0.738235
0.631373 0.941176 0.741176
0.654412 0.943627 0.745098
0.685294 0.945098 0.752941
0.719118 0.952941 0.749020
0.769607 0.964706 0.737255
0.840196 0.976961 0.722059
0.929412 0.992157 0.701961
0.000000 0.019608 0.377451
0.049509 0.025980 0.380392
0.245588 0.043137 0.385294
0.411274 0.071569 0.389216
0.535294 0.105882 0.360294
0.675000 0.143627 0.347549
0.795588 0.146079 0.333333
0.898529 0.201961 0.335784
0.988235 0.311275 0.372549
0.000000 0.123039 0.387745
0.055392 0.134804 0.395588
0.257353 0.154902 0.397059
0.416667 0.175490 0.397059
0.544608 0.197059 0.375490
0.677451 0.209804 0.358823
0.797058 0.205882 0.342157
0.894608 0.268137 0.355392
0.986765 0.353921 0.390196
0.000000 0.267647 0.396568
0.004902 0.275980 0.404902
0.268627 0.292157 0.414216
0.431372 0.318628 0.422549
0.553432 0.323529 0.401471
0.681372 0.311275 0.381373
0.788725 0.329902 0.377941
0.882843 0.374020 0.389706
0.989216 0.409314 0.398039
0.024020 0.414216 0.404902
0.170098 0.425980 0.418137
0.303431 0.435785 0.427941
0.436275 0.444118 0.440196
0.562745 0.437745 0.424510
0.681372 0.436275 0.412745
0.793137 0.441667 0.402451
0.894608 0.450000 0.393137
0.996078 0.479412 0.403431
0.267157 0.535784 0.450000
0.308333 0.545588 0.463236
0.377451 0.546569 0.471079
0.425000 0.545588 0.463726
0.541667 0.568628 0.444118
0.708824 0.570589 0.422549
0.818137 0.546078 0.409804
0.911274 0.548039 0.401961
0.998039 0.563235 0.406863
0.363725 0.639216 0.512255
0.397549 0.648529 0.525490
0.411274 0.647059 0.516177
0.424510 0.644608 0.498039
0.496569 0.652451 0.487255
0.643137 0.679902 0.459804
0.816667 0.700980 0.432843
0.914706 0.675000 0.420588
1.000000 0.661765 0.420588
0.417647 0.737255 0.568627
0.426471 0.740196 0.570098
0.431373 0.739216 0.559314
0.451471 0.739216 0.549510
0.503922 0.736274 0.548039
0.598039 0.759804 0.528922
0.738725 0.780882 0.500490
0.905392 0.812255 0.464216
1.000000 0.797549 0.465196
0.501471 0.833824 0.646078
0.509314 0.838235 0.648529
0.513236 0.836274 0.642157
0.530392 0.837255 0.637745
0.571568 0.835294 0.640196
0.629412 0.846569 0.632353
0.719118 0.867157 0.614216
0.836274 0.886765 0.591667
0.987255 0.918137 0.556373
0.645588 0.941176 0.764706
0.650980 0.945098 0.768627
0.654412 0.945098 0.764216
0.670588 0.945098 0.764706
0.696079 0.945098 0.770588
0.732353 0.951961 0.772549
0.780392 0.964706 0.764706
0.847549 0.980392 0.750981
0.933333 0.992157 0.731863
0.000000 0.072549 0.529411
0.038235 0.082353 0.533334
0.263726 0.108823 0.537254
0.438235 0.153432 0.541176
0.586275 0.192157 0.549019
0.673529 0.209804 0.505883
0.803922 0.254902 0.496078
0.910294 0.272059 0.481863
1.000000 0.296079 0.474510
0.000000 0.166176 0.533334
0.097549 0.175490 0.538725
0.279902 0.197059 0.541176
0.450000 0.232843 0.551961
0.588236 0.256863 0.552941
0.677941 0.268628 0.514706
0.805883 0.298529 0.502941
0.908823 0.301961 0.486274
1.000000 0.323530 0.478432
0.000000 0.301960 0.547059
0.140196 0.309804 0.556372
0.304902 0.324510 0.558824
0.462745 0.345589 0.563725
0.591176 0.361765 0.563725
0.684804 0.362745 0.530882
0.806863 0.375490 0.517648
0.906862 0.366176 0.497059
0.999019 0.382353 0.487255
0.000490 0.424510 0.539216
0.151470 0.438725 0.555392
0.285294 0.443137 0.557843
0.451961 0.454412 0.569118
0.590196 0.473039 0.574510
0.693137 0.472549 0.552941
0.800981 0.458333 0.529411
0.895098 0.450490 0.506373
0.984314 0.496569 0.525981
0.225490 0.550980 0.550980
0.275490 0.558823 0.558333
0.356863 0.562745 0.563725
0.467157 0.568628 0.572549
0.584313 0.576470 0.582353
0.692157 0.571078 0.567157
0.795098 0.563725 0.549019
0.890686 0.560785 0.531373
0.986274 0.574510 0.529412
0.374020 0.656373 0.582353
0.409314 0.664216 0.593627
0.459314 0.664216 0.599510
0.533333 0.668137 0.611765
0.572549 0.662255 0.601470
0.672059 0.683824 0.586275
0.812745 0.686275 0.565686
0.906862 0.661765 0.545098
0.996078 0.670098 0.545098
0.489216 0.750000 0.646078
0.508333 0.752941 0.650981
0.540196 0.753922 0.655882
0.567157 0.751471 0.651471
0.578431 0.750981 0.635294
0.635784 0.756863 0.625000
0.756863 0.784314 0.609804
0.902941 0.804902 0.586274
0.998039 0.791176 0.580392
0.592647 0.840196 0.720098
0.599510 0.843627 0.720588
0.602451 0.843627 0.716177
0.607353 0.842157 0.705882
0.621568 0.843627 0.696569
0.660785 0.843627 0.695589
0.736274 0.865196 0.684804
0.846078 0.885294 0.667157
0.992157 0.922059 0.649019
0.686275 0.943137 0.803922
0.692157 0.945098 0.803922
0.692157 0.945098 0.800000
0.700000 0.949020 0.798039
0.713726 0.949020 0.794118
0.749020 0.951471 0.800000
0.791176 0.964706 0.797058
0.855392 0.980392 0.786274
0.941176 0.992157 0.768627
0.000000 0.142647 0.673529
0.137255 0.152451 0.674019
0.305392 0.175490 0.678431
0.467647 0.215686 0.685294
0.615196 0.264706 0.685294
0.730882 0.287745 0.683824
0.796568 0.301961 0.640686
0.902941 0.346078 0.630392
1.000000 0.410784 0.631863
0.061765 0.220098 0.675490
0.184804 0.231863 0.683333
0.327451 0.248529 0.683824
0.477451 0.274020 0.688726
0.617647 0.313235 0.689706
0.730882 0.330882 0.685784
0.800490 0.340686 0.648529
0.902941 0.378432 0.634314
1.000000 0.432353 0.638235
0.140686 0.336274 0.686275
0.223529 0.343137 0.689216
0.347059 0.354902 0.690686
0.486274 0.370588 0.692157
0.619607 0.397059 0.693137
0.729902 0.412255 0.693137
0.801961 0.416667 0.659314
0.902451 0.446569 0.647549
0.995098 0.477451 0.647059
0.107843 0.442647 0.672059
0.213236 0.455392 0.684804
0.339215 0.459804 0.689216
0.476961 0.469118 0.690686
0.614706 0.495098 0.697059
0.725490 0.514706 0.699510
0.798039 0.512255 0.669608
0.897549 0.532353 0.661765
0.990686 0.533333 0.652451
0.196078 0.561274 0.674020
0.247058 0.566666 0.675981
0.336274 0.568628 0.679902
0.446078 0.569608 0.681863
0.596078 0.584313 0.693627
0.716667 0.609314 0.702941
0.798039 0.608824 0.685784
0.890686 0.590686 0.662745
0.983823 0.580392 0.644118
0.334804 0.668137 0.673529
0.373530 0.673529 0.683333
0.434804 0.675000 0.685294
0.516177 0.678431 0.690196
0.609804 0.683824 0.695588
0.707353 0.693137 0.708824
0.795588 0.683824 0.691667
0.882843 0.675980 0.673039
0.976471 0.681372 0.665686
0.502941 0.763725 0.709313
0.522059 0.766667 0.713236
0.554902 0.767647 0.717157
0.601471 0.766667 0.721078
0.660294 0.767647 0.728921
0.696569 0.766667 0.721078
0.779412 0.787255 0.713726
0.895588 0.790686 0.695098
0.994608 0.778432 0.685785
0.608333 0.851470 0.765196
0.620098 0.851470 0.766667
0.640196 0.853431 0.772059
0.672059 0.852451 0.774020
0.701470 0.852451 0.775000
0.711275 0.851470 0.758824
0.762745 0.864216 0.757843
0.862255 0.889706 0.747059
0.989215 0.911765 0.732843
0.721569 0.949020 0.844608
0.725490 0.949020 0.843137
0.738725 0.950490 0.848529
0.746569 0.950490 0.844608
0.754412 0.952941 0.836765
0.770098 0.956863 0.831373
0.808823 0.961765 0.836765
0.866177 0.980392 0.827451
0.949020 0.992157 0.815686
0.217647 0.236274 0.800981
0.275000 0.244117 0.800000
0.382353 0.259804 0.800000
0.506863 0.284804 0.797058
0.635294 0.323530 0.800000
0.754902 0.374020 0.798529
0.848039 0.394118 0.797058
0.899020 0.397058 0.758824
0.988235 0.471569 0.758824
0.237255 0.286765 0.796568
0.298039 0.298529 0.800980
0.392157 0.308333 0.797549
0.515686 0.332353 0.799510
0.640686 0.363726 0.800490
0.758333 0.408824 0.800980
0.845588 0.425490 0.798529
0.895588 0.425000 0.758824
0.986765 0.497549 0.761274
0.269608 0.378431 0.797059
0.317647 0.383333 0.797549
0.403922 0.390196 0.797058
0.519608 0.408333 0.801471
0.644118 0.434314 0.802941
0.755882 0.474020 0.802451
0.843137 0.492157 0.800000
0.893137 0.488725 0.764706
0.982353 0.544118 0.767647
0.259804 0.470588 0.789215
0.314216 0.480392 0.795588
0.399019 0.482353 0.797058
0.515686 0.497549 0.798039
0.635294 0.518138 0.796568
0.749510 0.556862 0.803922
0.833824 0.571078 0.802451
0.886765 0.567647 0.772059
0.976471 0.606373 0.777451
0.201960 0.567647 0.778431
0.262255 0.574510 0.782843
0.365686 0.576470 0.786275
0.494608 0.587255 0.789706
0.623530 0.603921 0.797058
0.740686 0.633333 0.801961
0.825490 0.648039 0.803922
0.883824 0.648039 0.783333
0.973529 0.668628 0.784314
0.323530 0.673529 0.777451
0.362255 0.677451 0.781373
0.419118 0.682843 0.784314
0.494117 0.681372 0.785294
0.587255 0.682843 0.788725
0.719118 0.702451 0.800000
0.819118 0.726961 0.808823
0.883333 0.723530 0.794118
0.972549 0.715196 0.784804
0.460784 0.771568 0.780393
0.484804 0.774510 0.786275
0.520588 0.774510 0.788235
0.577941 0.775490 0.788725
0.648039 0.779412 0.792157
0.727451 0.785784 0.801470
0.809804 0.797058 0.812745
0.883824 0.782843 0.794608
0.973530 0.786275 0.786275
0.624019 0.863235 0.816666
0.633334 0.863725 0.818137
0.653431 0.864706 0.821078
0.686275 0.866667 0.824510
0.727941 0.867157 0.829902
0.774510 0.868137 0.836275
0.805393 0.867647 0.828922
0.879412 0.891176 0.827941
0.988725 0.899019 0.813726
0.725490 0.956863 0.875490
0.732843 0.956863 0.879412
0.743137 0.954902 0.879412
0.763235 0.959314 0.880882
0.790196 0.957843 0.884314
0.824509 0.964706 0.887255
0.833334 0.965686 0.879412
0.879412 0.976961 0.878921
0.960784 0.996078 0.870588
0.380882 0.341666 0.894118
0.408823 0.345588 0.891176
0.477941 0.357353 0.894608
0.569608 0.376961 0.894118
0.670589 0.406373 0.890686
0.772059 0.449020 0.887255
0.863725 0.510294 0.886765
0.937745 0.526470 0.886765
0.988725 0.537745 0.867647
0.385294 0.369607 0.890686
0.423529 0.380882 0.894608
0.484804 0.390686 0.893138
0.572059 0.408333 0.891176
0.675980 0.435294 0.890686
0.772059 0.472549 0.884805
0.867157 0.530883 0.890196
0.934314 0.546078 0.886275
0.984804 0.553431 0.867157
0.401961 0.440686 0.890196
0.431373 0.445588 0.890686
0.493628 0.454412 0.891667
0.577941 0.468627 0.890686
0.675000 0.491667 0.889706
0.774509 0.529412 0.889706
0.861275 0.576960 0.887255
0.930392 0.590686 0.887255
0.975981 0.590196 0.865687
0.393137 0.514706 0.886765
0.432844 0.524020 0.891176
0.493628 0.532353 0.888726
0.581863 0.546078 0.890686
0.676961 0.565196 0.886765
0.774020 0.597059 0.891176
0.857843 0.634804 0.888726
0.925980 0.646078 0.887255
0.968627 0.642157 0.863725
0.375490 0.601961 0.880882
0.412255 0.606373 0.882843
0.476471 0.610294 0.882843
0.561765 0.616177 0.885294
0.663236 0.633824 0.884804
0.762255 0.658824 0.886765
0.848530 0.690687 0.887255
0.919608 0.703921 0.888726
0.962745 0.700000 0.869118
0.355882 0.687745 0.871078
0.386275 0.692157 0.875000
0.426470 0.689216 0.875000
0.516177 0.693137 0.877941
0.628431 0.700000 0.878921
0.742647 0.719118 0.882843
0.841177 0.747549 0.887746
0.914215 0.766176 0.894118
0.968137 0.766176 0.882843
0.467647 0.783823 0.872549
0.485784 0.786765 0.875490
0.518628 0.789215 0.875000
0.564706 0.784804 0.874020
0.630392 0.786275 0.875981
0.701470 0.782353 0.875981
0.818627 0.801961 0.887745
0.911274 0.829902 0.899510
0.973530 0.833334 0.892647
0.588725 0.875000 0.882843
0.599510 0.874510 0.882353
0.620098 0.875000 0.882843
0.655392 0.875000 0.884314
0.706372 0.877451 0.886765
0.766667 0.883333 0.892157
0.832844 0.887745 0.899019
0.906862 0.899019 0.910294
0.984314 0.887255 0.894608
0.732843 0.964706 0.917647
0.736274 0.964216 0.917647
0.749020 0.964706 0.918137
0.772549 0.966666 0.922059
0.801961 0.968627 0.925980
0.835784 0.971569 0.929902
0.879412 0.976471 0.937255
0.910294 0.976961 0.930392
0.976471 0.996078 0.929902
0.552941 0.486275 0.980392
0.568627 0.490196 0.980392
0.607843 0.499020 0.977451
0.669118 0.517647 0.976471
0.743137 0.545098 0.976471
0.821078 0.580392 0.972549
0.891177 0.619608 0.968627
0.957353 0.666667 0.964706
1.000000 0.674510 0.968627
0.552941 0.505392 0.976471
0.572549 0.513726 0.980392
0.611275 0.521569 0.976961
0.673039 0.537255 0.976471
0.745098 0.560784 0.974510
0.821078 0.593627 0.970098
0.891177 0.629412 0.968627
0.956862 0.674509 0.968137
1.000000 0.686275 0.968627
0.569608 0.557843 0.979412
0.587745 0.559804 0.977451
0.621568 0.567647 0.976471
0.679902 0.582353 0.976471
0.747059 0.601961 0.972549
0.821078 0.626470 0.968627
0.888236 0.658823 0.965686
0.956863 0.694608 0.965686
1.000000 0.706863 0.967647
0.564706 0.606373 0.975000
0.588235 0.618137 0.975491
0.624019 0.622059 0.976471
0.678431 0.633824 0.976471
0.747059 0.649510 0.974510
0.816177 0.670588 0.970098
0.887255 0.695098 0.968627
0.955392 0.731863 0.968627
1.000000 0.739706 0.972549
0.554902 0.672549 0.976471
0.570588 0.674509 0.976471
0.602942 0.674510 0.974510
0.663235 0.684314 0.976471
0.735294 0.698039 0.974510
0.809314 0.715687 0.972549
0.883333 0.739215 0.967647
0.950981 0.768628 0.970588
1.000000 0.776471 0.972549
0.504412 0.734804 0.972549
0.529902 0.740686 0.975000
0.564706 0.738725 0.976471
0.625980 0.740196 0.974020
0.702941 0.745098 0.976961
0.789706 0.762255 0.974020
0.874020 0.785784 0.976471
0.941666 0.808333 0.972549
1.000000 0.825000 0.976471
0.540196 0.821569 0.972549
0.550981 0.821569 0.976471
0.570588 0.820588 0.975491
0.605883 0.815196 0.971078
0.660784 0.813726 0.978431
0.754412 0.816667 0.976471
0.852941 0.833334 0.977451
0.941666 0.863725 0.980392
1.000000 0.876471 0.981372
0.635784 0.910294 0.976961
0.639706 0.910294 0.973530
0.655392 0.910294 0.980392
0.682353 0.907843 0.977941
0.714706 0.906862 0.978921
0.766667 0.906862 0.984314
0.820098 0.902451 0.984314
0.925490 0.913725 0.987745
0.999510 0.937745 0.988235
0.721569 0.984314 0.984314
0.725000 0.984314 0.980392
0.737255 0.984314 0.984314
0.756863 0.984314 0.984314
0.788235 0.986274 0.986274
0.825000 0.985784 0.985784
0.875490 0.988235 0.989216
0.933823 0.992157 0.992647
1.000000 1.000000 1.000000
