Color/Kodak/Kodak Ektachrome 100 VS 65x.cube
TITLE "Kodak Ektachrome 100 VS"
LUT_3D_SIZE 5
DOMAIN_MIN 0.000000 0.000000 0.000000
DOMAIN_MAX 1.000000 1.000000 1.000000
0.000000 0.000000 0.000000
0.119608 0.000000 0.000000
0.435295 0.000000 0.000000
0.767647 0.000000 0.000000
1.000000 0.000000 0.000000
0.089216 0.186274 0.078431
0.225490 0.178431 0.050000
0.512745 0.150980 0.008823
0.805883 0.087255 0.000000
1.000000 0.011765 0.000000
0.235295 0.486274 0.178431
0.357843 0.486274 0.162745
0.586275 0.474510 0.137255
0.847059 0.443137 0.125490
1.000000 0.378432 0.158824
0.480392 0.770588 0.287255
0.545098 0.770588 0.275490
0.708824 0.770588 0.236274
0.931373 0.758824 0.165686
1.000000 0.731373 0.195098
0.831373 1.000000 0.372549
0.857843 1.000000 0.364706
0.935294 1.000000 0.349020
1.000000 1.000000 0.317647
1.000000 1.000000 0.270588
0.000000 0.000000 0.104902
0.061765 0.000000 0.100981
0.387255 0.000000 0.069608
0.731373 0.000000 0.046078
1.000000 0.000000 0.043137
0.053921 0.178431 0.198039
0.179412 0.170588 0.182353
0.470588 0.143137 0.144118
0.774510 0.076470 0.100000
1.000000 0.007843 0.061765
0.187255 0.486274 0.269608
0.320588 0.482353 0.265686
0.549019 0.466666 0.261765
0.809804 0.436275 0.263726
1.000000 0.374509 0.261765
0.480392 0.778432 0.290196
0.546078 0.778432 0.278431
0.704902 0.771568 0.257844
0.909804 0.758824 0.270588
1.000000 0.719608 0.365686
0.839216 1.000000 0.372549
0.865686 1.000000 0.368627
0.943137 1.000000 0.350000
1.000000 1.000000 0.317647
1.000000 1.000000 0.274510
0.000000 0.000000 0.268628
0.010784 0.000000 0.252941
0.347058 0.000000 0.203922
0.703922 0.000000 0.158824
0.988235 0.000000 0.139215
0.002942 0.164706 0.389216
0.115686 0.155882 0.365686
0.418627 0.131372 0.314706
0.735294 0.064706 0.242157
1.000000 0.002942 0.177451
0.058824 0.466666 0.513726
0.198039 0.466666 0.501961
0.474510 0.454902 0.478432
0.758824 0.427451 0.443137
1.000000 0.368627 0.401960
0.357843 0.758824 0.556863
0.430392 0.756863 0.557843
0.602941 0.750981 0.559804
0.824510 0.735294 0.559804
1.000000 0.707843 0.563725
0.852941 1.000000 0.376471
0.878431 1.000000 0.372549
0.954902 1.000000 0.352941
1.000000 1.000000 0.322549
1.000000 1.000000 0.339216
0.000000 0.000000 0.420588
0.000000 0.000000 0.400981
0.292157 0.000000 0.344117
0.665686 0.000000 0.286275
0.964706 0.000000 0.247059
0.000000 0.150980 0.560784
0.039216 0.143137 0.533333
0.353922 0.115686 0.471569
0.692157 0.051961 0.382353
0.976471 0.000000 0.295098
0.000000 0.454902 0.700980
0.066666 0.452941 0.685294
0.400000 0.443137 0.650000
0.707843 0.415687 0.596079
0.976471 0.358823 0.532353
0.153921 0.739216 0.805883
0.281373 0.739216 0.798039
0.502941 0.735294 0.782353
0.754902 0.723530 0.754902
0.992157 0.696079 0.724510
0.731372 1.000000 0.705882
0.755882 1.000000 0.709804
0.827451 1.000000 0.721569
0.945098 1.000000 0.745098
1.000000 1.000000 0.795098
0.000000 0.000000 0.525490
0.000000 0.000000 0.505882
0.237255 0.000000 0.443137
0.634314 0.000000 0.375491
0.945098 0.000000 0.321569
0.000000 0.139215 0.673530
0.000000 0.131372 0.646079
0.296079 0.105882 0.573530
0.653921 0.043137 0.473529
0.952941 0.000000 0.375491
0.000000 0.447059 0.825490
0.000000 0.443138 0.805882
0.327451 0.435295 0.762745
0.665686 0.407843 0.696079
0.952941 0.352942 0.615687
0.000000 0.731373 0.946079
0.096079 0.727451 0.938235
0.416667 0.727451 0.914705
0.700980 0.715687 0.875490
0.960784 0.692157 0.824510
0.572549 1.000000 1.000000
0.603922 1.000000 1.000000
0.696079 1.000000 1.000000
0.837255 1.000000 1.000000
1.000000 1.000000 1.000000
