Color/Kodak/Kodak Elite 100 XPRO 65x.cube
TITLE "Kodak Elite 100 XPRO"
LUT_3D_SIZE 65
DOMAIN_MIN 0.000000 0.000000 0.000000
DOMAIN_MAX 1.000000 1.000000 1.000000
0.000000 0.000000 0.000000
0.004841 0.000000 0.000000
0.013603 0.000000 0.000000
0.022365 0.000000 0.000000
0.031128 0.000000 0.000000
0.039890 0.000000 0.000000
0.048652 0.000000 0.000000
0.057415 0.000000 0.000000
0.069608 0.000000 0.000000
0.074939 0.000000 0.000000
0.083701 0.000000 0.000000
0.092463 0.000000 0.000000
0.101226 0.000000 0.000000
0.109988 0.000000 0.000000
0.118750 0.000000 0.000000
0.127512 0.000000 0.000000
0.136274 0.000000 0.000000
0.145037 0.000000 0.000000
0.157721 0.000000 0.000000
0.168260 0.000000 0.000000
0.181863 0.000000 0.000000
0.195465 0.000000 0.000000
0.212378 0.000000 0.000000
0.226593 0.003922 0.000000
0.244118 0.003922 0.000000
0.261642 0.003922 0.003370
0.279166 0.003922 0.003922
0.292769 0.003922 0.003922
0.310294 0.003922 0.003922
0.324694 0.007047 0.003922
0.341421 0.007843 0.003922
0.358946 0.007843 0.003922
0.376471 0.007843 0.005882
0.397917 0.007843 0.007843
0.419240 0.007843 0.007843
0.437684 0.011765 0.008640
0.463971 0.011765 0.011765
0.490258 0.011765 0.011765
0.516544 0.015318 0.011765
0.543382 0.015686 0.015686
0.573039 0.017157 0.015686
0.599326 0.019608 0.019608
0.625613 0.022916 0.019608
0.647978 0.023529 0.023529
0.673039 0.027451 0.023529
0.694485 0.027451 0.027451
0.715931 0.031373 0.027451
0.737378 0.035294 0.031373
0.754902 0.036275 0.031373
0.772426 0.041115 0.035294
0.789951 0.043137 0.035294
0.807475 0.043137 0.039032
0.821079 0.047059 0.039216
0.838603 0.048713 0.039216
0.852206 0.053554 0.043137
0.866238 0.058395 0.043137
0.879412 0.059314 0.043137
0.893015 0.062745 0.047059
0.906618 0.066667 0.047059
0.916973 0.070588 0.047059
0.929902 0.074510 0.050980
0.942340 0.078431 0.050980
0.953187 0.080515 0.050980
0.963787 0.085356 0.050980
0.972549 0.090196 0.054902
0.000000 0.000000 0.000000
0.009681 0.000919 0.000000
0.016605 0.000919 0.000000
0.026287 0.000919 0.000000
0.035049 0.000919 0.000000
0.044730 0.000674 0.000000
0.053493 0.003922 0.000000
0.062256 0.003922 0.000000
0.071018 0.003922 0.000000
0.079779 0.003922 0.000000
0.088542 0.003922 0.000000
0.096385 0.003922 0.000000
0.105147 0.003922 0.000000
0.113909 0.004841 0.000000
0.122672 0.004841 0.000000
0.131434 0.004841 0.000000
0.140196 0.004841 0.000000
0.148959 0.004841 0.000000
0.161642 0.004780 0.000000
0.172181 0.007843 0.000000
0.185784 0.007843 0.000000
0.199387 0.008762 0.000000
0.213909 0.008762 0.000000
0.230515 0.008762 0.000000
0.248039 0.008762 0.000000
0.265564 0.015135 0.000000
0.283640 0.012684 0.003922
0.296691 0.012684 0.003922
0.314216 0.017892 0.003922
0.328738 0.016605 0.003922
0.345343 0.016605 0.003922
0.362867 0.016605 0.003922
0.380392 0.020527 0.003922
0.398836 0.020527 0.006801
0.419363 0.020527 0.007843
0.441606 0.024448 0.007843
0.467892 0.026164 0.009559
0.491176 0.028370 0.011765
0.520466 0.031924 0.011765
0.547671 0.033211 0.015686
0.573958 0.036213 0.015686
0.603247 0.038603 0.018076
0.629535 0.040135 0.019608
0.651899 0.044056 0.019914
0.674265 0.044975 0.023529
0.695404 0.050123 0.023529
0.718995 0.051899 0.027451
0.738297 0.056740 0.027512
0.755821 0.056740 0.031373
0.776348 0.060662 0.031373
0.793872 0.066482 0.035294
0.811397 0.064583 0.035294
0.825000 0.068321 0.039216
0.840870 0.073161 0.039216
0.856128 0.078003 0.039216
0.869730 0.082843 0.045710
0.883762 0.084191 0.043137
0.896937 0.085601 0.043137
0.908211 0.090441 0.043137
0.920895 0.095282 0.047059
0.933578 0.099877 0.047059
0.946262 0.103799 0.047059
0.957108 0.107720 0.050980
0.967708 0.114645 0.050980
0.977390 0.119485 0.050980
0.003922 0.003922 0.000000
0.012684 0.003922 0.000000
0.021446 0.003922 0.000000
0.030209 0.003922 0.000000
0.038971 0.003922 0.000000
0.047733 0.005760 0.000000
0.056495 0.005760 0.000000
0.065258 0.005760 0.000000
0.074020 0.005760 0.000000
0.082782 0.007843 0.000000
0.091544 0.007843 0.000000
0.100306 0.007843 0.000000
0.105147 0.007843 0.000000
0.113909 0.007843 0.000000
0.122672 0.009681 0.000000
0.133272 0.009681 0.000000
0.142034 0.009681 0.000000
0.150796 0.009681 0.000000
0.163480 0.011765 0.000000
0.174326 0.011765 0.000000
0.187010 0.011765 0.000000
0.203309 0.013603 0.000000
0.216911 0.013603 0.000000
0.234437 0.015686 0.000000
0.251961 0.018137 0.000000
0.267402 0.017524 0.000000
0.283088 0.019608 0.003922
0.301164 0.021446 0.003922
0.314216 0.021446 0.003922
0.331740 0.023529 0.003922
0.350981 0.025367 0.003922
0.364706 0.025367 0.003922
0.382230 0.025367 0.003922
0.401838 0.030331 0.003922
0.423161 0.029289 0.007843
0.444730 0.033211 0.007843
0.467892 0.033088 0.009559
0.494179 0.037132 0.011765
0.520466 0.040686 0.011765
0.550674 0.039767 0.012316
0.576961 0.044975 0.015686
0.603247 0.047365 0.018076
0.629535 0.052206 0.019608
0.651899 0.053125 0.019914
0.676961 0.056740 0.023529
0.698407 0.060662 0.023529
0.719853 0.060662 0.027451
0.741299 0.064644 0.027451
0.758824 0.068505 0.031373
0.776348 0.072426 0.031373
0.793872 0.074264 0.034191
0.811397 0.076348 0.035294
0.825000 0.080269 0.034191
0.842525 0.084191 0.039216
0.856128 0.088113 0.039216
0.870159 0.089951 0.039216
0.883333 0.095956 0.043137
0.896937 0.097366 0.043137
0.910539 0.101715 0.043137
0.924142 0.105637 0.048468
0.933823 0.113480 0.047059
0.946262 0.116728 0.047059
0.958946 0.121323 0.047059
0.970711 0.130330 0.050980
0.980392 0.135171 0.050980
0.007843 0.006679 0.000000
0.016605 0.004841 0.000000
0.025367 0.007843 0.000000
0.034130 0.007843 0.000000
0.041728 0.007843 0.000000
0.051654 0.007843 0.000000
0.060417 0.007843 0.000000
0.069179 0.010601 0.000000
0.077941 0.010601 0.000000
0.085539 0.010601 0.000000
0.091544 0.009191 0.000000
0.100306 0.011765 0.000000
0.109069 0.011765 0.000000
0.114093 0.011765 0.000000
0.126593 0.011765 0.000000
0.135355 0.011765 0.000000
0.144118 0.014522 0.000000
0.152880 0.014522 0.000000
0.162500 0.012623 0.000000
0.177083 0.015686 0.000000
0.189767 0.018444 0.000000
0.203309 0.018444 0.000000
0.216911 0.016299 0.000000
0.234437 0.019608 0.000000
0.251961 0.022365 0.000000
0.269485 0.022365 0.000000
0.283088 0.026287 -0.002390
0.300612 0.026287 0.003922
0.318689 0.025735 0.003922
0.331740 0.030576 0.003922
0.349265 0.030209 0.003922
0.366789 0.028493 0.003922
0.384313 0.034130 0.003922
0.401838 0.034130 0.003922
0.423284 0.039093 0.007843
0.445527 0.038848 0.007843
0.467892 0.041973 0.006801
0.494179 0.045895 0.011765
0.523223 0.045895 0.011765
0.550674 0.049816 0.012316
0.576961 0.053738 0.015686
0.603247 0.056128 0.015686
0.629535 0.057660 0.019608
0.655515 0.061581 0.019608
0.679719 0.065503 0.023529
0.701164 0.067647 0.023529
0.719853 0.069424 0.026593
0.741299 0.070649 0.027451
0.758824 0.077267 0.031373
0.776348 0.081189 0.031373
0.793872 0.084008 0.031373
0.811397 0.085111 0.035294
0.830943 0.089032 0.035294
0.842525 0.092954 0.039216
0.857476 0.096875 0.039216
0.873652 0.100797 0.039216
0.886765 0.104718 0.043137
0.899448 0.108640 0.043137
0.912132 0.112561 0.043137
0.923652 0.116483 0.043137
0.937500 0.120649 0.047059
0.947426 0.128248 0.047059
0.958946 0.134927 0.047059
0.970466 0.139093 0.047059
0.980392 0.146691 0.050980
0.011765 0.011520 0.000000
0.020527 0.011520 0.000000
0.029044 0.011520 0.000000
0.037807 0.010601 0.000000
0.046569 0.011765 0.000000
0.051654 0.011765 0.000000
0.060417 0.011765 0.000000
0.069179 0.011765 0.000000
0.077941 0.011765 0.000000
0.086704 0.015441 0.000000
0.097794 0.015441 0.000000
0.100306 0.015441 0.000000
0.109069 0.015686 0.000000
0.117831 0.015686 0.000000
0.126593 0.015686 0.000000
0.135355 0.019363 0.000000
0.144118 0.019363 0.000000
0.152880 0.019363 0.000000
0.165564 0.019608 0.000000
0.176103 0.019608 0.000000
0.189706 0.023284 0.000000
0.203309 0.023284 0.000000
0.223898 0.023529 0.000000
0.238113 0.027206 0.000000
0.251961 0.027206 0.000000
0.269485 0.026899 0.000000
0.287010 0.031128 0.000000
0.300612 0.028738 0.003922
0.318138 0.035049 0.003922
0.335417 0.035049 0.003922
0.349265 0.038971 0.003922
0.366789 0.038971 0.003922
0.384313 0.038971 0.003922
0.404718 0.042892 0.003922
0.423284 0.042892 0.007843
0.445527 0.046814 0.007843
0.471814 0.050735 0.007843
0.498101 0.050735 0.011765
0.524387 0.054657 0.011765
0.554351 0.058579 0.008640
0.580882 0.060049 0.015686
0.607169 0.062500 0.015686
0.633823 0.066422 0.019608
0.655821 0.070343 0.019608
0.678187 0.071569 0.023529
0.700551 0.072733 0.023529
0.722917 0.078186 0.026593
0.741299 0.082108 0.027451
0.759804 0.086030 0.028431
0.780270 0.089951 0.031373
0.797794 0.092770 0.031373
0.815073 0.093873 0.035294
0.828922 0.097794 0.035294
0.842525 0.101716 0.036949
0.861152 0.105637 0.039216
0.873652 0.109559 0.039216
0.890442 0.113480 0.039706
0.903124 0.117402 0.043137
0.912132 0.125000 0.043137
0.924816 0.128493 0.043137
0.937500 0.136765 0.047059
0.950184 0.138173 0.047059
0.961030 0.143015 0.047059
0.971630 0.151777 0.047059
0.984069 0.160294 0.047059
0.016360 0.012439 0.000000
0.024203 0.015686 0.000000
0.033211 0.015686 0.000000
0.041973 0.015686 0.000000
0.047487 0.016360 0.000000
0.055576 0.016360 0.000000
0.064338 0.016360 0.000000
0.073101 0.016360 0.000000
0.081863 0.019608 0.000000
0.086704 0.019608 0.000000
0.095466 0.020956 0.000000
0.104228 0.020282 0.000000
0.109742 0.020282 0.000000
0.117831 0.020282 0.000000
0.127267 0.023529 0.000000
0.136029 0.023529 0.000000
0.144792 0.024203 0.000000
0.156802 0.024203 0.000000
0.166422 0.024203 0.000000
0.178248 0.024203 0.000000
0.190931 0.030147 0.000000
0.207230 0.028125 0.000000
0.220833 0.031373 0.000000
0.238358 0.032047 0.000000
0.255882 0.032047 0.000000
0.273407 0.038664 0.003370
0.287010 0.035968 0.003922
0.304534 0.039890 0.003922
0.316606 0.039890 0.003922
0.335662 0.046262 0.003922
0.353186 0.043811 0.003922
0.370711 0.043811 0.003922
0.388235 0.049019 0.003922
0.405760 0.047733 0.003922
0.423958 0.054779 0.007720
0.449449 0.055699 0.007843
0.471814 0.055576 0.007843
0.498101 0.059498 0.011765
0.525062 0.063052 0.011765
0.554595 0.063970 0.011765
0.580882 0.067341 0.015686
0.607169 0.071262 0.015686
0.633456 0.074570 0.022243
0.655821 0.075490 0.019608
0.680882 0.080331 0.020833
0.702328 0.083027 0.023529
0.723774 0.086949 0.023529
0.745221 0.090870 0.027451
0.762745 0.094792 0.027451
0.780270 0.096692 0.031373
0.797794 0.101531 0.031373
0.815318 0.102635 0.035110
0.828860 0.107291 0.035294
0.846446 0.110478 0.035294
0.860049 0.114399 0.041116
0.874081 0.118321 0.039216
0.887255 0.122733 0.039216
0.900122 0.127573 0.040625
0.914461 0.130760 0.043137
0.928064 0.137929 0.043137
0.937745 0.142769 0.043137
0.951348 0.150858 0.043137
0.962868 0.156373 0.047059
0.972304 0.162132 0.047059
0.984314 0.173223 0.047059
0.021201 0.019608 0.000000
0.028370 0.019608 0.000000
0.037132 0.021201 0.000000
0.045895 0.021201 0.000000
0.048652 0.021201 0.000000
0.059498 0.021201 0.000000
0.068260 0.021201 0.000000
0.072181 0.023529 0.000000
0.081863 0.023529 0.000000
0.090625 0.025122 0.000000
0.095466 0.025122 0.000000
0.104228 0.025122 0.000000
0.112990 0.025122 0.000000
0.121753 0.027451 0.000000
0.130515 0.029044 0.000000
0.139277 0.029044 0.000000
0.148039 0.029044 0.000000
0.156802 0.029044 0.000000
0.169485 0.032966 0.000000
0.180025 0.032966 0.000000
0.193627 0.032966 0.000000
0.205208 0.038910 0.000000
0.225735 0.036887 0.000000
0.239951 0.040809 0.000000
0.255883 0.040809 0.001593
0.273407 0.040809 0.003922
0.292157 0.044730 0.003922
0.304534 0.044424 0.003922
0.322059 0.048652 0.003922
0.334130 0.048652 0.003922
0.353186 0.052573 0.003922
0.370711 0.052573 0.003922
0.388236 0.052573 0.003922
0.407353 0.056495 0.003922
0.427206 0.060294 0.007720
0.449449 0.059620 0.007843
0.475735 0.064338 0.007843
0.502022 0.066973 0.010478
0.528309 0.068260 0.011765
0.556188 0.071140 0.011765
0.582353 0.076103 0.015686
0.611091 0.080024 0.015686
0.635049 0.083334 0.018995
0.659743 0.084252 0.019608
0.682108 0.089094 0.020833
0.704473 0.091789 0.023529
0.726838 0.095711 0.023529
0.745221 0.099632 0.027451
0.764338 0.103554 0.027451
0.781863 0.107475 0.031679
0.799388 0.110294 0.031373
0.815318 0.111397 0.031373
0.832844 0.116054 0.035294
0.846446 0.120894 0.035294
0.861397 0.125736 0.035294
0.877573 0.130575 0.039216
0.890686 0.134926 0.039216
0.903370 0.140441 0.039216
0.916054 0.145098 0.043137
0.928738 0.148284 0.043137
0.941421 0.154779 0.043137
0.954105 0.163541 0.043137
0.964951 0.169976 0.043137
0.975552 0.178738 0.048468
0.985907 0.187500 0.047059
0.026042 0.026042 0.000000
0.034805 0.026042 0.000000
0.041054 0.026042 0.000000
0.048406 0.026042 0.000000
0.054657 0.026042 0.000000
0.062010 0.027451 0.000000
0.068260 0.029964 0.000000
0.077022 0.029964 0.000000
0.085785 0.029964 0.000000
0.090625 0.029964 0.000000
0.099387 0.031373 0.000000
0.104228 0.033885 0.000000
0.112990 0.033885 0.000000
0.121753 0.033885 0.000000
0.130515 0.032476 0.000000
0.139277 0.037807 0.000000
0.148039 0.037807 0.000000
0.160661 0.037807 0.000000
0.169485 0.036152 0.000000
0.182169 0.041728 0.000000
0.193443 0.041728 0.000000
0.211152 0.041728 0.000000
0.224755 0.045650 0.000000
0.242280 0.045650 0.001532
0.259804 0.049571 0.003922
0.275919 0.049571 0.003922
0.290931 0.053493 0.003922
0.309681 0.053493 0.003922
0.322059 0.057415 0.003922
0.339583 0.057415 0.003922
0.355699 0.061336 0.003922
0.373222 0.061336 0.003922
0.390196 0.061336 0.003922
0.409682 0.065258 0.006801
0.431005 0.069056 0.007843
0.455085 0.069179 0.007843
0.475735 0.073101 0.007843
0.502022 0.075735 0.010478
0.531862 0.077022 0.011765
0.558517 0.080944 0.011765
0.584804 0.084866 0.013235
0.611091 0.088787 0.015686
0.637378 0.092096 0.015686
0.659743 0.093014 0.019608
0.684804 0.097856 0.019608
0.706250 0.100552 0.023529
0.726287 0.104473 0.023529
0.745282 0.110906 0.027451
0.766667 0.112316 0.027451
0.784191 0.116238 0.026838
0.801716 0.118750 0.031373
0.819240 0.123897 0.031373
0.832844 0.128003 0.035294
0.851226 0.131924 0.035294
0.863971 0.135846 0.035294
0.876593 0.139767 0.040196
0.891176 0.144179 0.039216
0.904780 0.149019 0.039216
0.918382 0.157965 0.039032
0.931985 0.161887 0.043137
0.941666 0.169976 0.043137
0.954105 0.176225 0.043137
0.966789 0.184987 0.043137
0.978554 0.192340 0.043137
0.988235 0.201103 0.043137
0.031373 0.031373 0.000000
0.039644 0.034804 0.000000
0.044975 0.034804 0.000000
0.053248 0.034804 0.000000
0.058579 0.034804 0.000000
0.063419 0.034804 0.000000
0.072181 0.032966 0.000000
0.080454 0.038726 0.000000
0.085785 0.038726 0.000000
0.097549 0.038726 0.000000
0.099387 0.038726 0.000000
0.108149 0.037561 0.000000
0.117157 0.042647 0.000000
0.125185 0.042647 0.000000
0.133947 0.042647 0.000000
0.142709 0.041238 0.000000
0.151470 0.046569 0.000000
0.160723 0.046569 0.000000
0.170343 0.046569 0.000000
0.185600 0.050490 0.000000
0.197549 0.050490 0.003432
0.211152 0.050490 0.003432
0.228185 0.054412 0.003922
0.242280 0.054412 0.003922
0.259804 0.058334 0.003922
0.277328 0.058334 0.003922
0.290931 0.062255 0.003922
0.308456 0.062255 0.003922
0.327206 0.066177 0.003922
0.339583 0.066177 0.003922
0.357108 0.070098 0.003922
0.374632 0.070098 0.003922
0.392156 0.070098 0.007353
0.413113 0.074020 0.007843
0.431128 0.077818 0.007843
0.453370 0.078738 0.007843
0.479657 0.081863 0.007843
0.505944 0.084498 0.010478
0.532230 0.089338 0.011765
0.561949 0.090258 0.011765
0.588726 0.093628 0.013235
0.616054 0.097549 0.015686
0.637378 0.100858 0.015686
0.666789 0.105392 0.019608
0.686030 0.106618 0.019608
0.709682 0.111458 0.023529
0.727696 0.116667 0.023529
0.749143 0.117218 0.027451
0.766667 0.122058 0.027451
0.784191 0.128432 0.027451
0.801716 0.132353 0.031373
0.819240 0.132843 0.031373
0.839460 0.137499 0.032108
0.850368 0.142341 0.035294
0.863971 0.147182 0.035294
0.881495 0.151961 0.035294
0.891176 0.156862 0.039216
0.907291 0.165135 0.039216
0.919976 0.171569 0.039216
0.931985 0.178738 0.039032
0.945343 0.187255 0.043137
0.955269 0.192341 0.043137
0.970221 0.201104 0.043137
0.979473 0.209865 0.043137
0.991667 0.218628 0.043137
0.039645 0.039645 0.000000
0.043566 0.039645 0.000000
0.049326 0.039645 0.000000
0.057660 0.043566 0.000000
0.059253 0.043566 0.000000
0.067096 0.043566 0.000000
0.076103 0.043566 0.000000
0.078860 0.043566 0.000000
0.089706 0.043566 0.000000
0.094547 0.047488 0.000000
0.103309 0.047488 0.000000
0.106311 0.047488 0.000000
0.116912 0.047488 0.000000
0.125674 0.051409 0.000000
0.134436 0.051409 0.000000
0.143198 0.051409 0.000000
0.151961 0.051409 0.000000
0.164583 0.055331 0.003861
0.173407 0.055331 0.000429
0.186091 0.055331 0.003922
0.198774 0.059253 0.003922
0.215073 0.059253 0.003922
0.228676 0.063174 0.003922
0.246201 0.063174 0.003922
0.263726 0.065625 0.003922
0.281250 0.067096 0.003922
0.294853 0.071017 0.003922
0.312377 0.071017 0.003922
0.325981 0.073223 0.003922
0.343505 0.074939 0.007047
0.357537 0.075062 0.007843
0.375061 0.078860 0.007843
0.396079 0.078860 0.007843
0.413603 0.082782 0.007843
0.431556 0.086580 0.007843
0.457292 0.087501 0.008640
0.480086 0.090625 0.011765
0.506373 0.094547 0.011765
0.536152 0.098101 0.011765
0.562990 0.099019 0.011765
0.589155 0.103861 0.012194
0.615441 0.106311 0.015686
0.641299 0.110233 0.015686
0.663664 0.114154 0.019608
0.689951 0.118076 0.019608
0.710172 0.121998 0.021752
0.731617 0.122427 0.023529
0.749204 0.129841 0.023161
0.770588 0.133762 0.027451
0.788113 0.134191 0.027451
0.805637 0.141605 0.027451
0.823161 0.142034 0.031373
0.836765 0.150184 0.031373
0.854289 0.153799 0.033027
0.867892 0.157721 0.035294
0.878432 0.168628 0.035294
0.895098 0.169975 0.035294
0.908701 0.178309 0.039216
0.922304 0.183579 0.039216
0.935907 0.189093 0.039216
0.945588 0.200858 0.039216
0.959191 0.205944 0.039216
0.970711 0.214706 0.039216
0.982476 0.223469 0.039216
0.992157 0.232231 0.039216
0.044485 0.048407 0.000000
0.049326 0.048407 0.000000
0.056740 0.050245 0.000000
0.061581 0.052328 0.000000
0.066422 0.052328 0.000000
0.071262 0.052328 0.000000
0.075858 0.052328 0.000000
0.084866 0.052328 0.000000
0.087623 0.055760 0.000000
0.099387 0.056250 0.000000
0.103309 0.056250 0.000000
0.112071 0.056250 0.000000
0.120834 0.056250 0.000000
0.129596 0.060172 0.001348
0.135784 0.060172 0.001348
0.144546 0.060172 0.001348
0.153309 0.060172 0.003922
0.164645 0.064093 0.003922
0.174265 0.064093 0.003922
0.187868 0.065870 0.003922
0.201471 0.068015 0.003922
0.212806 0.068015 0.003922
0.232598 0.071936 0.003922
0.250123 0.071936 0.003922
0.265074 0.074387 0.003922
0.281250 0.075858 0.003922
0.299755 0.079779 0.003922
0.312377 0.079779 0.005270
0.329902 0.081127 0.005270
0.343505 0.083701 0.007843
0.361029 0.083823 0.007843
0.378554 0.087623 0.007843
0.396079 0.089584 0.007843
0.414951 0.091544 0.007843
0.438848 0.092892 0.011642
0.457292 0.096263 0.011765
0.483578 0.101103 0.011765
0.509866 0.103309 0.011765
0.539705 0.107230 0.011765
0.566360 0.111152 0.012316
0.592647 0.112500 0.015686
0.618934 0.117463 0.015686
0.645221 0.122304 0.015686
0.667586 0.123224 0.019608
0.689951 0.128063 0.019608
0.711519 0.132905 0.019608
0.734681 0.137744 0.023529
0.753064 0.138664 0.023529
0.771936 0.143505 0.027451
0.789461 0.147794 0.027451
0.806985 0.151716 0.027451
0.823161 0.155637 0.031189
0.841299 0.162867 0.031373
0.854289 0.167402 0.031373
0.869240 0.173897 0.036519
0.885417 0.181312 0.035294
0.898529 0.187010 0.035294
0.911213 0.192341 0.035294
0.923897 0.198774 0.037868
0.936581 0.205944 0.037868
0.949265 0.214706 0.039216
0.961948 0.222120 0.039216
0.972794 0.228308 0.039216
0.983395 0.237071 0.039216
0.992157 0.245833 0.039216
0.053247 0.057169 0.000000
0.057169 0.058088 0.000000
0.061091 0.061091 0.000000
0.065503 0.061091 0.000000
0.070343 0.061091 0.000000
0.076777 0.061091 0.000000
0.080024 0.061091 0.000000
0.088787 0.063603 0.000000
0.093628 0.065012 0.000000
0.098468 0.065012 0.002267
0.108149 0.065012 0.002267
0.112071 0.065012 0.002267
0.120834 0.067279 0.003922
0.129596 0.068934 0.003922
0.138358 0.068934 0.003922
0.147120 0.071201 0.003922
0.155883 0.071201 0.003922
0.164645 0.072855 0.003922
0.177329 0.075122 0.003922
0.190012 0.076777 0.003922
0.205392 0.076777 0.003922
0.218995 0.080392 0.003922
0.234865 0.080698 0.003922
0.250123 0.082966 0.003922
0.267647 0.084620 0.003922
0.285172 0.087990 0.003922
0.298774 0.088542 0.004290
0.317280 0.089829 0.007843
0.329902 0.092463 0.007843
0.347427 0.095588 0.007843
0.363297 0.096385 0.007843
0.380821 0.098652 0.007843
0.400000 0.100306 0.007843
0.417525 0.103186 0.010723
0.438971 0.104228 0.011765
0.461214 0.110416 0.011765
0.487500 0.112071 0.011765
0.513787 0.114338 0.011765
0.540073 0.119547 0.015318
0.568627 0.120465 0.015686
0.596569 0.126103 0.015686
0.622855 0.130147 0.015686
0.644179 0.131679 0.017953
0.673468 0.137867 0.019608
0.694914 0.141789 0.019608
0.716361 0.145711 0.019608
0.735539 0.150429 0.023529
0.756986 0.151349 0.023529
0.774510 0.156188 0.022242
0.792034 0.161030 0.027451
0.809559 0.168137 0.027451
0.827083 0.172978 0.027451
0.840687 0.177819 0.031373
0.858823 0.184926 0.031373
0.871814 0.188848 0.031373
0.884191 0.196262 0.033027
0.899019 0.201102 0.035294
0.912623 0.208456 0.035294
0.926226 0.214706 0.035294
0.939828 0.223468 0.035294
0.949510 0.228308 0.033272
0.964215 0.237071 0.039216
0.974633 0.243566 0.039216
0.986397 0.252329 0.039216
0.992157 0.259436 0.039216
0.058089 0.069853 0.000000
0.059743 0.069853 0.000000
0.065932 0.069853 0.000000
0.069853 0.073039 0.000000
0.074265 0.073039 0.000000
0.078431 0.070528 0.003187
0.085540 0.073775 0.003187
0.088787 0.073775 0.003187
0.093383 0.073775 0.003922
0.105147 0.076960 0.003922
0.107230 0.075122 0.003922
0.115992 0.077696 0.003922
0.124755 0.077696 0.003922
0.132782 0.080882 0.003922
0.138358 0.078799 0.003922
0.147120 0.081618 0.003922
0.159068 0.081618 0.003922
0.168566 0.084804 0.003922
0.178187 0.085540 0.003922
0.191789 0.088725 0.003922
0.205392 0.088235 0.003922
0.222916 0.089461 0.003922
0.236519 0.090074 0.003922
0.254044 0.093383 0.003922
0.272304 0.096568 0.003922
0.284988 0.097304 0.007108
0.305515 0.097672 0.007843
0.316299 0.104411 0.007843
0.334804 0.103431 0.007843
0.347427 0.105147 0.007843
0.364951 0.105270 0.007843
0.382475 0.112254 0.007843
0.403186 0.111029 0.007843
0.421446 0.116176 0.010723
0.442769 0.116912 0.011765
0.465135 0.124019 0.011765
0.490686 0.122549 0.011765
0.516973 0.127390 0.011765
0.543995 0.131862 0.015686
0.573468 0.133150 0.015686
0.599755 0.139705 0.015686
0.626042 0.143627 0.018076
0.649142 0.147672 0.019608
0.671507 0.148590 0.019608
0.696569 0.153432 0.019608
0.718015 0.158272 0.019608
0.738603 0.163113 0.022671
0.760171 0.171078 0.023529
0.775490 0.175000 0.023529
0.795956 0.178921 0.025429
0.813848 0.182843 0.027451
0.830270 0.190503 0.027451
0.844608 0.195343 0.025000
0.858211 0.200184 0.031373
0.876348 0.206372 0.031373
0.889338 0.213787 0.031373
0.902451 0.218628 0.031373
0.915134 0.223468 0.035294
0.927819 0.232230 0.035294
0.940502 0.237745 0.035294
0.953186 0.245834 0.035294
0.963112 0.253431 0.035294
0.977818 0.259436 0.039216
0.987316 0.265013 0.039216
0.996078 0.273039 0.039216
0.066851 0.082537 0.003922
0.067770 0.082537 0.003922
0.070772 0.082537 0.003922
0.074694 0.082537 0.003922
0.082108 0.082537 0.003922
0.083027 0.082721 0.003922
0.087868 0.082721 0.003922
0.092709 0.086459 0.003922
0.094302 0.086459 0.003922
0.102145 0.086459 0.003922
0.111152 0.086643 0.003922
0.119914 0.086643 0.003922
0.124939 0.090380 0.003922
0.133517 0.090564 0.003922
0.142279 0.090564 0.003922
0.151042 0.094302 0.003922
0.162745 0.094302 0.003922
0.168751 0.094486 0.003922
0.182108 0.098223 0.003922
0.195711 0.100000 0.003922
0.206802 0.098407 0.003922
0.226838 0.102145 0.003922
0.240013 0.102329 0.004535
0.257966 0.107597 0.007843
0.275490 0.106250 0.007843
0.285906 0.113358 0.007843
0.306617 0.113909 0.007843
0.320220 0.114093 0.007843
0.337745 0.117831 0.007843
0.348406 0.120955 0.007843
0.368872 0.121753 0.008027
0.386397 0.121937 0.008027
0.404105 0.127634 0.011765
0.425368 0.125858 0.011765
0.443076 0.129780 0.011765
0.469057 0.133701 0.011765
0.495343 0.137623 0.011765
0.521630 0.141544 0.015686
0.547917 0.145466 0.015686
