Color/Kodak/Kodak Portra 800 1 - 65x.cube
TITLE "Kodak Portra 800 1 -"
LUT_3D_SIZE 65
DOMAIN_MIN 0.000000 0.000000 0.000000
DOMAIN_MAX 1.000000 1.000000 1.000000
0.000000 0.000000 0.000000
0.011765 0.000000 0.000000
0.021446 0.001838 0.000000
0.027451 0.000000 0.000000
0.038971 0.000000 0.000000
0.052328 0.000000 0.000000
0.069853 0.003922 0.000000
0.080944 0.002513 0.000000
0.097059 0.007353 0.000000
0.110662 0.004351 0.000000
0.130760 0.007843 0.000000
0.145711 0.010110 0.000000
0.167156 0.011765 0.000000
0.184682 0.011581 0.000000
0.206128 0.010662 0.000000
0.225674 0.007843 0.000000
0.249019 0.003922 0.000000
0.270404 0.000000 0.000000
0.295834 0.000000 0.000000
0.316912 0.000000 0.000000
0.341421 0.000000 0.000000
0.363787 0.000000 0.000000
0.390073 0.000000 0.000000
0.412439 0.000000 0.000000
0.438725 0.000000 0.000000
0.461091 0.000000 0.000000
0.490931 0.000000 0.000000
0.512377 0.000000 0.000000
0.537745 0.000000 0.000000
0.562316 0.000000 0.000000
0.584682 0.000000 0.000000
0.609926 0.000000 0.000000
0.631373 0.000000 0.000000
0.655699 0.000000 0.000000
0.674265 0.000000 0.000000
0.695711 0.000000 0.000000
0.722794 0.000000 0.000000
0.745160 0.000000 0.000000
0.767892 0.000000 0.000000
0.789338 0.000000 0.000000
0.810784 0.000000 0.000000
0.828309 0.000000 0.000000
0.849755 0.000000 0.000000
0.863358 0.000000 0.000000
0.883579 0.000000 0.000000
0.898407 0.000000 0.000000
0.912009 0.000000 0.000000
0.929473 0.000000 0.000000
0.943137 0.000000 0.000000
0.956740 0.000000 0.000000
0.970343 0.000000 0.000000
0.984130 0.000000 0.000000
1.000000 0.000000 0.000000
1.000000 0.000000 0.000000
1.000000 0.000000 0.000000
1.000000 0.000000 0.000000
1.000000 0.000000 0.000000
1.000000 0.000000 0.000000
1.000000 0.000000 0.000000
1.000000 0.000000 0.000000
1.000000 0.008578 0.000000
1.000000 0.038787 0.000000
1.000000 0.066912 0.000000
1.000000 0.094363 0.000000
1.000000 0.117647 0.000000
0.000000 0.004841 0.000000
0.007843 0.011765 0.003003
0.017524 0.008762 0.000000
0.026287 0.008762 0.000000
0.041728 0.011765 0.000000
0.055576 0.012684 0.000000
0.068934 0.014277 0.000000
0.079534 0.015197 0.000000
0.093628 0.016605 0.000000
0.110662 0.017524 0.000000
0.128186 0.020527 0.000000
0.147978 0.022794 0.000000
0.169423 0.024448 0.000000
0.184682 0.020527 0.000000
0.203309 0.018627 0.000000
0.224572 0.020527 0.000000
0.248039 0.016605 0.000000
0.270404 0.009742 0.000000
0.292770 0.008762 0.000000
0.318138 0.003064 0.000000
0.340196 0.000000 0.000000
0.361090 0.000000 0.000000
0.390073 0.000000 0.000000
0.411826 0.000000 0.000000
0.438725 0.000000 0.000000
0.461642 0.000000 0.000000
0.487378 0.000000 0.000000
0.509375 0.000000 0.000000
0.536029 0.000000 0.000000
0.559314 0.000000 0.000000
0.583763 0.000000 0.000000
0.610049 0.000000 0.000000
0.628370 0.000000 0.000000
0.652819 0.000000 0.000000
0.671262 0.000000 0.000000
0.696630 0.000000 0.000000
0.718873 0.000000 0.000000
0.742525 0.000000 0.000000
0.764890 0.000000 0.000000
0.789338 0.000000 0.000000
0.811336 0.000000 0.000000
0.828309 0.000000 0.000000
0.846753 0.000000 0.000000
0.863358 0.000000 0.000000
0.879657 0.000000 0.000000
0.897488 0.000000 0.000000
0.912009 0.000000 0.000000
0.925613 0.000000 0.000000
0.942157 0.000000 0.000000
0.959743 0.000000 0.000000
0.968444 0.000000 0.000000
0.987867 0.000000 0.000000
0.996813 0.000000 0.000000
1.000000 0.000000 0.000000
1.000000 0.000000 0.000000
1.000000 0.000000 0.000000
1.000000 0.000000 0.000000
1.000000 0.000000 0.000000
1.000000 0.000000 0.000000
1.000000 0.006495 0.000000
1.000000 0.030270 0.000000
1.000000 0.059314 0.000000
1.000000 0.080515 0.000000
1.000000 0.104963 0.000000
1.000000 0.126409 0.000000
0.000000 0.015441 0.001838
0.004841 0.014522 0.000000
0.013603 0.019362 0.001838
0.027206 0.020281 0.000000
0.038726 0.021446 0.000000
0.051654 0.021446 0.000000
0.064338 0.023284 0.000000
0.077022 0.023284 0.000000
0.097059 0.029289 0.000000
0.110662 0.027880 0.000000
0.128186 0.029289 0.000000
0.146140 0.031556 0.000000
0.163235 0.033211 0.000000
0.184682 0.033211 0.000000
0.204044 0.031127 0.000000
0.223652 0.029106 0.000000
0.245098 0.029289 0.000000
0.270404 0.025367 0.000000
0.292770 0.017524 0.000000
0.315135 0.013664 0.000000
0.338725 0.006985 0.000000
0.363787 -0.001777 0.000000
0.391299 0.000000 0.000000
0.414829 0.000000 0.000000
0.438725 0.000000 0.000000
0.463174 0.000000 0.000000
0.487378 0.000000 0.000000
0.514216 0.000000 0.000000
0.535662 0.000000 0.000000
0.558394 0.000000 0.000000
0.579044 0.000000 0.000000
0.607047 0.000000 0.000000
0.629412 0.000000 0.000000
0.651777 0.000000 0.000000
0.672181 0.000000 0.000000
0.697549 0.000000 0.000000
0.718873 0.000000 0.000000
0.745160 0.000000 0.000000
0.763971 0.000000 0.000000
0.791176 0.000000 0.000000
0.806496 0.000000 0.000000
0.828309 0.000000 0.000000
0.845834 0.000000 0.000000
0.863358 0.000000 0.000000
0.879044 0.000000 0.000000
0.894485 0.000000 0.000000
0.908946 0.000000 0.000000
0.925613 0.000000 0.000000
0.941299 0.000000 0.000000
0.956740 0.000000 0.000000
0.970343 0.000000 0.000000
0.982047 0.000000 0.000000
0.996813 0.000000 0.000000
1.000000 0.000000 0.000000
1.000000 0.000000 0.000000
1.000000 0.000000 0.000000
1.000000 0.000000 0.000000
1.000000 0.000000 0.000000
1.000000 0.004657 0.000000
1.000000 0.022427 0.000000
1.000000 0.051471 0.000000
1.000000 0.075919 0.000000
1.000000 0.096201 0.000000
1.000000 0.114645 0.000000
1.000000 0.135171 0.000000
0.000000 0.025123 0.003922
0.007843 0.026287 0.003922
0.008762 0.026287 -0.000919
0.022365 0.029044 0.002758
0.034804 0.030209 0.000000
0.046323 0.030882 0.000000
0.062010 0.034130 0.000000
0.075367 0.033885 0.000000
0.094302 0.038052 0.000000
0.110662 0.040809 0.000000
0.125429 0.041973 0.000000
0.142953 0.041973 0.000000
0.163235 0.041973 0.000000
0.183517 0.044731 0.000000
0.202206 0.041973 0.000000
0.226410 0.041973 0.000000
0.243934 0.037868 0.000000
0.270404 0.038052 0.000000
0.291912 0.032108 0.000000
0.315135 0.027267 0.000000
0.340196 0.018444 0.000000
0.364951 0.014522 0.000000
0.390073 0.002758 0.000000
0.412439 0.000000 0.000000
0.438725 0.000000 0.000000
0.465625 0.000000 0.000000
0.487378 0.000000 0.000000
0.513664 0.000000 0.000000
0.533272 0.000000 0.000000
0.558394 0.000000 0.000000
0.584559 0.000000 0.000000
0.603125 0.000000 0.000000
0.626655 0.000000 0.000000
0.651777 0.000000 0.000000
0.675307 0.000000 0.000000
0.695711 0.000000 0.000000
0.718873 0.000000 0.000000
0.742525 0.000000 0.000000
0.767524 0.000000 0.000000
0.785968 0.000000 0.000000
0.808334 0.000000 0.000000
0.825551 0.000000 0.000000
0.846385 0.000000 0.000000
0.863358 0.000000 0.000000
0.876961 0.000000 0.000000
0.894485 0.000000 0.000000
0.907782 0.000000 0.000000
0.922856 0.000000 0.000000
0.942157 0.000000 0.000000
0.957598 0.000000 0.000000
0.967524 0.000000 0.000000
0.984130 0.000000 0.000000
1.000000 0.000000 0.000000
1.000000 0.000000 0.000000
1.000000 0.000000 0.000000
1.000000 0.000000 0.000000
1.000000 0.000000 0.000000
1.000000 0.000000 0.000000
1.000000 0.016421 0.000000
1.000000 0.045465 0.000000
1.000000 0.068995 0.000000
1.000000 0.088603 0.000000
1.000000 0.107720 0.000000
1.000000 0.126409 0.000000
1.000000 0.143934 0.000000
0.000000 0.031128 0.003922
0.003922 0.037807 0.006924
0.009927 0.033211 0.003922
0.018444 0.038726 0.004841
0.030883 0.038726 0.000000
0.051410 0.046569 0.000000
0.064338 0.046814 0.000000
0.075612 0.046814 0.000000
0.093138 0.050245 0.000000
0.106740 0.047242 0.000000
0.124265 0.054412 0.000000
0.141789 0.054412 0.000000
0.162500 0.058334 0.000000
0.180760 0.054657 0.000000
0.202206 0.057230 0.000000
0.221997 0.054657 0.000000
0.245098 0.054412 0.000000
0.266544 0.050490 0.000000
0.295589 0.049632 0.000000
0.315135 0.042647 0.000000
0.337745 0.036029 0.000000
0.363787 0.027267 0.000000
0.386396 0.018505 0.000000
0.412439 0.009743 0.000000
0.435050 0.000000 0.000000
0.461091 0.000000 0.000000
0.487378 0.000000 0.000000
0.512377 0.000000 0.000000
0.533824 0.000000 0.000000
0.558394 0.000000 0.000000
0.580760 0.000000 0.000000
0.606005 0.000000 0.000000
0.627451 0.000000 0.000000
0.649142 0.000000 0.000000
0.670588 0.000000 0.000000
0.695711 0.000000 0.000000
0.719117 0.000000 0.000000
0.746201 0.000000 0.000000
0.767524 0.000000 0.000000
0.782292 0.000000 0.000000
0.806863 0.000000 0.000000
0.828064 0.000000 0.000000
0.842157 0.000000 0.000000
0.859437 0.000000 0.000000
0.879657 0.000000 0.000000
0.890809 0.000000 0.000000
0.908088 0.000000 0.000000
0.925551 0.000000 0.000000
0.939216 0.000000 0.000000
0.952819 0.000000 0.000000
0.966666 0.000000 0.000000
0.983946 0.000000 0.000000
0.996813 0.000000 0.000000
1.000000 0.000000 0.000000
1.000000 0.000000 0.000000
1.000000 0.000000 0.000000
1.000000 0.003677 0.000000
1.000000 0.021446 0.000000
1.000000 0.045465 0.000000
1.000000 0.068076 0.000000
1.000000 0.086274 0.000000
1.000000 0.103799 0.000000
1.000000 0.117647 0.000000
1.000000 0.134253 0.000000
1.000000 0.156373 0.000000
0.000000 0.044485 0.007843
0.004841 0.044240 0.008517
0.009681 0.047733 0.007843
0.021201 0.048407 0.004596
0.027206 0.048407 0.003922
0.044485 0.052328 0.000674
0.058088 0.056250 0.000000
0.076287 0.062684 0.000000
0.093138 0.063419 0.000000
0.107414 0.064093 0.000000
0.124265 0.064093 0.000000
0.142464 0.064767 0.000000
0.162500 0.070528 0.000000
0.177697 0.068015 0.000000
0.198958 0.068015 0.000000
0.223652 0.069240 0.000000
0.244791 0.070282 0.000000
0.270404 0.067341 0.000000
0.288665 0.063419 0.000000
0.315809 0.060172 0.000000
0.338174 0.053002 0.000000
0.363787 0.048713 0.000000
0.389399 0.040625 0.000000
0.412439 0.030331 0.000000
0.438725 0.020649 0.000000
0.461091 0.010417 0.000000
0.484130 0.000674 0.000000
0.512990 0.000000 0.000000
0.530576 0.000000 0.000000
0.555944 0.000000 0.000000
0.581311 0.000000 0.000000
0.603799 0.000000 0.000000
0.629412 0.000000 0.000000
0.649571 0.000000 0.000000
0.674142 0.000000 0.000000
0.694056 0.000000 0.000000
0.719547 0.000000 0.000000
0.743199 0.000000 0.000000
0.767524 0.000000 0.000000
0.786091 0.000000 0.000000
0.804289 0.000000 0.000000
0.825062 0.000000 0.000000
0.842586 0.000000 0.000000
0.860478 0.000000 0.000000
0.876961 0.000000 0.000000
0.891238 0.000000 0.000000
0.908088 0.000000 0.000000
0.922365 0.000000 0.000000
0.939216 0.000000 0.000000
0.954718 0.000000 0.000000
0.967524 0.000000 0.000000
0.973897 0.000000 0.000000
0.993566 0.000000 0.000000
1.000000 0.000000 0.000000
1.000000 0.002574 0.000000
1.000000 0.012499 0.000000
1.000000 0.025123 0.000000
1.000000 0.046753 0.000000
1.000000 0.072426 0.000000
1.000000 0.085049 0.000000
1.000000 0.101654 0.000000
1.000000 0.114828 0.000000
1.000000 0.130270 0.000000
1.000000 0.142954 0.000000
1.000000 0.156985 0.000000
0.000000 0.058824 0.010172
0.003248 0.057414 0.007169
0.011765 0.060417 0.009927
0.018444 0.063175 0.007843
0.027206 0.066422 0.004167
0.043137 0.069179 0.004841
0.054167 0.069853 0.000000
0.069179 0.069853 0.000000
0.094976 0.079535 0.000000
0.111826 0.082782 0.000000
0.124020 0.080024 0.000000
0.141789 0.080024 0.000000
0.163235 0.081618 0.000000
0.183088 0.085356 0.000000
0.202206 0.081618 0.000000
0.221323 0.081618 0.000000
0.245098 0.081618 0.000000
0.270404 0.083946 0.000000
0.290442 0.077696 0.000000
0.315687 0.075919 0.000000
0.337500 0.071079 0.000000
0.363787 0.069853 0.000000
0.390073 0.062991 0.000000
0.414829 0.056618 0.000000
0.436275 0.047794 0.000000
0.463419 0.036703 0.000000
0.488603 0.027573 0.000000
0.509742 0.012929 0.000000
0.533824 0.002573 0.000000
0.558394 -0.001532 0.000000
0.580760 0.000000 0.000000
0.606005 0.000000 0.000000
0.627451 0.000000 0.000000
0.651777 0.000000 0.000000
0.674142 0.000000 0.000000
0.696508 0.000000 0.000000
0.722794 0.000000 0.000000
0.745160 0.000000 0.000000
0.763971 0.000000 0.000000
0.785968 0.000000 0.000000
0.806741 0.000000 0.000000
0.825919 0.000000 0.000000
0.847549 0.000000 0.000000
0.858150 0.000000 0.000000
0.876961 0.000000 0.000000
0.892892 0.000000 0.000000
0.911152 0.000000 0.000000
0.925613 0.000000 0.000000
0.942157 0.000000 0.000000
0.952513 0.000000 0.000000
0.970343 0.000000 0.000000
0.980208 0.000000 0.000000
0.996813 0.001593 0.000000
1.000000 0.008088 0.000000
1.000000 0.026471 0.000000
1.000000 0.052145 0.000000
1.000000 0.068505 0.000000
1.000000 0.084436 0.000000
1.000000 0.097304 0.000000
1.000000 0.115564 0.000000
1.000000 0.125245 0.000000
1.000000 0.137255 0.000000
1.000000 0.152451 0.000000
1.000000 0.165135 0.000000
1.000000 0.179657 0.000000
0.000000 0.071691 0.011765
0.004841 0.071691 0.011765
0.009008 0.071018 0.011765
0.015686 0.073101 0.011765
0.023284 0.076776 0.011520
0.035968 0.077022 0.007169
0.052573 0.081863 0.004841
0.065258 0.080944 0.000000
0.085295 0.088296 0.000000
0.106740 0.092709 0.000000
0.126838 0.092709 0.000000
0.141544 0.094975 0.000000
0.159313 0.096630 0.000000
0.180760 0.095220 0.000000
0.202206 0.098039 0.000000
0.221140 0.096630 0.000000
0.241176 0.095220 0.000000
0.266483 0.095220 0.000000
0.288848 0.089645 0.000000
0.312622 0.091299 0.000000
0.337500 0.088603 0.000000
0.363787 0.082660 0.000000
0.389460 0.082843 0.000000
0.413419 0.076593 0.000000
0.436275 0.069240 0.000000
0.461091 0.066360 0.000000
0.489522 0.060294 0.000000
0.509742 0.045466 0.000000
0.536336 0.037010 0.000000
0.555270 0.021997 0.000000
0.580760 0.007537 0.000000
0.603125 0.000000 0.000000
0.626900 0.000000 0.000000
0.651777 0.000000 0.000000
0.674142 0.000000 0.000000
0.697916 0.000000 0.000000
0.723591 0.000000 0.000000
0.746569 0.000000 0.000000
0.767524 0.000000 0.000000
0.789338 0.000000 0.000000
0.805822 0.000000 0.000000
0.825796 0.000000 0.000000
0.843321 0.000000 0.000000
0.863051 0.000000 0.000000
0.874448 0.000000 0.000000
0.891973 0.000000 0.000000
0.908088 0.000000 0.000000
0.925551 0.000000 0.000000
0.938235 0.000000 0.000000
0.952819 0.000000 0.000000
0.966421 0.005331 0.000000
0.981434 0.017524 0.000000
0.996813 0.036152 0.000000
1.000000 0.051164 0.000000
1.000000 0.066115 0.000000
1.000000 0.085110 0.000000
1.000000 0.098223 0.000000
1.000000 0.110907 0.000000
1.000000 0.119485 0.000000
1.000000 0.133762 0.000000
1.000000 0.146446 0.000000
1.000000 0.157721 0.000000
1.000000 0.165379 0.000000
1.000000 0.176654 0.000000
1.000000 0.193259 0.000000
0.000000 0.081863 0.011765
0.000490 0.081863 0.011765
0.005760 0.081863 0.011765
0.011765 0.081863 0.011765
0.019363 0.085540 0.007598
0.029289 0.086458 0.007843
0.048652 0.093138 0.009681
0.060417 0.092219 0.000490
0.077941 0.097549 0.000000
0.092892 0.094976 0.000000
0.120343 0.108824 0.000000
0.141299 0.108824 0.000000
0.159313 0.112745 0.000000
0.177022 0.112745 0.000000
0.198284 0.112745 0.000000
0.223162 0.114154 0.000000
0.241176 0.108333 0.000000
0.262132 0.108824 0.000000
0.285417 0.111887 0.000000
0.309558 0.108824 0.000000
0.337500 0.108333 0.000000
0.360171 0.104902 0.000000
0.382721 0.097549 0.000000
0.414338 0.098958 0.000000
0.434804 0.094118 0.000000
0.461642 0.089277 0.000000
0.487378 0.084437 0.000000
0.506312 0.075674 0.000000
0.533824 0.066912 0.000000
0.558394 0.061581 0.000000
0.580760 0.052328 0.000000
0.603125 0.039644 0.000000
0.625490 0.027451 0.000000
0.652328 0.022671 0.000000
0.674265 0.013358 0.000000
0.699632 0.003432 0.000000
0.719362 0.000000 0.000000
0.745956 0.000000 0.000000
0.767524 0.000000 0.000000
0.788787 0.000000 0.000000
0.804412 0.000000 0.000000
0.824387 0.000000 0.000000
0.842524 0.000000 0.000000
0.859437 0.000000 0.000000
0.874265 0.000000 0.000000
0.889278 0.003432 0.000000
0.908456 0.010294 0.000000
0.921692 0.024020 0.000000
0.938235 0.028922 0.000000
0.949387 0.041605 0.000000
0.966421 0.050245 0.000000
0.980208 0.067463 0.000000
0.993628 0.074510 0.000000
1.000000 0.088113 0.000000
1.000000 0.101715 0.000000
1.000000 0.111826 0.000000
1.000000 0.121079 0.000000
1.000000 0.135784 0.000000
1.000000 0.142524 0.000000
1.000000 0.151287 0.000000
1.000000 0.160294 0.000000
0.997242 0.169976 0.000000
1.000000 0.180147 0.000000
1.000000 0.194179 0.000000
1.000000 0.206863 0.000000
0.000000 0.094976 0.015686
0.000000 0.098468 0.016176
0.000000 0.094976 0.012194
0.003922 0.094976 0.009437
0.015013 0.098468 0.012194
0.027022 0.102390 0.011091
0.038051 0.103983 0.011336
0.057659 0.108395 0.005331
0.066177 0.103309 0.003922
0.090625 0.114154 0.000000
0.109497 0.115502 0.000000
0.141115 0.129595 0.000000
0.158578 0.126348 0.000000
0.176594 0.126103 0.000000
0.195466 0.126348 0.000000
0.221323 0.129841 0.000000
0.240196 0.126348 0.000000
0.259129 0.122916 0.000000
0.284927 0.122427 0.000000
0.311213 0.124571 0.000000
0.333578 0.122427 0.000000
0.356250 0.118811 0.000000
0.382046 0.118321 0.000000
0.408517 0.116973 0.000000
0.434804 0.114583 0.000000
0.457170 0.107720 0.000000
0.483027 0.106801 0.000000
0.505821 0.099326 0.000000
0.532108 0.095405 0.000000
0.557966 0.094976 0.000000
0.580637 0.087439 0.000000
0.602696 0.078676 0.000000
0.623529 0.073836 0.000000
0.651777 0.065931 0.000000
0.674142 0.064461 0.000000
0.696508 0.056618 0.000000
0.721078 0.053125 0.000000
0.742525 0.050490 0.000000
0.767096 0.048836 0.000000
0.785539 0.045282 0.000000
0.807905 0.046752 0.000000
0.823958 0.045711 0.000000
0.844791 0.049019 0.000000
0.855515 0.050061 0.000000
0.872610 0.054350 0.000000
0.886642 0.057047 0.000000
0.904166 0.064033 0.000000
0.917402 0.068505 0.000000
0.934314 0.076655 0.000000
0.948897 0.085968 0.000000
0.963603 0.094731 0.000000
0.983517 0.106801 0.000000
0.993199 0.111826 0.000000
1.000000 0.117095 0.000000
1.000000 0.129350 0.000000
1.000000 0.138113 0.000000
1.000000 0.146875 0.000000
1.000000 0.159130 0.000000
1.000000 0.163971 0.000000
1.000000 0.172732 0.000000
1.000000 0.181495 0.000000
1.000000 0.190257 0.000000
1.000000 0.200674 0.000000
1.000000 0.207782 0.000000
1.000000 0.220466 0.000000
0.000000 0.107230 0.015686
0.000000 0.108578 0.012684
0.000000 0.111152 0.017524
0.000000 0.108578 0.015686
0.006251 0.110906 0.015686
0.018934 0.111152 0.015012
0.031618 0.115073 0.011765
0.046814 0.117586 0.007843
0.064338 0.120343 0.001839
0.082292 0.123346 0.000000
0.103309 0.128186 0.000000
0.124449 0.130453 0.000000
0.151961 0.140441 0.000000
0.176839 0.143872 0.000000
0.194118 0.143627 0.000000
0.220404 0.147794 0.000000
0.239828 0.146446 0.000000
0.261275 0.143872 0.000000
0.284927 0.143872 0.000000
0.309436 0.143872 0.000000
0.333578 0.139951 0.000000
0.358518 0.136335 0.000000
0.382230 0.138603 0.000000
0.407170 0.134497 0.000000
0.430882 0.132108 0.000000
0.455821 0.128738 0.000000
0.483088 0.128186 0.000000
0.504473 0.124265 0.000000
0.527329 0.119485 0.000000
0.556250 0.117769 0.000000
0.576716 0.109926 0.000000
0.599203 0.106005 0.000000
0.625491 0.103431 0.000000
0.646324 0.099510 0.000000
0.674142 0.095711 0.000000
0.699632 0.098713 0.000000
0.717157 0.091299 0.000000
0.739951 0.090380 0.000000
0.762623 0.088113 0.000000
0.780698 0.088297 0.000000
0.803064 0.091667 0.000000
0.820465 0.091667 0.000000
0.837991 0.094975 0.000000
0.855208 0.096630 0.000000
0.871691 0.096936 0.000000
0.886642 0.099510 0.000000
0.902818 0.103431 0.000000
0.916422 0.104780 0.000000
0.933946 0.113848 0.000000
0.947549 0.119669 0.000000
0.962254 0.127083 0.000000
0.974939 0.129534 0.000000
0.991544 0.139951 0.000000
1.000000 0.146875 0.000000
1.000000 0.154289 0.000000
1.000000 0.160477 0.000000
1.000000 0.167893 0.000000
1.000000 0.175245 0.000000
1.000000 0.184068 0.000000
1.000000 0.190257 0.000000
1.000000 0.197671 0.000000
1.000000 0.206618 0.000000
1.000000 0.215196 0.000000
1.000000 0.225613 0.000000
1.000000 0.233946 0.000000
0.000000 0.127757 0.019608
0.000000 0.124755 0.014338
0.000000 0.128186 0.020037
0.000000 0.126103 0.018444
0.000000 0.127757 0.019608
0.010172 0.127757 0.017279
0.022855 0.132353 0.014093
0.038052 0.132537 0.010110
0.055576 0.136765 0.007843
0.077022 0.138296 0.003922
0.095895 0.140870 0.000000
0.118260 0.147365 0.000000
0.137439 0.149632 0.000000
0.176839 0.167401 0.000000
0.195466 0.162500 0.000000
0.217831 0.163419 0.000000
0.237255 0.162377 0.000000
0.264216 0.166911 0.000000
0.282659 0.161397 0.000000
0.309436 0.161887 0.000000
0.331311 0.158701 0.000000
0.357598 0.161091 0.000000
0.378309 0.155208 0.000000
0.404596 0.153554 0.000000
0.428431 0.153554 0.000000
0.453248 0.151900 0.000000
0.479534 0.151532 0.000000
0.501899 0.147978 0.000000
0.528186 0.143995 0.000000
0.549693 0.139277 0.000000
0.574572 0.140012 0.000000
0.604351 0.136213 0.000000
0.625490 0.134253 0.000000
0.648897 0.132292 0.000000
0.679595 0.132169 0.000000
0.696508 0.126715 0.000000
0.721078 0.128922 0.000000
0.742525 0.124081 0.000000
0.762316 0.123162 0.000000
0.782046 0.126715 0.000000
0.802941 0.126715 0.000000
0.822855 0.126715 0.000000
0.837991 0.128370 0.000000
0.855515 0.128677 0.000000
0.871814 0.132292 0.000000
0.888419 0.136336 0.000000
0.901103 0.139277 0.000000
0.921630 0.144057 0.000000
0.930086 0.145037 0.000000
0.946630 0.149877 0.000000
0.964154 0.158640 0.000000
0.976287 0.159743 0.000000
0.992892 0.166054 0.000000
1.000000 0.173162 0.000000
1.000000 0.177696 0.000000
1.000000 0.186765 0.000000
1.000000 0.191606 0.000000
1.000000 0.200368 0.000000
1.000000 0.206863 0.000000
1.000000 0.213357 0.000000
1.000000 0.220465 0.000000
1.000000 0.230331 0.000000
1.000000 0.234069 0.000000
1.000000 0.243566 0.000000
1.000000 0.253247 0.000000
0.000000 0.139705 0.019608
0.000000 0.139705 0.019608
0.000000 0.140441 0.019608
0.000000 0.140870 0.016421
0.000000 0.140441 0.019608
0.001410 0.137193 0.015686
0.010172 0.138848 0.015686
0.026103 0.142954 0.011765
0.046814 0.147549 0.011765
0.064768 0.151470 0.003922
0.091544 0.157966 0.005760
0.107230 0.156128 0.000000
0.131862 0.163235 0.000000
0.151226 0.164154 0.000000
0.194363 0.181740 0.000000
0.215809 0.182843 0.000000
0.237010 0.179657 0.000000
0.258701 0.182843 0.000000
0.284069 0.185172 0.000000
0.304105 0.181066 0.000000
0.329166 0.178921 0.000000
0.352328 0.178186 0.000000
0.378309 0.175000 0.000000
0.406250 0.176654 0.000000
0.428431 0.175735 0.000000
0.453248 0.171078 0.000000
0.475613 0.167156 0.000000
0.498713 0.167156 0.000000
0.525981 0.168137 0.000000
0.550551 0.163235 0.000000
0.573039 0.159436 0.000000
0.597058 0.162500 0.000000
0.622304 0.158578 0.000000
0.652083 0.159620 0.000000
0.674142 0.158456 0.000000
0.696508 0.155453 0.000000
0.721078 0.160049 0.000000
0.742525 0.157843 0.000000
0.760784 0.155025 0.000000
0.784682 0.157843 0.000000
0.802941 0.158578 0.000000
0.815748 0.157046 0.000000
0.833946 0.157843 0.000000
0.852329 0.162500 0.000000
0.869118 0.159804 0.000000
0.887684 0.167463 0.000000
0.900245 0.168750 0.000000
0.917770 0.170343 0.000000
0.928186 0.174265 0.000000
0.946998 0.178186 0.000000
0.962500 0.181005 0.000000
0.976103 0.186581 0.000000
0.989706 0.190686 0.000000
1.000000 0.193995 0.000000
1.000000 0.202451 0.000000
1.000000 0.206372 0.000000
1.000000 0.217402 0.000000
1.000000 0.219547 0.000000
1.000000 0.224387 0.000000
1.000000 0.233149 0.000000
1.000000 0.234805 0.000000
1.000000 0.245588 0.000000
1.000000 0.252696 0.000000
1.000000 0.257169 0.000000
1.000000 0.269117 0.000000
0.000000 0.153125 0.023345
0.000000 0.157047 0.022610
0.000000 0.153309 0.017954
0.000000 0.157047 0.017035
0.000000 0.153309 0.019792
0.000000 0.153309 0.020282
0.001593 0.157047 0.019608
0.014277 0.157231 0.015870
0.034131 0.164399 0.015686
0.059743 0.165074 0.011765
0.077022 0.168811 0.006495
0.100551 0.173345 0.003922
0.119914 0.172917 0.000000
0.141544 0.176839 0.000000
0.171752 0.185601 0.000000
0.198039 0.188603 0.000000
0.235110 0.206066 0.000000
0.258456 0.200368 0.000000
0.281005 0.200551 0.000000
0.307108 0.200368 0.000000
0.332169 0.203064 0.000000
0.352022 0.196629 0.000000
0.378309 0.196629 0.000000
0.404412 0.196446 0.000000
0.420772 0.190257 0.000000
0.449326 0.192708 0.000000
0.475429 0.188786 0.000000
0.497978 0.189890 0.000000
0.524265 0.188603 0.000000
0.550551 0.185661 0.000000
0.576900 0.184865 0.000000
0.602083 0.188603 0.000000
0.625490 0.184865 0.000000
0.651592 0.184865 0.000000
0.673958 0.184682 0.000000
0.691973 0.180331 0.000000
0.718689 0.184682 0.000000
0.738603 0.184865 0.000000
0.759865 0.184682 0.000000
