Color/Kodak/Kodak Kodachrome 25 65x.cube
TITLE "Kodak Kodachrome 25"
LUT_3D_SIZE 5
DOMAIN_MIN 0.000000 0.000000 0.000000
DOMAIN_MAX 1.000000 1.000000 1.000000
0.000000 0.000000 0.000000
0.097059 0.000000 0.000000
0.366667 0.000000 0.000000
1.000000 0.000000 0.000000
1.000000 0.262745 0.117647
0.094118 0.225490 0.104902
0.241176 0.232353 0.093137
0.622549 0.256862 0.075490
0.872550 0.367647 0.132353
1.000000 0.489216 0.223529
0.443137 0.600000 0.284314
0.506863 0.600000 0.278431
0.647058 0.601961 0.264706
0.816666 0.615687 0.252941
1.000000 0.645098 0.247059
0.675490 0.801961 0.381373
0.695098 0.801961 0.381373
0.759804 0.804902 0.376471
0.868628 0.808823 0.365686
1.000000 0.821569 0.353921
0.874510 0.984314 0.470588
0.886275 0.984314 0.470588
0.917647 0.984314 0.466667
0.977451 0.984314 0.462745
1.000000 0.992157 0.450980
0.000000 0.000000 0.175490
0.027451 0.000000 0.182353
0.287255 0.000000 0.165686
1.000000 0.000000 0.055883
1.000000 0.251960 0.309804
0.058824 0.205882 0.225490
0.195098 0.212745 0.224510
0.594117 0.227451 0.223529
0.839216 0.351961 0.319608
1.000000 0.477451 0.426471
0.433334 0.598039 0.299019
0.497059 0.596078 0.297059
0.639215 0.600000 0.297059
0.805883 0.612745 0.312746
0.996078 0.641177 0.388235
0.675490 0.801961 0.381373
0.695098 0.803922 0.381373
0.759804 0.805883 0.376471
0.871568 0.809804 0.365686
1.000000 0.824510 0.353921
0.878431 0.988235 0.474510
0.890196 0.988235 0.470588
0.921569 0.988235 0.470588
0.981372 0.988235 0.462745
1.000000 0.996078 0.454902
0.000000 0.000000 0.307843
0.003922 0.000000 0.294118
0.215686 0.000000 0.274510
1.000000 0.000000 0.131373
1.000000 0.231373 0.374510
0.002942 0.161765 0.421568
0.126471 0.167647 0.412745
0.541177 0.173530 0.382353
0.827451 0.312745 0.443137
0.996078 0.461765 0.528431
0.301960 0.576470 0.600000
0.385294 0.576470 0.600000
0.554902 0.578431 0.596078
0.737255 0.594117 0.600000
0.952941 0.625490 0.617647
0.647059 0.798039 0.463726
0.666667 0.798039 0.472549
0.725490 0.800000 0.500000
0.826471 0.801961 0.552941
0.997059 0.812745 0.626470
0.886275 0.996078 0.474510
0.894118 0.996078 0.474510
0.925490 0.996078 0.472549
0.985294 0.996078 0.466667
1.000000 1.000000 0.454902
0.000000 0.000000 0.397058
0.000000 0.000000 0.393137
0.128431 0.000000 0.356863
0.975490 0.000000 0.199020
1.000000 0.155883 0.403922
0.000000 0.067647 0.474510
0.027451 0.075490 0.473529
0.410784 0.098039 0.452941
0.863726 0.207843 0.472549
1.000000 0.424510 0.595098
0.140196 0.549019 0.719608
0.277452 0.546078 0.712745
0.501961 0.549019 0.700980
0.706863 0.566666 0.700980
0.937255 0.606863 0.711765
0.522549 0.777451 0.805883
0.550000 0.778432 0.805883
0.622549 0.778432 0.805883
0.750000 0.782353 0.805883
0.960784 0.798039 0.809804
0.863726 0.999019 0.567647
0.871569 0.999019 0.574510
0.895098 0.999019 0.604902
0.942157 0.999019 0.659804
1.000000 1.000000 0.750000
0.000000 0.000000 0.447059
0.000000 0.000000 0.453921
0.047059 0.000000 0.405883
0.851961 0.000000 0.252941
1.000000 0.039216 0.372549
0.000000 0.015686 0.504902
0.000000 0.018627 0.500980
0.331372 0.006863 0.453921
0.929411 0.052941 0.426471
1.000000 0.375491 0.606863
0.000000 0.511764 0.770588
0.099020 0.507844 0.758823
0.452941 0.507844 0.741177
0.695098 0.530392 0.736274
0.933333 0.582353 0.750981
0.463726 0.758824 0.883333
0.494117 0.758824 0.883333
0.575490 0.758824 0.883333
0.715687 0.762745 0.879412
0.945098 0.778432 0.875490
0.733333 0.984314 0.968627
0.745098 0.984314 0.972549
0.780392 0.988235 0.976471
0.843137 0.988235 0.984314
1.000000 0.996078 0.996078
