Color/Kodak/Kodak Portra 400 1 - 65x.cube
TITLE "Kodak Portra 400 1 -"
LUT_3D_SIZE 9
DOMAIN_MIN 0.000000 0.000000 0.000000
DOMAIN_MAX 1.000000 1.000000 1.000000
0.000000 0.000000 0.000000
0.073530 0.003432 0.000000
0.233333 0.000000 0.000000
0.446569 0.000000 0.000000
0.643138 0.000000 0.000000
0.799019 0.000000 0.000000
0.903922 0.000000 0.000000
0.988725 0.055882 0.000000
1.000000 0.188235 0.000000
0.000000 0.054412 0.007843
0.054412 0.066177 0.000490
0.236275 0.097059 0.000000
0.441667 0.086275 0.000000
0.633824 0.046569 0.000000
0.789215 0.049510 0.000000
0.895098 0.107843 0.000000
0.984804 0.172060 0.000000
1.000000 0.246569 0.000000
0.000000 0.192157 0.015686
0.000000 0.181373 0.026961
0.182353 0.221568 0.000000
0.426471 0.263236 0.000000
0.629412 0.267647 0.000000
0.776960 0.271569 0.000000
0.882353 0.283334 0.000000
0.966666 0.304412 0.000000
1.000000 0.346079 0.000000
0.000000 0.350000 0.049510
0.000000 0.344608 0.075490
0.095588 0.354412 0.057353
0.350000 0.400981 0.000000
0.587745 0.432353 0.000000
0.740195 0.430883 0.000000
0.850490 0.428431 0.000000
0.947549 0.434314 0.000000
1.000000 0.461275 0.000000
0.000000 0.488235 0.131373
0.000000 0.484314 0.147059
0.008824 0.463726 0.162745
0.264216 0.494118 0.117157
0.486274 0.531373 0.000000
0.691667 0.559314 0.000000
0.814706 0.556862 0.000000
0.924020 0.552941 0.000000
1.000000 0.564705 0.000000
0.000000 0.589706 0.213235
0.000000 0.589706 0.225000
0.008824 0.570098 0.236765
0.240196 0.574020 0.229412
0.415687 0.599020 0.193137
0.602941 0.630392 0.118137
0.774019 0.656373 0.000000
0.891176 0.661765 0.000000
1.000000 0.669608 0.000000
0.000000 0.688236 0.312745
0.000000 0.687255 0.319608
0.160784 0.670588 0.324510
0.289216 0.658333 0.337745
0.415686 0.674510 0.318627
0.559314 0.699019 0.291667
0.707843 0.719608 0.238235
0.863725 0.750981 0.160784
0.984314 0.766667 0.003921
0.260294 0.788725 0.443627
0.287254 0.785294 0.447549
0.341177 0.777451 0.448530
0.410784 0.769117 0.463235
0.484804 0.765686 0.461765
0.583333 0.789706 0.451470
0.695098 0.808333 0.424019
0.820588 0.832353 0.385294
0.964706 0.863235 0.330392
0.498039 0.921569 0.615686
0.509804 0.921569 0.619608
0.537255 0.918627 0.627451
0.582843 0.913725 0.639216
0.637255 0.909804 0.654902
0.689216 0.923039 0.650980
0.760784 0.940196 0.642157
0.848039 0.957353 0.627451
0.952941 0.976471 0.603922
0.003922 0.003922 0.070098
0.093138 0.000000 0.085295
0.247549 0.000000 0.096569
0.458333 0.000000 0.070098
0.649019 0.000000 0.065196
0.797549 0.000000 0.033823
0.899019 0.000000 0.000000
0.985294 0.024510 0.000000
1.000000 0.176471 0.000000
0.000000 0.081373 0.081373
0.077451 0.085295 0.084804
0.251961 0.080882 0.077451
0.456863 0.046078 0.068137
0.647058 0.000000 0.043137
0.795098 0.000000 0.010294
0.895588 0.081863 0.000000
0.981863 0.161274 0.000000
1.000000 0.238726 0.000000
0.000000 0.242647 0.118628
0.022549 0.224020 0.111764
0.209314 0.240686 0.089706
0.450000 0.267157 0.019608
0.638725 0.259804 0.000000
0.775980 0.261765 0.000000
0.879902 0.275980 0.000000
0.970098 0.303431 0.000000
1.000000 0.345589 0.000000
0.000000 0.386274 0.133823
0.000000 0.379902 0.154412
0.146569 0.369118 0.158333
0.369118 0.412255 0.100490
0.595588 0.436275 0.000000
0.742647 0.428431 0.000000
0.853431 0.424510 0.000000
0.950000 0.436275 0.000000
1.000000 0.459804 0.000000
0.000000 0.511764 0.195098
0.000000 0.505883 0.205392
0.102941 0.478432 0.221078
0.286765 0.501961 0.196569
0.498039 0.537254 0.134314
0.691177 0.559314 0.000000
0.814216 0.556863 0.000000
0.923040 0.551471 0.000000
1.000000 0.564705 0.000000
0.000000 0.604902 0.257844
0.000000 0.602941 0.267647
0.101471 0.584314 0.275980
0.267157 0.577941 0.279412
0.427451 0.602451 0.248529
0.609314 0.634314 0.199020
0.777451 0.656863 0.112745
0.893137 0.664216 0.000000
1.000000 0.668137 0.000000
0.000000 0.693628 0.340196
0.046569 0.692647 0.349510
0.200490 0.680392 0.354412
0.308824 0.661275 0.365196
0.427941 0.677451 0.351471
0.564706 0.700000 0.327451
0.710784 0.723530 0.283824
0.862745 0.750490 0.226470
0.984314 0.766667 0.126961
0.272059 0.789215 0.455882
0.299510 0.788725 0.459804
0.351961 0.781373 0.466667
0.418627 0.769607 0.475000
0.488726 0.768627 0.479411
0.583823 0.785294 0.464216
0.695588 0.808333 0.446569
0.820098 0.831863 0.408333
0.964216 0.859804 0.361274
0.498039 0.925490 0.623529
0.509804 0.921569 0.623529
0.540196 0.921079 0.630883
0.581372 0.914705 0.643137
0.637255 0.909804 0.660784
0.690196 0.922059 0.657353
0.761274 0.940686 0.649510
0.848530 0.957353 0.632353
0.952941 0.973039 0.611765
0.000000 0.003922 0.248039
0.101471 0.000000 0.263726
0.305883 0.000000 0.295098
0.482843 0.000000 0.295588
0.673529 0.000000 0.281373
0.809314 0.000000 0.250490
0.899020 0.000000 0.263726
0.984804 0.128432 0.250980
1.000000 0.217647 0.235294
0.000000 0.100981 0.233333
0.067157 0.094118 0.257353
0.299020 0.077451 0.291177
0.482353 0.000981 0.291667
0.671079 0.000000 0.275000
0.800490 0.004412 0.257353
0.892647 0.147549 0.258333
0.980392 0.206863 0.243627
1.000000 0.269118 0.231863
0.000000 0.267647 0.271569
0.000000 0.271569 0.275490
0.259804 0.278431 0.278431
0.474019 0.279412 0.275490
0.650980 0.278431 0.266667
0.779412 0.280882 0.251961
0.879412 0.298039 0.239215
0.969117 0.324020 0.225000
1.000000 0.360784 0.213725
0.000000 0.452451 0.302941
0.000000 0.450980 0.311765
0.236765 0.419608 0.302941
0.407353 0.438725 0.286765
0.609314 0.445098 0.241667
0.749510 0.433824 0.209314
0.853921 0.436275 0.200981
0.949510 0.446568 0.188726
1.000000 0.467647 0.177941
0.000000 0.559804 0.338235
0.000000 0.554412 0.329902
0.205882 0.527451 0.327451
0.341176 0.518138 0.326961
0.521568 0.550980 0.296078
0.697059 0.566176 0.249019
0.818627 0.559804 0.187255
0.925980 0.556372 0.121568
1.000000 0.564705 0.097059
0.000000 0.634314 0.350980
0.022059 0.632843 0.359313
0.212745 0.614706 0.362745
0.325981 0.584804 0.370588
0.455392 0.612255 0.353432
0.619608 0.640686 0.322059
0.779412 0.662745 0.282353
0.893628 0.664216 0.213725
1.000000 0.667157 0.068628
0.107843 0.711765 0.408824
0.174020 0.707843 0.411765
0.264706 0.698039 0.414706
0.353922 0.679412 0.420588
0.448039 0.679412 0.416666
0.573039 0.701470 0.400000
0.712745 0.727451 0.373529
0.863235 0.752451 0.337745
0.984314 0.766667 0.272549
0.299019 0.800490 0.494608
0.325000 0.799510 0.497549
0.372059 0.792647 0.502451
0.434804 0.778432 0.506862
0.501961 0.768137 0.514216
0.589706 0.787745 0.505392
0.696079 0.808823 0.489216
0.820588 0.832353 0.459804
0.964706 0.863235 0.425980
0.494118 0.929412 0.631373
0.506862 0.926471 0.635294
0.537255 0.922549 0.639216
0.582843 0.921079 0.653431
0.637255 0.913725 0.669608
0.691667 0.921569 0.670588
0.759804 0.937255 0.662745
0.848039 0.957353 0.650980
0.952941 0.976471 0.631373
0.000000 0.002451 0.438725
0.048039 0.000000 0.454412
0.326961 0.000000 0.491177
0.556372 0.000000 0.521079
0.684314 0.000000 0.499020
0.818627 0.000000 0.491177
0.908333 0.000000 0.457353
0.988725 0.080392 0.434314
1.000000 0.215196 0.422059
0.000000 0.107843 0.428431
0.014706 0.111274 0.449510
0.314215 0.097549 0.482843
0.546078 0.032843 0.514706
0.682353 0.000000 0.500980
0.809314 0.003922 0.484314
0.899510 0.125000 0.454902
0.982353 0.207353 0.435294
1.000000 0.325981 0.449510
0.000000 0.260294 0.400981
0.000000 0.272059 0.417157
0.271569 0.287255 0.463726
0.525000 0.309804 0.509314
0.664216 0.295098 0.499020
0.787255 0.301470 0.474020
0.877941 0.323529 0.450980
0.957353 0.385784 0.458333
1.000000 0.411274 0.448529
0.000000 0.461275 0.463726
0.000000 0.471569 0.473039
0.242647 0.475000 0.478922
0.463726 0.479412 0.481863
0.621078 0.469608 0.467647
0.742647 0.467647 0.456863
0.847059 0.471569 0.445588
0.939706 0.475980 0.430882
1.000000 0.491177 0.423039
0.000000 0.616666 0.489706
0.035294 0.616667 0.494118
0.317157 0.597549 0.491177
0.428922 0.561275 0.475490
0.553432 0.573039 0.464216
0.705392 0.580392 0.434804
0.820588 0.568628 0.402451
0.922059 0.572059 0.394608
1.000000 0.578431 0.384314
0.252941 0.674510 0.506863
0.313726 0.673530 0.515196
0.348529 0.662745 0.497549
0.412745 0.635294 0.483333
0.498039 0.625490 0.476961
0.636765 0.652451 0.463726
0.781373 0.670588 0.439216
0.893628 0.668137 0.389216
1.000000 0.664216 0.327451
0.299510 0.739216 0.520589
0.312255 0.735294 0.515686
0.338235 0.725980 0.502451
0.416667 0.707843 0.505392
0.483333 0.683334 0.501471
0.589216 0.707843 0.491667
0.719608 0.732353 0.478922
0.863725 0.756373 0.455882
0.985294 0.769118 0.409314
0.332353 0.816666 0.548039
0.355392 0.816666 0.551471
0.399510 0.808823 0.551961
0.459314 0.794608 0.555392
0.524020 0.777451 0.561764
0.599019 0.786275 0.558824
0.699510 0.808823 0.547549
0.822549 0.836274 0.528431
0.968137 0.865196 0.508823
0.482353 0.937255 0.650980
0.499020 0.937255 0.654902
0.529412 0.933333 0.658824
0.576471 0.929412 0.670588
0.633333 0.921569 0.684314
0.695588 0.921569 0.695588
0.761764 0.941176 0.690196
0.851470 0.960784 0.678431
0.955392 0.976471 0.661275
0.000000 0.007843 0.592156
0.054902 0.000000 0.601961
0.327451 0.000000 0.624510
0.568627 0.000000 0.659314
0.745098 0.000000 0.680392
0.814706 0.000000 0.645588
0.906862 0.000000 0.637255
0.988725 0.163235 0.619117
1.000000 0.256863 0.603921
0.000000 0.130882 0.584804
0.053432 0.132353 0.594118
0.322549 0.128922 0.619607
0.562255 0.121569 0.655392
0.733824 0.123530 0.675000
0.807353 0.139216 0.643628
0.900490 0.190196 0.638235
0.980882 0.252941 0.617157
1.000000 0.315686 0.603921
0.000000 0.287255 0.564705
0.000000 0.287255 0.583333
0.297059 0.300980 0.603921
0.529412 0.325000 0.639706
0.705882 0.347059 0.663726
0.785294 0.342157 0.637745
0.881373 0.359804 0.631373
0.965686 0.382843 0.611765
1.000000 0.413725 0.600980
0.000000 0.421078 0.549510
0.000000 0.432353 0.555882
0.239215 0.439216 0.557843
0.466176 0.472059 0.604412
0.658334 0.504412 0.641177
0.753432 0.498530 0.629902
0.849510 0.498530 0.617157
0.940196 0.499510 0.600000
1.000000 0.518627 0.596569
0.000000 0.603921 0.601961
0.000000 0.605882 0.605882
0.279412 0.606863 0.607843
0.455883 0.605882 0.607843
0.600000 0.605882 0.609804
0.715196 0.602451 0.602451
0.816667 0.599020 0.592156
0.914705 0.596078 0.580392
1.000000 0.598040 0.572549
0.151471 0.723530 0.622059
0.254412 0.723529 0.625490
0.374020 0.711765 0.619607
0.498530 0.695588 0.617647
0.568628 0.661765 0.596078
0.660294 0.672059 0.590196
0.789216 0.679902 0.569608
0.899019 0.668628 0.533824
1.000000 0.672549 0.527941
0.365686 0.774510 0.626470
0.397549 0.773039 0.627451
0.455882 0.764706 0.628432
0.504412 0.748530 0.613725
0.545098 0.722549 0.595098
0.611274 0.712745 0.587745
0.735294 0.743137 0.584314
0.869608 0.762745 0.567647
0.992157 0.768627 0.528431
0.454902 0.842157 0.651471
0.461275 0.840686 0.649510
0.470589 0.837745 0.639216
0.488235 0.825490 0.619607
0.552941 0.804412 0.619607
0.610784 0.785294 0.618137
0.704902 0.812255 0.613726
0.826470 0.838235 0.603921
0.972549 0.871078 0.594118
0.498039 0.949020 0.696079
0.507843 0.949020 0.696079
0.519608 0.945098 0.689216
0.563235 0.943137 0.696079
0.627451 0.933333 0.703921
0.695588 0.925490 0.721569
0.762745 0.939215 0.722549
0.851961 0.960784 0.715687
0.956863 0.976471 0.698039
0.000000 0.056373 0.699510
0.176471 0.050490 0.705392
0.360294 0.028921 0.720588
0.556372 0.004412 0.741176
0.739706 0.065196 0.766176
0.852451 0.133823 0.774020
0.902451 0.178922 0.742647
0.985294 0.245588 0.739216
1.000000 0.311275 0.740196
0.005882 0.165196 0.695588
0.188235 0.169117 0.703431
0.362745 0.171569 0.717647
0.550980 0.182843 0.737255
0.728431 0.220098 0.764216
0.844608 0.257353 0.770588
0.895588 0.275000 0.742647
0.979412 0.313236 0.739216
1.000000 0.361765 0.736274
0.000000 0.300490 0.684314
0.162745 0.306863 0.691667
0.343137 0.319608 0.703431
0.530392 0.342157 0.725980
0.702941 0.380392 0.749510
0.821078 0.408824 0.762255
0.876961 0.409314 0.739216
0.966176 0.425490 0.738725
1.000000 0.448039 0.733823
0.000000 0.425980 0.642157
0.101961 0.437745 0.657353
0.305882 0.454902 0.675000
0.480882 0.471569 0.697059
0.658333 0.511765 0.727941
0.787255 0.540686 0.750490
0.851961 0.531863 0.732353
0.948530 0.534804 0.737745
1.000000 0.539706 0.726961
0.000000 0.556863 0.654902
0.088725 0.560785 0.654902
0.270588 0.560785 0.656373
0.415686 0.561765 0.653431
0.596078 0.596078 0.695588
0.748039 0.632843 0.732353
0.831863 0.626961 0.727941
0.926961 0.620098 0.719608
1.000000 0.617157 0.706863
0.161274 0.697059 0.695588
0.241667 0.699510 0.699020
0.352451 0.698530 0.698530
0.474019 0.698039 0.699510
0.590196 0.699510 0.701471
0.703431 0.703431 0.707353
0.804412 0.699510 0.699510
0.902451 0.695098 0.691667
1.000000 0.693137 0.685294
0.310294 0.822059 0.731863
0.350981 0.822059 0.730392
0.425980 0.814216 0.728431
0.515686 0.802451 0.720588
0.610784 0.782353 0.708823
0.668137 0.746079 0.687745
0.755392 0.759314 0.685294
0.879412 0.769607 0.666176
1.000000 0.765196 0.637255
0.420098 0.880392 0.727941
0.442157 0.879412 0.727451
0.489216 0.875490 0.725981
0.551471 0.864216 0.723039
0.610294 0.845098 0.711765
0.648529 0.816666 0.690686
0.718137 0.815686 0.687255
0.838726 0.847059 0.684314
0.977941 0.872549 0.673529
0.520098 0.968627 0.764706
0.531863 0.968627 0.762745
0.564706 0.966176 0.766176
0.596078 0.960784 0.758333
0.621568 0.954412 0.742647
0.691667 0.945098 0.752941
0.769607 0.941176 0.766176
0.851961 0.961274 0.761274
0.962255 0.980392 0.750490
0.249020 0.143137 0.797058
0.310294 0.145098 0.797058
0.429412 0.146079 0.804902
0.573530 0.157843 0.816667
0.719608 0.198039 0.835294
0.853431 0.273529 0.856373
0.942157 0.315687 0.859804
0.981373 0.334804 0.832843
1.000000 0.378432 0.832353
0.245098 0.218628 0.789216
0.315196 0.226471 0.796568
0.426471 0.227941 0.800980
0.570588 0.245588 0.812745
0.712255 0.280392 0.831863
0.848529 0.348039 0.854902
0.935784 0.377941 0.857353
0.974020 0.384804 0.829412
1.000000 0.418628 0.831863
0.231373 0.335294 0.778432
0.295588 0.340196 0.782353
0.410784 0.348039 0.789215
0.554412 0.371079 0.805393
0.695098 0.407843 0.825490
0.826470 0.458333 0.845588
0.917647 0.479412 0.854902
0.961274 0.473529 0.828432
1.000000 0.490196 0.831373
0.185294 0.453431 0.750000
0.256863 0.459804 0.760294
0.364216 0.461275 0.768627
0.513235 0.483333 0.783824
0.656373 0.514216 0.804902
0.796568 0.560785 0.831373
0.895098 0.580392 0.845588
0.944118 0.569608 0.824510
1.000000 0.571078 0.830882
0.000000 0.535294 0.708823
0.088235 0.542157 0.713726
0.280392 0.550980 0.726471
0.447549 0.567157 0.749510
0.607843 0.596079 0.779412
0.757843 0.639215 0.816667
0.872549 0.661765 0.837255
0.934313 0.650000 0.821569
1.000000 0.647058 0.829412
0.127941 0.658333 0.738725
0.201470 0.662746 0.742156
0.304412 0.657843 0.739706
0.414706 0.656373 0.738235
0.527941 0.652451 0.734314
0.698529 0.694118 0.783824
0.846569 0.734804 0.824509
0.922549 0.724020 0.817647
0.999019 0.719118 0.812745
0.286274 0.783333 0.782353
0.325980 0.785294 0.785294
0.396078 0.786275 0.785294
0.485785 0.786275 0.786275
0.587255 0.784314 0.786275
0.691667 0.788725 0.789216
0.800981 0.793137 0.797058
0.899510 0.789706 0.789706
1.000000 0.786275 0.786275
0.376961 0.922059 0.829412
0.400981 0.919608 0.828922
0.451961 0.918627 0.828432
0.526961 0.914215 0.824510
0.615196 0.902451 0.816666
0.704412 0.882353 0.804902
0.758333 0.840196 0.774020
0.855882 0.859804 0.777451
0.988725 0.875000 0.761765
0.456863 0.992157 0.828432
0.474510 0.991667 0.829412
0.513726 0.989216 0.830392
0.576471 0.985294 0.829412
0.650000 0.977451 0.828432
0.723530 0.969607 0.825490
0.774510 0.956863 0.813726
0.858824 0.961274 0.821078
0.972549 0.987255 0.816667
0.408333 0.255392 0.886765
0.439706 0.255882 0.887255
0.516177 0.263725 0.893628
0.616667 0.278921 0.900490
0.725491 0.306862 0.908333
0.834314 0.355392 0.922549
0.945588 0.420098 0.937745
1.000000 0.443627 0.938235
1.000000 0.451470 0.922549
0.398039 0.302451 0.879902
0.439706 0.313236 0.886765
0.511765 0.316667 0.890686
0.610784 0.329902 0.896569
0.717647 0.360294 0.906372
0.826961 0.398529 0.916176
0.939215 0.456863 0.934804
1.000000 0.475000 0.938235
1.000000 0.478921 0.922059
0.388235 0.398039 0.875490
0.423529 0.402451 0.877941
0.497549 0.409804 0.882843
0.594608 0.421568 0.889216
0.704412 0.445098 0.899019
0.814706 0.484804 0.914705
0.925000 0.529902 0.928432
1.000000 0.543627 0.934313
1.000000 0.538235 0.915196
0.328431 0.485294 0.859804
0.375981 0.492647 0.863235
0.456373 0.500980 0.869118
0.563725 0.516667 0.878921
0.676471 0.538235 0.888726
0.795588 0.573039 0.906372
0.907353 0.609314 0.927941
0.989215 0.618627 0.933823
1.000000 0.606373 0.910784
0.252451 0.580392 0.831863
0.300490 0.580883 0.836274
0.388235 0.582843 0.842157
0.493627 0.584804 0.855882
0.633824 0.607843 0.871568
0.762255 0.641177 0.894608
0.884314 0.673529 0.915196
0.975000 0.690196 0.927941
1.000000 0.675000 0.910294
0.085784 0.653922 0.809804
0.162255 0.656863 0.810785
0.255392 0.650000 0.806862
0.390686 0.651470 0.815686
0.550000 0.662745 0.838726
0.703431 0.691667 0.871078
0.852941 0.735294 0.903432
0.959804 0.762255 0.925490
1.000000 0.750490 0.914215
0.212255 0.763235 0.841667
0.255882 0.762745 0.841666
0.325980 0.761764 0.843627
0.415686 0.753431 0.835784
0.516177 0.749020 0.835294
0.611275 0.735294 0.825000
0.790196 0.778432 0.875981
0.938725 0.836765 0.919118
1.000000 0.825980 0.914706
0.321569 0.886765 0.882843
0.348040 0.885785 0.882843
0.405392 0.886765 0.882843
0.480882 0.884314 0.882843
0.574510 0.885294 0.884804
0.677451 0.884314 0.887255
0.786275 0.887255 0.887745
0.902451 0.895098 0.898529
1.000000 0.891176 0.891176
0.410785 1.000000 0.918137
0.433823 1.000000 0.917647
0.480882 1.000000 0.918137
0.548039 1.000000 0.918137
0.625980 1.000000 0.916176
0.719608 0.999019 0.913235
0.812745 0.988725 0.910294
0.875490 0.972549 0.894608
0.980392 0.991667 0.898529
0.552941 0.435294 0.984314
0.572059 0.435784 0.988235
0.611765 0.436275 0.985294
0.673039 0.445588 0.988235
0.750981 0.458824 0.992157
0.836765 0.478431 0.996078
0.926471 0.501961 1.000000
1.000000 0.537255 1.000000
1.000000 0.541176 1.000000
0.549020 0.462255 0.984314
0.568627 0.466667 0.984804
0.607353 0.466667 0.984804
0.673039 0.473039 0.988235
0.747059 0.482353 0.988725
0.832843 0.499510 0.993627
0.923530 0.525981 0.997059
1.000000 0.556862 1.000000
1.000000 0.564216 1.000000
0.540196 0.519608 0.980392
0.556863 0.521569 0.981372
0.599019 0.524510 0.981372
0.661275 0.531372 0.984314
0.739216 0.539215 0.988235
0.825000 0.553432 0.992157
0.917647 0.575490 0.999020
1.000000 0.602942 1.000000
1.000000 0.601961 1.000000
0.509804 0.582843 0.972549
0.534313 0.586765 0.976471
0.576961 0.591176 0.977941
0.641667 0.594608 0.980392
0.721079 0.602451 0.984314
0.808333 0.613235 0.987254
0.902941 0.633824 0.990687
0.996568 0.657353 1.000000
1.000000 0.659804 1.000000
0.474510 0.656863 0.968627
0.493628 0.654902 0.972549
0.518627 0.645098 0.972549
0.600490 0.650980 0.976471
0.692157 0.658824 0.980392
0.789706 0.672549 0.986765
0.887255 0.687255 0.992157
0.982843 0.717647 0.998039
1.000000 0.719608 1.000000
0.386765 0.723039 0.952941
0.416177 0.723039 0.956863
0.461275 0.723039 0.960784
0.536764 0.716667 0.967157
0.624509 0.707843 0.975000
0.746569 0.723039 0.980392
0.863726 0.746079 0.988235
0.965196 0.774510 0.992647
1.000000 0.789706 1.000000
0.342156 0.801961 0.961765
0.361764 0.801961 0.964706
0.402942 0.800981 0.963726
0.461275 0.791666 0.960784
0.540196 0.786275 0.962745
0.668628 0.781372 0.972549
0.816667 0.798039 0.984314
0.945588 0.841177 0.995588
1.000000 0.860785 0.997059
0.345098 0.895098 0.980392
0.360784 0.891667 0.980392
0.403922 0.892157 0.980392
0.468628 0.892157 0.980392
0.543627 0.887255 0.978921
0.636765 0.883333 0.980392
0.726961 0.871568 0.975981
0.902451 0.894118 0.991667
1.000000 0.937255 0.999510
0.345098 0.996078 0.992157
0.364706 0.996078 0.992157
0.414706 0.996078 0.993137
0.486275 0.996078 0.993627
0.574510 0.996078 0.994117
0.675980 0.996078 0.993627
0.782353 0.996078 0.996078
0.891176 0.996568 0.996568
1.000000 1.000000 1.000000
