Color/Kodak/Kodak Portra 160 1 - 65x.cube
TITLE "Kodak Portra 160 1 -"
LUT_3D_SIZE 9
DOMAIN_MIN 0.000000 0.000000 0.000000
DOMAIN_MAX 1.000000 1.000000 1.000000
0.000000 0.000000 0.000000
0.069608 0.003432 0.000000
0.232353 0.000000 0.000000
0.438725 0.000000 0.000000
0.619607 0.000000 0.000000
0.746569 0.000000 0.000000
0.837255 0.000000 0.000000
0.922059 0.044117 0.000000
1.000000 0.172549 0.000000
0.000000 0.070098 0.000000
0.054412 0.077941 0.000000
0.259313 0.112745 0.000000
0.463236 0.098039 0.000000
0.625490 0.062745 0.000000
0.749510 0.065686 0.000000
0.840196 0.101470 0.000000
0.922059 0.160294 0.000000
1.000000 0.226961 0.000000
0.000000 0.227451 0.000000
0.018628 0.227451 0.000000
0.204902 0.249019 0.000000
0.453922 0.298530 0.000000
0.647058 0.287255 0.000000
0.757352 0.280882 0.000000
0.845098 0.281372 0.000000
0.918627 0.292647 0.000000
1.000000 0.330392 0.000000
0.000000 0.389216 0.000000
0.000000 0.391666 0.000000
0.197059 0.396078 0.000000
0.383823 0.424510 0.000000
0.591666 0.463726 0.000000
0.735294 0.452941 0.000000
0.834804 0.432353 0.000000
0.918627 0.429902 0.000000
1.000000 0.445588 0.000000
0.000000 0.511764 0.000000
0.063725 0.508333 0.000000
0.201961 0.499020 0.000000
0.355882 0.516177 0.000000
0.507843 0.535294 0.000000
0.671569 0.576470 0.000000
0.797058 0.573529 0.000000
0.914705 0.560785 0.000000
1.000000 0.558824 0.000000
0.153431 0.595098 0.061765
0.198530 0.595098 0.065686
0.259313 0.585784 0.046078
0.359314 0.584804 0.033334
0.482353 0.602941 0.039706
0.605392 0.626470 0.051471
0.741666 0.667647 0.050000
0.867647 0.677451 0.000000
1.000000 0.677451 0.000000
0.290196 0.681372 0.175490
0.311274 0.680392 0.174510
0.340196 0.672549 0.162745
0.398040 0.660785 0.143137
0.491177 0.674510 0.153921
0.593627 0.695098 0.171568
0.692157 0.715687 0.187255
0.820098 0.758334 0.211274
0.960784 0.778432 0.147059
0.404412 0.780882 0.286765
0.419607 0.777451 0.286765
0.436274 0.773529 0.279411
0.475000 0.769117 0.267157
0.533823 0.769117 0.261765
0.618627 0.784804 0.278921
0.706863 0.804412 0.294608
0.804902 0.824510 0.310294
0.928922 0.862745 0.329902
0.525490 0.921569 0.443137
0.533333 0.921569 0.443137
0.550000 0.918627 0.440196
0.584314 0.919118 0.439216
0.627451 0.917647 0.439216
0.693137 0.929412 0.444608
0.772549 0.945098 0.454902
0.855882 0.960784 0.467157
0.949020 0.976471 0.482353
0.003922 0.007843 0.073530
0.070098 0.007353 0.073530
0.236275 0.000000 0.084804
0.439706 0.000000 0.074510
0.610294 0.000000 0.073039
0.736764 0.000000 0.061274
0.828432 0.000000 0.051961
0.910784 0.067157 0.044608
1.000000 0.179902 0.049019
0.000000 0.093138 0.077451
0.077451 0.093138 0.081373
0.258823 0.092647 0.077451
0.454412 0.065196 0.069608
0.623039 0.028432 0.057353
0.742647 0.051961 0.045098
0.832353 0.105882 0.033823
0.914705 0.165196 0.026471
1.000000 0.234804 0.032843
0.000000 0.262255 0.087255
0.060784 0.251961 0.081373
0.228922 0.264216 0.070098
0.477451 0.295098 0.011275
0.642647 0.278922 0.000000
0.748529 0.269608 0.000000
0.833824 0.276470 0.000000
0.914705 0.296568 0.000000
1.000000 0.333824 0.000000
0.000000 0.409804 0.081863
0.050490 0.411274 0.083334
0.221078 0.404902 0.072549
0.398039 0.432353 0.057353
0.597059 0.463726 0.000000
0.740196 0.448039 0.000000
0.832353 0.432353 0.000000
0.915196 0.432353 0.000000
1.000000 0.444118 0.000000
0.045588 0.525000 0.116176
0.136274 0.522059 0.114706
0.232843 0.507353 0.100000
0.369608 0.519118 0.098039
0.517648 0.543137 0.098529
0.671569 0.574510 0.061275
0.796078 0.571568 0.000000
0.915196 0.559314 0.000000
1.000000 0.560785 0.000000
0.197059 0.601471 0.165196
0.233824 0.602941 0.169117
0.286765 0.592157 0.154412
0.373529 0.589706 0.146079
0.488236 0.605882 0.153922
0.609314 0.628922 0.169117
0.742156 0.668628 0.171569
0.868627 0.676471 0.096078
0.998529 0.675980 0.000000
0.308823 0.684314 0.232844
0.327451 0.684804 0.231863
0.358333 0.676471 0.221078
0.404902 0.664706 0.201470
0.496569 0.677451 0.212745
0.594118 0.695588 0.226470
0.695098 0.715687 0.244608
0.823039 0.758333 0.267157
0.964216 0.780882 0.218627
0.408823 0.780882 0.318627
0.420588 0.780882 0.317647
0.443627 0.776471 0.310294
0.481372 0.769607 0.298529
0.535784 0.769117 0.294118
0.615196 0.782353 0.306372
0.706863 0.804412 0.322549
0.804902 0.824510 0.337745
0.928922 0.862745 0.360294
0.525490 0.921569 0.458334
0.533333 0.921569 0.454902
0.552451 0.921079 0.454902
0.583824 0.919118 0.451960
0.629412 0.921079 0.450980
0.692157 0.929902 0.458824
0.772059 0.944608 0.469118
0.856373 0.957843 0.478431
0.949020 0.976471 0.490686
0.000000 0.011765 0.263726
0.062745 0.007843 0.264216
0.251961 0.000000 0.267647
0.467157 0.000000 0.275000
0.631373 0.000000 0.266667
0.734804 0.000000 0.250490
0.811765 0.085294 0.256863
0.898529 0.162745 0.255883
0.991177 0.229412 0.259804
0.000000 0.111764 0.263726
0.070588 0.117157 0.268627
0.264216 0.124510 0.272059
0.470588 0.124510 0.275980
0.625981 0.102941 0.268137
0.725981 0.115686 0.253431
0.813235 0.175981 0.256373
0.898529 0.218137 0.255393
0.992157 0.273039 0.259804
0.000000 0.295098 0.270588
0.017157 0.295098 0.271569
0.275490 0.291177 0.275490
0.474019 0.290196 0.275490
0.622549 0.287255 0.267647
0.726961 0.288725 0.259804
0.813726 0.300000 0.251961
0.900000 0.322549 0.248529
0.994117 0.352941 0.253922
0.000000 0.448529 0.259804
0.139215 0.452451 0.273039
0.287255 0.432843 0.279412
0.430882 0.448039 0.279412
0.608824 0.463726 0.263726
0.732353 0.446569 0.245588
0.816176 0.437255 0.241176
0.902451 0.440686 0.236765
0.999510 0.456863 0.240196
0.209804 0.550980 0.301961
0.248039 0.549510 0.299510
0.306863 0.531373 0.281373
0.400981 0.527451 0.275000
0.531373 0.547059 0.284314
0.675490 0.576470 0.279902
0.798039 0.571569 0.247059
0.906372 0.562745 0.219117
1.000000 0.560785 0.210784
0.278921 0.620098 0.310785
0.304902 0.621078 0.311765
0.343137 0.610785 0.300000
0.397549 0.592647 0.277941
0.502941 0.611274 0.291177
0.614706 0.632843 0.306372
0.744117 0.670588 0.314216
0.870098 0.675980 0.281373
1.000000 0.675980 0.221078
0.350000 0.696079 0.337255
0.362745 0.694608 0.336274
0.390196 0.687255 0.324510
0.431373 0.676471 0.308824
0.501961 0.676471 0.304902
0.597549 0.696569 0.322059
0.697059 0.718628 0.341176
0.825490 0.762255 0.361274
0.964706 0.780392 0.328431
0.425490 0.788725 0.387745
0.435784 0.787745 0.386764
0.455392 0.784804 0.379902
0.490196 0.774510 0.365196
0.535784 0.768137 0.350980
0.617157 0.784804 0.367647
0.707353 0.804412 0.383824
0.804902 0.824509 0.399510
0.933333 0.866667 0.419118
0.525490 0.925490 0.490196
0.530392 0.922549 0.490196
0.549020 0.922549 0.486275
0.582843 0.921569 0.484804
0.626470 0.921569 0.481372
0.690686 0.929412 0.485295
0.767647 0.942157 0.494118
0.855882 0.957353 0.506372
0.951961 0.976471 0.521569
0.000000 0.025980 0.463726
0.000000 0.025980 0.466177
0.265196 0.027451 0.469118
0.463726 0.026961 0.471569
0.635294 0.072549 0.467647
0.748040 0.176471 0.455883
0.823039 0.204902 0.432353
0.894608 0.236275 0.420588
0.980392 0.265196 0.412745
0.000000 0.146569 0.458333
0.057843 0.154412 0.466177
0.283334 0.167647 0.467157
0.467647 0.181863 0.471569
0.634804 0.211274 0.470588
0.738725 0.248529 0.454902
0.813235 0.260784 0.434314
0.890686 0.279412 0.420588
0.972549 0.314706 0.422059
0.000000 0.291667 0.450980
0.087745 0.300490 0.456373
0.306372 0.322059 0.464706
0.474510 0.344608 0.474510
0.619118 0.362745 0.471569
0.717647 0.352941 0.451471
0.795588 0.347549 0.430882
0.871078 0.366176 0.424510
0.974510 0.387745 0.426471
0.000000 0.480882 0.455882
0.128431 0.484804 0.463726
0.320588 0.482843 0.467157
0.469118 0.471569 0.463726
0.593627 0.461275 0.451961
0.695588 0.456863 0.441176
0.786765 0.455882 0.431373
0.875000 0.459804 0.420588
0.978922 0.471569 0.420588
0.251471 0.582843 0.438726
0.302451 0.585294 0.448039
0.379902 0.574510 0.451961
0.456373 0.551471 0.444608
0.550980 0.561275 0.448039
0.683333 0.580392 0.444118
0.796568 0.572549 0.429412
0.886275 0.568137 0.419608
0.988236 0.570588 0.411275
0.345588 0.649510 0.448039
0.386765 0.649510 0.461275
0.420588 0.639216 0.455883
0.458824 0.623529 0.436275
0.523529 0.617157 0.426471
0.622059 0.640686 0.441667
0.748039 0.674510 0.448529
0.872549 0.675980 0.427941
1.000000 0.672059 0.397059
0.405883 0.715687 0.463235
0.416176 0.714216 0.460784
0.437255 0.707353 0.450000
0.470098 0.695098 0.434804
0.512745 0.678921 0.411274
0.603431 0.698529 0.428922
0.700000 0.722059 0.447549
0.830392 0.764216 0.462255
0.969607 0.778432 0.439706
0.447549 0.800980 0.473529
0.457353 0.799510 0.475980
0.474510 0.794118 0.468627
0.503922 0.786765 0.454902
0.543627 0.775000 0.434314
0.616177 0.783824 0.438235
0.706863 0.804412 0.453922
0.808823 0.827941 0.473529
0.940686 0.871078 0.496569
0.521569 0.929412 0.539706
0.533333 0.930882 0.541176
0.549020 0.929412 0.537255
0.582843 0.929412 0.533333
0.625490 0.925490 0.527451
0.683824 0.929412 0.524020
0.765686 0.945098 0.537255
0.857843 0.960784 0.549020
0.951471 0.978922 0.563235
0.000000 0.084314 0.601961
0.057843 0.092157 0.603921
0.291177 0.115686 0.605882
0.467647 0.160784 0.609804
0.619607 0.203922 0.613725
0.736274 0.238235 0.600000
0.826470 0.334313 0.591176
0.902451 0.362745 0.581863
0.984314 0.374510 0.574510
0.000000 0.193627 0.596569
0.145098 0.202941 0.599510
0.315196 0.220588 0.603921
0.480392 0.253922 0.610784
0.616177 0.281863 0.609804
0.730882 0.308824 0.600490
0.820588 0.379412 0.592647
0.896079 0.388235 0.580392
0.980882 0.396079 0.573039
0.124510 0.336274 0.591176
0.222549 0.346078 0.596078
0.350981 0.359804 0.600000
0.485784 0.380883 0.603921
0.608824 0.400981 0.604902
0.715196 0.417157 0.598039
0.804902 0.448039 0.593137
0.883333 0.440196 0.576961
0.975491 0.437255 0.567647
0.129902 0.463726 0.576470
0.232843 0.471569 0.584313
0.353922 0.470588 0.581373
0.487255 0.489216 0.588236
0.595588 0.504902 0.594118
0.697059 0.519608 0.593627
0.781373 0.507843 0.579412
0.863725 0.488726 0.560785
0.964706 0.477451 0.547059
0.243138 0.603921 0.582353
0.299020 0.605392 0.582353
0.387255 0.600000 0.584313
0.486765 0.594118 0.582353
0.580392 0.582353 0.578431
0.674510 0.576961 0.569117
0.765686 0.570588 0.558823
0.859804 0.566667 0.548529
0.968627 0.568628 0.541176
0.390196 0.679902 0.562745
0.415686 0.682353 0.568627
0.455883 0.676471 0.567157
0.512255 0.668137 0.568628
0.560785 0.642157 0.552941
0.638725 0.652451 0.558823
0.761274 0.675980 0.560785
0.882843 0.669608 0.545098
0.989706 0.666176 0.533824
0.425490 0.746079 0.559804
0.440686 0.745098 0.560785
0.471569 0.740196 0.561765
0.521079 0.726471 0.561275
0.551961 0.706863 0.536274
0.611274 0.700980 0.525490
0.711765 0.731373 0.549019
0.842157 0.766177 0.559314
0.980392 0.776471 0.540196
0.480392 0.822059 0.576961
0.488236 0.820588 0.576961
0.503922 0.818137 0.572059
0.529412 0.806373 0.556372
0.562745 0.794608 0.535294
0.609804 0.781372 0.512255
0.706863 0.804412 0.533334
0.812745 0.830392 0.556863
0.956373 0.878921 0.575000
0.523529 0.939215 0.605882
0.533333 0.941176 0.605882
0.549020 0.937255 0.601961
0.580392 0.939215 0.598039
0.621568 0.933333 0.586275
0.677941 0.933333 0.576961
0.761764 0.946079 0.586275
0.855882 0.964706 0.601961
0.952941 0.980392 0.615686
0.119608 0.170098 0.700980
0.212255 0.179902 0.701470
0.347059 0.202941 0.703431
0.487255 0.243137 0.707353
0.609804 0.297549 0.707353
0.715196 0.334804 0.707353
0.811275 0.357843 0.699019
0.899019 0.428431 0.696079
0.993627 0.481372 0.700980
0.194118 0.257844 0.699020
0.263235 0.267157 0.702941
0.372549 0.285295 0.701961
0.495098 0.312746 0.706862
0.611765 0.353922 0.703921
0.711765 0.381863 0.703921
0.807353 0.400490 0.699510
0.897059 0.458824 0.696079
0.992157 0.497059 0.700980
0.269608 0.381863 0.693628
0.317647 0.387745 0.695588
0.401961 0.398039 0.695588
0.507353 0.418137 0.700000
0.607843 0.443628 0.699510
0.703431 0.460784 0.699510
0.797058 0.473529 0.696079
0.890686 0.516667 0.699510
0.984314 0.528922 0.700980
0.279902 0.476961 0.674510
0.335294 0.488235 0.680882
0.421568 0.499020 0.682843
0.508333 0.508333 0.685294
0.602941 0.528921 0.688726
0.694118 0.546078 0.694118
0.782843 0.552941 0.693137
0.884804 0.581863 0.702451
0.976471 0.567157 0.693137
0.313235 0.590196 0.670098
0.348529 0.588726 0.672059
0.412745 0.588236 0.670588
0.495098 0.581373 0.666176
0.592156 0.598039 0.673529
0.681863 0.615687 0.685294
0.778432 0.626961 0.689706
0.866667 0.614216 0.680392
0.966666 0.593137 0.663726
0.370098 0.695588 0.673529
0.397059 0.695588 0.675490
0.447549 0.694608 0.675000
0.514706 0.690196 0.674510
0.590196 0.683824 0.672059
0.668137 0.675980 0.669608
0.757843 0.668137 0.660294
0.859314 0.660294 0.649510
0.972549 0.657843 0.642157
0.480882 0.778922 0.669608
0.493137 0.778922 0.669608
0.520098 0.775000 0.669608
0.556863 0.767157 0.666667
0.600490 0.754412 0.661275
0.644608 0.726470 0.640686
0.727941 0.740686 0.650000
0.860295 0.766667 0.653431
1.000000 0.765686 0.642157
0.487255 0.851470 0.661765
0.495588 0.849510 0.661765
0.516667 0.849020 0.661765
0.546079 0.841177 0.654902
0.602941 0.825490 0.653922
0.636765 0.804902 0.625000
0.707843 0.805393 0.617157
0.823529 0.835294 0.643627
0.966176 0.876471 0.657843
0.502941 0.958333 0.674510
0.516177 0.956863 0.675980
0.552941 0.955392 0.683824
0.589706 0.950490 0.681372
0.627451 0.949020 0.669608
0.678431 0.945098 0.654902
0.750981 0.946569 0.644608
0.855392 0.964706 0.663235
0.960784 0.981863 0.681372
0.307843 0.275490 0.793137
0.345588 0.283334 0.793137
0.425490 0.300980 0.793137
0.520098 0.327941 0.793137
0.618627 0.369607 0.793137
0.708823 0.418627 0.793627
0.800981 0.444117 0.794118
0.891176 0.451961 0.789706
0.988235 0.514706 0.797058
0.331373 0.333823 0.788725
0.372549 0.345098 0.793137
0.438236 0.353431 0.789216
0.527451 0.379412 0.791667
0.621078 0.409314 0.792647
0.711275 0.454412 0.798038
0.798529 0.472549 0.794608
0.887745 0.475980 0.789706
0.986765 0.532843 0.796568
0.371569 0.430392 0.782353
0.400000 0.434314 0.782843
0.456863 0.441176 0.782353
0.536764 0.459314 0.785294
0.624510 0.483333 0.790196
0.709314 0.510294 0.793137
0.796078 0.527451 0.792157
0.882843 0.528922 0.788235
0.983333 0.573530 0.799020
0.389216 0.516177 0.769607
0.418137 0.524020 0.774510
0.469608 0.527941 0.775000
0.540686 0.536764 0.775980
0.618137 0.553432 0.778922
0.702451 0.577941 0.784314
0.789215 0.590686 0.789215
0.876961 0.592647 0.786765
0.981863 0.623529 0.798529
0.367647 0.582353 0.752941
0.398529 0.586275 0.757843
0.453921 0.594117 0.760784
0.530392 0.605393 0.762254
0.613725 0.619607 0.770588
0.699510 0.641667 0.778432
0.783333 0.651961 0.784314
0.875981 0.655392 0.786275
0.983334 0.681372 0.800981
0.397549 0.688236 0.755392
0.419118 0.688236 0.757843
0.460784 0.690687 0.757843
0.516177 0.683824 0.757843
0.586275 0.675980 0.753922
0.683824 0.691667 0.768137
0.779902 0.711275 0.780392
0.879412 0.720588 0.786275
0.980392 0.710784 0.780882
0.437255 0.787255 0.766667
0.454902 0.789216 0.769607
0.489216 0.790196 0.769607
0.540686 0.786275 0.766667
0.604902 0.782353 0.766667
0.680882 0.776961 0.765686
0.765686 0.765686 0.761764
0.864216 0.754902 0.750491
0.984314 0.750981 0.743137
0.546079 0.883333 0.770098
0.554902 0.883334 0.770588
0.577451 0.880882 0.771568
0.610294 0.878921 0.773039
0.650000 0.871568 0.769607
0.696079 0.859314 0.758334
0.734804 0.824510 0.726961
0.840196 0.844117 0.742647
0.987745 0.875000 0.750981
0.550000 0.972549 0.769607
0.558824 0.972059 0.770588
0.575490 0.970588 0.770588
0.603432 0.971078 0.768137
0.639215 0.968627 0.763725
0.707353 0.964706 0.766667
0.754902 0.957843 0.738235
0.851961 0.968137 0.734804
0.971569 0.988235 0.765686
0.431863 0.388725 0.886275
0.451470 0.389706 0.882843
0.500980 0.404412 0.882843
0.567157 0.424019 0.882843
0.641177 0.449510 0.882843
0.719608 0.480882 0.883333
0.800981 0.522059 0.886275
0.890686 0.537745 0.886765
0.984314 0.541666 0.887255
0.439706 0.420588 0.879412
0.462745 0.431373 0.882843
0.508334 0.438726 0.882843
0.567647 0.455392 0.880882
0.644608 0.478431 0.882353
0.717647 0.503922 0.882843
0.804412 0.542156 0.883824
0.887255 0.553431 0.883824
0.984314 0.556863 0.886765
0.457353 0.492647 0.878431
0.474020 0.493137 0.878921
0.516667 0.501471 0.878921
0.573529 0.511765 0.878921
0.645098 0.528922 0.878921
0.722058 0.552451 0.881863
0.799510 0.578432 0.881372
0.887255 0.589215 0.883333
0.980392 0.587745 0.885785
0.463235 0.559804 0.869118
0.482843 0.563235 0.872549
0.522549 0.569117 0.873039
0.578922 0.578922 0.875000
0.645098 0.588726 0.875000
0.724020 0.611275 0.878921
0.802941 0.631863 0.882843
0.887255 0.638235 0.886765
0.976961 0.633824 0.883333
0.452941 0.623529 0.863235
0.471078 0.625980 0.863725
0.511275 0.629412 0.863235
0.567157 0.635785 0.867647
0.637745 0.645588 0.871568
0.717647 0.660784 0.875000
0.798529 0.680882 0.879412
0.888235 0.690196 0.884804
0.976471 0.686275 0.884804
0.427451 0.692157 0.851961
0.443627 0.690196 0.855882
0.474510 0.688726 0.850490
0.535784 0.690686 0.856863
0.612255 0.695588 0.859314
0.703431 0.711275 0.867647
0.798039 0.731863 0.878921
0.890686 0.749020 0.886765
0.983824 0.754412 0.890686
0.444608 0.790686 0.860294
0.456373 0.793627 0.857354
0.489216 0.792156 0.865196
0.534804 0.786275 0.858334
0.597058 0.778432 0.858824
0.669118 0.766667 0.855882
0.782353 0.785784 0.868137
0.891667 0.813236 0.887745
0.989215 0.825490 0.895098
0.478431 0.894608 0.875000
0.489706 0.894608 0.874020
0.520098 0.894608 0.875000
0.565196 0.892647 0.873039
0.629412 0.890686 0.875000
0.707843 0.888236 0.876471
0.793627 0.883333 0.875981
0.882843 0.871568 0.875000
0.992647 0.859804 0.859804
0.615196 0.984314 0.867157
0.626470 0.983824 0.870588
0.647059 0.984314 0.871078
0.682843 0.984314 0.875000
0.720098 0.984314 0.876961
0.765686 0.983334 0.878431
0.812745 0.980392 0.875490
0.859804 0.973039 0.848039
0.983824 0.992157 0.871078
0.533333 0.517647 0.980392
0.545098 0.521569 0.980392
0.572549 0.525490 0.977451
0.622059 0.537255 0.980392
0.680392 0.552941 0.980392
0.746569 0.574020 0.980392
0.816667 0.596078 0.976471
0.894608 0.623529 0.976471
0.976471 0.627451 0.976471
0.537255 0.536765 0.980392
0.549020 0.541176 0.980392
0.575981 0.545098 0.976961
0.623529 0.555392 0.980392
0.682353 0.568627 0.978432
0.746569 0.585784 0.976471
0.817647 0.608334 0.976471
0.891176 0.634804 0.976471
0.979902 0.639216 0.980392
0.545098 0.579412 0.979412
0.556863 0.580392 0.977451
0.583333 0.584314 0.976471
0.625980 0.590686 0.975981
0.685294 0.602942 0.976471
0.747550 0.618628 0.976471
0.823530 0.635295 0.976471
0.894608 0.655392 0.976471
0.976471 0.661765 0.976471
0.545098 0.625980 0.976471
0.560784 0.629902 0.975491
0.587255 0.634314 0.976471
0.629902 0.637745 0.976471
0.686275 0.647549 0.976471
0.749510 0.656373 0.976471
0.820588 0.673039 0.976471
0.900490 0.692647 0.978922
0.978922 0.696569 0.980392
0.541176 0.680392 0.976471
0.550980 0.680392 0.978432
0.575490 0.678432 0.976471
0.622059 0.684314 0.976471
0.680392 0.692157 0.976471
0.750981 0.704412 0.978922
0.819608 0.715687 0.976471
0.900490 0.733333 0.978432
0.980392 0.739216 0.980392
0.501961 0.726961 0.972549
0.519607 0.729412 0.978432
0.550491 0.730882 0.976471
0.596079 0.732353 0.976471
0.663725 0.739216 0.978922
0.738725 0.746569 0.977941
0.824510 0.764706 0.980392
0.902451 0.781863 0.980392
0.981863 0.791176 0.981863
0.487255 0.805883 0.973530
0.499020 0.808823 0.976471
0.524510 0.804902 0.976471
0.567157 0.798039 0.976471
0.625490 0.793137 0.980392
0.715196 0.800981 0.980392
0.817647 0.816667 0.981372
0.910294 0.840196 0.984314
0.985294 0.852941 0.985294
0.510294 0.906372 0.980392
0.518137 0.902941 0.980392
0.548040 0.906372 0.981372
0.590195 0.902451 0.983824
0.641667 0.895589 0.980882
0.715196 0.894608 0.984804
0.789706 0.882353 0.983824
0.906372 0.901961 0.988235
0.992157 0.925980 0.992157
0.549020 1.000000 0.984314
0.556863 1.000000 0.984314
0.584314 1.000000 0.984314
0.623529 1.000000 0.985784
0.682353 1.000000 0.988235
0.750490 1.000000 0.988235
0.829412 1.000000 0.989216
0.914215 1.000000 0.992647
1.000000 1.000000 1.000000
