Color/Kodak/Kodak Elite ExtraColor 100 65x.cube
TITLE "Kodak Elite ExtraColor 100"
LUT_3D_SIZE 65
DOMAIN_MIN 0.000000 0.000000 0.000000
DOMAIN_MAX 1.000000 1.000000 1.000000
0.000000 0.000000 0.000000
0.008762 0.000000 0.000000
0.021446 0.000000 0.000000
0.034130 0.000000 0.000000
0.046569 0.000000 0.000000
0.059498 0.000000 0.000000
0.068260 0.000000 0.000000
0.080944 0.000000 0.000000
0.093138 0.000000 0.000000
0.102390 0.000000 0.000000
0.111152 0.000000 0.000000
0.119914 0.000000 0.000000
0.132598 0.000000 0.000000
0.141544 0.000000 0.000000
0.155147 0.000000 0.000000
0.166728 0.000000 0.000000
0.179412 0.000000 0.000000
0.192034 0.000000 0.000000
0.204780 0.000000 0.000000
0.217463 0.000000 0.000000
0.230147 0.000000 0.000000
0.242831 0.000000 0.000000
0.256127 0.000000 0.000000
0.269731 0.000000 0.000000
0.283334 0.000000 0.000000
0.296936 0.000000 0.000000
0.310539 0.000000 0.000000
0.326777 0.000000 0.000000
0.341667 0.000000 0.000000
0.355270 0.000000 0.000000
0.372794 0.000000 0.000000
0.390318 0.000000 0.000000
0.407844 0.000000 0.000000
0.425368 0.000000 0.000000
0.442892 0.000000 0.000000
0.461214 0.000000 0.000000
0.481863 0.000000 0.000000
0.499388 0.000000 0.000000
0.520834 0.000000 0.000000
0.534436 0.000000 0.000000
0.551961 0.000000 0.000000
0.569485 0.000000 0.000000
0.583089 0.000000 0.000000
0.596691 0.000000 0.000000
0.610294 0.000000 0.000000
0.625674 0.000000 0.000000
0.637500 0.000000 0.000000
0.651041 0.000000 0.000000
0.663725 0.000000 0.000000
0.676409 0.000000 0.000000
0.687990 0.000000 0.000000
0.701593 0.000000 0.000000
0.714461 0.000000 0.000000
0.724878 0.000000 0.000000
0.738480 0.000000 0.000000
0.748591 0.000000 0.000000
0.761274 0.000000 0.000000
0.773958 0.000000 0.000000
0.786642 0.000000 0.000000
0.798652 0.000000 0.000000
0.808333 0.000000 0.000000
0.820772 0.000000 0.000000
0.829535 0.000000 0.000000
0.842218 0.000000 0.000000
0.850980 0.000000 0.000000
0.000919 0.013603 0.000000
0.018443 0.012684 0.000000
0.032047 0.009681 0.000000
0.048652 0.009681 0.000000
0.055576 0.009681 0.000000
0.068260 0.008762 0.000000
0.081618 0.008762 0.000000
0.089707 0.008762 0.000000
0.098469 0.005760 0.000000
0.111152 0.004841 0.000000
0.119914 0.004841 0.000000
0.128676 0.004841 0.000000
0.137438 0.004841 0.000000
0.149204 0.004841 0.000000
0.158885 0.003922 0.000000
0.172672 0.000919 0.000000
0.180331 0.000919 0.000000
0.195955 0.000919 0.000000
0.205699 0.000919 0.000000
0.219240 -0.000858 0.000000
0.232843 0.000000 0.000000
0.239828 0.000000 0.000000
0.256434 0.000000 0.000000
0.268199 0.000000 0.000000
0.277880 0.000000 0.000000
0.290564 0.000000 0.000000
0.306617 0.000000 0.000000
0.322856 0.000000 0.000000
0.337745 0.000000 0.000000
0.351348 0.000000 0.000000
0.368872 0.000000 0.000000
0.386397 0.000000 0.000000
0.403922 0.000000 0.000000
0.421446 0.000000 0.000000
0.438971 0.000000 0.000000
0.460417 0.000000 0.000000
0.477941 0.000000 0.000000
0.495466 0.000000 0.000000
0.516912 0.000000 0.000000
0.534436 0.000000 0.000000
0.551042 0.000000 0.000000
0.565563 0.000000 0.000000
0.579779 0.000000 0.000000
0.596384 0.000000 0.000000
0.609069 0.000000 0.000000
0.621752 0.000000 0.000000
0.634436 0.000000 0.000000
0.647182 0.000000 0.000000
0.660785 0.000000 0.000000
0.672488 0.000000 0.000000
0.685172 0.000000 0.000000
0.697855 0.000000 0.000000
0.710356 0.000000 0.000000
0.723223 0.000000 0.000000
0.735907 0.000000 0.000000
0.748591 0.000000 0.000000
0.761274 0.000000 0.000000
0.774449 0.000000 0.000000
0.785049 0.000000 0.000000
0.795404 0.000000 0.000000
0.808088 0.000000 0.000000
0.821017 0.000000 0.000000
0.829535 0.000000 0.000000
0.838297 0.000000 0.000000
0.850980 0.000000 0.000000
0.009681 0.029289 0.000000
0.026287 0.027206 0.000000
0.038970 0.025367 0.000000
0.052574 0.025367 0.000000
0.066177 0.023284 0.000000
0.071936 0.021446 0.000000
0.085784 0.021446 0.000000
0.094546 0.019362 0.000000
0.105392 0.019362 0.000000
0.115992 0.017524 0.000000
0.124755 0.017524 0.000000
0.133517 0.015441 0.000000
0.142280 0.012255 0.000000
0.154963 0.013603 0.000000
0.162990 0.013603 0.000000
0.176409 0.009498 0.000000
0.187255 0.009681 0.000000
0.197856 0.009681 0.000000
0.209559 0.009681 0.000000
0.223223 0.005760 0.000000
0.236765 0.005760 0.000000
0.250367 0.005760 0.000000
0.261275 0.005760 0.000000
0.273958 0.005760 0.000000
0.287255 0.003922 0.000000
0.298775 0.003922 0.000000
0.312010 0.001838 0.000000
0.324142 0.001838 0.000000
0.337377 -0.000368 0.000000
0.350061 0.000000 0.000000
0.370588 0.000000 0.000000
0.382475 0.000000 0.000000
0.400000 0.000000 0.000000
0.419363 0.000000 0.000000
0.438971 0.000000 0.000000
0.456495 0.000000 0.000000
0.477941 0.000000 0.000000
0.495466 0.000000 0.000000
0.512991 0.000000 0.000000
0.530515 0.000000 0.000000
0.548039 0.000000 0.000000
0.565563 0.000000 0.000000
0.579779 0.000000 0.000000
0.596384 0.000000 0.000000
0.609069 0.000000 0.000000
0.621752 0.000000 0.000000
0.634436 0.000000 0.000000
0.647182 0.000000 0.000000
0.660785 0.000000 0.000000
0.672488 0.000000 0.000000
0.685172 0.000000 0.000000
0.697855 0.000000 0.000000
0.710539 0.000000 0.000000
0.723223 0.000000 0.000000
0.735907 0.000000 0.000000
0.748162 0.000000 0.000000
0.761274 0.000000 0.000000
0.771446 0.000000 0.000000
0.782721 0.000000 0.000000
0.795404 0.000000 0.000000
0.808088 0.000000 0.000000
0.818014 0.000000 0.000000
0.829535 0.000000 0.000000
0.838297 0.000000 0.000000
0.850980 0.000000 0.000000
0.022365 0.041973 0.000000
0.032047 0.040809 0.000000
0.042892 0.040809 0.000000
0.056495 0.038052 0.000000
0.066422 0.038052 0.000000
0.075858 0.036888 0.000000
0.090626 0.034130 0.000000
0.099142 0.034375 0.000000
0.109314 0.032966 0.000000
0.120833 0.030209 0.000000
0.129595 0.031618 0.000000
0.138357 0.029044 0.000000
0.147120 0.026287 0.000000
0.157047 0.025123 0.000000
0.166912 0.022365 0.000000
0.181250 0.022365 0.000000
0.191176 0.022365 0.000000
0.202696 0.017341 0.000000
0.213481 0.018444 0.000000
0.228064 0.018444 0.000000
0.240747 0.014522 0.000000
0.254289 0.014522 0.000000
0.266115 0.014522 0.000000
0.278799 0.012991 0.000000
0.291483 0.010601 0.000000
0.304779 0.010601 0.000000
0.316851 0.007843 0.000000
0.328063 0.009313 0.000000
0.341667 0.006679 0.000000
0.358027 0.003554 0.000000
0.371629 0.006557 0.000000
0.386397 0.000000 0.000000
0.403922 0.000000 0.000000
0.421446 0.000000 0.000000
0.438971 0.000000 0.000000
0.456495 0.000000 0.000000
0.475735 0.000000 0.000000
0.495466 0.000000 0.000000
0.512991 0.000000 0.000000
0.530515 0.000000 0.000000
0.548039 0.000000 0.000000
0.565563 0.000000 0.000000
0.579167 0.000000 0.000000
0.592770 0.000000 0.000000
0.609069 0.000000 0.000000
0.621752 0.000000 0.000000
0.634436 0.000000 0.000000
0.647182 0.000000 0.000000
0.659804 0.000000 0.000000
0.672488 0.000000 0.000000
0.685172 0.000000 0.000000
0.697855 0.000000 0.000000
0.710539 0.000000 0.000000
0.723223 0.000000 0.000000
0.735907 0.000000 0.000000
0.748162 0.000000 0.000000
0.761274 0.000000 0.000000
0.771446 0.000000 0.000000
0.782721 0.000000 0.000000
0.795404 0.000000 0.000000
0.808088 0.000000 0.000000
0.818014 0.000000 0.000000
0.829535 0.000000 0.000000
0.838297 0.000000 0.000000
0.850980 0.000000 0.000000
0.031128 0.058334 0.003677
0.039889 0.054657 0.000000
0.048897 0.054412 0.000000
0.061336 0.054412 0.000000
0.070343 0.050735 0.000000
0.079779 0.050490 0.000000
0.091789 0.050490 0.000000
0.104227 0.046814 0.000000
0.112745 0.046569 0.000000
0.121998 0.042892 0.000000
0.130760 0.045221 0.000000
0.139522 0.042647 0.000000
0.151961 0.038971 0.000000
0.160968 0.042463 0.000000
0.170833 0.038726 0.000000
0.182414 0.035049 0.000000
0.194117 0.034804 0.000000
0.207720 0.030944 0.000000
0.217402 0.033947 0.000000
0.232904 0.027206 0.000000
0.245589 0.027206 0.000000
0.254596 0.027267 0.000000
0.270957 0.023284 0.000000
0.283640 0.023284 0.000000
0.296323 0.019363 0.000000
0.305331 0.019363 0.000000
0.321691 0.022671 0.000000
0.331985 0.015441 0.000000
0.345588 0.015441 0.000000
0.362868 0.011520 0.000000
0.380270 0.007843 0.000000
0.390318 0.007598 0.000000
0.407844 0.003922 0.000000
0.425123 0.003922 0.000000
0.442647 0.003677 0.000000
0.457292 0.000000 0.000000
0.477941 0.000000 0.000000
0.495466 0.000000 0.000000
0.512991 0.000000 0.000000
0.530515 0.000000 0.000000
0.548039 0.000000 0.000000
0.565563 0.000000 0.000000
0.579167 0.000000 0.000000
0.592770 0.000000 0.000000
0.609069 0.000000 0.000000
0.621752 0.000000 0.000000
0.634436 0.000000 0.000000
0.647182 0.000000 0.000000
0.659804 0.000000 0.000000
0.672488 0.000000 0.000000
0.685172 0.000000 0.000000
0.697855 0.000000 0.000000
0.710539 0.000000 0.000000
0.723223 0.000000 0.000000
0.735907 0.000000 0.000000
0.748162 0.000000 0.000000
0.761274 0.000000 0.000000
0.771446 0.000000 0.000000
0.782721 0.000000 0.000000
0.795404 0.000000 0.000000
0.808088 0.000000 0.000000
0.818014 0.000000 0.000000
0.829535 0.000000 0.000000
0.838297 0.000000 0.000000
0.850980 0.000000 0.000000
0.039890 0.071262 0.003922
0.048652 0.068015 0.003922
0.057414 0.067341 0.003922
0.063419 0.067341 0.003922
0.074265 0.064093 0.003922
0.083701 0.063419 0.003922
0.095711 0.063419 0.000674
0.106985 0.060172 0.000674
0.113910 0.060172 0.000674
0.125919 0.059498 0.000674
0.134681 0.059498 0.000000
0.143443 0.056250 0.000000
0.152206 0.053064 0.000000
0.164890 0.052328 0.000000
0.174326 0.051225 0.000000
0.186336 0.051654 0.000000
0.195772 0.048407 0.000000
0.211642 0.047733 0.000000
0.221140 0.044485 0.000000
0.234927 0.043811 0.000000
0.248529 0.040564 0.000000
0.262132 0.040564 0.000000
0.271813 0.039951 0.000000
0.285417 0.036642 0.000000
0.299020 0.035968 0.000000
0.312623 0.029351 0.000000
0.322304 0.028799 0.000000
0.335294 0.028125 0.000000
0.353432 0.022671 0.000000
0.367034 0.024203 0.000000
0.380637 0.020282 0.000000
0.398162 0.016360 0.000000
0.412439 0.016360 0.000000
0.429289 0.012439 0.000000
0.446814 0.012439 0.000000
0.465135 0.008517 0.000000
0.482536 0.007843 0.000000
0.500061 0.004596 0.000000
0.514031 0.003922 0.000000
0.534558 0.000000 0.000000
0.547242 0.000000 0.000000
0.565563 0.000000 0.000000
0.579167 0.000000 0.000000
0.592770 0.000000 0.000000
0.606373 0.000000 0.000000
0.623223 0.000000 0.000000
0.634436 0.000000 0.000000
0.647120 0.000000 0.000000
0.659804 0.000000 0.000000
0.672488 0.000000 0.000000
0.685172 0.000000 0.000000
0.697671 0.000000 0.000000
0.710539 0.000000 0.000000
0.723223 0.000000 0.000000
0.737806 0.000000 0.000000
0.748162 0.000000 0.000000
0.757843 0.000000 0.000000
0.771446 0.000000 0.000000
0.782721 0.000000 0.000000
0.795404 0.000000 0.000000
0.808088 0.000000 0.000000
0.818014 0.000000 0.000000
0.829535 0.000000 0.000000
0.838297 0.000000 0.000000
0.850980 0.000000 0.000000
0.048652 0.081618 0.007843
0.057414 0.080024 0.005515
0.064338 0.080024 0.005515
0.071018 0.080024 0.005515
0.076103 0.077696 0.003922
0.088542 0.076103 0.003922
0.099632 0.076103 0.003922
0.108395 0.076103 0.003922
0.120588 0.073774 0.003922
0.127512 0.072181 0.003922
0.136274 0.072426 0.003922
0.145037 0.069853 0.003922
0.156128 0.066667 0.003922
0.165074 0.069669 0.003922
0.177574 0.064338 0.004412
0.187929 0.064338 0.001593
0.199020 0.062010 0.001593
0.211704 0.058149 -0.002267
0.225980 0.058088 0.000000
0.237071 0.058088 0.000000
0.247426 0.056495 0.000000
0.260110 0.054167 0.000000
0.276716 0.052573 0.000000
0.289400 0.050245 0.000000
0.300490 0.048652 0.000000
0.313174 0.046323 0.000000
0.326225 0.045956 0.000000
0.339828 0.040809 0.000000
0.352819 0.038480 0.000000
0.370956 0.036887 0.000000
0.384559 0.034437 0.000000
0.399754 0.029596 0.000000
0.415319 0.024755 0.000000
0.433211 0.025122 0.000000
0.450735 0.021201 0.000000
0.468260 0.017279 0.000000
0.487378 0.013358 0.000000
0.504902 0.010723 0.000000
0.522427 0.009436 0.000000
0.539400 0.005515 0.000000
0.551961 0.003922 0.000000
0.564767 0.001593 0.000000
0.579779 -0.001716 0.000000
0.592770 0.000000 0.000000
0.606373 0.000000 0.000000
0.619975 0.000000 0.000000
0.633578 0.000000 0.000000
0.647120 0.000000 0.000000
0.659804 0.000000 0.000000
0.672488 0.000000 0.000000
0.685172 0.000000 0.000000
0.697671 0.000000 0.000000
0.710539 0.000000 0.000000
0.723223 0.000000 0.000000
0.734559 0.000000 0.000000
0.748162 0.000000 0.000000
0.757843 0.000000 0.000000
0.771446 0.000000 0.000000
0.782721 0.000000 0.000000
0.795404 0.000000 0.000000
0.808088 0.000000 0.000000
0.818014 0.000000 0.000000
0.829535 0.000000 0.000000
0.838297 0.000000 0.000000
0.850980 0.000000 0.000000
0.057415 0.095220 0.010356
0.066176 0.092709 0.010356
0.071018 0.092709 0.007843
0.077022 0.092709 0.007843
0.084620 0.091299 0.007843
0.090870 0.088787 0.007843
0.102144 0.088787 0.007843
0.110906 0.087377 0.007843
0.121079 0.087377 0.006434
0.129841 0.084866 0.006434
0.138603 0.086030 0.006434
0.147365 0.083456 0.006434
0.159313 0.080944 0.003922
0.168811 0.083272 0.003922
0.178677 0.077022 0.003922
0.190257 0.077022 0.003922
0.201532 0.075612 0.003922
0.215563 0.075612 0.003922
0.225245 0.074755 0.003922
0.238848 0.071691 0.003922
0.252451 0.069179 0.002513
0.266054 0.067769 0.002513
0.275735 0.065258 0.000000
0.289339 0.066238 0.000000
0.302941 0.061336 0.000000
0.315686 0.061336 0.000000
0.332292 0.057415 0.000000
0.344975 0.056005 0.000000
0.357353 0.053799 0.000000
0.370343 0.049571 0.000000
0.390869 0.048039 0.000000
0.402083 0.043199 0.000000
0.419607 0.040318 0.000000
0.437133 0.037807 0.000000
0.454657 0.033885 0.000000
0.472181 0.031679 0.000000
0.489706 0.026838 0.000000
0.509743 0.022120 0.000000
0.523713 0.018199 0.000000
0.544240 0.014277 0.000000
0.555882 0.010356 0.000000
0.571998 0.007966 0.000000
0.587010 0.006434 0.000000
0.598897 0.002513 0.000000
0.609069 0.000000 0.000000
0.621752 0.000000 0.000000
0.633578 0.000000 0.000000
0.647120 0.000000 0.000000
0.659804 0.000000 0.000000
0.672488 0.000000 0.000000
0.685172 0.000000 0.000000
0.697671 0.000000 0.000000
0.710539 0.000000 0.000000
0.723223 0.000000 0.000000
0.734559 0.000000 0.000000
0.748162 0.000000 0.000000
0.757843 0.000000 0.000000
0.771446 0.000000 0.000000
0.782721 0.000000 0.000000
0.795404 0.000000 0.000000
0.808088 0.000000 0.000000
0.818014 0.000000 0.000000
0.829535 0.000000 0.000000
0.838297 0.000000 0.000000
0.850980 0.000000 0.000000
0.066177 0.105392 0.015196
0.074020 0.105392 0.015196
0.079780 0.104902 0.011765
0.084620 0.104902 0.011765
0.089706 0.101471 0.011765
0.094792 0.101471 0.011765
0.103554 0.103309 0.011275
0.112316 0.100981 0.011275
0.124510 0.097549 0.011275
0.133273 0.097549 0.011275
0.142035 0.097059 0.007843
0.150796 0.097059 0.007843
0.160049 0.093628 0.007843
0.168995 0.093138 0.007843
0.181495 0.089706 0.007843
0.192279 0.089706 0.007843
0.202941 0.090196 0.007843
0.215625 0.085356 0.007353
0.231740 0.088359 0.007353
0.240993 0.081863 0.003922
0.253676 0.081863 0.003922
0.266361 0.081373 0.003922
0.282476 0.077941 0.003922
0.295159 0.079841 0.003922
0.307843 0.074020 0.003432
0.320527 0.074081 0.003432
0.330147 0.070098 0.003432
0.346385 0.069608 0.000000
0.362500 0.067402 0.000000
0.374878 0.062255 0.000000
0.388480 0.058334 0.000000
0.406005 0.054412 0.000000
0.423530 0.053922 0.000000
0.441054 0.051041 0.000000
0.458579 0.046201 0.000000
0.476103 0.045282 0.000000
0.493627 0.040441 0.000000
0.511152 0.035601 0.000000
0.528554 0.030883 0.000000
0.549080 0.023039 0.000000
0.559804 0.021569 0.000000
0.576838 0.016728 0.000000
0.591054 0.015196 0.000000
0.603737 0.007843 0.000000
0.616422 0.007353 0.000000
0.623897 0.003922 0.000000
0.637868 0.003432 0.000000
0.647120 0.000000 0.000000
0.659804 0.000000 0.000000
0.672488 0.000000 0.000000
0.684069 0.000000 0.000000
0.697671 0.000000 0.000000
0.710539 0.000000 0.000000
0.723223 0.000000 0.000000
0.734559 0.000000 0.000000
0.748162 0.000000 0.000000
0.757843 0.000000 0.000000
0.771446 0.000000 0.000000
0.782721 0.000000 0.000000
0.795404 0.000000 0.000000
0.808088 0.000000 0.000000
0.818014 0.000000 0.000000
0.829535 0.000000 0.000000
0.838297 0.000000 0.000000
0.850980 0.000000 0.000000
0.074939 0.114583 0.020037
0.079779 0.114154 0.020037
0.088113 0.114154 0.020037
0.092954 0.114154 0.019608
0.094547 0.114154 0.019608
0.102635 0.114154 0.016115
0.107904 0.109069 0.016115
0.116238 0.110233 0.016115
0.125000 0.110233 0.012683
0.133762 0.110233 0.015686
0.142524 0.105392 0.012194
0.151287 0.106311 0.012194
0.160478 0.106311 0.012194
0.173162 0.102390 0.012194
0.185417 0.102390 0.012194
0.194179 0.102390 0.012194
0.206863 0.098897 0.011765
0.216055 0.098468 0.011765
0.232231 0.098468 0.011765
0.241422 0.093199 0.008272
0.254105 0.094547 0.008272
0.266789 0.094547 0.008272
0.283578 0.090625 0.007843
0.295650 0.090625 0.007843
0.310785 0.084682 0.004351
0.324387 0.086704 0.004351
0.334068 0.082782 0.003922
0.346814 0.082782 0.003922
0.365196 0.078860 0.003922
0.378799 0.072242 0.003922
0.392402 0.071017 0.004228
0.409926 0.071017 -0.000613
0.427451 0.067096 0.000000
0.444976 0.060723 0.000000
0.462500 0.055882 0.000000
0.480024 0.054963 0.000000
0.497549 0.050122 0.000000
0.515502 0.045282 0.000000
0.533027 0.040441 0.000000
0.550123 0.039645 0.000000
0.562683 0.034252 0.000000
0.581250 0.025919 0.000000
0.594853 0.021078 0.000000
0.604535 0.020159 0.000000
0.617340 0.016115 0.000000
0.629596 0.012194 0.000000
0.638786 0.008272 0.000000
0.651470 0.003922 0.000000
0.660233 0.003922 0.000000
0.672488 0.000000 0.000000
0.684069 0.000000 0.000000
0.697671 0.000000 0.000000
0.710539 0.000000 0.000000
0.723223 0.000000 0.000000
0.734559 0.000000 0.000000
0.748162 0.000000 0.000000
0.757843 0.000000 0.000000
0.771446 0.000000 0.000000
0.782721 0.000000 0.000000
0.795404 0.000000 0.000000
0.808088 0.000000 0.000000
0.818014 0.000000 0.000000
0.829535 0.000000 0.000000
0.838297 0.000000 0.000000
0.850980 0.000000 0.000000
0.083701 0.126838 0.027451
0.087194 0.126838 0.024877
0.091544 0.126838 0.024877
0.095466 0.124265 0.024877
0.103063 0.122917 0.024877
0.106556 0.122917 0.024877
0.112745 0.122917 0.023529
0.120160 0.122917 0.020956
0.128922 0.116912 0.020956
0.135110 0.118995 0.020956
0.143872 0.118995 0.019608
0.155208 0.118995 0.019608
0.163971 0.113235 0.019608
0.176655 0.115073 0.017034
0.185417 0.115318 0.017034
0.195527 0.110478 0.017034
0.209804 0.111152 0.017034
0.223406 0.111152 0.017034
0.233579 0.107230 0.015686
0.246691 0.107230 0.013113
0.260294 0.107230 0.013113
0.273897 0.103309 0.013113
0.283578 0.104044 0.011765
0.296998 0.099203 0.011765
0.309681 0.099387 0.009191
0.322365 0.096814 0.005821
0.338971 0.096446 0.007843
0.351593 0.091544 0.007843
0.364338 0.091544 0.007843
0.382721 0.087623 0.005270
0.396323 0.083701 0.003922
0.414155 0.079779 0.003922
0.428799 0.079779 0.003922
0.446324 0.075858 0.003922
0.463848 0.069486 0.001348
0.483946 0.068015 0.000000
0.501470 0.063726 0.000000
0.518996 0.058885 0.000000
0.536520 0.054045 0.000000
0.554840 0.053125 0.000000
0.567525 0.044363 0.000000
0.585171 0.039522 0.000000
0.598775 0.034682 0.000000
0.608456 0.028799 0.000000
0.622182 0.024877 0.000000
0.633517 0.020159 0.000000
0.643628 0.017034 0.000000
0.654963 0.013052 0.000000
0.665073 0.008211 0.000000
0.676409 0.003371 0.000000
0.685172 0.001348 0.000000
0.697671 0.000000 0.000000
0.707353 0.000000 0.000000
0.720956 0.000000 0.000000
0.734559 0.000000 0.000000
0.748162 0.000000 0.000000
0.761274 0.000000 0.000000
0.771446 0.000000 0.000000
0.782721 0.000000 0.000000
0.795404 0.000000 0.000000
0.808088 0.000000 0.000000
0.818014 0.000000 0.000000
0.829535 0.000000 0.000000
0.838297 0.000000 0.000000
0.850980 0.000000 0.000000
0.092463 0.137867 0.033640
0.096385 0.135600 0.033640
0.100306 0.135600 0.033640
0.104228 0.135600 0.030883
0.108149 0.135600 0.031373
0.115992 0.137193 0.029718
0.119914 0.133946 0.029718
0.123836 0.131679 0.029718
0.131188 0.131679 0.029718
0.137684 0.131679 0.029289
0.146446 0.130024 0.025796
0.155208 0.127757 0.025796
0.166237 0.127757 0.025796
0.178922 0.129840 0.023529
0.189338 0.126103 0.023529
0.200368 0.123836 0.023529
0.210785 0.123836 0.021875
0.221813 0.122181 0.021875
0.236152 0.119914 0.019608
0.246691 0.120405 0.019608
0.259865 0.115563 0.019608
0.272549 0.115992 0.017953
0.289155 0.114338 0.015686
0.301838 0.112071 0.015686
0.314706 0.112071 0.014032
0.328309 0.107047 0.010662
0.341544 0.110049 0.011765
0.356495 0.104228 0.011765
0.369118 0.102573 0.010110
0.381863 0.100306 0.010110
0.402389 0.096385 0.007843
0.416115 0.092463 0.007843
0.431373 0.092770 0.006189
0.448897 0.088542 0.003922
0.470220 0.083089 0.003922
0.486214 0.080698 0.003922
0.505392 0.076777 0.004474
0.522917 0.072488 -0.000368
0.540441 0.071201 0.000000
0.556311 0.066728 0.000000
0.571569 0.061887 0.000000
0.585049 0.055515 0.000000
0.602696 0.048284 0.000000
0.612378 0.047365 0.000000
0.627022 0.037561 0.000000
0.637439 0.033762 0.000000
0.648468 0.026654 0.000000
0.661153 0.021814 0.000000
0.669915 0.016973 0.000000
0.680331 0.012133 0.000000
0.691912 0.007291 0.000000
0.700123 0.003922 0.000000
0.710539 0.000000 0.000000
0.720956 0.000000 0.000000
0.734559 0.000000 0.000000
0.748162 0.000000 0.000000
0.761274 0.000000 0.000000
0.771446 0.000000 0.000000
0.782721 0.000000 0.000000
0.795404 0.000000 0.000000
0.808088 0.000000 0.000000
0.818014 0.000000 0.000000
0.829535 0.000000 0.000000
0.838297 0.000000 0.000000
0.850980 0.000000 0.000000
0.101226 0.151470 0.039216
0.105147 0.148285 0.038481
0.109069 0.148285 0.038481
0.112990 0.148285 0.038481
0.116667 0.148285 0.038481
0.118321 0.147549 0.035294
0.126349 0.147549 0.035294
0.131188 0.144363 0.035968
0.136765 0.144363 0.034559
0.141605 0.147120 0.034559
0.150368 0.143627 0.031373
0.159130 0.143627 0.032292
0.171078 0.140441 0.030638
0.180576 0.139705 0.030638
0.192524 0.139705 0.030638
0.202022 0.136520 0.027451
0.213725 0.136765 0.027451
0.227328 0.135784 0.026716
0.237010 0.132598 0.023529
0.250613 0.131862 0.023529
0.264216 0.128677 0.023529
0.277818 0.128677 0.022794
0.290809 0.127941 0.019608
0.303493 0.124755 0.019608
0.316177 0.125490 0.018873
0.332230 0.120650 0.015502
0.341911 0.120098 0.015686
0.355514 0.116912 0.017585
0.374020 0.116176 0.011765
0.386642 0.113051 0.011765
0.403432 0.109069 0.011765
0.417769 0.108333 0.011030
0.435295 0.106372 0.007843
0.452819 0.101226 0.007843
0.470343 0.096691 0.007843
0.491054 0.093383 0.003922
0.507108 0.092647 0.003922
0.526839 0.090012 0.003922
0.544363 0.085540 0.003187
0.561152 0.077696 0.000000
0.575490 0.075490 0.000000
0.589093 0.070649 0.000000
0.606618 0.065809 0.000000
0.616299 0.060969 0.000000
0.631862 0.056127 0.000000
0.641360 0.051287 0.000000
0.653309 0.042524 0.000000
0.665992 0.037684 0.000000
0.672549 0.026716 0.000000
0.687439 0.024081 0.000000
0.696201 0.016054 0.000000
0.704963 0.011214 0.000000
0.717648 0.007108 0.000000
0.726410 0.003187 0.000000
0.734559 0.000000 0.000000
0.744669 0.000000 0.000000
0.757843 0.000000 0.000000
0.771446 0.000000 0.000000
0.785049 0.000000 0.000000
0.795404 0.000000 0.000000
0.808088 0.000000 0.000000
0.818014 0.000000 0.000000
0.829535 0.000000 0.000000
0.841483 0.000000 0.000000
0.850980 0.000000 0.000000
0.109988 0.161152 0.043321
0.113909 0.160968 0.043321
0.115747 0.160968 0.043321
0.117831 0.160968 0.043321
0.121753 0.160968 0.043321
0.126348 0.160968 0.043137
0.131189 0.157231 0.043137
0.136029 0.157231 0.039400
0.144608 0.157047 0.039400
0.145711 0.157047 0.039400
0.153125 0.157047 0.038052
0.163051 0.151042 0.039216
0.171997 0.153125 0.035478
0.184498 0.153125 0.035478
0.193444 0.149388 0.035294
0.205944 0.149204 0.035294
0.214890 0.149204 0.031557
0.227574 0.145466 0.031557
0.240258 0.145282 0.031373
0.252941 0.145282 0.031373
0.265625 0.141544 0.027635
0.281740 0.141360 0.024019
0.295343 0.137623 0.027451
0.308946 0.137439 0.023713
0.322549 0.137439 0.021262
0.336152 0.130331 0.023529
0.345649 0.133517 0.019424
0.363357 0.128493 0.019608
0.376961 0.129596 0.019608
0.387623 0.122733 0.015870
0.408149 0.121753 0.015686
0.421875 0.121753 0.011949
0.439399 0.117831 0.011765
0.456924 0.111212 0.011765
0.474449 0.113909 0.008027
0.495711 0.109988 0.007843
0.513235 0.106066 0.007843
0.530760 0.099694 0.001471
0.544914 0.094853 0.003922
