Color/Kodak/Kodak Elite 100 XPRO 65x.cube
TITLE "Kodak Elite 100 XPRO"
LUT_3D_SIZE 9
DOMAIN_MIN 0.000000 0.000000 0.000000
DOMAIN_MAX 1.000000 1.000000 1.000000
0.000000 0.000000 0.000000
0.069608 0.000000 0.000000
0.136274 0.000000 0.000000
0.244118 0.003922 0.000000
0.376471 0.007843 0.005882
0.573039 0.017157 0.015686
0.754902 0.036275 0.031373
0.879412 0.059314 0.043137
0.972549 0.090196 0.054902
0.031373 0.031373 0.000000
0.085785 0.038726 0.000000
0.151470 0.046569 0.000000
0.259804 0.058334 0.003922
0.392156 0.070098 0.007353
0.588726 0.093628 0.013235
0.766667 0.122058 0.027451
0.891176 0.156862 0.039216
0.991667 0.218628 0.043137
0.089216 0.123529 0.003922
0.108824 0.127451 0.003922
0.167647 0.139215 0.003922
0.283334 0.154902 0.007843
0.413725 0.174510 0.011765
0.615196 0.205882 0.019608
0.789215 0.241176 0.023529
0.913236 0.280392 0.027451
1.000000 0.331372 0.031373
0.105882 0.283334 0.003922
0.117647 0.285784 0.003922
0.182353 0.298039 0.007843
0.306863 0.313235 0.010294
0.449510 0.332843 0.011765
0.651471 0.359314 0.019608
0.813726 0.390196 0.023529
0.932353 0.424510 0.019608
1.000000 0.461275 0.019608
0.066666 0.464706 0.007843
0.096078 0.466666 0.007843
0.201961 0.472549 0.007843
0.330392 0.482353 0.007843
0.498039 0.496078 0.013725
0.695098 0.515196 0.019608
0.839216 0.534314 0.019608
0.946078 0.556863 0.015686
1.000000 0.584313 0.011765
0.065686 0.614706 0.007843
0.125490 0.614706 0.007843
0.238726 0.618627 0.007843
0.380392 0.626470 0.011765
0.572059 0.638235 0.011765
0.740196 0.650000 0.015686
0.864706 0.661275 0.015686
0.965196 0.677451 0.011765
1.000000 0.693137 0.003922
0.213726 0.727451 0.007843
0.257353 0.730392 0.007843
0.356863 0.731373 0.007843
0.504902 0.738235 0.011765
0.660784 0.746079 0.011765
0.790686 0.753921 0.011765
0.896079 0.761764 0.011765
0.981862 0.770588 0.007843
1.000000 0.781373 0.000000
0.437255 0.820588 0.007843
0.468628 0.824019 0.007843
0.548039 0.824019 0.007843
0.642647 0.827941 0.004412
0.747549 0.832353 0.007843
0.846078 0.839706 0.003922
0.930392 0.843627 0.003922
1.000000 0.847549 0.000000
1.000000 0.851470 0.000000
0.666667 0.882353 0.000000
0.682353 0.882353 0.000000
0.720588 0.886275 0.000000
0.775000 0.886275 0.000000
0.837255 0.890196 0.000000
0.907353 0.890196 0.000000
0.972549 0.890196 0.000000
1.000000 0.894118 0.000000
1.000000 0.894118 0.000000
0.000000 0.000000 0.007353
0.058334 0.000000 0.007843
0.128432 0.003432 0.011765
0.236275 0.003922 0.015686
0.372549 0.011765 0.023039
0.569118 0.023529 0.034804
0.754902 0.044117 0.042647
0.882843 0.066667 0.043137
0.976471 0.098039 0.054902
0.026961 0.042647 0.011765
0.077941 0.046569 0.011765
0.140196 0.054412 0.015196
0.251961 0.066177 0.019608
0.388235 0.081863 0.026961
0.584804 0.104902 0.038726
0.767647 0.132353 0.046569
0.895098 0.168627 0.042647
0.992157 0.230393 0.043137
0.081863 0.131372 0.015686
0.105392 0.139215 0.015686
0.158823 0.147059 0.019118
0.275980 0.165196 0.023529
0.410784 0.186274 0.029412
0.612255 0.217647 0.039216
0.789215 0.250000 0.043137
0.910784 0.285785 0.039216
1.000000 0.339215 0.031373
0.093627 0.293627 0.015686
0.108823 0.297549 0.015686
0.170588 0.305392 0.019118
0.300490 0.321079 0.023529
0.445098 0.340686 0.027451
0.650000 0.371079 0.035294
0.813726 0.400980 0.039216
0.930392 0.430392 0.034314
1.000000 0.467647 0.019608
0.053431 0.470588 0.015686
0.081863 0.472549 0.015686
0.186274 0.478432 0.019118
0.322549 0.488235 0.019608
0.492157 0.501961 0.025490
0.691177 0.521568 0.031373
0.837255 0.541176 0.031373
0.946078 0.562745 0.026961
1.000000 0.588236 0.011765
0.043627 0.618627 0.015686
0.109314 0.618627 0.015686
0.226961 0.622549 0.019118
0.374020 0.630392 0.019608
0.568137 0.642157 0.023529
0.737745 0.653922 0.027451
0.864706 0.667647 0.023529
0.962745 0.681372 0.019608
1.000000 0.697059 0.007843
0.195098 0.731373 0.015686
0.242157 0.733823 0.015686
0.345098 0.735294 0.016667
0.499510 0.742156 0.019608
0.655882 0.750000 0.021078
0.787255 0.757843 0.019608
0.892157 0.765686 0.018137
0.980882 0.773529 0.011765
1.000000 0.785294 0.003922
0.428922 0.824019 0.011765
0.463726 0.827451 0.011765
0.537745 0.827941 0.011765
0.638726 0.831863 0.011765
0.743627 0.835784 0.011765
0.841177 0.843137 0.010784
0.926961 0.847549 0.007353
1.000000 0.851470 0.003922
1.000000 0.855392 0.000000
0.658824 0.886275 0.000000
0.674510 0.886275 0.000000
0.713726 0.886275 0.000000
0.771078 0.890196 0.000000
0.833824 0.890196 0.000000
0.903431 0.894118 0.000000
0.969607 0.894118 0.000000
1.000000 0.894118 0.000000
1.000000 0.894118 0.000000
0.000000 0.000000 0.027451
0.050490 0.000000 0.034314
0.120589 0.003922 0.038235
0.228432 0.007843 0.043137
0.368627 0.015686 0.050980
0.569118 0.028922 0.062745
0.754902 0.050980 0.070588
0.883333 0.074510 0.066667
0.980392 0.105882 0.050980
0.020098 0.050490 0.038235
0.066177 0.054412 0.039216
0.132353 0.062255 0.043137
0.244118 0.074020 0.050000
0.382353 0.089706 0.057843
0.584314 0.113235 0.069608
0.766667 0.144118 0.074510
0.898039 0.183334 0.070588
0.995588 0.242157 0.050980
0.077451 0.147059 0.046079
0.100981 0.150980 0.047059
0.150980 0.161765 0.050000
0.267647 0.177451 0.057843
0.405883 0.200000 0.061765
0.608333 0.230882 0.070588
0.786275 0.261765 0.074510
0.910784 0.297549 0.066667
1.000000 0.354902 0.047059
0.068137 0.305882 0.050000
0.082843 0.309804 0.050980
0.144118 0.321079 0.053921
0.287255 0.336764 0.058824
0.434804 0.356372 0.062745
0.644608 0.383823 0.069608
0.809804 0.412745 0.070588
0.929412 0.441176 0.062745
1.000000 0.476961 0.043137
0.019608 0.482353 0.053921
0.045588 0.484314 0.054412
0.150980 0.490197 0.057843
0.302941 0.500000 0.060784
0.482353 0.513726 0.061765
0.686765 0.532353 0.065686
0.834314 0.551961 0.063725
0.945588 0.572549 0.053431
1.000000 0.600000 0.034314
0.000000 0.627941 0.056373
0.039706 0.630392 0.057844
0.192647 0.634314 0.057844
0.353921 0.642157 0.057843
0.556373 0.650490 0.061765
0.729902 0.663235 0.061765
0.860785 0.675980 0.053921
0.961274 0.689216 0.042157
1.000000 0.704902 0.023529
0.142157 0.742156 0.057844
0.195588 0.743137 0.057844
0.315687 0.746079 0.057844
0.480882 0.750981 0.057844
0.644118 0.758824 0.053922
0.778922 0.765686 0.050980
0.888236 0.773529 0.042157
0.976961 0.781373 0.027451
1.000000 0.789215 0.015686
0.395098 0.835784 0.043137
0.433334 0.835784 0.042157
0.514216 0.839706 0.041667
0.619118 0.843627 0.038236
0.728431 0.847549 0.034804
0.829412 0.851470 0.026471
0.919118 0.855392 0.015686
0.996078 0.858334 0.011275
1.000000 0.859314 0.003922
0.639216 0.894118 0.003922
0.658824 0.894118 0.003922
0.697059 0.898039 0.000000
0.755392 0.898039 0.000000
0.821568 0.898039 0.000000
0.892647 0.900980 0.000000
0.961765 0.901961 0.000000
1.000000 0.898039 0.000000
1.000000 0.898039 0.000000
0.000000 0.002451 0.076961
0.038726 0.003922 0.080882
0.110294 0.007843 0.084804
0.216667 0.011765 0.088726
0.360784 0.023529 0.096569
0.565196 0.039216 0.104412
0.754902 0.059804 0.112255
0.883333 0.082353 0.104412
0.980392 0.117647 0.084804
0.012745 0.062255 0.096569
0.054412 0.066177 0.100490
0.117157 0.074020 0.103921
0.228432 0.085785 0.107843
0.372549 0.103431 0.112255
0.576961 0.126471 0.120098
0.766667 0.157353 0.120098
0.895098 0.199510 0.111765
0.992157 0.257844 0.088726
0.067157 0.162745 0.119118
0.090196 0.169118 0.121568
0.140196 0.180883 0.122549
0.248529 0.196569 0.124020
0.394118 0.217647 0.126471
0.600490 0.246569 0.129412
0.782353 0.277451 0.127941
0.910294 0.315196 0.112255
1.000000 0.370588 0.086275
0.039216 0.328921 0.139706
0.050980 0.332843 0.142157
0.088236 0.343137 0.142157
0.259804 0.356372 0.143627
0.417647 0.375980 0.142157
0.634314 0.402451 0.138235
0.804412 0.428432 0.130392
0.925980 0.455882 0.112255
1.000000 0.491177 0.084804
0.000000 0.500490 0.150000
0.000000 0.503922 0.150000
0.054902 0.508824 0.151471
0.265196 0.519608 0.153922
0.456372 0.531863 0.153922
0.670588 0.550490 0.150000
0.825490 0.568628 0.135294
0.937745 0.588236 0.111765
1.000000 0.611765 0.076961
0.000000 0.646078 0.160294
0.000000 0.647059 0.160294
0.116177 0.650980 0.164216
0.308334 0.657843 0.165686
0.526471 0.669608 0.169608
0.710294 0.681372 0.167157
0.845098 0.693137 0.145098
0.949510 0.703922 0.106863
1.000000 0.716667 0.069118
0.040196 0.758824 0.200490
0.088726 0.760294 0.200490
0.245588 0.762745 0.200490
0.434314 0.768137 0.204412
0.612745 0.775980 0.204412
0.755882 0.783824 0.195588
0.868628 0.790196 0.173530
0.963235 0.797058 0.119118
1.000000 0.800981 0.049510
0.328921 0.851961 0.252941
0.375000 0.853921 0.253432
0.467647 0.855392 0.253432
0.583824 0.859314 0.252941
0.700490 0.863235 0.245098
0.805883 0.867157 0.229412
0.899510 0.871078 0.199020
0.978922 0.873529 0.138726
1.000000 0.871078 0.013725
0.603922 0.909804 0.272549
0.623529 0.912255 0.272549
0.663235 0.913725 0.268628
0.725490 0.913725 0.264706
0.798039 0.913725 0.250980
0.872059 0.916176 0.227941
0.942157 0.916176 0.187745
1.000000 0.913725 0.107843
1.000000 0.905882 0.000000
0.000000 0.007843 0.180393
0.021078 0.011765 0.182353
0.093137 0.017647 0.184314
0.197059 0.023529 0.188236
0.349020 0.035294 0.192157
0.553431 0.052941 0.192157
0.747059 0.074510 0.183333
0.879412 0.098039 0.166667
0.980392 0.133333 0.135294
0.003922 0.081863 0.215196
0.036765 0.087745 0.217157
0.093137 0.095588 0.219608
0.204902 0.107353 0.223529
0.356862 0.123039 0.227451
0.561275 0.148039 0.231372
0.757353 0.180392 0.224510
0.891176 0.223039 0.192157
0.992157 0.277451 0.149019
0.050000 0.190196 0.243138
0.072059 0.196078 0.246078
0.114706 0.207843 0.247058
0.213235 0.223529 0.253922
0.368627 0.245098 0.256862
0.583333 0.274020 0.258823
0.770588 0.302941 0.253922
0.900000 0.339705 0.225981
0.996078 0.396078 0.161765
0.009804 0.358333 0.280392
0.011765 0.362255 0.280392
0.023529 0.371569 0.282843
0.206863 0.385784 0.288235
0.384313 0.403431 0.288235
0.608824 0.429902 0.290686
0.786275 0.453922 0.280883
0.910784 0.479902 0.253432
1.000000 0.512745 0.192647
0.000000 0.527451 0.331372
0.000000 0.531373 0.331372
0.000000 0.535294 0.335294
0.187745 0.545098 0.337255
0.409804 0.558824 0.337255
0.639706 0.576470 0.333333
0.801961 0.594117 0.317647
0.920588 0.612255 0.283823
1.000000 0.635294 0.221569
0.000000 0.673529 0.401471
0.000000 0.675490 0.403431
0.000000 0.679412 0.405392
0.205882 0.685784 0.405392
0.470098 0.697059 0.407353
0.673039 0.706863 0.399510
0.817647 0.717157 0.374020
0.928431 0.728431 0.326471
1.000000 0.738725 0.247059
0.000000 0.786275 0.469608
0.000000 0.787255 0.469608
0.046079 0.791176 0.470588
0.348529 0.795588 0.474510
0.557843 0.802941 0.476471
0.715687 0.810784 0.467647
0.836274 0.817647 0.443137
0.936765 0.822549 0.386765
1.000000 0.824510 0.283334
0.172549 0.878921 0.521569
0.249019 0.879412 0.522059
0.376471 0.882843 0.524020
0.517647 0.886765 0.527451
0.649510 0.890686 0.524020
0.762745 0.896079 0.519608
0.862745 0.898529 0.498039
0.948039 0.900490 0.446569
1.000000 0.894608 0.307843
0.539216 0.937255 0.556863
0.558823 0.937255 0.556863
0.608823 0.939215 0.556863
0.675000 0.941176 0.552941
0.752941 0.941176 0.547059
0.830883 0.943137 0.535294
0.904902 0.943137 0.510784
0.971078 0.939215 0.446569
1.000000 0.927451 0.260784
0.000000 0.019608 0.318137
0.007353 0.027451 0.322059
0.063236 0.035294 0.329902
0.168137 0.044608 0.333823
0.325491 0.058824 0.337745
0.533824 0.075980 0.337745
0.734804 0.098039 0.333823
0.870098 0.121569 0.312745
0.972549 0.156863 0.263235
0.000000 0.109314 0.397549
0.015196 0.114706 0.401470
0.065686 0.124019 0.405392
0.160294 0.136765 0.410784
0.324020 0.155883 0.413235
0.535784 0.180882 0.413235
0.738726 0.215686 0.400490
0.875490 0.258334 0.368137
0.980392 0.308824 0.312255
0.011765 0.230882 0.463726
0.026471 0.236765 0.466177
0.065686 0.246569 0.470098
0.145588 0.262255 0.475490
0.325491 0.284314 0.479412
0.545588 0.309314 0.481863
0.745588 0.340686 0.467647
0.881863 0.379902 0.427941
0.984314 0.430882 0.356373
0.000000 0.399510 0.518137
0.000000 0.403431 0.519118
0.000000 0.411274 0.523530
0.110294 0.425981 0.529902
0.320098 0.445588 0.534804
0.563725 0.469118 0.542647
0.754412 0.492647 0.532843
0.885785 0.517647 0.500980
0.984314 0.546078 0.421569
0.000000 0.562745 0.575000
0.000000 0.566176 0.576470
0.000000 0.570589 0.580392
0.057353 0.581863 0.584314
0.328431 0.594117 0.589706
0.589216 0.613235 0.592157
0.765196 0.631373 0.582843
0.887255 0.650490 0.561275
0.982843 0.670589 0.494118
0.000000 0.700980 0.618627
0.000000 0.704902 0.620098
0.000000 0.708824 0.624020
0.014706 0.716667 0.630392
0.392157 0.726471 0.639706
0.624020 0.740196 0.647549
0.777451 0.751961 0.646078
0.893137 0.763725 0.616177
0.978922 0.775490 0.554902
0.000000 0.809804 0.658824
0.000000 0.810294 0.661275
0.000000 0.814216 0.663235
0.218137 0.821569 0.670588
0.495588 0.829412 0.678432
0.670588 0.837745 0.682843
0.800490 0.845588 0.678922
0.901471 0.853431 0.666176
0.976471 0.860785 0.608333
0.000000 0.899019 0.702451
0.038235 0.900000 0.705392
0.253431 0.903922 0.709314
0.444118 0.907843 0.714216
0.599019 0.914215 0.721078
0.723530 0.918137 0.721078
0.827941 0.923530 0.714216
0.914215 0.927451 0.697059
0.980392 0.929902 0.650490
0.471569 0.956863 0.740196
0.496078 0.956863 0.740196
0.550490 0.956863 0.744117
0.628432 0.960784 0.745588
0.711765 0.962255 0.745588
0.793627 0.964706 0.744117
0.871568 0.966176 0.733823
0.936275 0.966176 0.710294
1.000000 0.962255 0.643628
0.000000 0.051960 0.548039
0.000000 0.062255 0.551961
0.023529 0.070588 0.559804
0.113725 0.079411 0.567647
0.285294 0.095098 0.575490
0.495098 0.113725 0.583333
0.707843 0.134314 0.586275
0.847549 0.161765 0.560294
0.955882 0.197059 0.487255
0.000000 0.145588 0.624019
0.000000 0.152451 0.629412
0.032843 0.163726 0.635784
0.114706 0.174510 0.641177
0.275490 0.194607 0.650981
0.491177 0.226471 0.660295
0.707843 0.262745 0.657353
0.850980 0.305882 0.630392
0.956863 0.355883 0.586765
0.000000 0.269608 0.656863
0.007843 0.276470 0.659804
0.024510 0.285294 0.664706
0.081863 0.300980 0.672549
0.267647 0.319608 0.683333
0.500000 0.350980 0.695098
0.711765 0.383333 0.700000
0.851961 0.429902 0.692157
0.956863 0.478431 0.642157
0.000000 0.436275 0.690686
0.000000 0.438725 0.692157
0.000000 0.448039 0.699019
0.012745 0.460784 0.706373
0.244118 0.479412 0.713726
0.515686 0.502941 0.725000
0.719608 0.527451 0.733823
0.855882 0.554902 0.725980
0.956863 0.589216 0.698529
0.000000 0.592156 0.725490
0.000000 0.593137 0.727451
0.000000 0.600000 0.734313
0.000000 0.608824 0.741176
0.231372 0.623530 0.750981
0.538725 0.643138 0.763725
0.731373 0.661765 0.768628
0.859314 0.682353 0.760784
0.952941 0.705882 0.733333
0.000000 0.724510 0.762745
0.000000 0.724510 0.763235
0.000000 0.731863 0.770588
0.000000 0.736274 0.777451
0.290196 0.748039 0.786765
0.573529 0.763235 0.799509
0.743627 0.775490 0.805883
0.863725 0.790196 0.799509
0.951961 0.802941 0.772058
0.000000 0.828432 0.789215
0.000000 0.829412 0.790196
0.000000 0.833334 0.794118
0.003922 0.838725 0.801961
0.419608 0.848039 0.814706
0.626470 0.856863 0.825490
0.766667 0.867647 0.829412
0.875000 0.875981 0.829412
0.949020 0.887255 0.810784
0.000000 0.914215 0.816666
0.000000 0.914215 0.817647
0.016177 0.918137 0.824510
0.352451 0.922059 0.832353
0.545098 0.929902 0.840686
0.685784 0.934314 0.848039
0.798039 0.941666 0.851961
0.890196 0.945588 0.849020
0.956373 0.952941 0.833334
0.390196 0.965686 0.848039
0.422059 0.968627 0.849020
0.491177 0.968627 0.851961
0.580392 0.972549 0.856863
0.676470 0.976471 0.863726
0.766176 0.977451 0.867647
0.848039 0.980392 0.867647
0.913725 0.984314 0.864216
0.996078 0.984314 0.841177
0.000000 0.082353 0.718627
0.000000 0.090196 0.722059
0.003922 0.098039 0.730392
0.069118 0.106372 0.738235
0.240686 0.122059 0.750000
0.456372 0.142647 0.762255
0.680392 0.169117 0.773529
0.827941 0.200490 0.769607
0.933333 0.247059 0.742647
0.000000 0.175981 0.761764
0.000000 0.183334 0.765686
0.007843 0.192157 0.773529
0.068627 0.206372 0.781372
0.221569 0.229412 0.796568
0.448529 0.263235 0.806373
0.680392 0.305392 0.820098
0.828431 0.345588 0.816176
0.937255 0.400000 0.793628
0.000000 0.303921 0.791667
0.000000 0.308334 0.796078
0.003922 0.319608 0.800490
0.029902 0.335294 0.806863
0.192647 0.355392 0.820098
0.448529 0.386274 0.833334
0.681372 0.423039 0.848039
0.831863 0.469118 0.850490
0.937255 0.517157 0.831373
0.000000 0.467647 0.808333
0.000000 0.470098 0.808333
0.000000 0.478431 0.815196
0.000000 0.489706 0.822549
0.124019 0.507353 0.833824
0.453922 0.530882 0.849020
0.688236 0.557843 0.863725
0.832353 0.585784 0.867647
0.936765 0.622549 0.861765
0.000000 0.615687 0.824019
0.000000 0.616177 0.824019
0.000000 0.623529 0.827941
0.000000 0.631863 0.837745
0.083333 0.647058 0.849510
0.475980 0.666667 0.867157
0.696569 0.686275 0.879412
0.836274 0.708333 0.884804
0.933333 0.733333 0.879412
0.000000 0.740196 0.839706
0.000000 0.742647 0.843627
0.000000 0.747059 0.847549
0.000000 0.754902 0.857843
0.117647 0.763725 0.868628
0.519118 0.779412 0.886765
0.712255 0.794118 0.895589
0.843627 0.809314 0.902451
0.933333 0.825000 0.898529
0.000000 0.840686 0.863235
0.000000 0.841177 0.864216
0.000000 0.845098 0.871078
0.000000 0.851961 0.878921
0.305883 0.861765 0.892157
0.577451 0.871568 0.906372
0.739216 0.880392 0.914215
0.855392 0.891176 0.919118
0.933333 0.902941 0.915196
0.000000 0.922059 0.886765
0.000000 0.925980 0.886765
0.000000 0.925980 0.893628
0.168628 0.933823 0.902451
0.469118 0.938235 0.914215
0.646078 0.945588 0.922549
0.773529 0.953431 0.930392
0.871078 0.957353 0.934313
0.941176 0.965196 0.933823
0.229412 0.972549 0.914215
0.288235 0.972549 0.918137
0.393137 0.976471 0.922059
0.514216 0.980392 0.927941
0.630882 0.984314 0.933823
0.734804 0.988235 0.941666
0.824510 0.989215 0.949020
0.898039 0.992157 0.949510
0.992157 0.996078 0.945588
0.000000 0.105882 0.831373
0.000000 0.113725 0.831373
0.000000 0.120589 0.839216
0.033824 0.131863 0.849510
0.190196 0.147059 0.862745
0.409804 0.168627 0.878431
0.652941 0.197059 0.898039
0.808823 0.231863 0.901961
0.921569 0.294118 0.898039
0.000000 0.206863 0.854412
0.000000 0.211275 0.854902
0.000000 0.222058 0.862255
0.025980 0.238726 0.870098
0.150981 0.265687 0.882353
0.394118 0.300981 0.898039
0.650000 0.337744 0.917157
0.812745 0.380393 0.925000
0.921569 0.442647 0.917647
0.000000 0.335294 0.866667
0.000000 0.339215 0.866667
0.000000 0.350980 0.873530
0.000000 0.362255 0.880882
0.076470 0.388235 0.894118
0.379902 0.421568 0.909804
0.646078 0.461765 0.926470
0.812745 0.504412 0.937255
0.921569 0.548039 0.936274
0.000000 0.495098 0.874510
0.000000 0.495098 0.878431
0.000000 0.502941 0.882353
0.000000 0.514706 0.890196
0.000000 0.534314 0.903921
0.368137 0.557843 0.921569
0.650000 0.585294 0.938235
0.812745 0.616667 0.949020
0.921569 0.649510 0.949020
0.000000 0.635294 0.886275
0.000000 0.639215 0.888236
0.000000 0.643138 0.892157
0.000000 0.655392 0.900490
0.000000 0.666667 0.913725
0.377451 0.686275 0.930882
0.653921 0.709804 0.949020
0.812745 0.727941 0.957353
0.921569 0.754902 0.960784
0.000000 0.755882 0.898039
0.000000 0.758333 0.898039
0.000000 0.762255 0.901961
0.000000 0.770098 0.911274
0.000000 0.779412 0.925490
0.420588 0.795098 0.942647
0.669608 0.810784 0.957843
0.821569 0.825000 0.968627
0.917647 0.844608 0.972549
0.000000 0.851961 0.906862
0.000000 0.851961 0.909804
0.000000 0.855882 0.916667
0.000000 0.860785 0.925490
0.023529 0.871568 0.937255
0.489216 0.883333 0.954412
0.697059 0.895098 0.968627
0.832844 0.903432 0.976471
0.921569 0.918627 0.980392
0.000000 0.929902 0.921569
0.000000 0.929902 0.921569
0.000000 0.936274 0.925490
0.000000 0.937745 0.935784
0.292156 0.945588 0.949020
0.568628 0.953431 0.962255
0.731863 0.961274 0.972549
0.851470 0.968627 0.980392
0.929412 0.976471 0.984804
0.000000 0.972549 0.945098
0.000000 0.972549 0.945098
0.000000 0.976471 0.949020
0.315686 0.980392 0.959314
0.523529 0.984314 0.968627
0.672059 0.988235 0.976471
0.789215 0.992157 0.984314
0.878921 0.996078 0.992157
1.000000 1.000000 1.000000
