Color/Kodak/Kodak Portra 160 1 - 65x.cube
TITLE "Kodak Portra 160 1 -"
LUT_3D_SIZE 65
DOMAIN_MIN 0.000000 0.000000 0.000000
DOMAIN_MAX 1.000000 1.000000 1.000000
0.000000 0.000000 0.000000
0.003922 0.000000 0.000000
0.009681 0.000000 0.000000
0.014522 0.000000 0.000000
0.019363 0.000000 0.000000
0.028125 0.000000 0.000000
0.042402 0.003922 0.000000
0.053493 0.000000 0.000000
0.069608 0.003432 0.000000
0.083211 0.003922 0.000000
0.100735 0.003922 0.000000
0.118260 0.003922 0.000000
0.138970 0.007108 0.000000
0.161152 0.003922 0.000000
0.182598 0.002819 0.000000
0.208088 0.000000 0.000000
0.232353 0.000000 0.000000
0.258579 0.000000 0.000000
0.284069 0.000000 0.000000
0.309069 0.000000 0.000000
0.337500 0.000000 0.000000
0.360171 0.000000 0.000000
0.390073 0.000000 0.000000
0.416360 0.000000 0.000000
0.438725 0.000000 0.000000
0.465013 0.000000 0.000000
0.490931 0.000000 0.000000
0.512377 0.000000 0.000000
0.535539 0.000000 0.000000
0.558394 0.000000 0.000000
0.576839 0.000000 0.000000
0.598162 0.000000 0.000000
0.619607 0.000000 0.000000
0.637133 0.000000 0.000000
0.650857 0.000000 0.000000
0.668260 0.000000 0.000000
0.685784 0.000000 0.000000
0.700674 0.000000 0.000000
0.720834 0.000000 0.000000
0.730515 0.000000 0.000000
0.746569 0.000000 0.000000
0.759252 0.000000 0.000000
0.771936 0.000000 0.000000
0.784927 0.000000 0.000000
0.797304 0.000000 0.000000
0.808211 0.000000 0.000000
0.818750 0.000000 0.000000
0.831373 0.000000 0.000000
0.837255 0.000000 0.000000
0.848958 0.000000 0.000000
0.860539 0.000000 0.000000
0.870404 0.000000 0.000000
0.879902 0.000000 0.000000
0.891851 0.000000 0.000000
0.903186 0.000000 0.000000
0.913296 0.022242 0.000000
0.922059 0.044117 0.000000
0.934742 0.065564 0.000000
0.945833 0.083088 0.000000
0.955515 0.100613 0.000000
0.968627 0.113970 0.000000
0.977635 0.126654 0.000000
0.990319 0.139338 0.000000
0.999081 0.155025 0.000000
1.000000 0.172549 0.000000
0.000000 0.003922 0.000000
0.003922 0.007843 0.000000
0.007843 0.004841 0.000000
0.011765 0.004841 0.000000
0.022366 0.007843 0.000000
0.031802 0.007843 0.000000
0.046323 0.009436 0.000000
0.056005 0.007354 0.000000
0.070098 0.008762 0.000000
0.084130 0.012684 0.000000
0.102083 0.012684 0.000000
0.119178 0.014951 0.000000
0.142892 0.016605 0.000000
0.161335 0.011949 0.000000
0.184804 0.009865 0.000000
0.208885 0.007659 0.000000
0.233272 0.004841 0.000000
0.262561 -0.002022 0.000000
0.285784 0.000000 0.000000
0.311213 0.000000 0.000000
0.340196 0.000000 0.000000
0.361090 0.000000 0.000000
0.393995 0.000000 0.000000
0.415748 0.000000 0.000000
0.441115 0.000000 0.000000
0.465564 0.000000 0.000000
0.491299 0.000000 0.000000
0.513297 0.000000 0.000000
0.537745 0.000000 0.000000
0.556189 0.000000 0.000000
0.580637 0.000000 0.000000
0.602206 0.000000 0.000000
0.619607 0.000000 0.000000
0.637133 0.000000 0.000000
0.651654 0.000000 0.000000
0.668260 0.000000 0.000000
0.685784 0.000000 0.000000
0.697672 0.000000 0.000000
0.717831 0.000000 0.000000
0.733885 0.000000 0.000000
0.748591 0.000000 0.000000
0.759252 0.000000 0.000000
0.775245 0.000000 0.000000
0.784620 0.000000 0.000000
0.797304 0.000000 0.000000
0.806066 0.000000 0.000000
0.818750 0.000000 0.000000
0.827574 0.000000 0.000000
0.840196 0.000000 0.000000
0.851960 0.000000 0.000000
0.855821 0.000000 0.000000
0.874142 0.000000 0.000000
0.879166 0.000000 0.000000
0.891851 0.003309 0.000000
0.898958 0.015747 0.000000
0.915870 0.046262 0.000000
0.922059 0.061643 0.000000
0.935233 0.078248 0.000000
0.943505 0.095772 0.000000
0.958517 0.109375 0.000000
0.964277 0.122733 0.000000
0.977635 0.135661 0.000000
0.987317 0.145097 0.000000
1.002084 0.162868 0.000000
1.000000 0.176471 0.000000
0.001838 0.009681 0.001838
0.000919 0.009681 0.000000
0.005760 0.009681 0.001838
0.009681 0.009681 0.000000
0.019363 0.015441 0.000000
0.032047 0.016850 0.000000
0.046568 0.013603 0.000000
0.057415 0.013603 0.000000
0.073530 0.020955 0.000000
0.087133 0.021446 0.000000
0.104657 0.021446 0.000000
0.124449 0.023713 0.000000
0.139705 0.021446 0.000000
0.165074 0.025183 0.000000
0.185539 0.022181 0.000000
0.209804 0.017341 0.000000
0.235172 0.014583 0.000000
0.262561 0.009743 0.000000
0.285784 0.003676 0.000000
0.313051 0.000000 0.000000
0.341421 0.000000 0.000000
0.367708 0.000000 0.000000
0.395221 0.000000 0.000000
0.420588 0.000000 0.000000
0.444485 0.000000 0.000000
0.471017 0.000000 0.000000
0.491299 0.000000 0.000000
0.518137 0.000000 0.000000
0.535662 0.000000 0.000000
0.559191 0.000000 0.000000
0.578921 0.000000 0.000000
0.602083 0.000000 0.000000
0.617524 0.000000 0.000000
0.635049 0.000000 0.000000
0.654657 0.000000 0.000000
0.671385 0.000000 0.000000
0.685784 0.000000 0.000000
0.703309 0.000000 0.000000
0.716912 0.000000 0.000000
0.735723 0.000000 0.000000
0.746569 0.000000 0.000000
0.761642 0.000000 0.000000
0.771936 0.000000 0.000000
0.784620 0.000000 0.000000
0.797304 0.000000 0.000000
0.806066 0.000000 0.000000
0.813603 0.000000 0.000000
0.829350 0.000000 0.000000
0.840196 0.000000 0.000000
0.850858 0.000000 0.000000
0.860539 0.000000 0.000000
0.870404 0.000000 0.000000
0.881005 0.003676 0.000000
0.891851 0.016667 0.000000
0.903186 0.038848 0.000000
0.913296 0.057721 0.000000
0.920711 0.073407 0.000000
0.932231 0.088848 0.000000
0.945343 0.104044 0.000000
0.955515 0.118138 0.000000
0.963358 0.127819 0.000000
0.976961 0.141422 0.000000
0.990564 0.152942 0.000000
0.999081 0.167709 0.000000
1.000000 0.182230 0.000000
0.000000 0.014522 0.000000
0.006679 0.018444 0.005760
0.005760 0.013603 0.000000
0.010601 0.018444 0.002758
0.018199 0.018444 0.000000
0.026042 0.019117 0.000000
0.039645 0.022365 0.000000
0.055760 0.022120 0.000000
0.073530 0.026287 0.000000
0.089890 0.026716 0.000000
0.104657 0.028799 0.000000
0.121691 0.029718 0.000000
0.143627 0.029780 0.000000
0.167831 0.032966 0.000000
0.187623 0.030209 0.000000
0.213909 0.028309 0.000000
0.239032 0.026287 0.000000
0.266483 0.022365 0.000000
0.291606 0.016422 0.000000
0.320037 0.011581 0.000000
0.344118 0.002758 0.000000
0.371630 0.000000 0.000000
0.394608 0.000000 0.000000
0.420282 0.000000 0.000000
0.446568 0.000000 0.000000
0.472856 0.000000 0.000000
0.495221 0.000000 0.000000
0.517586 0.000000 0.000000
0.537193 0.000000 0.000000
0.562316 0.000000 0.000000
0.580637 0.000000 0.000000
0.599203 0.000000 0.000000
0.619607 0.000000 0.000000
0.637133 0.000000 0.000000
0.654657 0.000000 0.000000
0.668260 0.000000 0.000000
0.685784 0.000000 0.000000
0.703309 0.000000 0.000000
0.720834 0.000000 0.000000
0.730515 0.000000 0.000000
0.748039 0.000000 0.000000
0.758885 0.000000 0.000000
0.772488 0.000000 0.000000
0.787378 0.000000 0.000000
0.796140 0.000000 0.000000
0.808824 0.000000 0.000000
0.817586 0.000000 0.000000
0.828677 0.000000 0.000000
0.839216 0.000000 0.000000
0.848958 0.000000 0.000000
0.857721 0.000000 0.000000
0.874142 0.003738 0.000000
0.883088 0.015564 0.000000
0.891851 0.035110 0.000000
0.903186 0.056372 0.000000
0.909375 0.071324 0.000000
0.923223 0.086091 0.000000
0.933579 0.101042 0.000000
0.943076 0.110539 0.000000
0.952941 0.123162 0.000000
0.967709 0.139093 0.000000
0.973284 0.144669 0.000000
0.989155 0.160539 0.000000
0.999081 0.171630 0.000000
1.000000 0.187071 0.000000
0.000000 0.019608 0.000000
0.003922 0.023284 0.003003
0.007843 0.023284 0.000245
0.012684 0.023284 0.000000
0.015441 0.023284 0.000000
0.024203 0.027206 0.000000
0.037133 0.029044 0.000000
0.053493 0.033639 0.000000
0.073039 0.038481 0.000000
0.087133 0.038971 0.000000
0.108578 0.042647 0.000000
0.126103 0.041237 0.000000
0.150490 0.046569 0.000000
0.172671 0.042892 0.000000
0.191544 0.045466 0.000000
0.217831 0.040992 0.000000
0.243873 0.039706 0.000000
0.270343 0.034865 0.000000
0.295834 0.033947 0.000000
0.317157 0.026961 0.000000
0.345343 0.020343 0.000000
0.371630 0.011581 0.000000
0.397916 0.000000 0.000000
0.423959 0.000000 0.000000
0.446568 0.000000 0.000000
0.473162 0.000000 0.000000
0.498774 0.000000 0.000000
0.520220 0.000000 0.000000
0.541667 0.000000 0.000000
0.562316 0.000000 0.000000
0.584314 0.000000 0.000000
0.602083 0.000000 0.000000
0.619607 0.000000 0.000000
0.638174 0.000000 0.000000
0.654657 0.000000 0.000000
0.668260 0.000000 0.000000
0.689706 0.000000 0.000000
0.704595 0.000000 0.000000
0.720834 0.000000 0.000000
0.733885 0.000000 0.000000
0.746569 0.000000 0.000000
0.762929 0.000000 0.000000
0.771936 0.000000 0.000000
0.781005 0.000000 0.000000
0.797304 0.000000 0.000000
0.806066 0.000000 0.000000
0.817892 0.000000 0.000000
0.831373 0.000000 0.000000
0.837255 0.000000 0.000000
0.848958 0.000000 0.000000
0.856863 0.007353 0.000000
0.870404 0.022426 0.000000
0.879902 0.043627 0.000000
0.888174 0.057721 0.000000
0.899510 0.072672 0.000000
0.909191 0.085172 0.000000
0.925736 0.101961 0.000000
0.928554 0.110967 0.000000
0.943505 0.122058 0.000000
0.951838 0.131985 0.000000
0.964951 0.145098 0.000000
0.977389 0.153861 0.000000
0.990074 0.166544 0.000000
0.999081 0.178309 0.000000
1.000000 0.195588 0.000000
0.000000 0.029473 0.000674
0.004841 0.032721 0.003922
0.007843 0.033885 0.000000
0.011274 0.032721 0.002758
0.016116 0.032721 0.000000
0.024877 0.036642 0.000000
0.033640 0.036642 0.000000
0.050674 0.043076 0.000000
0.065687 0.051165 0.000000
0.083640 0.052328 0.000000
0.105331 0.053676 0.000000
0.132292 0.054657 0.000000
0.155330 0.062685 0.000000
0.174449 0.056924 0.000000
0.196814 0.057353 0.000000
0.224326 0.058150 0.000000
0.248714 0.059192 0.000000
0.278186 0.056250 0.000000
0.297366 0.052328 0.000000
0.323652 0.047304 0.000000
0.349939 0.041238 0.000000
0.376226 0.030760 0.000000
0.401838 0.028860 0.000000
0.428125 0.020098 0.000000
0.451164 0.009559 0.000000
0.476777 0.002574 0.000000
0.499448 0.000000 0.000000
0.521507 0.000000 0.000000
0.543873 0.000000 0.000000
0.563787 0.000000 0.000000
0.584559 0.000000 0.000000
0.602757 0.000000 0.000000
0.623529 0.000000 0.000000
0.637807 0.000000 0.000000
0.654657 0.000000 0.000000
0.669731 0.000000 0.000000
0.691422 0.000000 0.000000
0.707231 0.000000 0.000000
0.720834 0.000000 0.000000
0.731189 0.000000 0.000000
0.743995 0.000000 0.000000
0.759927 0.000000 0.000000
0.769301 0.000000 0.000000
0.781679 0.000000 0.000000
0.797304 0.000000 0.000000
0.802818 0.000000 0.000000
0.815503 0.000000 0.000000
0.828186 0.002696 0.000000
0.840196 0.004350 0.000000
0.850858 0.018934 0.000000
0.855576 0.029718 0.000000
0.867156 0.046323 0.000000
0.879105 0.062255 0.000000
0.889584 0.075919 0.000000
0.901286 0.090871 0.000000
0.910048 0.099633 0.000000
0.922733 0.112316 0.000000
0.931495 0.121078 0.000000
0.942586 0.135417 0.000000
0.952942 0.139277 0.000000
0.962377 0.151961 0.000000
0.971139 0.160049 0.000000
0.987071 0.172733 0.000000
0.995834 0.181496 0.000000
1.000000 0.191605 0.000000
0.002329 0.044730 0.002329
0.003248 0.044730 -0.000674
0.007843 0.044485 0.002084
0.014522 0.046323 0.002758
0.019363 0.048652 0.002329
0.029044 0.048652 0.003248
0.034559 0.050245 0.000000
0.043321 0.050245 0.000000
0.064093 0.062255 0.000000
0.083211 0.065931 0.000000
0.104412 0.069608 0.000000
0.126777 0.074448 0.000000
0.156986 0.076103 0.000000
0.184682 0.076103 0.000000
0.207721 0.078186 0.000000
0.229166 0.077696 0.000000
0.254535 0.074755 0.000000
0.282169 0.079964 0.000000
0.306127 0.071446 0.000000
0.330821 0.069669 0.000000
0.354779 0.065931 0.000000
0.381066 0.063603 0.000000
0.407353 0.060049 0.000000
0.430515 0.050306 0.000000
0.454412 0.041544 0.000000
0.477328 0.032783 0.000000
0.504290 0.026838 0.000000
0.525735 0.016851 0.000000
0.545588 0.008088 0.000000
0.564706 0.004780 0.000000
0.584559 0.000000 0.000000
0.606005 0.000000 0.000000
0.623530 0.000000 0.000000
0.643934 0.000000 0.000000
0.658579 0.000000 0.000000
0.673774 0.000000 0.000000
0.693750 0.000000 0.000000
0.707231 0.000000 0.000000
0.718873 0.000000 0.000000
0.736029 0.000000 0.000000
0.747917 0.000000 0.000000
0.763174 0.000000 0.000000
0.775245 0.000000 0.000000
0.783333 0.001593 0.000000
0.797304 0.006372 0.000000
0.810539 0.008517 0.000000
0.821813 0.018873 0.000000
0.831434 0.030024 0.000000
0.840196 0.044240 0.000000
0.850552 0.055331 0.000000
0.861642 0.071568 0.000000
0.870404 0.075184 0.000000
0.879902 0.087010 0.000000
0.891851 0.098958 0.000000
0.902205 0.109314 0.000000
0.915196 0.122303 0.000000
0.925980 0.131495 0.000000
0.934742 0.140257 0.000000
0.943505 0.148284 0.000000
0.957843 0.161029 0.000000
0.966544 0.168138 0.000000
0.977635 0.175306 0.000000
0.987990 0.185662 0.000000
0.999081 0.197427 0.000000
1.000000 0.209436 0.000000
0.000000 0.056005 0.002513
0.004841 0.059926 0.000919
0.009681 0.057415 0.001838
0.014277 0.059926 0.003922
0.021874 0.059926 0.003677
0.029964 0.063174 0.000000
0.037807 0.063848 0.000000
0.044240 0.063848 0.000000
0.058334 0.067769 0.000000
0.076776 0.077022 0.000000
0.098223 0.082292 0.000000
0.124449 0.087132 0.000000
0.148223 0.091974 0.000000
0.174694 0.088971 0.000000
0.210049 0.095220 0.000000
0.235417 0.095220 0.000000
0.255454 0.092280 0.000000
0.280821 0.089952 0.000000
0.305392 0.091299 0.000000
0.334743 0.091299 0.000000
0.359620 0.087194 0.000000
0.382292 0.082353 0.000000
0.409681 0.079534 0.000000
0.434559 0.076593 0.000000
0.458394 0.070282 0.000000
0.483211 0.065502 0.000000
0.509129 0.066728 0.000000
0.525429 0.054412 0.000000
0.549510 0.049571 0.000000
0.567034 0.036274 0.000000
0.588480 0.032047 0.000000
0.606005 0.025797 0.000000
0.622978 0.020404 0.000000
0.643934 0.016483 0.000000
0.661090 0.012561 0.000000
0.674387 0.010049 0.000000
0.694424 0.010049 0.000000
0.708640 0.010049 0.000000
0.724755 0.012561 0.000000
0.740319 0.015073 0.000000
0.749449 0.015441 0.000000
0.763174 0.022794 0.000000
0.776655 0.031557 0.000000
0.788541 0.036397 0.000000
0.797304 0.039951 0.000000
0.807475 0.050000 0.000000
0.818750 0.058762 0.000000
0.833885 0.068873 0.000000
0.840196 0.075184 0.000000
0.850858 0.083946 0.000000
0.857415 0.089890 0.000000
0.870404 0.101470 0.000000
0.884866 0.113419 0.000000
0.891851 0.115625 0.000000
0.900613 0.125245 0.000000
0.913296 0.137929 0.000000
0.923468 0.144179 0.000000
0.934742 0.154044 0.000000
0.943505 0.160110 0.000000
0.956189 0.170466 0.000000
0.967464 0.181495 0.000000
0.974877 0.186581 0.000000
0.990319 0.196753 0.000000
0.999081 0.205515 0.000000
1.000000 0.220710 0.000000
0.000000 0.070098 0.000000
0.007843 0.070098 0.003003
0.006250 0.070098 0.000000
0.014522 0.068934 0.000000
0.019363 0.070098 0.000000
0.024693 0.074020 0.000000
0.038726 0.077451 0.000000
0.045650 0.076531 0.000000
0.054412 0.077941 0.000000
0.068015 0.082292 0.000000
0.090808 0.091055 0.000000
0.116606 0.099326 0.000000
0.143627 0.105637 0.000000
0.169853 0.109007 0.000000
0.197058 0.112745 0.000000
0.233517 0.118076 0.000000
0.259313 0.112745 0.000000
0.289522 0.112745 0.000000
0.312378 0.112745 0.000000
0.342096 0.112745 0.000000
0.364460 0.112255 0.000000
0.391238 0.108824 0.000000
0.410294 0.101593 0.000000
0.441789 0.102880 0.000000
0.463236 0.098039 0.000000
0.485172 0.097120 0.000000
0.506985 0.092280 0.000000
0.529350 0.087439 0.000000
0.549510 0.082108 0.000000
0.570956 0.077267 0.000000
0.588603 0.072549 0.000000
0.612316 0.071017 0.000000
0.625490 0.062745 0.000000
0.645527 0.061336 0.000000
0.662500 0.056496 0.000000
0.682659 0.056373 0.000000
0.693627 0.056373 0.000000
0.710662 0.055086 0.000000
0.724755 0.060417 0.000000
0.737806 0.060294 0.000000
0.749510 0.065686 0.000000
0.763174 0.066238 0.000000
0.775858 0.071936 0.000000
0.788052 0.072856 0.000000
0.800735 0.078187 0.000000
0.808211 0.083027 0.000000
0.818750 0.092157 0.000000
0.827574 0.096631 0.000000
0.840196 0.101470 0.000000
0.848958 0.106801 0.000000
0.860539 0.114461 0.000000
0.870404 0.124326 0.000000
0.876470 0.129167 0.000000
0.891851 0.134498 0.000000
0.903186 0.146692 0.000000
0.913296 0.152022 0.000000
0.922059 0.160294 0.000000
0.934742 0.165624 0.000000
0.942402 0.174387 0.000000
0.952267 0.182660 0.000000
0.964951 0.187991 0.000000
0.974877 0.196753 0.000000
0.988481 0.205514 0.000000
0.999081 0.213848 0.000000
1.000000 0.226961 0.000000
0.000000 0.087133 0.000000
0.004412 0.087133 0.000000
0.005760 0.087133 0.000000
0.007843 0.084375 0.000000
0.015686 0.087133 0.000000
0.023529 0.090380 0.000000
0.034130 0.092218 0.000000
0.041728 0.091054 0.000000
0.054412 0.091544 0.000000
0.071017 0.098468 0.000000
0.085049 0.100245 0.000000
0.107904 0.112071 0.000000
0.137806 0.117769 0.000000
0.161090 0.122365 0.000000
0.192218 0.126777 0.000000
0.223345 0.135784 0.000000
0.251961 0.134191 0.000000
0.286030 0.134620 0.000000
0.316299 0.134620 0.000000
0.345159 0.134620 0.000000
0.369301 0.134191 0.000000
0.395159 0.134191 0.000000
0.417953 0.130086 0.000000
0.442709 0.126777 0.000000
0.470098 0.126777 0.000000
0.485600 0.122856 0.000000
0.514461 0.118505 0.000000
0.533272 0.115012 0.000000
0.555637 0.113296 0.000000
0.574878 0.111091 0.000000
0.592402 0.107046 0.000000
0.609926 0.102206 0.000000
0.627451 0.099326 0.000000
0.648897 0.096875 0.000000
0.662929 0.095834 0.000000
0.680024 0.095405 0.000000
0.697549 0.097121 0.000000
0.711152 0.093199 0.000000
0.724755 0.098959 0.000000
0.737806 0.095834 0.000000
0.751961 0.100796 0.000000
0.763174 0.105208 0.000000
0.778738 0.106557 0.000000
0.784927 0.107598 0.000000
0.798100 0.108394 0.000000
0.806066 0.111091 0.000000
0.821384 0.115012 0.000000
0.827574 0.118627 0.000000
0.840196 0.126777 0.000000
0.850858 0.130699 0.000000
0.858149 0.134620 0.000000
0.873713 0.145771 0.000000
0.879166 0.149878 0.000000
0.888358 0.157108 0.000000
0.900613 0.161642 0.000000
0.909803 0.165993 0.000000
0.922549 0.173836 0.000000
0.934742 0.186152 0.000000
0.943505 0.187500 0.000000
0.955515 0.196263 0.000000
0.964767 0.204596 0.000000
0.977635 0.209865 0.000000
0.991973 0.223775 0.000000
1.001654 0.226961 0.000000
1.000000 0.239645 0.000000
0.000000 0.100735 0.000000
0.000000 0.102083 0.000000
0.004412 0.105147 0.000000
0.003922 0.101899 0.000000
0.011520 0.100735 0.000000
0.022181 0.104657 0.000000
0.031618 0.107230 0.000000
0.042892 0.109742 0.000000
0.051839 0.109926 0.000000
0.066606 0.112929 0.000000
0.085049 0.116421 0.000000
0.100000 0.117769 0.000000
0.125858 0.130024 0.000000
0.156067 0.140135 0.000000
0.183456 0.144975 0.000000
0.218505 0.153738 0.000000
0.246692 0.155637 0.000000
0.280760 0.155637 0.000000
0.311887 0.156495 0.000000
0.345159 0.159559 0.000000
0.375490 0.156985 0.000000
0.399081 0.155637 0.000000
0.426102 0.156372 0.000000
0.446201 0.151716 0.000000
0.470098 0.149142 0.000000
0.492464 0.145220 0.000000
0.515809 0.143872 0.000000
0.535906 0.141299 0.000000
0.554780 0.136519 0.000000
0.578002 0.139154 0.000000
0.593750 0.134681 0.000000
0.610968 0.129534 0.000000
0.633333 0.126961 0.000000
0.648897 0.126961 0.000000
0.663971 0.123162 0.000000
0.684497 0.130086 0.000000
0.695833 0.123039 0.000000
0.709865 0.124326 0.000000
0.727329 0.125613 0.000000
0.738358 0.126165 0.000000
0.751961 0.129534 0.000000
0.763174 0.129534 0.000000
0.773284 0.132843 0.000000
0.784620 0.133456 0.000000
0.797304 0.137377 0.000000
0.808211 0.137377 0.000000
0.817401 0.143015 0.000000
0.826226 0.143933 0.000000
0.838848 0.148775 0.000000
0.848958 0.153615 0.000000
0.860295 0.158456 0.000000
0.866667 0.160907 0.000000
0.881740 0.166789 0.000000
0.892157 0.172978 0.000000
0.900613 0.180393 0.000000
0.912867 0.186581 0.000000
0.922059 0.191421 0.000000
0.930821 0.194853 0.000000
0.942156 0.203676 0.000000
0.952267 0.206618 0.000000
0.963603 0.215931 0.000000
0.973713 0.222120 0.000000
0.986397 0.230882 0.000000
0.997732 0.238297 0.000000
1.000000 0.247059 0.000000
0.000000 0.127757 0.000000
0.000000 0.126103 0.000000
0.000000 0.126532 0.000000
0.000000 0.124939 0.000000
0.005331 0.126103 0.000000
0.014093 0.126103 0.000000
0.027451 0.128431 0.000000
0.038052 0.128615 0.000000
0.055086 0.130024 0.000000
0.067954 0.136213 0.000000
0.085049 0.135294 0.000000
0.104228 0.139522 0.000000
0.120098 0.141789 0.000000
0.151225 0.155392 0.000000
0.178615 0.164154 0.000000
0.209743 0.171263 0.000000
0.241850 0.173162 0.000000
0.275919 0.180944 0.000000
0.306189 0.181005 0.000000
0.338664 0.181495 0.000000
0.369301 0.181005 0.000000
0.402083 0.181005 0.000000
0.427635 0.177083 0.000000
0.452390 0.177819 0.000000
0.473836 0.172978 0.000000
0.495282 0.171508 0.000000
0.520650 0.171140 0.000000
0.539461 0.167586 0.000000
0.559559 0.163603 0.000000
0.577144 0.162009 0.000000
0.600245 0.163542 0.000000
0.620037 0.160968 0.000000
0.635294 0.157782 0.000000
0.652206 0.155208 0.000000
0.670343 0.155821 0.000000
0.683946 0.152696 0.000000
0.702022 0.155821 0.000000
0.712439 0.153187 0.000000
0.727390 0.154166 0.000000
0.738358 0.155821 0.000000
0.754412 0.155821 0.000000
0.765563 0.158211 0.000000
0.775858 0.160784 0.000000
0.788541 0.157782 0.000000
0.800000 0.161397 0.000000
0.809988 0.165441 0.000000
0.818750 0.168382 0.000000
0.831434 0.171508 0.000000
0.838909 0.170221 0.000000
0.848958 0.175061 0.000000
0.861642 0.183823 0.000000
0.870404 0.183272 0.000000
0.880821 0.188848 0.000000
0.891851 0.192769 0.000000
0.902880 0.198959 0.000000
0.913296 0.205760 0.000000
0.922059 0.210723 0.000000
0.934742 0.215442 0.000000
0.945833 0.222549 0.000000
0.957169 0.225796 0.000000
0.967218 0.232230 0.000000
0.977635 0.238725 0.000000
0.988481 0.245833 0.000000
0.999081 0.255331 0.000000
1.000000 0.263358 0.000000
0.000000 0.143627 0.000000
0.000000 0.146814 0.000000
0.000000 0.143627 0.000000
0.000000 0.143627 0.000000
0.000000 0.143627 0.000000
0.005330 0.140380 0.000000
0.015686 0.142035 0.000000
0.029290 0.142954 0.000000
0.050000 0.147549 0.000000
0.067525 0.147977 0.000000
0.086887 0.157231 0.000000
0.099387 0.155392 0.000000
0.120098 0.159313 0.000000
0.138542 0.160233 0.000000
0.169852 0.176838 0.000000
0.200980 0.189951 0.000000
0.233088 0.191422 0.000000
0.267157 0.197794 0.000000
0.300613 0.201716 0.000000
0.329412 0.202451 0.000000
0.360049 0.205637 0.000000
0.391238 0.202022 0.000000
0.422793 0.205024 0.000000
0.457230 0.203371 0.000000
0.479412 0.201716 0.000000
0.500123 0.197794 0.000000
0.518750 0.193872 0.000000
0.543750 0.190686 0.000000
0.564461 0.191667 0.000000
0.581924 0.189951 0.000000
0.600368 0.186153 0.000000
0.618811 0.186029 0.000000
0.639215 0.182843 0.000000
0.657047 0.186336 0.000000
0.670343 0.182108 0.000000
0.687868 0.182108 0.000000
0.701470 0.182108 0.000000
0.716912 0.182660 0.000000
0.729044 0.178554 0.000000
0.744914 0.182108 0.000000
0.754412 0.182108 0.000000
0.765563 0.182108 0.000000
0.775736 0.181986 0.000000
0.788541 0.186029 0.000000
0.795343 0.184069 0.000000
0.809988 0.190993 0.000000
0.818750 0.189951 0.000000
0.831434 0.193872 0.000000
0.840196 0.191667 0.000000
0.850980 0.198529 0.000000
0.860539 0.201348 0.000000
0.870404 0.206188 0.000000
0.879902 0.207108 0.000000
0.889584 0.211949 0.000000
0.901348 0.218137 0.000000
0.909804 0.217831 0.000000
0.925246 0.229167 0.000000
0.932231 0.231311 0.000000
0.941912 0.236152 0.000000
0.952206 0.241666 0.000000
0.964951 0.246324 0.000000
0.977635 0.251410 0.000000
0.991422 0.261274 0.000000
0.999081 0.265013 0.000000
1.000000 0.276960 0.000000
0.000000 0.164890 0.000000
0.000000 0.165074 0.000000
0.000000 0.161335 0.000000
0.000000 0.165074 0.000000
0.000000 0.161335 0.000000
0.000000 0.161826 0.000000
0.010662 0.162745 0.000000
0.026961 0.167586 0.000000
0.045404 0.168505 0.000000
0.063419 0.169424 0.000000
0.081127 0.172917 0.000000
0.098652 0.175184 0.000000
0.113174 0.176839 0.000000
0.137623 0.180760 0.000000
0.163909 0.185784 0.000000
0.184436 0.188603 0.000000
0.223346 0.209988 0.000000
0.258210 0.215992 0.000000
0.289522 0.220159 0.000000
0.324387 0.225673 0.000000
0.355699 0.230515 0.000000
0.383211 0.224080 0.000000
0.417953 0.228002 0.000000
0.447549 0.227819 0.000000
0.474019 0.221813 0.000000
0.507414 0.224080 0.000000
0.526409 0.220159 0.000000
0.545220 0.216421 0.000000
0.565380 0.216237 0.000000
0.583700 0.210171 0.000000
0.608272 0.212500 0.000000
0.624755 0.211459 0.000000
0.643138 0.212316 0.000000
0.660662 0.215012 0.000000
0.674265 0.208394 0.000000
0.687255 0.208394 0.000000
0.703676 0.206679 0.000000
0.718996 0.208394 0.000000
0.729044 0.208211 0.000000
