Color/Kodak/Kodak Portra 800 1 - 65x.cube
TITLE "Kodak Portra 800 1 -"
LUT_3D_SIZE 5
DOMAIN_MIN 0.000000 0.000000 0.000000
DOMAIN_MAX 1.000000 1.000000 1.000000
0.000000 0.000000 0.000000
0.249019 0.003922 0.000000
0.631373 0.000000 0.000000
0.943137 0.000000 0.000000
1.000000 0.117647 0.000000
0.000000 0.200981 0.023529
0.191176 0.233333 0.000000
0.618627 0.253922 0.000000
0.925491 0.271569 0.000000
1.000000 0.334314 0.000000
0.000000 0.460784 0.080392
0.000000 0.457844 0.072549
0.482353 0.527451 0.000000
0.856863 0.582353 0.000000
1.000000 0.598040 0.000000
0.000000 0.697059 0.162745
0.000000 0.689216 0.158824
0.377451 0.711765 0.103921
0.740196 0.774510 0.000000
1.000000 0.828432 0.000000
0.325490 0.964706 0.447059
0.395098 0.965686 0.448039
0.543137 0.964706 0.452941
0.753922 0.983334 0.395098
0.980392 0.996078 0.176471
0.000000 0.003922 0.251961
0.263726 0.000000 0.259804
0.633333 0.000000 0.232353
0.930392 0.000000 0.233333
1.000000 0.135294 0.200981
0.000000 0.233333 0.236275
0.248039 0.249019 0.245098
0.625490 0.254902 0.245098
0.915686 0.274509 0.224510
1.000000 0.341176 0.187255
0.000000 0.496079 0.277451
0.180392 0.487255 0.258824
0.509804 0.534314 0.217647
0.857843 0.578431 0.192156
1.000000 0.599020 0.160784
0.000000 0.711765 0.291177
0.053921 0.705882 0.285295
0.401961 0.710784 0.260784
0.747059 0.775490 0.183334
1.000000 0.825490 0.034313
0.349020 0.968627 0.501961
0.410784 0.964706 0.501961
0.553922 0.964706 0.504902
0.753922 0.980392 0.464706
0.976471 0.999019 0.316667
0.000000 0.000000 0.572549
0.275490 0.000000 0.581373
0.656863 0.000000 0.605882
0.922549 0.000000 0.568628
1.000000 0.000000 0.535294
0.000000 0.244118 0.557843
0.289216 0.258823 0.573529
0.642157 0.251961 0.595098
0.912745 0.214706 0.565686
1.000000 0.276471 0.534313
0.125490 0.531373 0.525490
0.313725 0.540196 0.535294
0.572549 0.554902 0.545098
0.863726 0.576470 0.550000
1.000000 0.605882 0.547059
0.319608 0.750981 0.563725
0.397059 0.750000 0.563725
0.486274 0.735294 0.510784
0.766667 0.782353 0.502941
1.000000 0.821569 0.514706
0.427451 0.970588 0.647058
0.453921 0.969607 0.637255
0.574510 0.968627 0.629412
0.754902 0.977451 0.617647
0.976471 0.996078 0.550980
0.178432 0.000000 0.840196
0.378431 0.000000 0.844118
0.670589 0.000000 0.850980
0.927451 0.000000 0.860785
1.000000 0.000000 0.837255
0.206863 0.265686 0.829412
0.383333 0.264706 0.832353
0.663726 0.276470 0.846078
0.917647 0.294117 0.855882
1.000000 0.289216 0.832353
0.000000 0.524510 0.788235
0.257843 0.529411 0.798039
0.600000 0.552941 0.814706
0.873529 0.586275 0.838235
1.000000 0.585294 0.824510
0.313726 0.775490 0.779412
0.408824 0.782353 0.782353
0.593137 0.784314 0.787255
0.812745 0.801961 0.804902
1.000000 0.829412 0.821569
0.597059 0.976471 0.848039
0.626470 0.974510 0.850000
0.703921 0.976471 0.845098
0.781373 0.977451 0.809804
0.980392 1.000000 0.804902
0.478431 0.172549 1.000000
0.556863 0.169608 1.000000
0.731372 0.184314 1.000000
0.926471 0.244118 1.000000
1.000000 0.298039 1.000000
0.477451 0.339215 1.000000
0.551961 0.339215 1.000000
0.719608 0.350980 1.000000
0.915686 0.394118 1.000000
1.000000 0.432353 1.000000
0.396079 0.570588 1.000000
0.493138 0.576470 1.000000
0.684314 0.588236 1.000000
0.886275 0.614706 1.000000
1.000000 0.647058 1.000000
0.321569 0.798039 0.996078
0.398039 0.797059 0.996078
0.568627 0.786275 1.000000
0.841177 0.810784 1.000000
1.000000 0.849020 1.000000
0.631373 0.988235 0.992157
0.661765 0.988235 0.992157
0.745098 0.988235 0.992157
0.867647 0.989216 0.993137
1.000000 1.000000 1.000000
