Color/Kodak/Kodak Portra 160 VC 1 - 65x.cube
TITLE "Kodak Portra 160 VC 1 -"
LUT_3D_SIZE 5
DOMAIN_MIN 0.000000 0.000000 0.000000
DOMAIN_MAX 1.000000 1.000000 1.000000
0.000000 0.000000 0.000000
0.185294 0.027451 0.000000
0.576470 0.000000 0.000000
0.876471 0.029412 0.000000
1.000000 0.223529 0.000000
0.000000 0.199020 0.022549
0.162745 0.225490 0.000000
0.595098 0.236275 0.000000
0.866666 0.255883 0.000000
1.000000 0.325490 0.000000
0.000000 0.519608 0.219608
0.126471 0.519608 0.233333
0.498039 0.550980 0.096078
0.830392 0.539216 0.000000
1.000000 0.515686 0.000000
0.233333 0.755882 0.403922
0.320588 0.749020 0.410784
0.489216 0.758824 0.391176
0.740196 0.778432 0.293137
1.000000 0.791176 0.142157
0.635294 0.956863 0.709804
0.655883 0.956863 0.714706
0.719608 0.956863 0.729412
0.808823 0.972549 0.704902
0.956863 0.992157 0.650980
0.000000 0.006863 0.240196
0.204902 0.006863 0.225490
0.581372 0.000000 0.196078
0.856863 0.181372 0.260784
1.000000 0.296078 0.263726
0.000000 0.247058 0.254902
0.227451 0.251961 0.263726
0.598040 0.278431 0.264706
0.854902 0.304902 0.248039
1.000000 0.376470 0.253922
0.184314 0.545098 0.366667
0.283334 0.539216 0.362745
0.525490 0.556863 0.310785
0.828431 0.532353 0.211765
1.000000 0.533334 0.191176
0.336275 0.762745 0.481372
0.399020 0.760784 0.489216
0.526471 0.759804 0.481373
0.750981 0.780392 0.400980
1.000000 0.790196 0.301961
0.650980 0.957843 0.732353
0.670588 0.956863 0.733333
0.732353 0.956863 0.750000
0.813725 0.969607 0.729412
0.959804 0.991177 0.682353
0.000000 0.121568 0.592156
0.291177 0.161765 0.588236
0.627451 0.229412 0.576470
0.843137 0.121568 0.489216
1.000000 0.245098 0.474510
0.000000 0.367647 0.600000
0.323530 0.359804 0.605882
0.625490 0.385294 0.584314
0.842157 0.318628 0.507843
1.000000 0.386274 0.504902
0.156863 0.586275 0.576470
0.345098 0.588236 0.582353
0.584313 0.568628 0.572549
0.824510 0.576470 0.556863
1.000000 0.600000 0.550980
0.496078 0.782353 0.652941
0.550000 0.781373 0.660784
0.619608 0.772549 0.650000
0.774510 0.786275 0.611765
1.000000 0.781373 0.529412
0.692157 0.962745 0.792157
0.700000 0.964706 0.787255
0.754902 0.962745 0.796078
0.834314 0.969607 0.798039
0.964706 0.990196 0.758823
0.225490 0.334313 0.844118
0.417647 0.356863 0.840196
0.677451 0.424509 0.828432
0.868628 0.476471 0.816667
1.000000 0.433334 0.762745
0.291177 0.459804 0.840196
0.444118 0.473529 0.836274
0.683334 0.524510 0.829412
0.862745 0.559804 0.815686
1.000000 0.508824 0.768627
0.291177 0.657843 0.816667
0.442157 0.658824 0.820588
0.655882 0.657843 0.820588
0.845098 0.687255 0.817647
1.000000 0.635294 0.771568
0.470589 0.810784 0.809804
0.530392 0.813726 0.813726
0.658824 0.806863 0.810784
0.816667 0.797058 0.808823
1.000000 0.805883 0.801961
0.721569 0.976471 0.878431
0.743137 0.974510 0.879412
0.804902 0.973529 0.884314
0.871568 0.976471 0.887255
0.980392 0.996078 0.870588
0.576471 0.596078 0.992157
0.635294 0.611765 0.989216
0.770588 0.652941 0.988235
0.914706 0.713726 0.976471
1.000000 0.737255 0.972549
0.599019 0.653922 0.992157
0.653922 0.665687 0.988235
0.777451 0.693137 0.984314
0.914705 0.741177 0.979412
1.000000 0.763726 0.975490
0.641177 0.770588 0.988235
0.668627 0.764706 0.988235
0.770588 0.766666 0.988235
0.910784 0.801961 0.980392
1.000000 0.821568 0.980392
0.601961 0.879412 0.988235
0.635295 0.881373 0.988235
0.723529 0.877451 0.992157
0.887255 0.876471 0.988235
1.000000 0.906862 0.985294
0.721569 1.000000 0.988235
0.744117 1.000000 0.992157
0.803922 0.998039 0.992157
0.895098 0.996078 0.993137
1.000000 1.000000 1.000000
