Color/Kodak/Kodak Ektachrome 100 VS Generic 65x.cube
TITLE "Kodak Ektachrome 100 VS Generic"
LUT_3D_SIZE 5
DOMAIN_MIN 0.000000 0.000000 0.000000
DOMAIN_MAX 1.000000 1.000000 1.000000
0.000000 0.000000 0.000000
0.225490 0.000000 0.000000
0.598040 0.000000 0.000000
1.000000 0.000000 0.000000
1.000000 0.000000 0.000000
0.053921 0.178431 0.022549
0.190196 0.171568 0.019608
0.576470 0.154902 0.011765
0.978432 0.135294 0.003922
1.000000 0.127451 0.003922
0.000000 0.503922 0.078431
0.024510 0.498039 0.076470
0.543138 0.484314 0.070588
0.923530 0.468628 0.060785
1.000000 0.460784 0.056863
0.000000 0.816667 0.061765
0.000000 0.812745 0.061765
0.476471 0.801961 0.062745
0.845098 0.790196 0.061765
1.000000 0.782353 0.062745
0.000000 1.000000 0.098039
0.000000 1.000000 0.094118
0.466666 1.000000 0.086275
0.786275 1.000000 0.073529
1.000000 1.000000 0.058824
0.000000 0.000000 0.154902
0.221568 0.000000 0.147059
0.594117 0.000000 0.136274
0.997059 0.000000 0.123529
1.000000 0.000000 0.116667
0.053921 0.178431 0.174510
0.190196 0.171568 0.170588
0.574510 0.154902 0.159804
0.976471 0.135294 0.148040
1.000000 0.127451 0.143137
0.000000 0.503922 0.198039
0.026471 0.498039 0.195098
0.541176 0.484314 0.186274
0.922549 0.468627 0.177451
1.000000 0.460784 0.171569
0.000000 0.816667 0.217647
0.000000 0.812745 0.217647
0.476471 0.801961 0.209804
0.845098 0.790196 0.200981
1.000000 0.782353 0.194117
0.000000 1.000000 0.259804
0.000000 1.000000 0.256863
0.464706 1.000000 0.249019
0.785294 1.000000 0.241176
1.000000 1.000000 0.233333
0.000000 0.000000 0.441176
0.221568 0.000000 0.434314
0.594117 0.000000 0.423530
0.997059 0.000000 0.411764
1.000000 0.000000 0.405883
0.050980 0.178431 0.461765
0.187255 0.170588 0.457843
0.574510 0.154902 0.449020
0.974510 0.135294 0.437255
1.000000 0.124510 0.431373
0.000000 0.503922 0.494117
0.026471 0.498039 0.492157
0.539215 0.484314 0.482353
0.921569 0.468627 0.472549
1.000000 0.460784 0.468627
0.000000 0.813726 0.525490
0.000000 0.810784 0.523529
0.476471 0.801961 0.517648
0.844118 0.790196 0.509804
1.000000 0.782353 0.505883
0.000000 1.000000 0.556863
0.000000 1.000000 0.554902
0.462746 1.000000 0.549019
0.782353 1.000000 0.543138
1.000000 1.000000 0.537254
0.000000 0.000000 0.726471
0.221568 0.000000 0.719608
0.592157 0.000000 0.710784
0.997059 0.000000 0.699019
1.000000 0.000000 0.692157
0.050000 0.178431 0.745098
0.186274 0.170588 0.742156
0.572549 0.154902 0.731373
0.974510 0.135294 0.721569
1.000000 0.124510 0.715687
0.000000 0.503922 0.774510
0.023529 0.496078 0.770588
0.539215 0.484314 0.762745
0.918627 0.468627 0.754902
1.000000 0.460784 0.750981
0.000000 0.813726 0.801961
0.000000 0.809804 0.798039
0.472549 0.800981 0.793137
0.841177 0.790196 0.786275
1.000000 0.782353 0.782353
0.000000 1.000000 0.821569
0.000000 1.000000 0.820588
0.460784 1.000000 0.815686
0.781373 1.000000 0.809804
1.000000 1.000000 0.804902
0.000000 0.000000 0.921569
0.217647 0.000000 0.913725
0.590196 0.000000 0.905882
0.997059 0.000000 0.894118
1.000000 0.000000 0.886275
0.050000 0.175490 0.937255
0.186274 0.170588 0.936274
0.570588 0.154902 0.925490
0.974510 0.135294 0.913725
1.000000 0.124510 0.909804
0.000000 0.503922 0.968627
0.023529 0.496078 0.964706
0.537254 0.484314 0.956863
0.917647 0.468628 0.949020
1.000000 0.460784 0.945098
0.000000 0.813726 0.996078
0.000000 0.809804 0.993137
0.470588 0.800000 0.988235
0.840196 0.789215 0.980392
1.000000 0.782353 0.976471
0.000000 1.000000 1.000000
0.000000 1.000000 1.000000
0.456863 1.000000 1.000000
0.778432 1.000000 1.000000
1.000000 1.000000 1.000000
