Color/Kodak/Kodak Portra 400 VC 1 - 65x.cube
TITLE "Kodak Portra 400 VC 1 -"
LUT_3D_SIZE 5
DOMAIN_MIN 0.000000 0.000000 0.000000
DOMAIN_MAX 1.000000 1.000000 1.000000
0.000000 0.000000 0.000000
0.186274 0.031373 0.000000
0.537254 0.019608 0.000000
0.821569 0.048039 0.000000
1.000000 0.192157 0.000000
0.000000 0.202941 0.034314
0.147059 0.232353 0.000000
0.606863 0.245098 0.000000
0.842157 0.248039 0.000000
1.000000 0.299020 0.000000
0.000000 0.503922 0.203922
0.000000 0.504902 0.217647
0.482353 0.547059 0.131373
0.834314 0.553922 0.000000
1.000000 0.503922 0.000000
0.146078 0.721569 0.369608
0.265686 0.716667 0.375490
0.456863 0.726470 0.365686
0.712745 0.759804 0.309804
0.996078 0.787255 0.209804
0.600000 0.929412 0.678431
0.623529 0.930392 0.683334
0.688236 0.929412 0.701961
0.788235 0.949020 0.689216
0.941176 0.976471 0.666667
0.000000 0.003922 0.232353
0.190196 0.000000 0.236275
0.561764 0.000000 0.189216
0.793137 0.089216 0.189216
1.000000 0.195098 0.141177
0.000000 0.250981 0.258823
0.219608 0.263726 0.275490
0.586275 0.266667 0.245098
0.817647 0.263726 0.193137
1.000000 0.308824 0.139216
0.115686 0.539216 0.358823
0.244118 0.531373 0.351961
0.521568 0.556863 0.322549
0.834314 0.544118 0.219608
1.000000 0.511764 0.134314
0.288235 0.732353 0.449020
0.359804 0.730392 0.454902
0.497059 0.728431 0.451961
0.725490 0.763725 0.413726
0.996078 0.786275 0.337255
0.615686 0.933333 0.701961
0.639216 0.930392 0.705882
0.698039 0.930392 0.720589
0.793137 0.949020 0.713726
0.944118 0.979412 0.697059
0.000000 0.068628 0.541176
0.150000 0.092157 0.546078
0.580392 0.117647 0.556863
0.836274 0.181372 0.497059
1.000000 0.129412 0.417647
0.000000 0.309804 0.553921
0.218627 0.306863 0.567647
0.596078 0.333334 0.568627
0.833334 0.345098 0.513726
1.000000 0.292157 0.427451
0.117647 0.570588 0.562745
0.345098 0.579412 0.574510
0.596078 0.580392 0.584313
0.804902 0.548039 0.522549
0.998039 0.531373 0.458823
0.473529 0.761764 0.630392
0.532353 0.761764 0.638235
0.592157 0.747059 0.619608
0.755882 0.771568 0.607843
1.000000 0.775490 0.538235
0.658824 0.939215 0.762745
0.664706 0.941176 0.758823
0.719608 0.937255 0.766666
0.808823 0.949020 0.772549
0.949020 0.980392 0.758823
0.000000 0.215686 0.789215
0.200000 0.227451 0.788235
0.567647 0.268628 0.785294
0.820588 0.331373 0.785294
1.000000 0.419608 0.750000
0.000000 0.354902 0.787255
0.271569 0.362745 0.785294
0.585294 0.398039 0.790196
0.818628 0.444118 0.788235
0.995098 0.503922 0.756863
0.068627 0.570588 0.761765
0.326471 0.576470 0.767647
0.580392 0.581373 0.781373
0.805883 0.620588 0.788235
0.983334 0.649019 0.768628
0.421569 0.776471 0.779412
0.491177 0.782353 0.784314
0.631373 0.780392 0.787255
0.805883 0.789215 0.800981
0.984314 0.758824 0.748039
0.690196 0.956863 0.855883
0.711765 0.957843 0.857843
0.769607 0.956863 0.860784
0.836274 0.956863 0.855883
0.968627 0.988235 0.854902
0.427451 0.466667 0.968627
0.498039 0.475490 0.965686
0.658824 0.509804 0.964706
0.837255 0.568627 0.956863
1.000000 0.615686 0.960784
0.454902 0.537254 0.967647
0.519608 0.543137 0.968627
0.667647 0.565686 0.963725
0.840196 0.614706 0.959804
0.999019 0.651961 0.959804
0.500000 0.678432 0.964706
0.538235 0.670589 0.962745
0.662745 0.672549 0.964706
0.837255 0.700980 0.960784
0.996078 0.733333 0.964706
0.469608 0.818627 0.961765
0.506863 0.817647 0.964706
0.610784 0.809804 0.965686
0.813726 0.805883 0.969607
0.996078 0.841177 0.973530
0.647059 0.988235 0.980392
0.670588 0.988235 0.981372
0.737255 0.988235 0.984314
0.844118 0.989216 0.988235
1.000000 1.000000 1.000000
