Color/Kodak/Kodak Portra 400 UC 1 - 65x.cube
TITLE "Kodak Portra 400 UC 1 -"
LUT_3D_SIZE 5
DOMAIN_MIN 0.000000 0.000000 0.000000
DOMAIN_MAX 1.000000 1.000000 1.000000
0.000000 0.000000 0.000000
0.201961 0.023529 0.000000
0.596078 0.000000 0.000000
0.900000 0.000000 0.000000
1.000000 0.192157 0.000000
0.000000 0.201961 0.010784
0.148039 0.225490 0.000000
0.641177 0.249999 0.000000
0.904902 0.247058 0.000000
1.000000 0.316667 0.000000
0.000000 0.519608 0.150981
0.000000 0.523529 0.172549
0.478432 0.558823 0.092157
0.864706 0.571569 0.000000
1.000000 0.535294 0.000000
0.000000 0.752942 0.321569
0.000000 0.751961 0.332353
0.386274 0.761764 0.334313
0.724510 0.786275 0.295098
1.000000 0.817647 0.214706
0.541176 0.952941 0.666667
0.572549 0.950000 0.675490
0.652941 0.949020 0.701961
0.773529 0.963725 0.697059
0.933333 0.980392 0.694118
0.000000 0.000000 0.217647
0.220588 0.000000 0.228432
0.587255 0.000000 0.201961
0.879412 0.111765 0.225490
1.000000 0.250000 0.211764
0.000000 0.243138 0.239215
0.244118 0.271569 0.263726
0.637255 0.278431 0.250980
0.888236 0.284314 0.216667
1.000000 0.354902 0.201961
0.045098 0.547059 0.343137
0.176471 0.550000 0.328431
0.533334 0.569608 0.314706
0.869608 0.563725 0.199020
1.000000 0.549019 0.131372
0.037255 0.759804 0.421569
0.202941 0.761764 0.420588
0.450000 0.763725 0.433334
0.741176 0.788235 0.409804
0.998039 0.816666 0.348039
0.564706 0.950000 0.694118
0.592157 0.950000 0.701961
0.668627 0.951961 0.721569
0.781373 0.960784 0.725490
0.933333 0.980392 0.721569
0.000000 0.043137 0.523529
0.186275 0.057843 0.542157
0.627451 0.078432 0.572549
0.839216 0.135294 0.494117
1.000000 0.225490 0.474510
0.000000 0.278432 0.531373
0.223529 0.287255 0.558824
0.641177 0.334314 0.584314
0.847059 0.329412 0.518628
1.000000 0.355882 0.485294
0.000000 0.558823 0.539216
0.320588 0.572549 0.556863
0.635294 0.605882 0.596078
0.855883 0.592156 0.554902
1.000000 0.601961 0.523529
0.415687 0.773529 0.610784
0.501961 0.777451 0.628431
0.582353 0.778432 0.616667
0.778432 0.799019 0.624510
1.000000 0.809804 0.554902
0.647059 0.950981 0.774510
0.658824 0.952941 0.772549
0.696079 0.952941 0.772549
0.797058 0.961765 0.786274
0.941176 0.980392 0.786274
0.000000 0.173530 0.789215
0.207843 0.188235 0.793137
0.611765 0.237255 0.805883
0.875490 0.323530 0.812745
1.000000 0.397058 0.766667
0.000000 0.310785 0.783333
0.247058 0.323529 0.788235
0.620588 0.375490 0.806863
0.869608 0.449019 0.815686
1.000000 0.488235 0.772549
0.000000 0.521569 0.731372
0.174510 0.533334 0.750000
0.580392 0.561765 0.787255
0.845098 0.645098 0.813726
0.981373 0.645098 0.779412
0.239216 0.771568 0.759804
0.374510 0.778432 0.766667
0.600980 0.784314 0.780392
0.828432 0.820588 0.824510
0.985294 0.813726 0.799019
0.646079 0.960784 0.851961
0.674510 0.958823 0.855883
0.751961 0.961764 0.864706
0.821569 0.968627 0.863726
0.960784 0.988235 0.875490
0.474510 0.454902 0.980392
0.549020 0.462745 0.977451
0.717647 0.500000 0.976471
0.887255 0.581373 0.972549
1.000000 0.650980 0.972549
0.478431 0.517647 0.979412
0.554902 0.527451 0.976471
0.714706 0.558823 0.972549
0.886274 0.630392 0.969607
1.000000 0.687255 0.971569
0.449020 0.656863 0.970588
0.506863 0.649019 0.970588
0.680392 0.662745 0.972549
0.867647 0.719608 0.967647
1.000000 0.766666 0.974510
0.285294 0.814706 0.961765
0.362746 0.813726 0.964706
0.529411 0.801961 0.968627
0.817647 0.813726 0.976471
0.996078 0.864706 0.981372
0.572549 0.992157 0.980392
0.600000 0.992157 0.980392
0.678431 0.992157 0.984314
0.804902 0.992157 0.988235
1.000000 1.000000 1.000000
