Color/Kodak/Kodak E-100 GX Ektachrome 100 65x.cube
TITLE "Kodak E-100 GX Ektachrome 100"
LUT_3D_SIZE 9
DOMAIN_MIN 0.000000 0.000000 0.000000
DOMAIN_MAX 1.000000 1.000000 1.000000
0.000000 0.000000 0.000000
0.058334 0.000000 0.000000
0.154902 0.000000 0.000000
0.263726 0.000000 0.000000
0.392157 0.000000 0.000000
0.520588 0.000000 0.000000
0.645098 0.003922 0.000000
0.761274 0.007843 0.000000
0.847059 0.007843 0.000000
0.054412 0.093138 0.019608
0.108824 0.081863 0.015196
0.202451 0.070098 0.011275
0.303921 0.057844 0.003922
0.421078 0.036275 0.000000
0.534314 0.009803 0.000000
0.645098 0.003922 0.000000
0.757843 0.004412 0.000000
0.843137 0.003922 0.000000
0.129412 0.217647 0.077451
0.168137 0.210785 0.073530
0.245098 0.199020 0.065687
0.349019 0.182353 0.053921
0.457843 0.152941 0.038235
0.566667 0.104902 0.021079
0.667647 0.055882 0.009803
0.761274 0.003922 0.000000
0.843137 0.003922 0.000000
0.175000 0.357843 0.135784
0.217647 0.353922 0.133333
0.295588 0.345588 0.127941
0.400981 0.334314 0.120098
0.506373 0.311275 0.105882
0.613235 0.270098 0.093627
0.713235 0.214215 0.069118
0.799019 0.124020 0.041667
0.858824 0.032353 0.018137
0.266667 0.500000 0.194117
0.301470 0.498039 0.190196
0.369608 0.494118 0.186275
0.455392 0.485784 0.178431
0.556863 0.474510 0.166666
0.662255 0.450981 0.156863
0.758824 0.415687 0.143137
0.853431 0.351961 0.127451
0.913725 0.254902 0.103921
0.374020 0.642157 0.260294
0.397059 0.640686 0.260294
0.443628 0.638235 0.256373
0.520098 0.634314 0.247549
0.611274 0.626470 0.240686
0.708824 0.613235 0.228922
0.802451 0.591666 0.217157
0.896079 0.551471 0.197549
0.964706 0.494608 0.181863
0.472549 0.765686 0.342156
0.488236 0.765686 0.335784
0.530392 0.762745 0.338235
0.595589 0.762745 0.328921
0.669608 0.756863 0.326470
0.754412 0.750981 0.314216
0.841177 0.738235 0.306862
0.930883 0.716177 0.291177
0.996078 0.681372 0.275490
0.589215 0.882843 0.420098
0.603921 0.882843 0.420098
0.628431 0.882843 0.420098
0.677451 0.882843 0.416176
0.735784 0.879412 0.408823
0.805883 0.875490 0.404412
0.883823 0.871568 0.396568
0.965196 0.859804 0.384804
1.000000 0.840196 0.369607
0.721569 0.980392 0.513726
0.729412 0.980392 0.513726
0.748040 0.980392 0.509804
0.778922 0.980392 0.509804
0.821568 0.980392 0.505882
0.875980 0.980392 0.501961
0.934313 0.980392 0.498039
0.996078 0.980392 0.490196
1.000000 0.972549 0.478431
0.000000 0.000000 0.054412
0.042647 0.000000 0.042647
0.139215 0.000000 0.038726
0.249510 0.000000 0.026961
0.380883 0.000000 0.015686
0.512745 0.000000 0.007843
0.636275 0.003922 0.000000
0.750491 0.003922 0.000000
0.839216 0.003922 0.000000
0.046569 0.104902 0.104902
0.093628 0.093138 0.097549
0.190196 0.078431 0.089216
0.294608 0.063235 0.077451
0.411764 0.038726 0.061765
0.526471 0.011275 0.042157
0.637255 0.003922 0.023039
0.750000 0.003922 0.011275
0.839216 0.003922 0.003922
0.117647 0.222058 0.148530
0.156373 0.217647 0.144608
0.233333 0.205882 0.139706
0.338725 0.190196 0.127941
0.450981 0.160294 0.112255
0.561274 0.114215 0.092647
0.662745 0.056863 0.070098
0.753921 0.003922 0.045588
0.839216 0.003922 0.029902
0.159314 0.361765 0.194117
0.201961 0.357843 0.191667
0.287745 0.352941 0.186274
0.393137 0.338235 0.178431
0.498530 0.314706 0.166666
0.607843 0.276470 0.150980
0.705882 0.219608 0.132843
0.793137 0.125981 0.107353
0.853431 0.032353 0.080392
0.254902 0.501961 0.248529
0.290196 0.501961 0.244608
0.361765 0.498039 0.240686
0.447549 0.490197 0.232843
0.550980 0.478432 0.222549
0.657843 0.455392 0.209314
0.755882 0.420588 0.194608
0.849510 0.355883 0.177451
0.909804 0.258823 0.158333
0.363725 0.642157 0.314216
0.385784 0.642157 0.310785
0.435785 0.638235 0.310294
0.512745 0.634314 0.302941
0.607353 0.626470 0.295098
0.700980 0.614706 0.283334
0.797058 0.591666 0.271569
0.891176 0.552941 0.255883
0.958824 0.498530 0.239706
0.464706 0.766667 0.384804
0.483333 0.766667 0.381373
0.525490 0.765686 0.380882
0.587745 0.762745 0.373530
0.665686 0.758824 0.369117
0.748039 0.750981 0.361274
0.837255 0.739216 0.349510
0.926961 0.715687 0.337745
0.993137 0.684314 0.322059
0.584804 0.883333 0.454902
0.596568 0.883333 0.451960
0.624510 0.882843 0.450980
0.673529 0.882843 0.447059
0.731863 0.879412 0.443137
0.801961 0.878921 0.436274
0.879902 0.871568 0.427941
0.961274 0.859804 0.419608
1.000000 0.840196 0.407843
0.717647 0.980392 0.540686
0.725490 0.980392 0.540686
0.745098 0.980392 0.540686
0.776471 0.980392 0.537255
0.819608 0.980392 0.536765
0.872059 0.980392 0.532843
0.934314 0.980392 0.525490
0.992647 0.980392 0.517647
1.000000 0.976471 0.509314
0.000000 0.000000 0.143137
0.030883 0.000000 0.132353
0.124510 0.000000 0.127451
0.237255 0.000000 0.116667
0.372549 0.000000 0.103921
0.500980 0.000000 0.089216
0.625490 0.000000 0.072549
0.743137 0.003922 0.053921
0.831373 0.003922 0.037255
0.038726 0.112745 0.195098
0.082353 0.100981 0.190686
0.175000 0.085785 0.182843
0.283334 0.069608 0.171078
0.401471 0.044118 0.155392
0.517157 0.013725 0.137745
0.628432 0.000000 0.119608
0.742156 0.003922 0.103431
0.827451 0.003922 0.088235
0.098039 0.229412 0.237255
0.140686 0.225490 0.233333
0.217647 0.213725 0.229412
0.326961 0.198039 0.217647
0.443137 0.168627 0.202941
0.553432 0.122059 0.186274
0.654902 0.063726 0.166666
0.746078 0.003922 0.143137
0.831373 0.003922 0.127451
0.131863 0.369608 0.286765
0.178431 0.365686 0.283824
0.268137 0.357843 0.279902
0.377451 0.346078 0.271079
0.488726 0.323039 0.260294
0.600000 0.284314 0.244608
0.698529 0.227451 0.226961
0.787255 0.132843 0.203921
0.846569 0.036275 0.180883
0.229412 0.509804 0.342157
0.268137 0.505883 0.341176
0.342157 0.501961 0.335294
0.432353 0.496569 0.330392
0.539215 0.482353 0.319608
0.646568 0.462746 0.308334
0.747059 0.427451 0.295098
0.841667 0.362255 0.275490
0.903922 0.266667 0.254902
0.344118 0.646078 0.398039
0.368137 0.646078 0.396568
0.420098 0.642157 0.394117
0.498039 0.638235 0.388725
0.595588 0.630392 0.380883
0.693137 0.618627 0.373039
0.786765 0.595588 0.361274
0.883333 0.556863 0.345588
0.951471 0.502451 0.329902
0.451960 0.769607 0.454902
0.468628 0.766667 0.454902
0.511765 0.766667 0.452941
0.577941 0.765686 0.447059
0.655883 0.761764 0.443137
0.739706 0.754902 0.435294
0.829412 0.742156 0.427451
0.919118 0.719608 0.415686
0.985294 0.685294 0.402941
0.573039 0.883333 0.521079
0.585294 0.883333 0.521079
0.615196 0.883333 0.517157
0.661765 0.883333 0.516177
0.724020 0.882843 0.512255
0.794118 0.879412 0.505392
0.872059 0.873529 0.497549
0.953431 0.862255 0.489706
1.000000 0.840196 0.477941
0.709804 0.980392 0.599019
0.717647 0.980392 0.599019
0.737255 0.980392 0.599019
0.768627 0.980392 0.595098
0.813725 0.984314 0.595098
0.866667 0.984314 0.591176
0.926471 0.984314 0.583333
0.988235 0.980392 0.579412
1.000000 0.976471 0.568627
0.000000 0.000000 0.240196
0.019118 0.000000 0.232353
0.105392 0.000000 0.225490
0.222059 0.000000 0.216667
0.358333 0.000000 0.204902
0.489216 0.000000 0.190686
0.615196 0.000000 0.177451
0.733823 0.000000 0.161765
0.823529 0.003922 0.147549
0.026961 0.121079 0.299020
0.070098 0.111764 0.295098
0.156863 0.097059 0.287255
0.268627 0.077451 0.276470
0.389706 0.050980 0.263726
0.507353 0.019118 0.246078
0.616667 0.000000 0.228432
0.730392 0.000000 0.213725
0.817157 0.000000 0.200981
0.078921 0.238235 0.346078
0.117157 0.233333 0.342647
0.194117 0.222549 0.337255
0.311275 0.205882 0.326961
0.428432 0.178431 0.314706
0.541667 0.129902 0.298039
0.644118 0.068628 0.279412
0.736765 0.006373 0.256373
0.817157 0.000000 0.243137
0.095098 0.377451 0.393137
0.147059 0.373529 0.393137
0.244608 0.369118 0.387745
0.361765 0.357843 0.377451
0.474510 0.334314 0.369608
0.588235 0.296078 0.353922
0.688236 0.237745 0.338235
0.777451 0.143628 0.316667
0.837745 0.042647 0.293627
0.193627 0.513726 0.443628
0.236765 0.513726 0.440196
0.318628 0.509804 0.436275
0.416177 0.501961 0.431863
0.525490 0.490197 0.422549
0.634314 0.469118 0.412255
0.735294 0.436275 0.399020
0.831373 0.374019 0.382843
0.894118 0.278431 0.363725
0.318137 0.650000 0.494118
0.342647 0.650000 0.492647
0.396568 0.646078 0.490196
0.482353 0.642157 0.486275
0.579902 0.634804 0.478431
0.677451 0.622549 0.470588
0.775000 0.602941 0.459804
0.872549 0.564706 0.447059
0.942647 0.510294 0.433824
0.429412 0.770588 0.548530
0.448039 0.770588 0.548530
0.492647 0.770588 0.546078
0.560294 0.766667 0.542157
0.641667 0.764706 0.536764
0.725981 0.757843 0.530392
0.816667 0.746079 0.522549
0.907353 0.723530 0.511275
0.976471 0.689216 0.500000
0.555392 0.886765 0.606863
0.569117 0.886765 0.606863
0.599510 0.886765 0.602941
0.648039 0.883333 0.601471
0.708333 0.883333 0.599019
0.782353 0.879412 0.591176
0.860294 0.875490 0.585784
0.942156 0.863725 0.577451
1.000000 0.844117 0.567647
0.701961 0.980392 0.669118
0.709804 0.980392 0.669118
0.728431 0.980392 0.669118
0.760784 0.984314 0.665196
0.803922 0.984314 0.665196
0.857843 0.984314 0.661275
0.918627 0.984314 0.657353
0.980392 0.980392 0.649510
1.000000 0.976471 0.641667
0.000000 0.003922 0.352942
0.007353 0.000000 0.349020
0.086275 0.000000 0.341176
0.202941 0.000000 0.333334
0.341176 0.000000 0.321569
0.473529 0.000000 0.309804
0.600980 0.000000 0.298039
0.718627 0.000000 0.284314
0.807843 0.000000 0.270589
0.015196 0.136275 0.411764
0.054412 0.124510 0.407844
0.133823 0.108824 0.401471
0.249510 0.089216 0.393137
0.376471 0.061765 0.377941
0.495098 0.023039 0.362255
0.601961 0.000000 0.345098
0.716667 0.000000 0.333333
0.803922 0.000000 0.321569
0.065687 0.252941 0.455882
0.090687 0.248039 0.453922
0.168627 0.236275 0.447059
0.291177 0.219118 0.439706
0.415686 0.192157 0.426471
0.529902 0.147059 0.410784
0.633334 0.079412 0.393137
0.725980 0.010294 0.372549
0.803922 0.000000 0.359804
0.027941 0.385294 0.502451
0.102451 0.385294 0.501961
0.210294 0.377451 0.496569
0.338235 0.369118 0.488726
0.458823 0.346079 0.478922
0.575490 0.310785 0.465196
0.677941 0.253432 0.449510
0.767647 0.161274 0.429412
0.827451 0.051961 0.407844
0.133333 0.523529 0.550980
0.189706 0.521568 0.549019
0.287255 0.517648 0.545098
0.392647 0.513235 0.539215
0.505883 0.498039 0.531373
0.618627 0.478922 0.521568
0.723530 0.447058 0.509804
0.820588 0.385784 0.494118
0.884314 0.294118 0.474510
0.279412 0.654412 0.599510
0.307353 0.653922 0.596078
0.369117 0.653922 0.595588
0.458824 0.650000 0.589706
0.560294 0.642157 0.583823
0.661765 0.630392 0.575980
0.762745 0.610784 0.564706
0.860785 0.572549 0.552451
0.932843 0.518138 0.538725
0.401961 0.774510 0.646078
0.421569 0.774510 0.646078
0.469608 0.774510 0.642157
0.540686 0.773039 0.638235
0.622549 0.769607 0.634314
0.712255 0.762745 0.626470
0.801961 0.750981 0.618627
0.897549 0.727451 0.608334
0.964706 0.696079 0.599019
0.534313 0.887255 0.692647
0.550000 0.887255 0.692647
0.581372 0.887255 0.690196
0.630392 0.887255 0.688726
0.695098 0.886765 0.684804
0.766667 0.883333 0.680392
0.848530 0.878921 0.673039
0.932353 0.867647 0.665196
0.992157 0.848039 0.657353
0.690196 0.984314 0.747059
0.698039 0.984314 0.747059
0.717647 0.984314 0.743137
0.749020 0.984314 0.743137
0.794118 0.984314 0.739216
0.848529 0.984314 0.739216
0.908823 0.984314 0.735294
0.969117 0.984314 0.727451
1.000000 0.980392 0.721569
0.000000 0.007843 0.469608
0.000000 0.000000 0.464216
0.063236 0.000000 0.457843
0.179902 0.000000 0.448529
0.321569 0.000000 0.438235
0.457843 0.000000 0.426470
0.585294 0.000000 0.414706
0.705392 0.000000 0.402941
0.796078 0.000000 0.393627
0.005882 0.151961 0.527941
0.034804 0.142157 0.524020
0.107843 0.128432 0.516667
0.229412 0.107843 0.508333
0.362255 0.074020 0.493137
0.481372 0.034804 0.479412
0.590196 0.003432 0.461765
0.702451 0.000000 0.450000
0.790686 0.000000 0.440196
0.050000 0.268627 0.570588
0.075490 0.264706 0.567647
0.136274 0.252941 0.561274
0.263726 0.237255 0.553431
0.396079 0.209804 0.540196
0.516667 0.166666 0.525980
0.621569 0.099020 0.508824
0.716177 0.018137 0.489216
0.792157 0.000000 0.473529
0.000000 0.400000 0.614706
0.022059 0.397059 0.611765
0.167647 0.391667 0.607843
0.307843 0.381373 0.600000
0.436275 0.361765 0.588235
0.559804 0.330392 0.576471
0.666176 0.273039 0.560784
0.759804 0.182843 0.541176
0.818137 0.065196 0.520588
0.053922 0.533334 0.657843
0.124999 0.533334 0.654412
0.241667 0.529411 0.650490
0.362255 0.523039 0.646078
0.484313 0.509804 0.634804
0.602941 0.490687 0.626470
0.708823 0.459804 0.615196
0.810294 0.404412 0.599510
0.876471 0.313725 0.581373
0.228922 0.661765 0.697059
0.263726 0.661765 0.697059
0.333823 0.661765 0.693137
0.431373 0.657843 0.689216
0.540686 0.650000 0.681372
0.646078 0.638235 0.673529
0.747549 0.618627 0.665686
0.849020 0.584314 0.653431
0.921569 0.529902 0.638235
0.366667 0.781373 0.738725
0.389215 0.778922 0.736274
0.442647 0.778432 0.735784
0.517157 0.778432 0.731863
0.602941 0.774510 0.726471
0.695588 0.766667 0.720098
0.790196 0.757843 0.712255
0.883824 0.735294 0.701470
0.956373 0.703922 0.692647
0.510784 0.890686 0.778432
0.526470 0.890686 0.778432
0.559314 0.890686 0.777941
0.610784 0.890686 0.774510
0.676961 0.890686 0.770588
0.753431 0.887255 0.766667
0.836765 0.882843 0.759804
0.921079 0.871568 0.754412
0.984314 0.851961 0.747059
0.674510 0.984314 0.825000
0.682353 0.984314 0.825000
0.703431 0.984314 0.825000
0.737255 0.985784 0.821078
0.782353 0.988235 0.821078
0.836765 0.988235 0.817157
0.899019 0.988235 0.813235
0.960784 0.988235 0.809314
1.000000 0.980392 0.802941
0.000000 0.015686 0.585294
0.000000 0.007843 0.581372
0.034314 0.003922 0.574510
0.157843 0.000000 0.565686
0.298039 0.000000 0.550981
0.438235 0.000000 0.539216
0.566667 0.000000 0.530392
0.690196 0.000000 0.518628
0.780392 0.000000 0.507843
0.000000 0.173039 0.639706
0.019118 0.165196 0.636765
0.087745 0.151961 0.629412
0.198530 0.132353 0.620098
0.341177 0.099020 0.605883
0.465686 0.051470 0.590196
0.578432 0.007843 0.573530
0.687255 0.000000 0.558334
0.776471 0.000000 0.549510
0.013726 0.292157 0.678431
0.042647 0.285785 0.676471
0.110784 0.276470 0.670588
0.230392 0.260784 0.660785
0.377451 0.231373 0.650000
0.500980 0.190196 0.633334
0.611765 0.123529 0.615686
0.706372 0.030392 0.596078
0.776471 0.000000 0.580392
0.000000 0.414216 0.717157
0.000000 0.412745 0.715687
0.101471 0.408824 0.711765
0.269118 0.399510 0.702941
0.413235 0.381373 0.692157
0.540196 0.350980 0.681372
0.654412 0.299020 0.666176
0.751961 0.208824 0.646568
0.811765 0.088235 0.624020
0.000000 0.545098 0.755882
0.031372 0.545098 0.754902
0.177451 0.542157 0.750981
0.324510 0.537254 0.744117
0.458823 0.525490 0.735294
0.583823 0.506863 0.724510
0.693137 0.478432 0.712745
0.798529 0.424020 0.700000
0.870588 0.340196 0.682353
0.150000 0.669608 0.794118
0.197549 0.669608 0.790686
0.288726 0.669608 0.790196
0.397549 0.665686 0.782843
0.514216 0.661275 0.778432
0.626470 0.650000 0.770588
0.731863 0.630392 0.759314
0.836765 0.598529 0.747549
0.911274 0.545588 0.735784
0.318628 0.786275 0.829412
0.345588 0.786275 0.829412
0.403922 0.786275 0.826470
0.485785 0.785294 0.823039
0.579412 0.782353 0.817647
0.673529 0.774510 0.813726
0.773529 0.765686 0.805883
0.871568 0.743627 0.794118
0.945098 0.711765 0.786275
0.479411 0.894608 0.868137
0.495098 0.894608 0.867647
0.532353 0.894608 0.864216
0.586765 0.894608 0.863725
0.656863 0.894608 0.859804
0.735294 0.891176 0.855392
0.821078 0.887255 0.848530
0.906862 0.875981 0.841177
0.972549 0.856863 0.833334
0.658824 0.988235 0.902941
0.666667 0.988235 0.902941
0.686275 0.988235 0.902941
0.721569 0.988235 0.902941
0.768627 0.988235 0.899020
0.825000 0.992157 0.896079
0.887255 0.992157 0.895098
0.949510 0.992157 0.891176
1.000000 0.984314 0.883333
0.000000 0.035784 0.691176
0.000000 0.020098 0.690686
0.007843 0.011765 0.683333
0.130392 0.003922 0.675000
0.278431 0.000000 0.659314
0.414706 0.000000 0.644117
0.550490 0.000000 0.635294
0.675000 0.000000 0.624019
0.768627 0.000000 0.616176
0.000000 0.202941 0.745098
0.006863 0.192157 0.742156
0.061274 0.180392 0.737255
0.164706 0.163726 0.727451
0.321078 0.132353 0.710784
0.450000 0.083823 0.697059
0.566667 0.025980 0.678431
0.671568 0.000000 0.659804
0.764706 0.000000 0.651960
0.003922 0.317157 0.781372
0.010784 0.312746 0.779902
0.050000 0.305392 0.773529
0.178431 0.289706 0.766177
0.349019 0.264706 0.752451
0.486764 0.224020 0.736765
0.603431 0.161765 0.721079
0.698529 0.060294 0.699019
0.764706 0.000000 0.681863
0.000000 0.434314 0.818627
0.000000 0.432353 0.816666
0.027451 0.428431 0.812745
0.212745 0.420588 0.804412
0.382353 0.404902 0.793137
0.520588 0.380392 0.781372
0.642157 0.333824 0.767647
0.744117 0.246078 0.748039
0.807843 0.125490 0.728431
0.000000 0.563235 0.855882
0.000000 0.560785 0.853431
0.085784 0.560785 0.849510
0.269118 0.554902 0.843627
0.423530 0.545098 0.833824
0.557353 0.529412 0.824510
0.676471 0.501470 0.812745
0.786765 0.448529 0.798529
0.862745 0.374509 0.782843
0.041667 0.683824 0.888236
0.081862 0.681372 0.888236
0.205392 0.681373 0.884314
0.347058 0.679902 0.878431
0.477941 0.673529 0.872549
0.599019 0.664706 0.864706
0.711765 0.646078 0.855882
0.821569 0.615686 0.845098
0.901961 0.568137 0.833334
0.237745 0.794118 0.922549
0.275490 0.794118 0.922059
0.345588 0.794118 0.916666
0.444608 0.794118 0.914705
0.545588 0.790196 0.910294
0.649510 0.786275 0.903432
0.750981 0.777451 0.895589
0.856373 0.758824 0.887255
0.933333 0.727451 0.878921
0.431863 0.898529 0.953431
0.448039 0.898529 0.950000
0.489706 0.898529 0.950000
0.551961 0.898529 0.946078
0.625980 0.898529 0.942156
0.711275 0.898529 0.938235
0.801471 0.894608 0.933823
0.894608 0.886765 0.925980
0.960784 0.867647 0.918627
0.631373 0.988235 0.976961
0.642647 0.988235 0.976961
0.662745 0.988725 0.976961
0.700000 0.992157 0.974510
0.750490 0.992157 0.973039
0.808823 0.996078 0.969117
0.874510 0.996078 0.965196
0.937745 0.996078 0.961274
1.000000 0.992157 0.957353
0.000000 0.050980 0.733333
0.000000 0.031373 0.729412
0.003922 0.019608 0.725490
0.118627 0.011765 0.713726
0.270589 0.000000 0.698039
0.406863 0.000000 0.682353
0.543137 0.000000 0.674510
0.667647 0.000000 0.662745
0.760784 0.000000 0.654902
0.000000 0.214706 0.784314
0.000000 0.206863 0.780392
0.049509 0.195098 0.776471
0.153432 0.175981 0.764706
0.309804 0.148040 0.752451
0.445588 0.099510 0.733333
0.565195 0.037255 0.717647
0.667157 0.000000 0.698039
0.756863 0.000000 0.690196
0.003922 0.331372 0.822549
0.007843 0.327451 0.819608
0.030392 0.319608 0.814706
0.148529 0.303921 0.803922
0.335294 0.280392 0.793138
0.478922 0.239706 0.776471
0.594118 0.177451 0.759804
0.697550 0.075490 0.737255
0.763726 0.000000 0.720588
0.000000 0.444118 0.858824
0.000000 0.441667 0.857353
0.000000 0.437745 0.850980
0.178431 0.429902 0.843137
0.367157 0.416667 0.831373
0.508824 0.391666 0.819608
0.633334 0.349020 0.806373
0.738235 0.265197 0.786765
0.806373 0.147059 0.767157
0.000000 0.570588 0.894118
0.000000 0.568627 0.892157
0.042157 0.568628 0.888235
0.240687 0.564705 0.880392
0.405883 0.552941 0.870588
0.546078 0.537254 0.860785
0.669608 0.509804 0.849020
0.782843 0.462255 0.835294
0.860785 0.390196 0.821568
0.000000 0.689216 0.925490
0.023039 0.689216 0.925490
0.150490 0.687745 0.921569
0.320098 0.685294 0.915196
0.460294 0.679411 0.907353
0.587255 0.672059 0.899510
0.704412 0.656863 0.890196
0.817647 0.625980 0.879902
0.898039 0.579412 0.868137
0.187255 0.800981 0.956863
0.229902 0.800981 0.953921
0.311765 0.798039 0.952941
0.421568 0.798039 0.949020
0.528431 0.797058 0.942157
0.635294 0.793137 0.937255
0.743137 0.782353 0.929412
0.848039 0.766176 0.918628
0.926471 0.735294 0.910784
0.401471 0.902451 0.984314
0.424020 0.902451 0.980882
0.466667 0.902451 0.980392
0.532353 0.902451 0.974510
0.610294 0.902451 0.971078
0.697549 0.899019 0.968627
0.789706 0.898529 0.961274
0.887255 0.890686 0.956863
0.956863 0.871568 0.949510
0.615686 0.988235 1.000000
0.623529 0.988235 1.000000
0.647059 0.992157 1.000000
0.684804 0.992157 1.000000
0.735294 0.992157 1.000000
0.797549 0.996078 1.000000
0.863726 0.996078 1.000000
0.929902 1.000000 1.000000
1.000000 0.996078 1.000000
