Color/Kodak/Kodak Elite Chrome 200 65x.cube
TITLE "Kodak Elite Chrome 200"
LUT_3D_SIZE 9
DOMAIN_MIN 0.000000 0.000000 0.000000
DOMAIN_MAX 1.000000 1.000000 1.000000
0.000000 0.000000 0.000000
0.058334 0.000000 0.000000
0.150980 0.000000 0.000000
0.267647 0.000000 0.000000
0.407844 0.000000 0.000000
0.551961 0.000000 0.000000
0.680392 0.000000 0.000000
0.808333 0.000000 0.000000
0.925490 0.000000 0.000000
0.058334 0.097549 0.019608
0.104902 0.089216 0.011765
0.198530 0.074020 0.003922
0.306863 0.058334 0.000000
0.442647 0.034804 0.000000
0.571079 0.013726 0.000000
0.684314 0.000000 0.000000
0.797059 0.000000 0.000000
0.910294 0.000000 0.000000
0.125490 0.229412 0.081372
0.160294 0.221568 0.073530
0.248039 0.210785 0.057844
0.357843 0.194117 0.034314
0.489216 0.170588 0.007843
0.613726 0.135294 0.000000
0.725491 0.091177 0.000000
0.827941 0.030392 0.000000
0.917647 0.000000 0.000000
0.173530 0.381373 0.135784
0.221078 0.377451 0.131863
0.307843 0.369608 0.120098
0.423039 0.357843 0.100490
0.551471 0.338725 0.075000
0.672059 0.309314 0.045588
0.783823 0.273040 0.018137
0.883333 0.218628 0.002451
0.971078 0.132843 0.000000
0.260784 0.525490 0.186275
0.299510 0.525490 0.178921
0.380392 0.521568 0.167647
0.493137 0.513726 0.152941
0.613726 0.501961 0.135294
0.730392 0.482353 0.115686
0.846078 0.463726 0.095099
0.951471 0.427451 0.074019
1.000000 0.374509 0.045098
0.366176 0.669608 0.240686
0.398530 0.665686 0.236765
0.468628 0.664216 0.225000
0.567157 0.657843 0.209314
0.674019 0.650000 0.189706
0.787255 0.638235 0.164706
0.897549 0.622549 0.141176
1.000000 0.599020 0.126961
1.000000 0.563725 0.115196
0.487255 0.789215 0.287255
0.507843 0.789216 0.283334
0.564705 0.786275 0.275490
0.643627 0.782353 0.263726
0.740196 0.777451 0.246079
0.843137 0.769117 0.226961
0.950981 0.758824 0.207843
1.000000 0.746569 0.185294
1.000000 0.723530 0.165686
0.600980 0.895098 0.333333
0.623530 0.895098 0.329902
0.662256 0.894608 0.325490
0.728431 0.891176 0.314216
0.810294 0.887255 0.302451
0.904902 0.883333 0.286765
0.997059 0.875490 0.271078
1.000000 0.867647 0.258824
1.000000 0.851961 0.243627
0.725490 0.992157 0.349020
0.740686 0.992157 0.349020
0.772549 0.992157 0.345098
0.825980 0.992157 0.337255
0.896079 0.988235 0.327451
0.975490 0.988235 0.317647
1.000000 0.984314 0.305882
1.000000 0.980392 0.294118
1.000000 0.972549 0.282353
0.000000 0.000000 0.042647
0.034804 0.000000 0.026961
0.132353 0.000000 0.012255
0.249510 0.000000 0.003922
0.392157 0.000000 0.000000
0.528431 0.000000 0.000000
0.656863 0.000000 0.000000
0.781372 0.000000 0.000000
0.894608 0.000000 0.000000
0.034804 0.089216 0.089706
0.081373 0.081373 0.081373
0.178431 0.066667 0.061765
0.288235 0.050490 0.035784
0.419608 0.028922 0.011275
0.546569 0.009804 0.000000
0.660785 0.000000 0.000000
0.770098 0.000000 0.000000
0.886275 0.000000 0.000000
0.109804 0.221568 0.139706
0.148039 0.217647 0.132843
0.229412 0.205882 0.117157
0.341667 0.190196 0.096569
0.470588 0.164706 0.065687
0.591176 0.129902 0.032353
0.701961 0.083334 0.007353
0.803922 0.028922 0.000000
0.893138 0.000000 0.000000
0.147549 0.377451 0.190196
0.194608 0.373529 0.183824
0.287745 0.365686 0.172059
0.404902 0.353922 0.154902
0.533334 0.334804 0.129412
0.652451 0.307843 0.103921
0.764216 0.269118 0.074510
0.865686 0.214706 0.040686
0.947549 0.128922 0.010294
0.233333 0.527451 0.240686
0.275980 0.525490 0.236765
0.361274 0.521568 0.225000
0.475000 0.513726 0.205392
0.596078 0.501961 0.181863
0.713235 0.482843 0.160294
0.827941 0.462745 0.139215
0.935784 0.428921 0.119118
1.000000 0.370588 0.094117
0.346569 0.669608 0.291177
0.381373 0.666176 0.287255
0.451470 0.665686 0.275490
0.549020 0.657843 0.260784
0.658333 0.650000 0.242157
0.769608 0.638235 0.220588
0.882353 0.622549 0.197059
0.986765 0.600000 0.176471
1.000000 0.563725 0.153922
0.467647 0.790196 0.336765
0.492157 0.790196 0.333823
0.546569 0.786275 0.325980
0.626961 0.782353 0.314216
0.723039 0.778432 0.300490
0.825980 0.770588 0.282843
0.931373 0.761764 0.263235
1.000000 0.747059 0.247549
1.000000 0.723530 0.231863
0.581863 0.898529 0.380392
0.600980 0.898529 0.379412
0.643137 0.895098 0.372549
0.708824 0.894608 0.364706
0.790686 0.890686 0.352941
0.884314 0.883333 0.339706
0.981863 0.878921 0.325490
1.000000 0.871078 0.309804
1.000000 0.855882 0.298039
0.705882 0.996078 0.403432
0.717647 0.996078 0.399510
0.752451 0.995588 0.395588
0.806373 0.992157 0.387745
0.876470 0.992157 0.379902
0.958333 0.988235 0.368137
1.000000 0.984314 0.359314
1.000000 0.980392 0.348530
1.000000 0.976471 0.336765
0.000000 0.000000 0.123529
0.015196 0.000000 0.108333
0.112745 0.000000 0.093137
0.229412 0.000000 0.069608
0.368627 0.000000 0.042157
0.504902 0.000000 0.018627
0.632353 0.000000 0.003922
0.754902 0.000000 0.000000
0.867647 0.000000 0.000000
0.015196 0.082353 0.175000
0.054902 0.074020 0.163725
0.151471 0.061765 0.147549
0.264216 0.046079 0.124019
0.396079 0.024510 0.092647
0.519118 0.007353 0.061274
0.633334 0.000000 0.029902
0.745588 0.000000 0.007843
0.858824 0.000000 0.002942
0.086275 0.217647 0.221568
0.125980 0.209804 0.213725
0.199020 0.199020 0.199020
0.315196 0.182353 0.178431
0.444118 0.158823 0.149020
0.563725 0.122059 0.118137
0.672549 0.075490 0.084314
0.773039 0.022549 0.052451
0.861765 0.000000 0.021568
0.103921 0.373529 0.275980
0.155392 0.372059 0.269118
0.256373 0.361765 0.256863
0.379902 0.350000 0.237255
0.505883 0.330392 0.213235
0.623529 0.301470 0.185784
0.734804 0.261275 0.158333
0.834314 0.206863 0.129412
0.915686 0.117157 0.094118
0.186275 0.525490 0.329412
0.233824 0.525490 0.325490
0.328431 0.521568 0.314706
0.447059 0.513235 0.298039
0.567647 0.500000 0.276470
0.684314 0.482353 0.255883
0.797059 0.459804 0.231373
0.902941 0.425000 0.207843
0.994117 0.368627 0.181373
0.305882 0.669608 0.380883
0.340686 0.669608 0.376961
0.416176 0.665686 0.369117
0.517157 0.657843 0.354902
0.625980 0.650000 0.338725
0.738725 0.638235 0.319608
0.850490 0.622549 0.300490
0.955882 0.600000 0.281373
1.000000 0.563725 0.259314
0.426471 0.793137 0.429412
0.451960 0.790196 0.426961
0.507843 0.789215 0.419608
0.591666 0.785294 0.408334
0.688236 0.779412 0.396078
0.793137 0.773529 0.380392
0.900000 0.762745 0.362745
0.997059 0.747059 0.345098
1.000000 0.723530 0.328431
0.541666 0.899019 0.472549
0.561274 0.899019 0.470098
0.604902 0.898529 0.466177
0.673039 0.895098 0.457843
0.756863 0.891176 0.446078
0.851471 0.887255 0.432353
0.950491 0.879412 0.418628
1.000000 0.871568 0.403432
1.000000 0.855882 0.387745
0.667647 0.999019 0.493138
0.682353 0.996078 0.492157
0.716667 0.996078 0.488235
0.771078 0.996078 0.481372
0.842157 0.992157 0.472549
0.924020 0.992157 0.460784
1.000000 0.988235 0.449019
1.000000 0.984314 0.437255
1.000000 0.979412 0.422549
0.000000 0.000000 0.214216
0.003432 0.000000 0.198529
0.088235 0.000000 0.182843
0.206373 0.000000 0.163235
0.345098 0.000000 0.138235
0.477451 0.000000 0.113235
0.603432 0.000000 0.091177
0.725980 0.000000 0.067647
0.836765 0.000000 0.051961
0.000981 0.075000 0.267647
0.027941 0.066177 0.256863
0.121569 0.054412 0.240196
0.236275 0.038726 0.217647
0.364706 0.019118 0.190686
0.485294 0.003922 0.162745
0.597059 0.000000 0.132843
0.712255 0.000000 0.107843
0.823529 0.000000 0.091177
0.060294 0.207353 0.318628
0.100981 0.201961 0.311275
0.170588 0.190196 0.299020
0.283824 0.172059 0.275980
0.408824 0.147059 0.251961
0.525000 0.110294 0.222059
0.633824 0.063726 0.193137
0.734314 0.014706 0.161765
0.820098 0.000000 0.126961
0.035784 0.369608 0.377451
0.098530 0.365686 0.373529
0.213235 0.357843 0.361765
0.342157 0.342157 0.342157
0.470588 0.322549 0.319118
0.587255 0.292157 0.295098
0.696079 0.251961 0.266176
0.793137 0.195098 0.236275
0.873039 0.101471 0.199510
0.111274 0.525490 0.435785
0.173530 0.523529 0.431863
0.283824 0.517648 0.420588
0.404902 0.509804 0.404902
0.528921 0.498039 0.387255
0.645588 0.478922 0.365686
0.759804 0.455882 0.343137
0.865196 0.421078 0.318138
0.956373 0.360784 0.289216
0.247549 0.669608 0.487255
0.290196 0.669608 0.483333
0.369608 0.665686 0.475490
0.474510 0.657843 0.462745
0.587255 0.650000 0.447059
0.700000 0.638235 0.428431
0.812745 0.622549 0.409314
0.917157 0.599019 0.388235
1.000000 0.559804 0.367157
0.375981 0.794118 0.534314
0.402941 0.793137 0.531863
0.462745 0.790196 0.525000
0.548530 0.786275 0.514706
0.649510 0.781373 0.501471
0.755392 0.774510 0.485785
0.862255 0.762745 0.468627
0.963725 0.750491 0.451961
1.000000 0.723530 0.432353
0.496569 0.902941 0.573529
0.516177 0.902451 0.571568
0.562255 0.899019 0.566666
0.631863 0.898529 0.557843
0.719608 0.895098 0.546078
0.813726 0.890686 0.532353
0.912745 0.883333 0.518628
1.000000 0.875000 0.504412
1.000000 0.859804 0.487255
0.625000 1.000000 0.593137
0.640196 1.000000 0.590686
0.675000 1.000000 0.586765
0.731863 1.000000 0.581373
0.803432 0.996078 0.571078
0.886765 0.996078 0.560294
0.973530 0.992157 0.549020
1.000000 0.988235 0.535784
1.000000 0.980392 0.522549
0.000000 0.000000 0.319608
0.000000 0.000000 0.305883
0.054902 0.000000 0.291177
0.177451 0.000000 0.272059
0.311765 0.000000 0.249020
0.444118 0.000000 0.225980
0.568627 0.000000 0.203922
0.689216 0.000000 0.183823
0.801961 0.000000 0.164706
0.000000 0.063726 0.372549
0.007353 0.054412 0.362255
0.082843 0.042647 0.346569
0.200981 0.026961 0.326471
0.326961 0.011765 0.299510
0.447549 0.000000 0.272059
0.557843 0.000000 0.242157
0.675980 0.000000 0.221078
0.788235 0.000000 0.203922
0.038235 0.194117 0.423530
0.076960 0.185784 0.415196
0.139215 0.175490 0.400981
0.249019 0.157353 0.381373
0.373530 0.129412 0.353922
0.486275 0.092157 0.326471
0.593137 0.048039 0.297059
0.694608 0.006863 0.267647
0.780392 0.000000 0.235295
0.034314 0.357843 0.482353
0.053431 0.353922 0.476961
0.170588 0.346079 0.466667
0.307353 0.330392 0.447059
0.431863 0.307353 0.424020
0.548529 0.276470 0.397059
0.656373 0.233824 0.370098
0.751961 0.175490 0.339216
0.827941 0.077941 0.300490
0.021569 0.521568 0.539215
0.106863 0.517648 0.533334
0.243137 0.513726 0.525490
0.369118 0.505392 0.509804
0.490197 0.490197 0.490197
0.609314 0.474510 0.470589
0.723530 0.448039 0.447058
0.825980 0.411764 0.421569
0.915686 0.345098 0.392157
0.193137 0.665686 0.588236
0.239706 0.665686 0.584313
0.326961 0.661765 0.577451
0.435294 0.657843 0.564705
0.548529 0.646078 0.549019
0.663726 0.634314 0.532843
0.775000 0.618627 0.513235
0.879412 0.595098 0.491177
0.977941 0.553431 0.468137
0.326470 0.794118 0.634314
0.356372 0.793137 0.630392
0.419608 0.790196 0.624510
0.509314 0.786275 0.614706
0.610784 0.781373 0.602941
0.719608 0.774510 0.587255
0.825490 0.762745 0.568628
0.926470 0.747059 0.551961
1.000000 0.723530 0.532353
0.451960 0.906372 0.672549
0.473039 0.902941 0.669118
0.519608 0.902941 0.665196
0.591666 0.899019 0.657353
0.680882 0.897059 0.645588
0.777941 0.891176 0.633824
0.874510 0.886765 0.619117
0.973529 0.875490 0.603921
1.000000 0.859804 0.586765
0.584314 1.000000 0.694117
0.598039 1.000000 0.692157
0.635294 1.000000 0.688236
0.690686 1.000000 0.682353
0.764706 1.000000 0.672549
0.846569 1.000000 0.662745
0.934313 0.996078 0.650980
1.000000 0.992157 0.639216
1.000000 0.986274 0.623530
0.000000 0.000000 0.428922
0.000000 0.000000 0.411274
0.027941 0.000000 0.397549
0.151471 0.000000 0.377941
0.284804 0.000000 0.354412
0.413235 0.000000 0.332353
0.537745 0.000000 0.311275
0.655392 0.000000 0.291667
0.767157 0.000000 0.273529
0.000000 0.046569 0.473529
0.000000 0.038726 0.461765
0.049019 0.026961 0.446078
0.171569 0.015196 0.424510
0.292157 0.005393 0.400490
0.408824 0.000000 0.373530
0.525980 0.000000 0.348039
0.642647 0.000000 0.327941
0.752941 0.000000 0.310785
0.017157 0.170588 0.518137
0.045588 0.162745 0.512745
0.109314 0.150980 0.498530
0.218137 0.130392 0.476471
0.334804 0.103431 0.451470
0.447549 0.067157 0.424019
0.553922 0.027941 0.396568
0.651470 0.000000 0.365196
0.745098 0.000000 0.340196
0.039216 0.338235 0.576471
0.053431 0.334314 0.572549
0.137745 0.323529 0.560784
0.276470 0.307843 0.541176
0.397059 0.284314 0.517647
0.509804 0.252941 0.494118
0.615196 0.209804 0.466667
0.708824 0.148039 0.435294
0.785294 0.049019 0.396078
0.000000 0.509804 0.634314
0.054412 0.507844 0.630392
0.207843 0.501961 0.619117
0.334804 0.494117 0.606373
0.458824 0.478922 0.587745
0.575980 0.462746 0.568137
0.685294 0.435785 0.544608
0.786765 0.394608 0.518137
0.873039 0.321569 0.487255
0.149020 0.661765 0.685294
0.193137 0.661765 0.681372
0.286765 0.657843 0.673529
0.400000 0.650000 0.661765
0.513725 0.642157 0.646078
0.630392 0.630392 0.630392
0.739706 0.610784 0.610784
0.843627 0.587255 0.588235
0.941176 0.544118 0.563725
0.278921 0.793137 0.728431
0.310785 0.790196 0.727941
0.379902 0.790196 0.720588
0.471079 0.786275 0.712255
0.575490 0.778432 0.699020
0.683824 0.770588 0.684804
0.788725 0.761764 0.665686
0.890196 0.746569 0.649510
0.992157 0.719608 0.629902
0.408333 0.906372 0.767647
0.430392 0.906372 0.766667
0.480882 0.902941 0.762255
0.554902 0.902451 0.754412
0.644608 0.898529 0.743137
0.739216 0.894608 0.730882
0.836765 0.887255 0.715687
0.934313 0.878921 0.700980
1.000000 0.859804 0.684314
0.545098 1.000000 0.793627
0.560784 1.000000 0.793627
0.597549 1.000000 0.789706
0.653431 1.000000 0.781863
0.725980 1.000000 0.774020
0.807843 1.000000 0.762255
0.895098 1.000000 0.750981
0.988725 0.996078 0.738725
1.000000 0.992157 0.723039
0.000000 0.000000 0.530392
0.000000 0.000000 0.510784
0.014706 0.000000 0.497059
0.133333 0.000000 0.477941
0.258823 0.000000 0.455882
0.383333 0.000000 0.435784
0.506862 0.000000 0.412745
0.623529 0.000000 0.393627
0.733333 0.000000 0.377451
0.000000 0.025980 0.565196
0.000000 0.019118 0.553431
0.025000 0.011275 0.538726
0.142157 0.003432 0.515687
0.257353 0.000000 0.491177
0.375490 0.000000 0.468628
0.495098 0.000000 0.448039
0.609314 0.000000 0.429412
0.718137 0.000000 0.412255
0.003922 0.135294 0.607843
0.018627 0.126961 0.600000
0.082353 0.114706 0.585294
0.191176 0.095098 0.564706
0.301960 0.070588 0.541176
0.411274 0.036275 0.515687
0.513726 0.007843 0.489216
0.608333 0.000000 0.458824
0.712746 0.000000 0.439216
0.038235 0.308334 0.663235
0.062746 0.304412 0.658334
0.129902 0.292647 0.646568
0.250490 0.276961 0.629412
0.366176 0.252451 0.607353
0.474509 0.218137 0.583333
0.575981 0.175000 0.555392
0.664706 0.106372 0.521079
0.738725 0.019608 0.485785
0.021569 0.494117 0.720588
0.056373 0.492157 0.716667
0.180392 0.485294 0.708823
0.306373 0.478431 0.695589
0.428431 0.462745 0.677451
0.544608 0.443628 0.657843
0.651960 0.412745 0.634314
0.747549 0.370098 0.606863
0.830392 0.286274 0.572549
0.116667 0.653922 0.771078
0.158333 0.650000 0.770588
0.255392 0.644607 0.763235
0.368628 0.642157 0.751471
0.486274 0.629902 0.735784
0.599019 0.618627 0.719608
0.708333 0.599510 0.700490
0.808333 0.572549 0.676961
0.903431 0.525980 0.653431
0.241177 0.789215 0.817647
0.276471 0.786275 0.814216
0.349020 0.785294 0.809804
0.442647 0.781373 0.800981
0.545098 0.774510 0.788235
0.653431 0.766667 0.773039
0.757843 0.754902 0.754902
0.855882 0.739216 0.739216
0.960784 0.711765 0.715687
0.376961 0.906372 0.856373
0.399510 0.906372 0.852941
0.450490 0.902941 0.848530
0.524510 0.902451 0.840686
0.614216 0.898529 0.832353
0.708333 0.891176 0.817157
0.805393 0.886765 0.805393
0.902451 0.875490 0.789706
1.000000 0.859804 0.770098
0.517647 1.000000 0.883333
0.533333 1.000000 0.883333
0.568627 1.000000 0.879412
0.625000 1.000000 0.871568
0.696079 1.000000 0.863726
0.774510 1.000000 0.855392
0.859804 1.000000 0.844118
0.953431 1.000000 0.828922
1.000000 0.993137 0.812745
0.000000 0.000000 0.624510
0.000000 0.000000 0.604412
0.006863 0.000000 0.590196
0.118627 0.000000 0.573039
0.238725 0.000000 0.553431
0.359804 0.000000 0.532843
0.479902 0.000000 0.510294
0.592647 0.000000 0.490686
0.701471 0.000000 0.475000
0.000000 0.003922 0.648039
0.000000 0.002942 0.639216
0.010784 0.000000 0.623529
0.120098 0.000000 0.600980
0.234804 0.000000 0.586275
0.351961 0.000000 0.567157
0.471569 0.000000 0.542156
0.580882 0.000000 0.525490
0.689706 0.000000 0.506372
0.000000 0.091667 0.685785
0.006863 0.083824 0.678921
0.063236 0.072059 0.663235
0.165686 0.053921 0.646569
0.271569 0.030392 0.624999
0.376470 0.010294 0.599510
0.472549 0.000000 0.569608
0.576961 0.000000 0.549510
0.682353 0.000000 0.530392
0.063236 0.265686 0.740196
0.084314 0.258823 0.733823
0.136274 0.250000 0.722059
0.232353 0.231863 0.704902
0.337745 0.206863 0.685294
0.440196 0.172549 0.660295
0.536764 0.119608 0.630392
0.618627 0.053432 0.599019
0.694118 0.000000 0.563725
0.061275 0.470589 0.798529
0.088726 0.468137 0.794608
0.172549 0.460784 0.786765
0.290687 0.450490 0.775000
0.407844 0.435295 0.755392
0.517157 0.412255 0.735784
0.619117 0.377941 0.713236
0.709804 0.328432 0.684314
0.785784 0.230882 0.645588
0.109804 0.635294 0.849020
0.154412 0.634314 0.847549
0.243628 0.630392 0.841177
0.352942 0.621569 0.829412
0.466176 0.614706 0.816176
0.575490 0.599019 0.798039
0.680392 0.579412 0.778432
0.774510 0.549020 0.758333
0.868137 0.498530 0.728921
0.229902 0.778432 0.895589
0.267156 0.778432 0.894608
0.334313 0.777451 0.887745
0.426961 0.773529 0.877450
0.529412 0.766667 0.867157
0.629902 0.758333 0.852451
0.730882 0.746569 0.836765
0.827941 0.727451 0.820098
0.926471 0.696569 0.797549
0.361764 0.902941 0.934313
0.385294 0.902451 0.933823
0.435294 0.899019 0.929902
0.508823 0.898529 0.922059
0.594608 0.894608 0.910784
0.685294 0.889706 0.899019
0.777942 0.882843 0.887255
0.871568 0.871568 0.871568
0.980392 0.851961 0.851961
0.501961 1.000000 0.969117
0.517647 1.000000 0.965686
0.551961 1.000000 0.965196
0.606373 1.000000 0.957353
0.672549 1.000000 0.949510
0.750490 1.000000 0.941666
0.832353 1.000000 0.929902
0.922059 1.000000 0.918137
1.000000 0.996078 0.902451
0.000000 0.000000 0.713726
0.000000 0.000000 0.690196
0.006863 0.000000 0.674510
0.110784 0.000000 0.658824
0.223529 0.000000 0.639216
0.342647 0.000000 0.619608
0.456863 0.000000 0.600000
0.565686 0.000000 0.580392
0.674510 0.000000 0.560784
0.000000 0.000000 0.725490
0.000000 0.000000 0.717157
0.014706 0.000000 0.701961
0.116176 0.000000 0.687255
0.223529 0.000000 0.666667
0.338725 0.000000 0.647059
0.451960 0.000000 0.627451
0.554412 0.000000 0.611275
0.662745 0.000000 0.592157
0.000000 0.037255 0.751961
0.002941 0.033333 0.745098
0.056863 0.022549 0.732353
0.149019 0.010784 0.714216
0.244118 0.000000 0.693137
0.342647 0.000000 0.672058
0.451960 0.000000 0.650980
0.553921 0.000000 0.631373
0.658824 0.000000 0.615686
0.070588 0.199510 0.798529
0.100000 0.195588 0.794608
0.146079 0.183823 0.782843
0.219118 0.164216 0.767157
0.312745 0.132843 0.747549
0.406373 0.092157 0.722550
0.493627 0.047059 0.695589
0.575490 0.003922 0.665196
0.658824 0.000000 0.639216
0.094118 0.425490 0.862745
0.123039 0.423530 0.860784
0.194117 0.417647 0.852941
0.290687 0.401470 0.838726
0.394118 0.382353 0.821568
0.495588 0.355392 0.800490
0.587255 0.312745 0.774510
0.665196 0.248530 0.746569
0.733333 0.143137 0.705882
0.142647 0.606863 0.919118
0.179412 0.604412 0.915196
0.259313 0.600490 0.909804
0.355392 0.592647 0.899510
0.458333 0.580882 0.883824
0.559804 0.563725 0.868137
0.652941 0.541667 0.848529
0.743137 0.509804 0.828431
0.828922 0.447549 0.797549
0.256863 0.762745 0.968627
0.286764 0.759314 0.965686
0.345098 0.758824 0.958823
0.429411 0.754902 0.952941
0.520588 0.747059 0.940195
0.614216 0.734803 0.926470
0.707843 0.723530 0.913725
0.797059 0.704412 0.895098
0.895098 0.665686 0.871568
0.381372 0.891176 1.000000
0.400489 0.891176 1.000000
0.446568 0.891176 1.000000
0.508824 0.887255 0.996568
0.586765 0.883333 0.992157
0.668628 0.877941 0.980882
0.754412 0.871568 0.969117
0.844117 0.859804 0.956863
0.945588 0.836274 0.937745
0.517647 1.000000 1.000000
0.529412 1.000000 1.000000
0.559804 1.000000 1.000000
0.606373 1.000000 1.000000
0.664706 1.000000 1.000000
0.734804 1.000000 1.000000
0.812745 1.000000 1.000000
0.898529 1.000000 1.000000
1.000000 1.000000 1.000000
