Color/Kodak/Kodak Kodachrome 25 65x.cube
TITLE "Kodak Kodachrome 25"
LUT_3D_SIZE 65
DOMAIN_MIN 0.000000 0.000000 0.000000
DOMAIN_MAX 1.000000 1.000000 1.000000
0.000000 0.000000 0.000000
0.000919 0.000000 0.000000
0.003922 0.000000 0.000000
0.007843 0.000000 0.000000
0.011765 0.000000 0.000000
0.016360 0.000000 0.000000
0.021201 0.000000 0.000000
0.029964 0.000000 0.000000
0.034804 0.000000 0.000000
0.043566 0.000000 0.000000
0.050980 0.000000 0.000000
0.057169 0.000000 0.000000
0.062745 0.000000 0.000000
0.070772 0.000000 0.000000
0.079534 0.000000 0.000000
0.088297 0.000000 0.000000
0.097059 0.000000 0.000000
0.105821 0.000000 0.000000
0.114583 0.000000 0.000000
0.123346 0.000000 0.000000
0.132108 0.000000 0.000000
0.140870 0.000000 0.000000
0.153554 0.000000 0.000000
0.166238 0.000000 0.000000
0.177451 0.000000 0.000000
0.191054 0.000000 0.000000
0.204657 0.000000 0.000000
0.222181 0.000000 0.000000
0.241912 0.000000 0.000000
0.264277 0.000000 0.000000
0.290686 0.000000 0.000000
0.325736 0.000000 0.000000
0.366667 0.000000 0.000000
0.410478 0.000000 0.000000
0.450490 0.000000 0.000000
0.490258 0.000000 0.000000
0.530147 0.000000 0.000000
0.570037 0.000000 0.000000
0.609927 0.000000 0.000000
0.653737 0.000000 0.000000
0.702941 0.000000 0.000000
0.757904 0.000000 0.000000
0.815319 0.000000 0.000000
0.876655 0.000000 0.000000
0.932843 0.000000 0.000000
0.977206 0.000000 0.000000
1.000000 0.000000 0.000000
1.000000 0.000000 0.000000
1.000000 0.000000 0.000000
1.000000 0.000000 0.000000
1.000000 0.000000 0.000000
1.000000 0.000000 0.000000
1.000000 0.000000 0.000000
1.000000 0.000000 0.000000
1.000000 0.002574 0.000000
1.000000 0.011336 0.000000
1.000000 0.021079 0.000000
1.000000 0.044853 0.000000
1.000000 0.075981 0.000000
1.000000 0.114951 0.003248
1.000000 0.149755 0.016421
1.000000 0.179963 0.042708
1.000000 0.210172 0.068995
1.000000 0.239461 0.092280
1.000000 0.262745 0.117647
0.000000 0.003922 0.000000
0.004841 0.003922 0.000000
0.009681 0.005760 0.000000
0.014522 0.004841 0.000000
0.019363 0.004841 0.000000
0.024203 0.004841 0.000000
0.032966 0.004841 0.000000
0.038725 0.004841 0.000000
0.047487 0.004841 0.000000
0.055331 0.004841 0.000000
0.061091 0.004841 0.000000
0.069853 0.004841 0.000000
0.077696 0.004841 0.000000
0.083456 0.004841 0.000000
0.092218 0.004841 0.000000
0.100980 0.004841 0.000000
0.109742 0.004841 0.000000
0.118505 0.004841 0.000000
0.131189 0.004841 0.000000
0.139951 0.004841 0.000000
0.149633 0.004841 0.000000
0.162316 0.004841 0.000000
0.178922 0.004841 0.000000
0.193137 0.004841 0.000000
0.207659 0.004841 0.000000
0.228554 0.004841 0.000000
0.247916 0.003922 0.000000
0.275490 0.003922 0.000000
0.306618 0.003922 0.000000
0.338665 0.003922 0.000000
0.372916 0.000000 0.000000
0.411765 0.000000 0.000000
0.446814 0.000000 0.000000
0.480944 0.000000 0.000000
0.515992 0.000000 0.000000
0.547120 0.000000 0.000000
0.586091 0.000000 0.000000
0.623775 0.000000 0.000000
0.671140 0.000000 0.000000
0.720160 0.000000 0.000000
0.767892 0.000000 0.000000
0.821018 0.000000 0.000000
0.869362 0.000000 0.000000
0.911336 0.000000 0.000000
0.950000 0.000000 0.000000
0.981986 0.000000 0.000000
0.999142 0.000000 0.000000
1.000000 0.000919 0.000000
1.000000 0.001838 0.000000
1.000000 0.007659 0.000000
1.000000 0.012500 0.000000
1.000000 0.021998 0.000000
1.000000 0.029595 0.000000
1.000000 0.048775 0.000000
1.000000 0.072059 0.000000
1.000000 0.098346 0.000000
1.000000 0.124632 0.001409
1.000000 0.150919 0.008579
1.000000 0.181127 0.022182
1.000000 0.204167 0.042953
1.000000 0.231863 0.057476
1.000000 0.256985 0.078677
1.000000 0.279596 0.100123
1.000000 0.298958 0.117647
1.000000 0.320404 0.135171
0.003922 0.009681 0.000000
0.007843 0.009681 0.000000
0.011765 0.009681 0.000000
0.015686 0.009681 0.000000
0.023284 0.009681 0.000000
0.028125 0.009681 0.000000
0.034804 0.009681 0.000000
0.043566 0.009681 0.000000
0.048897 0.009681 0.000000
0.059253 0.011765 0.000000
0.068015 0.011765 0.000000
0.074693 0.011765 0.000000
0.083456 0.011765 0.000000
0.092218 0.013603 0.000000
0.100980 0.013603 0.000000
0.109742 0.013603 0.000000
0.118505 0.013603 0.000000
0.127268 0.013603 0.000000
0.139951 0.013603 0.000000
0.150490 0.013603 0.000000
0.164093 0.013603 0.000000
0.177696 0.011765 0.000000
0.193137 0.011765 0.000000
0.210662 0.012071 0.000000
0.230638 0.009681 0.000000
0.253003 0.009681 0.000000
0.281127 0.007843 0.000000
0.308701 0.007843 0.000000
0.343750 0.003554 0.000000
0.373591 0.003922 0.000000
0.408089 0.001838 0.000000
0.442095 0.001838 0.000000
0.474265 0.000000 0.000000
0.505393 0.000000 0.000000
0.536519 0.000000 0.000000
0.571569 0.000000 0.000000
0.606617 0.000000 0.000000
0.648224 0.000000 0.000000
0.692034 0.000000 0.000000
0.743689 0.000000 0.000000
0.791054 0.000000 0.000000
0.837316 0.000000 0.000000
0.877819 0.000000 0.000000
0.914951 0.001838 0.000000
0.950000 0.001226 0.000000
0.978983 0.005760 0.000000
0.999142 0.008824 0.000000
1.000000 0.009742 0.000000
1.000000 0.016422 0.000000
1.000000 0.027083 0.000000
1.000000 0.035784 0.000000
1.000000 0.052207 0.000000
1.000000 0.069486 0.000000
1.000000 0.090747 0.000000
1.000000 0.117035 0.000000
1.000000 0.143321 0.005331
1.000000 0.169607 0.010662
1.000000 0.194057 0.024265
1.000000 0.220343 0.039706
1.000000 0.242708 0.061152
1.000000 0.264829 0.076839
1.000000 0.284436 0.094363
1.000000 0.304045 0.111887
1.000000 0.323407 0.126410
1.000000 0.340931 0.145098
0.006679 0.014522 0.003922
0.008762 0.014522 0.005760
0.013603 0.013603 0.002758
0.018444 0.015686 0.002758
0.022365 0.015686 0.002758
0.034130 0.015686 0.002758
0.039644 0.018444 0.000000
0.048406 0.018444 0.000000
0.054412 0.018444 0.000000
0.063174 0.018444 0.000000
0.073346 0.018444 0.000000
0.076777 0.018444 0.000000
0.088296 0.018444 0.000000
0.097059 0.018444 0.000000
0.105821 0.018444 0.000000
0.113848 0.018444 0.000000
0.124510 0.018444 0.000000
0.136030 0.018444 0.000000
0.148713 0.018444 0.000000
0.159253 0.018444 0.000000
0.172856 0.018444 0.000000
0.190380 0.018444 0.000000
0.206740 0.018444 0.000000
0.228186 0.015686 0.000000
0.252390 0.014522 0.000000
0.277206 0.014522 0.000000
0.307414 0.011765 0.000000
0.338909 0.010601 0.000000
0.370037 0.007843 0.000000
0.402328 0.006679 0.000000
0.429534 0.003922 0.000000
0.459620 0.003922 0.000000
0.489828 0.003922 0.000000
0.520159 0.003922 0.000000
0.551286 0.002758 0.000000
0.582414 0.002758 0.000000
0.619179 0.003922 0.000000
0.661826 0.003922 0.000000
0.710356 0.003922 0.000000
0.757293 0.006679 0.000000
0.802267 0.006679 0.000000
0.843321 0.006679 0.000000
0.882660 0.006679 0.000000
0.918872 0.010601 0.000000
0.950000 0.013358 0.000000
0.978983 0.017280 0.000000
0.999142 0.021507 0.000000
1.000000 0.027942 0.000000
1.000000 0.036703 0.000000
1.000000 0.049388 0.000000
1.000000 0.064889 0.000000
1.000000 0.081251 0.000000
1.000000 0.100673 0.000000
1.000000 0.125797 0.000000
1.000000 0.152083 0.005331
1.000000 0.178370 0.014093
1.000000 0.201410 0.026103
1.000000 0.222856 0.039706
1.000000 0.243872 0.057230
1.000000 0.266237 0.074755
1.000000 0.284436 0.089522
1.000000 0.301961 0.103125
1.000000 0.319485 0.120649
1.000000 0.337009 0.134252
1.000000 0.354535 0.151777
0.011520 0.023284 0.003922
0.012684 0.023284 0.003922
0.019363 0.023284 0.003922
0.023284 0.023284 0.003922
0.027206 0.023284 0.003922
0.035724 0.023284 0.003922
0.040809 0.023284 0.003922
0.049571 0.023284 0.003922
0.058334 0.023039 0.003922
0.067096 0.027206 0.003922
0.075612 0.027206 0.003922
0.084375 0.027206 0.005331
0.089461 0.027206 0.003677
0.101899 0.027206 0.003677
0.108088 0.027206 0.000000
0.119669 0.027206 0.000000
0.132107 0.027206 0.000000
0.144730 0.027206 0.000000
0.157475 0.027206 0.000000
0.168015 0.027206 0.000000
0.186520 0.027206 0.000000
0.202819 0.023529 0.000000
0.224265 0.023284 0.000000
0.247243 0.023284 0.000000
0.273284 0.020834 0.000000
0.302941 0.019363 0.000000
0.333702 0.018994 0.000000
0.363910 0.011765 0.000000
0.390441 0.013236 0.000000
0.419853 0.011520 0.000000
0.446937 0.011520 0.000000
0.470588 0.011520 0.000000
0.499754 0.011520 0.000000
0.528921 0.011520 0.000000
0.560049 0.011520 0.000000
0.591177 0.011520 0.000000
0.633823 0.015196 0.000000
0.675429 0.015196 0.000000
0.719118 0.015073 0.000000
0.763849 0.015441 0.000000
0.811029 0.015441 0.000000
0.852452 0.019118 0.000000
0.887132 0.018750 0.000000
0.918872 0.026961 0.000000
0.950000 0.028187 0.000000
0.978983 0.033027 0.000000
0.995465 0.042402 0.000000
1.000000 0.050307 0.000000
1.000000 0.062990 0.000000
1.000000 0.079350 0.000000
1.000000 0.094853 0.000000
1.000000 0.112377 0.000000
1.000000 0.134559 0.003677
1.000000 0.157169 0.005331
1.000000 0.183210 0.014093
1.000000 0.205821 0.026532
1.000000 0.227696 0.043137
1.000000 0.242953 0.057230
1.000000 0.265318 0.071079
1.000000 0.284437 0.084682
1.000000 0.301961 0.098284
1.000000 0.319485 0.111887
1.000000 0.337009 0.125736
1.000000 0.350857 0.143015
1.000000 0.368137 0.156618
0.012439 0.032047 0.007843
0.020527 0.032047 0.007843
0.023529 0.032047 0.007843
0.024203 0.032047 0.004596
0.031801 0.032047 0.004596
0.039890 0.032047 0.004596
0.045404 0.033640 0.004596
0.051654 0.032721 0.004596
0.062255 0.035968 0.004596
0.071017 0.035968 0.003922
0.079779 0.035968 0.003922
0.088542 0.035968 0.003922
0.097304 0.035968 0.003922
0.106740 0.035968 0.003922
0.116605 0.035968 0.003922
0.128186 0.035968 0.003922
0.139889 0.035968 0.003922
0.153493 0.035968 0.003922
0.167096 0.035968 0.000674
0.181373 0.035968 -0.001103
0.198897 0.033272 0.000000
0.220343 0.032047 0.000000
0.243076 0.031434 0.000000
0.269363 0.028125 0.000000
0.295650 0.028125 0.000000
0.328554 0.024203 0.000000
0.355392 0.023835 0.000000
0.381679 0.020282 0.000000
0.407291 0.020282 0.000000
0.430453 0.020282 0.000000
0.455944 0.020956 0.000000
0.481556 0.020956 0.000000
0.507843 0.021630 0.000000
0.537009 0.027757 0.000000
0.564890 0.025551 0.000000
0.600735 0.029473 0.000000
0.642341 0.029473 0.000000
0.685110 0.032721 0.000000
0.732170 0.032721 0.000000
0.775980 0.032721 0.000000
0.818322 0.032721 0.000000
0.857292 0.035110 0.000000
0.889032 0.039951 0.000000
0.922488 0.040870 0.000000
0.948775 0.049633 0.000000
0.972917 0.055147 0.000000
0.991299 0.063910 0.000000
1.000000 0.072733 0.000000
1.000000 0.087010 0.000000
1.000000 0.104534 0.000000
1.000000 0.125306 0.000000
1.000000 0.143505 0.000674
1.000000 0.168199 0.009252
1.000000 0.189645 0.018014
1.000000 0.211091 0.027450
1.000000 0.228615 0.043627
1.000000 0.250061 0.057230
1.000000 0.266176 0.072671
1.000000 0.284436 0.085355
1.000000 0.301961 0.094792
1.000000 0.318811 0.110723
1.000000 0.336335 0.123407
1.000000 0.348530 0.136090
1.000000 0.364216 0.151103
1.000000 0.377819 0.161458
0.019608 0.040809 0.009436
0.025122 0.042402 0.009436
0.029289 0.042402 0.007598
0.034130 0.042402 0.007843
0.038971 0.042402 0.007843
0.041483 0.044730 0.007843
0.048652 0.044730 0.007843
0.057415 0.044730 0.007843
0.066177 0.044730 0.007843
0.074939 0.044730 0.007843
0.083701 0.044730 0.007843
0.092463 0.046997 0.007843
0.101226 0.046323 0.007843
0.110172 0.046323 0.005515
0.124265 0.046323 0.005515
0.137377 0.046323 0.003922
0.148652 0.046323 0.003922
0.159988 0.042463 0.003922
0.177451 0.044730 0.003922
0.194976 0.044730 0.003922
0.219118 0.044730 0.003922
0.241483 0.040809 0.000000
0.265442 0.040809 0.000000
0.294057 0.036887 0.000000
0.320343 0.036887 0.000000
0.346630 0.036887 0.000000
0.371323 0.034559 0.000000
0.393689 0.034559 0.000000
0.418382 0.034559 0.000000
0.440747 0.037684 0.000000
0.459192 0.040074 0.000000
0.485478 0.040074 0.000000
0.511765 0.043995 0.000000
0.540931 0.049203 0.000000
0.575858 0.047917 0.000000
0.611091 0.051839 0.000000
0.654902 0.050245 0.000000
0.698713 0.050245 0.000000
0.746446 0.050245 0.000000
0.788113 0.050245 0.000000
0.827084 0.051839 0.000000
0.862132 0.054167 0.000000
0.892280 0.055760 0.000000
0.922488 0.062317 0.000000
0.947181 0.071446 0.000000
0.969547 0.077512 0.000000
0.985785 0.090196 0.000000
1.000000 0.104473 0.000000
1.000000 0.118137 0.000000
1.000000 0.135662 0.001900
1.000000 0.158333 0.005515
1.000000 0.174632 0.013174
1.000000 0.198407 0.018750
1.000000 0.215931 0.032292
1.000000 0.238358 0.044975
1.000000 0.254902 0.061152
1.000000 0.270834 0.074264
1.000000 0.288358 0.085355
1.000000 0.303554 0.095711
1.000000 0.319485 0.106802
1.000000 0.333088 0.119485
1.000000 0.349449 0.132169
1.000000 0.362132 0.140931
1.000000 0.374816 0.153616
1.000000 0.389828 0.168627
0.026042 0.053493 0.011765
0.029964 0.053493 0.011765
0.033885 0.053493 0.011765
0.037807 0.053493 0.011765
0.041728 0.053493 0.011765
0.049571 0.056005 0.011765
0.052573 0.056005 0.011765
0.061336 0.056005 0.011765
0.070098 0.057415 0.011765
0.078860 0.057415 0.010356
0.087623 0.057415 0.010356
0.096385 0.057415 0.010356
0.107660 0.057415 0.010356
0.120343 0.057415 0.007843
0.133027 0.057415 0.007843
0.143812 0.057415 0.007843
0.159927 0.057415 0.007843
0.177451 0.057415 0.006434
0.194976 0.057415 0.003922
0.214277 0.056005 0.003922
0.236458 0.053493 0.003922
0.262929 0.053493 0.003922
0.285294 0.052083 0.000000
0.310601 0.052083 0.000000
0.335355 0.052083 0.000000
0.358272 0.050674 0.000000
0.377574 0.050674 0.000000
0.401164 0.054596 0.000000
0.420098 0.054596 0.000000
0.441544 0.058517 0.000000
0.463113 0.062439 0.000000
0.485478 0.066360 0.000000
0.514277 0.070282 0.000000
0.547365 0.070282 0.000000
0.581005 0.071691 0.000000
0.624693 0.071691 0.000000
0.667708 0.069179 0.000000
0.716238 0.067769 0.000000
0.756495 0.067769 0.000000
0.794914 0.067769 0.000000
0.833333 0.069240 0.000000
0.864461 0.074081 0.000000
0.892280 0.078922 0.000000
0.922182 0.086274 0.000000
0.941115 0.095037 0.000000
0.960049 0.103799 0.000000
0.977574 0.116483 0.000000
0.987194 0.131740 0.002513
0.994976 0.149265 0.003492
0.997487 0.166177 0.008334
1.000306 0.188541 0.017096
1.000000 0.205760 0.029596
1.000000 0.224694 0.039645
1.000000 0.242218 0.049816
1.000000 0.259743 0.062500
1.000000 0.274755 0.075184
1.000000 0.291790 0.085355
1.000000 0.305883 0.095527
1.000000 0.321079 0.106802
1.000000 0.333762 0.118076
1.000000 0.350368 0.128493
1.000000 0.363051 0.140932
1.000000 0.375306 0.149693
1.000000 0.388909 0.162378
1.000000 0.402513 0.175062
0.030883 0.065687 0.015686
0.035724 0.065687 0.015686
0.040563 0.064094 0.015686
0.041973 0.066177 0.015686
0.050245 0.066177 0.015686
0.051654 0.066177 0.015196
0.059926 0.066177 0.015196
0.066177 0.066177 0.015196
0.074020 0.069608 0.015196
0.082782 0.069608 0.015196
0.091544 0.069608 0.015196
0.103737 0.070098 0.015196
0.112254 0.070098 0.011765
0.129105 0.070098 0.011765
0.141790 0.070098 0.011765
0.157904 0.070098 0.013174
0.170098 0.070098 0.011275
0.191054 0.069608 0.007843
0.212500 0.069608 0.007843
0.231802 0.066177 0.007353
0.254657 0.066177 0.003922
0.280453 0.066177 0.003922
0.302696 0.065687 0.003922
0.324142 0.069608 0.003922
0.345589 0.069608 0.003432
0.363603 0.069608 0.003432
0.381495 0.069975 0.003432
0.402573 0.076961 0.003432
0.420098 0.080882 0.003922
0.441544 0.081373 0.003922
0.463113 0.085294 0.003922
0.492832 0.086335 0.003922
0.521079 0.089216 0.003922
0.556127 0.089216 0.004474
0.598407 0.089216 -0.000368
0.642219 0.085785 0.000000
0.686029 0.087501 0.000000
0.731128 0.085295 0.000000
0.770098 0.085295 0.000000
0.805638 0.089216 0.000000
0.837255 0.089216 0.000000
0.865993 0.096569 0.000000
0.892280 0.100368 0.000000
0.914829 0.108639 0.000000
0.932353 0.121324 0.000000
0.946447 0.132231 0.000000
0.960907 0.145834 0.003432
0.969670 0.163358 0.007415
0.978432 0.180882 0.012254
0.983272 0.198407 0.021017
0.988113 0.215932 0.033211
0.992647 0.233456 0.045711
1.000000 0.247549 0.055392
1.000000 0.266850 0.067341
1.000000 0.278677 0.080024
1.000000 0.292709 0.088787
1.000000 0.309315 0.098040
1.000000 0.319975 0.110233
1.000000 0.333579 0.119485
1.000000 0.347182 0.128248
1.000000 0.363971 0.137009
1.000000 0.376654 0.149693
1.000000 0.389338 0.158455
1.000000 0.398591 0.170221
1.000000 0.411275 0.183824
0.039216 0.075368 0.020037
0.044056 0.075368 0.020037
0.045404 0.075368 0.020037
0.050246 0.078860 0.020037
0.055086 0.078860 0.020037
0.059253 0.078860 0.020037
0.064767 0.079289 0.020037
0.071017 0.079289 0.020037
0.078371 0.079289 0.020037
0.086704 0.082782 0.020037
0.095895 0.082782 0.019608
0.110416 0.082782 0.019608
0.120526 0.083211 0.019608
0.138297 0.083211 0.016115
0.151655 0.083211 0.016115
0.165686 0.083211 0.015686
0.183211 0.083211 0.015686
0.208088 0.083211 0.012194
0.226532 0.083211 0.011765
0.248897 0.083211 0.011765
0.268566 0.083211 0.011765
0.290012 0.083211 0.008272
0.311029 0.083640 0.008272
0.328554 0.088664 0.008272
0.346078 0.087562 0.008272
0.363603 0.091483 0.008272
0.381495 0.095405 0.008272
0.402573 0.100184 0.008272
0.422304 0.099326 0.011765
0.444669 0.105943 0.011765
0.467464 0.106740 0.011765
0.498714 0.106740 0.008272
0.535723 0.106740 0.007843
0.572120 0.103860 0.004351
0.619301 0.106311 0.003922
0.658946 0.102022 0.000429
0.699632 0.102390 0.000000
0.740381 0.105025 0.000000
0.775797 0.102819 0.000000
0.809926 0.103248 0.000000
0.839706 0.108211 0.000000
0.863603 0.113480 0.000000
0.885049 0.122242 0.003309
0.906066 0.131312 0.000306
0.923162 0.144914 0.004351
0.934620 0.156802 0.008272
0.943810 0.176041 0.015258
0.952573 0.189644 0.020527
0.960907 0.207169 0.029289
0.969669 0.222794 0.039951
0.972120 0.241789 0.050736
0.983272 0.252083 0.063235
0.988541 0.268995 0.072181
0.993383 0.281372 0.080943
1.002145 0.294056 0.089706
1.000000 0.310232 0.098468
1.000000 0.322917 0.110723
1.000000 0.335600 0.119485
1.000000 0.348285 0.128247
1.000000 0.363787 0.137009
1.000000 0.373652 0.145772
1.000000 0.385907 0.154963
1.000000 0.398591 0.168873
1.000000 0.410356 0.175980
1.000000 0.420037 0.192586
0.044485 0.088971 0.028799
0.048407 0.088542 0.028799
0.052328 0.093382 0.028799
0.057660 0.092892 0.028799
0.062500 0.092892 0.028799
0.064767 0.092892 0.028799
0.072181 0.092892 0.028799
0.078370 0.095405 0.028799
0.085785 0.096814 0.028799
0.091973 0.096814 0.024877
0.100735 0.096814 0.024877
0.113419 0.096814 0.024877
0.129289 0.098162 0.024877
0.146814 0.100735 0.023529
0.161765 0.100735 0.020956
0.179289 0.100735 0.020956
0.196814 0.100735 0.020956
0.220771 0.100735 0.020956
0.238358 0.102083 0.017034
0.255882 0.102083 0.017034
0.275980 0.102083 0.017034
0.293505 0.108272 0.017034
0.311029 0.106618 0.017034
0.328554 0.109926 0.017034
0.346078 0.113848 0.019485
0.363603 0.113848 0.018382
0.381495 0.116789 0.018382
0.403922 0.120343 0.018382
0.425368 0.121691 0.017034
0.449939 0.124265 0.017034
0.477696 0.124265 0.017034
0.512745 0.124265 0.015992
0.549755 0.122304 0.011765
0.589645 0.120343 0.006311
0.633456 0.120343 0.007843
0.673346 0.116421 0.003922
0.714093 0.116421 0.003922
0.747856 0.119056 0.003922
0.780637 0.123897 0.001348
0.813419 0.125613 0.001348
0.838358 0.131005 0.001348
0.860723 0.139767 0.006311
0.879779 0.148529 0.005270
0.895649 0.162562 0.010539
0.908333 0.175245 0.014461
0.917095 0.187929 0.020527
0.928432 0.203676 0.029289
0.938541 0.221139 0.038051
0.943382 0.233456 0.048162
0.952145 0.249081 0.056924
0.960907 0.261764 0.068260
0.969669 0.274449 0.077022
0.975858 0.291054 0.085784
0.984620 0.302390 0.094547
0.993383 0.315074 0.103309
0.998222 0.327328 0.112071
1.000000 0.340442 0.119485
1.000000 0.349204 0.128247
1.000000 0.361887 0.137009
1.000000 0.376470 0.145772
1.000000 0.385907 0.154534
1.000000 0.395834 0.163296
1.000000 0.409436 0.172059
1.000000 0.420036 0.184742
1.000000 0.428799 0.200000
0.049326 0.108762 0.037561
0.051899 0.110416 0.039828
0.056740 0.110416 0.039828
0.061091 0.113174 0.039828
0.065012 0.112684 0.039828
0.072855 0.112684 0.039828
0.078370 0.114338 0.037561
0.084866 0.116851 0.037561
0.091974 0.116606 0.037561
0.100735 0.116606 0.037561
0.109497 0.118260 0.037561
0.120527 0.120527 0.035907
0.138051 0.120527 0.035907
0.155576 0.120527 0.033640
0.173100 0.120527 0.034804
0.190625 0.120282 0.031985
0.208150 0.124449 0.031985
0.225674 0.124449 0.029718
0.244853 0.124449 0.029718
0.262378 0.128370 0.029718
0.279902 0.128370 0.029718
0.297426 0.131986 0.029718
0.313297 0.130637 0.029718
0.330821 0.136213 0.029718
0.348345 0.136213 0.029718
0.367524 0.141238 0.029718
0.387684 0.138235 0.029718
0.410049 0.141789 0.029718
0.436397 0.141789 0.027512
0.464093 0.141789 0.025796
0.495221 0.141789 0.025673
0.532537 0.141789 0.020834
0.571508 0.137867 0.015686
0.611091 0.137867 0.011152
0.649448 0.137867 0.011765
0.690073 0.136213 0.007843
0.724510 0.135662 0.008394
0.755269 0.140135 0.006189
0.781924 0.144057 0.006189
0.807230 0.154166 0.010110
0.832047 0.159559 0.010110
0.849571 0.168321 0.012377
0.863787 0.180392 0.019608
0.876164 0.193689 0.024449
0.890809 0.205330 0.031556
0.899571 0.221201 0.040319
0.908333 0.236458 0.049081
0.921017 0.246140 0.059498
0.929779 0.259742 0.068260
0.938541 0.273346 0.077022
0.945650 0.286949 0.083517
0.956066 0.296814 0.092280
0.964828 0.311152 0.099387
0.971936 0.321569 0.105883
0.982353 0.332598 0.114645
0.989460 0.344853 0.123407
1.000000 0.352267 0.128247
1.000000 0.366728 0.137009
1.000000 0.375490 0.145772
1.000000 0.388174 0.154535
1.000000 0.398591 0.161029
1.000000 0.409620 0.169791
1.000000 0.420036 0.180821
1.000000 0.431801 0.189584
1.000000 0.441483 0.206189
0.054167 0.131127 0.053431
0.055821 0.135049 0.053431
0.060662 0.135049 0.053431
0.065503 0.135049 0.053431
0.069853 0.135049 0.053431
0.075184 0.138970 0.053431
0.083211 0.138970 0.053431
0.091974 0.138970 0.053431
0.100736 0.138970 0.053431
0.106005 0.142892 0.053431
0.121446 0.142892 0.050245
0.130943 0.142892 0.050245
0.146814 0.142892 0.049509
0.164338 0.143627 0.049509
0.178677 0.146814 0.046324
0.199388 0.146814 0.047488
0.216912 0.146814 0.045588
0.231250 0.147549 0.045588
0.251103 0.150735 0.042402
0.265564 0.151470 0.042402
0.283089 0.154657 0.042402
0.297426 0.154657 0.042402
0.314951 0.155392 0.042402
0.335661 0.158578 0.042402
0.352451 0.159313 0.042402
0.374633 0.159313 0.042402
0.396446 0.159313 0.038481
0.421998 0.159313 0.038481
0.448284 0.159313 0.036274
0.481618 0.159313 0.031373
0.515930 0.159313 0.027451
0.551715 0.158272 0.023529
0.590686 0.155392 0.019608
0.629657 0.155392 0.018873
0.665442 0.155392 0.015686
0.700491 0.158578 0.014951
0.730637 0.160295 0.014951
0.756372 0.165134 0.014951
0.780392 0.173897 0.018505
0.801838 0.178738 0.022058
0.820097 0.190686 0.023529
0.838420 0.198652 0.028371
0.851225 0.212132 0.037133
0.863788 0.225551 0.041973
0.873284 0.238235 0.050735
0.882047 0.250919 0.059497
0.893995 0.263603 0.068260
0.903493 0.276287 0.077022
0.915441 0.282843 0.082598
0.924203 0.296446 0.090625
0.932965 0.307230 0.096201
0.942463 0.319179 0.104963
0.954412 0.328677 0.109803
0.963174 0.341360 0.118566
0.971936 0.350122 0.124755
0.980698 0.358885 0.132169
0.989461 0.371569 0.137009
0.996813 0.378554 0.145772
1.000000 0.389829 0.151348
1.000000 0.401777 0.159375
1.000000 0.411274 0.168138
1.000000 0.420036 0.176899
1.000000 0.431985 0.185661
1.000000 0.441483 0.194240
1.000000 0.450245 0.207843
0.059008 0.157414 0.070772
0.063848 0.157414 0.070772
0.068689 0.159253 0.070772
0.073529 0.161335 0.070772
0.082292 0.161335 0.070772
0.087133 0.161335 0.067035
0.091973 0.161335 0.067035
0.100735 0.161335 0.067035
0.109681 0.165074 0.067035
0.122611 0.165074 0.066851
0.131127 0.166422 0.066851
0.143811 0.165257 0.063113
0.156495 0.165257 0.062929
0.172917 0.165257 0.062929
0.186704 0.168995 0.059192
0.204228 0.168995 0.059008
0.218811 0.171935 0.059008
0.239093 0.169178 0.059008
0.252879 0.172917 0.055270
0.270221 0.172917 0.055086
0.287745 0.172917 0.055086
0.305269 0.173100 0.055086
0.322978 0.176839 0.055086
0.340503 0.176839 0.055086
0.361949 0.176839 0.051348
0.386765 0.176839 0.051164
0.409314 0.176839 0.047059
0.436888 0.176839 0.047243
0.468015 0.176839 0.043321
0.499327 0.176839 0.039400
0.534375 0.172917 0.035478
0.573161 0.172917 0.031557
0.608211 0.172917 0.027635
0.643260 0.175797 0.027635
0.674325 0.173100 0.023713
0.704351 0.180943 0.023897
0.728921 0.186581 0.027635
0.754106 0.191605 0.027819
0.771630 0.200367 0.031741
