Color/Kodak/Kodak Ektar 100 65x.cube
TITLE "Kodak Ektar 100"
LUT_3D_SIZE 9
DOMAIN_MIN 0.000000 0.000000 0.000000
DOMAIN_MAX 1.000000 1.000000 1.000000
0.000000 0.000000 0.000000
0.140686 0.000000 0.000000
0.261765 0.003922 0.000000
0.378922 0.011765 0.000000
0.539216 0.029412 0.000000
0.703431 0.054902 0.000000
0.832353 0.070588 0.000000
0.957353 0.090196 0.000000
1.000000 0.105882 0.000000
0.031373 0.105392 0.019608
0.113235 0.113235 0.015686
0.227451 0.117647 0.015686
0.351471 0.125490 0.011765
0.517648 0.136765 0.007843
0.683824 0.140686 0.003922
0.817157 0.136765 0.000000
0.957353 0.121079 0.000000
1.000000 0.105882 0.000000
0.090196 0.200000 0.074510
0.129412 0.203922 0.074510
0.207843 0.210785 0.070588
0.335784 0.218627 0.066667
0.507843 0.230392 0.057844
0.660294 0.234314 0.047059
0.793137 0.230393 0.038236
0.930882 0.218627 0.023529
1.000000 0.187255 0.011765
0.068137 0.304412 0.120098
0.095098 0.308333 0.117647
0.180882 0.312255 0.117647
0.320098 0.320098 0.112255
0.500000 0.331863 0.101961
0.636765 0.335784 0.094118
0.764215 0.335784 0.087746
0.898529 0.327941 0.070588
1.000000 0.304412 0.054902
0.000000 0.445098 0.152941
0.003922 0.450490 0.150981
0.106862 0.452941 0.149020
0.287255 0.460785 0.141176
0.456863 0.472549 0.133333
0.583824 0.476471 0.125490
0.716667 0.480392 0.117647
0.845589 0.472549 0.105882
0.966666 0.445098 0.094118
0.000000 0.550490 0.176471
0.000000 0.554412 0.176471
0.118137 0.558333 0.172549
0.299020 0.570098 0.164706
0.433333 0.577941 0.156863
0.554412 0.584314 0.149020
0.683333 0.589706 0.141176
0.799020 0.593627 0.129412
0.909804 0.585784 0.117647
0.000981 0.659804 0.207843
0.043628 0.666177 0.207843
0.147059 0.667647 0.203922
0.284804 0.671569 0.200000
0.405882 0.679412 0.192157
0.530882 0.687255 0.184314
0.651960 0.695098 0.172549
0.757353 0.698039 0.156863
0.874510 0.695098 0.133333
0.081863 0.752941 0.250980
0.108823 0.753431 0.250980
0.187746 0.756863 0.247549
0.300490 0.763235 0.243627
0.417647 0.768627 0.239216
0.530882 0.776471 0.231373
0.632353 0.780882 0.223529
0.729902 0.788725 0.207843
0.858824 0.796078 0.180392
0.070588 0.870588 0.290196
0.101961 0.870588 0.290196
0.179412 0.874510 0.286275
0.292647 0.878431 0.286275
0.398039 0.886275 0.282353
0.494118 0.890196 0.274510
0.585294 0.898039 0.266667
0.682843 0.902451 0.250980
0.854902 0.913725 0.215686
0.000000 0.000000 0.090196
0.156373 0.000000 0.082353
0.277451 0.003922 0.081863
0.398529 0.011765 0.074510
0.558823 0.029412 0.066177
0.723039 0.052451 0.054412
0.851470 0.070588 0.042647
0.976961 0.090196 0.030883
1.000000 0.105882 0.015686
0.042647 0.113235 0.125000
0.121079 0.121079 0.121079
0.235294 0.128922 0.117157
0.359804 0.136765 0.113235
0.529902 0.144608 0.105392
0.695588 0.148530 0.093628
0.829902 0.144608 0.081863
0.969117 0.128922 0.069608
1.000000 0.105882 0.050490
0.090196 0.206863 0.151961
0.133333 0.210785 0.148530
0.215196 0.215686 0.145098
0.343627 0.223529 0.140686
0.515686 0.235294 0.130392
0.668137 0.242157 0.121079
0.801471 0.238236 0.111765
0.941666 0.223529 0.097549
1.000000 0.191176 0.081863
0.064216 0.312255 0.175000
0.091667 0.312255 0.172549
0.187255 0.316177 0.171078
0.327941 0.324020 0.164706
0.503922 0.335784 0.156373
0.642157 0.339706 0.148530
0.773529 0.339706 0.139706
0.906372 0.331863 0.127941
1.000000 0.308333 0.112255
0.000000 0.449020 0.195588
0.011275 0.449020 0.194117
0.110784 0.456863 0.191667
0.292647 0.464706 0.183824
0.460785 0.476471 0.172549
0.589706 0.480392 0.166666
0.721569 0.484314 0.156863
0.849510 0.476470 0.148530
0.972549 0.450981 0.137255
0.000000 0.554412 0.223039
0.000000 0.554412 0.223039
0.128432 0.562255 0.219118
0.305882 0.570098 0.211275
0.437255 0.577941 0.205392
0.562255 0.585784 0.196078
0.687255 0.593627 0.185784
0.804412 0.593627 0.172059
0.916176 0.589706 0.154412
0.005883 0.662745 0.254412
0.059314 0.663726 0.254412
0.155883 0.667647 0.250490
0.292647 0.674510 0.246569
0.413725 0.679412 0.240196
0.538725 0.687255 0.234804
0.658824 0.695098 0.223529
0.764706 0.699019 0.211275
0.881373 0.699019 0.191667
0.093628 0.752941 0.297549
0.117647 0.753431 0.297549
0.202941 0.757353 0.294608
0.312255 0.761274 0.290686
0.425490 0.769117 0.286765
0.538725 0.776961 0.281863
0.640196 0.784314 0.274020
0.737255 0.788725 0.262255
0.866667 0.796568 0.235784
0.093628 0.870588 0.344608
0.121079 0.874510 0.341176
0.199020 0.874510 0.340686
0.304412 0.881863 0.338235
0.405883 0.886275 0.336765
0.503431 0.894118 0.332843
0.593137 0.898039 0.325000
0.690686 0.905882 0.312746
0.862745 0.917647 0.277941
0.000000 0.000000 0.180392
0.167157 0.003922 0.172549
0.285295 0.007843 0.171568
0.410294 0.011765 0.163725
0.573530 0.029412 0.155882
0.738725 0.052451 0.144118
0.863726 0.070588 0.133333
0.992157 0.090196 0.120589
1.000000 0.105882 0.101961
0.050490 0.121079 0.206863
0.128922 0.128922 0.202941
0.242157 0.136274 0.199020
0.367647 0.144608 0.195098
0.541176 0.152451 0.184314
0.703431 0.156373 0.175490
0.840196 0.152451 0.164216
0.980882 0.136765 0.152451
1.000000 0.105882 0.136765
0.094118 0.211765 0.226470
0.137255 0.215196 0.226470
0.222549 0.222549 0.222549
0.351471 0.230393 0.218627
0.525490 0.242157 0.208823
0.679902 0.247059 0.199020
0.812745 0.246079 0.191176
0.949510 0.231373 0.179412
1.000000 0.199020 0.167647
0.060294 0.316177 0.250000
0.087745 0.320098 0.250000
0.192647 0.324020 0.247059
0.335784 0.331863 0.242157
0.513726 0.343627 0.234314
0.652451 0.347549 0.226470
0.783824 0.347549 0.218628
0.915686 0.339706 0.206863
1.000000 0.316177 0.192157
0.000000 0.452941 0.277451
0.021569 0.456863 0.276470
0.114706 0.460785 0.273529
0.302941 0.472549 0.266667
0.469608 0.480392 0.258824
0.597549 0.488236 0.253922
0.730392 0.491177 0.244117
0.859314 0.484314 0.234314
0.980392 0.458823 0.220588
0.000000 0.558333 0.307353
0.004902 0.558333 0.304902
0.143137 0.566176 0.303431
0.320098 0.574020 0.297059
0.449020 0.581863 0.293137
0.572549 0.589706 0.286765
0.699019 0.597549 0.277941
0.815686 0.597549 0.269608
0.927941 0.593627 0.253922
0.029412 0.663725 0.346078
0.082843 0.667647 0.345098
0.183334 0.671569 0.344117
0.312255 0.675490 0.341176
0.429412 0.683334 0.337255
0.553431 0.691176 0.332353
0.671569 0.699019 0.325490
0.776961 0.702941 0.316667
0.894118 0.702941 0.300000
0.117647 0.753431 0.399019
0.152451 0.756373 0.399019
0.234804 0.757353 0.399019
0.335784 0.763235 0.395098
0.445098 0.769117 0.391667
0.554412 0.776961 0.387745
0.655883 0.784804 0.383333
0.752941 0.792157 0.375491
0.886275 0.796568 0.355882
0.125490 0.874510 0.434314
0.148530 0.878431 0.434314
0.230392 0.878431 0.431373
0.324510 0.884804 0.430392
0.423529 0.890196 0.426471
0.515196 0.898039 0.423529
0.604902 0.901961 0.418627
0.706372 0.909804 0.410784
0.878431 0.921569 0.387255
0.000000 0.003922 0.262745
0.172059 0.011765 0.257353
0.293137 0.014216 0.253431
0.418137 0.019608 0.249510
0.588236 0.029412 0.239706
0.750490 0.050980 0.229902
0.879412 0.070588 0.222059
1.000000 0.090196 0.210294
1.000000 0.105882 0.194608
0.054902 0.129412 0.292647
0.132843 0.136765 0.288726
0.250000 0.144608 0.284804
0.375000 0.152451 0.280882
0.550000 0.163235 0.273039
0.715196 0.167157 0.265196
0.851961 0.160294 0.257353
0.991176 0.144608 0.245588
1.000000 0.105882 0.233824
0.094118 0.219608 0.316177
0.137255 0.222549 0.316177
0.230393 0.230393 0.312255
0.359314 0.238235 0.308824
0.537254 0.250000 0.300980
0.687745 0.254902 0.293137
0.824019 0.253922 0.286765
0.961274 0.242157 0.276961
1.000000 0.206863 0.265196
0.058824 0.327941 0.347549
0.080882 0.327941 0.347549
0.199020 0.335784 0.346078
0.343627 0.343627 0.343627
0.523529 0.353432 0.335784
0.660294 0.355392 0.327941
0.794608 0.355392 0.322549
0.927451 0.347549 0.312255
1.000000 0.324020 0.300490
0.001961 0.460785 0.386765
0.038726 0.460785 0.386765
0.122549 0.468627 0.384804
0.318628 0.476471 0.380883
0.484314 0.488236 0.375000
0.609804 0.496079 0.371078
0.742647 0.500000 0.365196
0.871078 0.493627 0.357353
0.992157 0.470588 0.345588
0.000000 0.562255 0.429902
0.029902 0.564216 0.429902
0.165196 0.570098 0.427451
0.339706 0.578922 0.423529
0.468627 0.588235 0.422059
0.589706 0.593627 0.418137
0.717157 0.601471 0.410784
0.831863 0.605392 0.403922
0.945098 0.597549 0.392157
0.063725 0.667647 0.467647
0.109804 0.671569 0.465196
0.218628 0.675490 0.465196
0.335784 0.679412 0.462255
0.449019 0.687255 0.461275
0.570098 0.695098 0.456863
0.687255 0.702941 0.449510
0.792647 0.706863 0.445588
0.913725 0.706863 0.433824
0.149510 0.757353 0.496569
0.188725 0.757353 0.496569
0.262255 0.761274 0.496569
0.355882 0.765196 0.492647
0.461765 0.773039 0.490686
0.570098 0.780882 0.486765
0.671568 0.788725 0.482353
0.768627 0.792647 0.476961
0.901961 0.800490 0.463235
0.137255 0.882353 0.516177
0.175981 0.882353 0.516177
0.250000 0.886275 0.513726
0.339706 0.890196 0.512255
0.437255 0.894118 0.509804
0.526961 0.901961 0.508333
0.616667 0.909804 0.504412
0.718137 0.917647 0.496569
0.896569 0.927941 0.478431
0.003922 0.007843 0.354902
0.179902 0.015686 0.350981
0.297059 0.023529 0.350981
0.425980 0.027451 0.347059
0.600000 0.039216 0.339216
0.766176 0.050980 0.331372
0.895098 0.070588 0.327451
1.000000 0.090196 0.315686
1.000000 0.105882 0.303921
0.062745 0.140686 0.398039
0.140686 0.148530 0.397549
0.254412 0.156373 0.394118
0.386765 0.164216 0.394117
0.561275 0.174510 0.389706
0.726961 0.178431 0.382353
0.863726 0.172059 0.376471
1.000000 0.156373 0.368137
1.000000 0.117157 0.354902
0.098039 0.227451 0.437255
0.141176 0.231373 0.437255
0.238235 0.238235 0.436275
0.368627 0.247059 0.433334
0.549019 0.260784 0.429412
0.703431 0.265686 0.423530
0.836274 0.265686 0.417647
0.976961 0.253431 0.409804
1.000000 0.218627 0.400981
0.056863 0.339706 0.476471
0.075980 0.339706 0.476471
0.204412 0.347549 0.475000
0.351471 0.353922 0.472549
0.535294 0.363235 0.464706
0.673530 0.367157 0.460785
0.808823 0.367157 0.456863
0.941666 0.358824 0.449019
1.000000 0.331863 0.441176
0.017647 0.464706 0.507843
0.054412 0.468627 0.507843
0.132353 0.472549 0.506863
0.330392 0.484314 0.500000
0.496078 0.496078 0.496078
0.625000 0.503922 0.492157
0.757843 0.507843 0.488236
0.882843 0.503922 0.480392
1.000000 0.482353 0.472549
0.000000 0.566176 0.535294
0.049510 0.570098 0.534804
0.178431 0.577941 0.531373
0.351471 0.585784 0.527451
0.480392 0.593627 0.523529
0.601471 0.601471 0.519608
0.728922 0.609314 0.515686
0.843627 0.609314 0.507843
0.959314 0.605392 0.500000
0.079411 0.671569 0.557843
0.121079 0.675490 0.556863
0.234314 0.679412 0.554902
0.347549 0.683334 0.552941
0.460784 0.691176 0.550000
0.581863 0.699019 0.546569
0.699019 0.706863 0.542156
0.804412 0.710785 0.535294
0.925490 0.710784 0.527451
0.180392 0.760784 0.582353
0.213725 0.761274 0.582353
0.281372 0.764706 0.580392
0.371569 0.769117 0.578431
0.476470 0.776961 0.574510
0.585784 0.784804 0.573039
0.683334 0.792157 0.569117
0.780882 0.796568 0.562745
0.921569 0.804412 0.553431
0.160784 0.886275 0.600000
0.198039 0.890196 0.600000
0.266667 0.890196 0.600000
0.355392 0.898039 0.598039
0.449020 0.901961 0.596078
0.538725 0.909804 0.594118
0.625490 0.917647 0.590196
0.729902 0.922059 0.585784
0.913725 0.937255 0.570588
0.007843 0.015686 0.483824
0.183824 0.027451 0.479902
0.304902 0.035294 0.479902
0.433824 0.044608 0.475980
0.611764 0.054902 0.472059
0.783333 0.054902 0.464216
0.914706 0.070588 0.460294
1.000000 0.090196 0.452451
1.000000 0.105882 0.444608
0.070588 0.152451 0.523039
0.144608 0.160294 0.519118
0.261765 0.168137 0.519118
0.390686 0.175981 0.515196
0.569117 0.187745 0.511275
0.736764 0.191667 0.503431
0.875490 0.185784 0.498529
1.000000 0.172059 0.491667
1.000000 0.132843 0.483824
0.090196 0.238236 0.548039
0.137255 0.242157 0.546569
0.239216 0.250000 0.546569
0.370588 0.257353 0.542647
0.556863 0.273529 0.534804
0.711275 0.277451 0.530882
0.848039 0.277451 0.524510
0.984804 0.265686 0.519118
1.000000 0.232843 0.511275
0.044608 0.351471 0.574020
0.058334 0.355392 0.574020
0.196568 0.359314 0.570098
0.347549 0.367157 0.567157
0.539216 0.378922 0.562255
0.678922 0.382843 0.556863
0.815196 0.378922 0.550490
0.949510 0.371078 0.546569
1.000000 0.346569 0.538725
0.015686 0.472549 0.597549
0.049019 0.476471 0.597549
0.129412 0.480392 0.594118
0.331863 0.492157 0.589216
0.500000 0.503922 0.585784
0.628922 0.511765 0.581863
0.764706 0.517647 0.577941
0.890686 0.515686 0.570588
1.000000 0.497549 0.566176
0.000000 0.574020 0.621078
0.046569 0.576471 0.621078
0.178431 0.581863 0.618137
0.357843 0.593627 0.615686
0.484314 0.601471 0.613235
0.609314 0.609314 0.609314
0.738235 0.617157 0.605392
0.853921 0.617157 0.597549
0.971078 0.613235 0.593627
0.083334 0.675490 0.644608
0.126470 0.679411 0.644608
0.246078 0.683334 0.644608
0.359314 0.690196 0.640686
0.472549 0.698039 0.640196
0.593627 0.706863 0.636765
0.710784 0.714706 0.632843
0.816176 0.718627 0.628922
0.941176 0.718628 0.621078
0.200490 0.761274 0.672059
0.231863 0.765196 0.671078
0.297549 0.768627 0.670588
0.386765 0.773039 0.668137
0.488726 0.780392 0.666667
0.597549 0.788725 0.664216
0.698529 0.796078 0.660294
0.792647 0.800490 0.656373
0.937255 0.808333 0.647549
0.180392 0.894118 0.690196
0.215196 0.898039 0.690196
0.281373 0.898039 0.687745
0.367157 0.904412 0.687745
0.460294 0.909804 0.686275
0.549020 0.917647 0.683824
0.636275 0.925490 0.679902
0.739216 0.933333 0.675980
0.930882 0.945098 0.664216
0.011765 0.027451 0.584314
0.179902 0.043137 0.580392
0.304902 0.053921 0.577451
0.437745 0.059804 0.573530
0.613725 0.074510 0.568627
0.789706 0.075490 0.560784
0.927451 0.070588 0.553921
1.000000 0.090196 0.550000
1.000000 0.105882 0.542156
0.066667 0.164706 0.612745
0.141176 0.172059 0.611275
0.253922 0.181372 0.608823
0.390686 0.191667 0.604902
0.572549 0.203432 0.601471
0.742647 0.207843 0.593137
0.879902 0.203432 0.589216
1.000000 0.187745 0.581372
1.000000 0.150000 0.575981
0.086275 0.253922 0.636275
0.125000 0.257844 0.636275
0.231373 0.265686 0.634314
0.368627 0.273529 0.632353
0.556863 0.284314 0.624510
0.715196 0.293137 0.620588
0.851961 0.293137 0.614706
0.992157 0.281373 0.608824
1.000000 0.250000 0.604902
0.014706 0.369608 0.663725
0.032843 0.371078 0.661275
0.179412 0.378922 0.659804
0.337255 0.386765 0.655883
0.535294 0.398529 0.651960
0.679902 0.399510 0.648039
0.818137 0.398529 0.641667
0.954902 0.386765 0.636275
1.000000 0.361764 0.632353
0.005883 0.480392 0.687255
0.029412 0.484314 0.687255
0.113725 0.490196 0.687255
0.329412 0.500000 0.682353
0.503922 0.515686 0.675490
0.634804 0.523529 0.672549
0.769607 0.527451 0.668628
0.898529 0.527451 0.663726
1.000000 0.512745 0.659804
0.000000 0.581863 0.711275
0.030883 0.581863 0.710785
0.164216 0.589706 0.710785
0.357843 0.601471 0.706862
0.488236 0.609314 0.702941
0.613235 0.617157 0.699019
0.746079 0.625000 0.695098
0.862255 0.627451 0.691177
0.980392 0.621078 0.687255
0.081372 0.682353 0.734314
0.122059 0.683334 0.733333
0.250000 0.687255 0.730392
0.363235 0.695098 0.730392
0.476471 0.702941 0.726471
0.601471 0.710784 0.722549
0.718628 0.718628 0.718628
0.826961 0.725490 0.714706
0.952941 0.726471 0.710784
0.208333 0.765196 0.753922
0.242647 0.769117 0.753431
0.306372 0.772549 0.752941
0.394608 0.776961 0.750000
0.496569 0.784804 0.749020
0.605392 0.792647 0.746078
0.706863 0.800490 0.742157
0.804412 0.807843 0.738235
0.952941 0.815686 0.730392
0.184314 0.901961 0.768627
0.215686 0.905882 0.768627
0.285295 0.906862 0.765686
0.371078 0.913725 0.765686
0.464706 0.917647 0.764706
0.554412 0.925490 0.761764
0.640196 0.933333 0.760784
0.746078 0.941176 0.756863
0.949020 0.956863 0.745098
0.011765 0.047549 0.671078
0.172059 0.062745 0.667157
0.297059 0.071078 0.667157
0.432353 0.082353 0.663235
0.611765 0.094118 0.658824
0.789706 0.098529 0.651470
0.931373 0.093628 0.647549
1.000000 0.086765 0.639706
1.000000 0.105882 0.635784
0.061765 0.180882 0.702451
0.136274 0.188235 0.702451
0.242157 0.199510 0.698529
0.382843 0.207353 0.697549
0.568628 0.223039 0.690686
0.742647 0.227941 0.685785
0.883334 0.224019 0.678921
1.000000 0.211275 0.675000
1.000000 0.172059 0.671078
0.078431 0.269608 0.725980
0.113725 0.273529 0.725980
0.214706 0.281373 0.725490
0.359314 0.289216 0.722059
0.552451 0.304902 0.714216
0.715196 0.310294 0.710294
0.855883 0.310294 0.706372
0.993627 0.300980 0.701961
1.000000 0.273529 0.694608
0.000000 0.386765 0.749510
0.001471 0.390686 0.749510
0.149510 0.395098 0.749510
0.316177 0.406373 0.745588
0.523039 0.418137 0.737745
0.673530 0.422059 0.733823
0.816667 0.422059 0.729902
0.957353 0.410294 0.725980
1.000000 0.382843 0.721569
0.000000 0.492157 0.773039
0.000000 0.492157 0.772549
0.068628 0.500000 0.769117
0.314216 0.511765 0.765196
0.500000 0.525980 0.760784
0.634804 0.535294 0.756863
0.773530 0.541666 0.752941
0.900490 0.543137 0.749020
1.000000 0.531373 0.743137
0.000000 0.589706 0.792647
0.009314 0.589706 0.792157
0.123529 0.597549 0.788725
0.345098 0.609314 0.784804
0.484314 0.617157 0.780882
0.613235 0.627941 0.776961
0.746079 0.636765 0.773039
0.865686 0.639216 0.769117
0.988235 0.632843 0.765196
0.045098 0.687255 0.808333
0.093628 0.690196 0.807843
0.235295 0.695098 0.804412
0.359314 0.701961 0.803922
0.476470 0.709804 0.800490
0.601471 0.718627 0.796568
0.722549 0.726471 0.792647
0.831863 0.733333 0.789215
0.960784 0.734314 0.784804
0.196568 0.772549 0.824019
0.231863 0.773039 0.824019
0.300980 0.776961 0.824019
0.390686 0.780882 0.823529
0.498529 0.788725 0.820098
0.609314 0.796568 0.816176
0.713726 0.804412 0.815686
0.812255 0.812255 0.812255
0.965196 0.820098 0.804412
0.168627 0.913725 0.839706
0.200000 0.913725 0.839706
0.273039 0.917647 0.839706
0.363235 0.921569 0.839706
0.460785 0.929412 0.839216
0.552941 0.937255 0.835784
0.644118 0.945098 0.835784
0.750000 0.952941 0.831863
0.964706 0.968627 0.824019
0.015686 0.078431 0.760784
0.148530 0.086275 0.756863
0.281373 0.098039 0.756863
0.418137 0.105882 0.752941
0.603921 0.117647 0.745098
0.785784 0.125490 0.741176
0.930392 0.121569 0.733333
1.000000 0.101961 0.729412
1.000000 0.101961 0.725490
0.035294 0.200000 0.788235
0.109804 0.207843 0.787745
0.218628 0.219118 0.784314
0.362255 0.230883 0.780392
0.554902 0.241177 0.772549
0.735294 0.250980 0.768627
0.876960 0.250490 0.764216
1.000000 0.238726 0.756863
1.000000 0.199510 0.752941
0.044117 0.289216 0.807843
0.079411 0.293137 0.807843
0.175490 0.301961 0.803922
0.331372 0.312746 0.800000
0.533334 0.328431 0.792157
0.707353 0.336275 0.788235
0.851961 0.336275 0.784314
0.992647 0.328431 0.776471
1.000000 0.300980 0.772549
0.000000 0.406373 0.827451
0.000000 0.410294 0.825980
0.091667 0.418137 0.823529
0.276961 0.425980 0.819608
0.501961 0.441667 0.811765
0.660294 0.449510 0.807843
0.804902 0.449510 0.803922
0.949510 0.441667 0.800000
1.000000 0.410294 0.796078
0.000000 0.501961 0.843137
0.000000 0.503922 0.843137
0.000000 0.511765 0.843137
0.275490 0.523529 0.839216
0.486274 0.539216 0.831373
0.625000 0.546569 0.827451
0.767646 0.556863 0.823529
0.898529 0.558823 0.819608
1.000000 0.550980 0.815686
0.000000 0.597549 0.862745
0.000000 0.601471 0.862745
0.045588 0.609314 0.860294
0.314706 0.621078 0.854902
0.473039 0.631373 0.852451
0.605392 0.640686 0.850980
0.742156 0.648529 0.847059
0.863235 0.652451 0.843137
0.990686 0.648529 0.839216
0.000000 0.691176 0.886275
0.003922 0.695098 0.886275
0.188236 0.701961 0.882353
0.339706 0.706863 0.882353
0.464706 0.717647 0.879412
0.593627 0.726471 0.878431
0.722549 0.737255 0.875490
0.834804 0.742156 0.874510
0.968627 0.746079 0.871568
0.153431 0.776961 0.918137
0.199510 0.776961 0.918137
0.275000 0.780882 0.918137
0.375490 0.788235 0.918137
0.488236 0.796078 0.918137
0.609314 0.804412 0.918137
0.718137 0.812255 0.918137
0.820098 0.820098 0.921569
0.980392 0.831373 0.917647
0.121569 0.921569 0.968627
0.152941 0.925490 0.968627
0.242157 0.925490 0.968627
0.347549 0.933333 0.972549
0.452941 0.941176 0.972549
0.552941 0.949020 0.976471
0.647059 0.956863 0.980392
0.757353 0.968627 0.988235
1.000000 0.992157 0.992157
