Color/Kodak/Kodak Portra 400 1 - 65x.cube
TITLE "Kodak Portra 400 1 -"
LUT_3D_SIZE 65
DOMAIN_MIN 0.000000 0.000000 0.000000
DOMAIN_MAX 1.000000 1.000000 1.000000
0.000000 0.000000 0.000000
0.003922 0.000000 0.000000
0.009681 0.000000 0.000000
0.014522 0.000000 0.000000
0.019363 0.000000 0.000000
0.028125 0.000000 0.000000
0.044730 0.002329 0.000000
0.056005 0.000000 0.000000
0.073530 0.003432 0.000000
0.086704 0.000000 0.000000
0.104657 0.003922 0.000000
0.120527 0.003922 0.000000
0.142892 0.003922 0.000000
0.161335 0.003738 0.000000
0.186520 0.002819 0.000000
0.209988 0.000000 0.000000
0.233333 0.000000 0.000000
0.258640 0.000000 0.000000
0.287991 0.000000 0.000000
0.311213 0.000000 0.000000
0.338725 0.000000 0.000000
0.363787 0.000000 0.000000
0.390686 0.000000 0.000000
0.420282 0.000000 0.000000
0.446569 0.000000 0.000000
0.472856 0.000000 0.000000
0.502696 0.000000 0.000000
0.525429 0.000000 0.000000
0.549510 0.000000 0.000000
0.574081 0.000000 0.000000
0.596446 0.000000 0.000000
0.621691 0.000000 0.000000
0.643138 0.000000 0.000000
0.667463 0.000000 0.000000
0.682230 0.000000 0.000000
0.703554 0.000000 0.000000
0.725000 0.000000 0.000000
0.743811 0.000000 0.000000
0.763971 0.000000 0.000000
0.781495 0.000000 0.000000
0.799019 0.000000 0.000000
0.814154 0.000000 0.000000
0.830147 0.000000 0.000000
0.839829 0.000000 0.000000
0.856128 0.000000 0.000000
0.867034 0.000000 0.000000
0.880637 0.000000 0.000000
0.894118 0.000000 0.000000
0.903922 0.000000 0.000000
0.913603 0.000000 0.000000
0.927206 0.000000 0.000000
0.937071 0.000000 0.000000
0.946569 0.000000 0.000000
0.960172 0.000000 0.000000
0.971201 0.002574 0.000000
0.979963 0.026164 0.000000
0.988725 0.055882 0.000000
1.000000 0.077329 0.000000
1.000000 0.094853 0.000000
1.000000 0.112377 0.000000
1.000000 0.129657 0.000000
1.000000 0.139583 0.000000
1.000000 0.155025 0.000000
1.000000 0.170711 0.000000
1.000000 0.188235 0.000000
0.000000 0.000919 0.000000
0.003922 0.003922 0.003003
0.007843 0.003922 0.000000
0.011765 0.002084 0.000000
0.022366 0.010600 0.000000
0.031802 0.007843 0.000000
0.046997 0.007843 0.000000
0.056005 0.004841 0.000000
0.070098 0.005330 0.000000
0.087623 0.008762 0.000000
0.105086 0.010110 0.000000
0.119178 0.011029 0.000000
0.142892 0.012684 0.000000
0.161335 0.008027 0.000000
0.183701 0.008762 0.000000
0.209988 0.008762 0.000000
0.232353 0.000919 0.000000
0.258640 -0.002942 0.000000
0.284927 0.000000 0.000000
0.311213 0.000000 0.000000
0.340196 0.000000 0.000000
0.363787 0.000000 0.000000
0.393995 0.000000 0.000000
0.420282 0.000000 0.000000
0.446569 0.000000 0.000000
0.472856 0.000000 0.000000
0.499142 0.000000 0.000000
0.524142 0.000000 0.000000
0.550797 0.000000 0.000000
0.574081 0.000000 0.000000
0.600245 0.000000 0.000000
0.621691 0.000000 0.000000
0.643138 0.000000 0.000000
0.664584 0.000000 0.000000
0.685907 0.000000 0.000000
0.703554 0.000000 0.000000
0.725797 0.000000 0.000000
0.742525 0.000000 0.000000
0.760968 0.000000 0.000000
0.780576 0.000000 0.000000
0.799571 0.000000 0.000000
0.812622 0.000000 0.000000
0.830147 0.000000 0.000000
0.839829 0.000000 0.000000
0.856128 0.000000 0.000000
0.867893 0.000000 0.000000
0.877573 0.000000 0.000000
0.889400 0.000000 0.000000
0.902941 0.000000 0.000000
0.916605 0.000000 0.000000
0.924387 0.000000 0.000000
0.936887 0.000000 0.000000
0.945833 0.000000 0.000000
0.958517 0.003309 0.000000
0.965625 0.022243 0.000000
0.982537 0.051103 0.000000
0.992647 0.072488 0.000000
1.000490 0.090013 0.000000
1.000000 0.107537 0.000000
1.000000 0.124142 0.000000
1.000000 0.133823 0.000000
1.000000 0.151348 0.000000
1.000000 0.161949 0.000000
1.000000 0.175552 0.000000
1.000000 0.192157 0.000000
0.000000 0.007598 0.001838
0.000919 0.005760 0.000000
0.005760 0.009681 0.001838
0.011765 0.006924 0.000000
0.019363 0.009681 0.000000
0.032047 0.012929 0.000000
0.044240 0.009436 0.000000
0.055331 0.009681 0.000000
0.075613 0.019118 0.000000
0.087133 0.017524 0.000000
0.105147 0.017524 0.000000
0.120527 0.019791 0.000000
0.139705 0.019608 0.000000
0.165074 0.021263 0.000000
0.183701 0.018260 0.000000
0.207966 0.015502 0.000000
0.233333 0.010662 0.000000
0.258640 0.005821 0.000000
0.284927 0.000000 0.000000
0.311213 0.000000 0.000000
0.337500 0.000000 0.000000
0.363787 0.000000 0.000000
0.395221 0.000000 0.000000
0.420282 0.000000 0.000000
0.446569 0.000000 0.000000
0.474387 0.000000 0.000000
0.499142 0.000000 0.000000
0.525429 0.000000 0.000000
0.547426 0.000000 0.000000
0.574081 0.000000 0.000000
0.596446 0.000000 0.000000
0.621691 0.000000 0.000000
0.641054 0.000000 0.000000
0.663542 0.000000 0.000000
0.682108 0.000000 0.000000
0.703554 0.000000 0.000000
0.722794 0.000000 0.000000
0.741728 0.000000 0.000000
0.760049 0.000000 0.000000
0.782782 0.000000 0.000000
0.795098 0.000000 0.000000
0.812071 0.000000 0.000000
0.826838 0.000000 0.000000
0.837990 0.000000 0.000000
0.854289 0.000000 0.000000
0.864890 0.000000 0.000000
0.877573 0.000000 0.000000
0.892095 0.000000 0.000000
0.902941 0.000000 0.000000
0.913603 0.000000 0.000000
0.923284 0.000000 0.000000
0.933149 0.000000 0.000000
0.945833 0.003676 0.000000
0.958517 0.018321 0.000000
0.969853 0.045343 0.000000
0.979963 0.065564 0.000000
0.987377 0.081740 0.000000
0.997487 0.100613 0.000000
1.000000 0.115809 0.000000
1.000000 0.129902 0.000000
1.000000 0.141666 0.000000
1.000000 0.155269 0.000000
1.000000 0.168873 0.000000
1.000000 0.180392 0.000000
1.000000 0.196078 0.000000
0.000000 0.010601 0.002758
0.006679 0.014522 0.003922
0.005760 0.011765 -0.000919
0.010601 0.014522 0.002758
0.019363 0.014522 0.000000
0.028799 0.015197 0.000000
0.039645 0.015686 0.000000
0.055760 0.018199 0.000000
0.073530 0.023039 0.000000
0.087133 0.022795 0.000000
0.101899 0.026287 0.000000
0.119424 0.026287 0.000000
0.139705 0.026287 0.000000
0.163909 0.026287 0.000000
0.183701 0.026287 0.000000
0.209988 0.025123 0.000000
0.232353 0.018260 0.000000
0.259804 0.018444 0.000000
0.284927 0.012500 0.000000
0.311213 0.007659 0.000000
0.337438 0.000000 0.000000
0.368566 0.000000 0.000000
0.390686 0.000000 0.000000
0.419118 0.000000 0.000000
0.446568 0.000000 0.000000
0.472856 0.000000 0.000000
0.499142 0.000000 0.000000
0.525429 0.000000 0.000000
0.547242 0.000000 0.000000
0.574081 0.000000 0.000000
0.596446 0.000000 0.000000
0.618811 0.000000 0.000000
0.638419 0.000000 0.000000
0.663542 0.000000 0.000000
0.682108 0.000000 0.000000
0.703554 0.000000 0.000000
0.722794 0.000000 0.000000
0.742525 0.000000 0.000000
0.763603 0.000000 0.000000
0.777574 0.000000 0.000000
0.793811 0.000000 0.000000
0.809865 0.000000 0.000000
0.826226 0.000000 0.000000
0.839829 0.000000 0.000000
0.849510 0.000000 0.000000
0.864890 0.000000 0.000000
0.876409 0.000000 0.000000
0.890257 0.000000 0.000000
0.901961 0.000000 0.000000
0.911703 0.000000 0.000000
0.920466 0.000000 0.000000
0.938051 0.000000 0.000000
0.943812 0.015564 0.000000
0.958517 0.041789 0.000000
0.970037 0.064215 0.000000
0.976042 0.079167 0.000000
0.989890 0.100123 0.000000
0.997487 0.112806 0.000000
1.000000 0.125061 0.000000
1.000000 0.139338 0.000000
1.000000 0.152023 0.000000
1.000000 0.161948 0.000000
1.000000 0.173468 0.000000
1.000000 0.186152 0.000000
1.000000 0.202758 0.000000
0.000000 0.015441 0.003922
0.003922 0.018443 0.003922
0.007843 0.015686 0.003922
0.011520 0.019363 0.004841
0.015441 0.019363 0.000000
0.028125 0.023284 0.000000
0.038725 0.023529 0.000000
0.052328 0.027206 0.000000
0.069362 0.030638 0.000000
0.083456 0.031128 0.000000
0.104657 0.035049 0.000000
0.122181 0.035049 0.000000
0.142892 0.038726 0.000000
0.165074 0.038726 0.000000
0.186520 0.035049 0.000000
0.209988 0.035049 0.000000
0.233333 0.031128 0.000000
0.258640 0.030883 0.000000
0.287991 0.029166 0.000000
0.309313 0.019363 0.000000
0.337745 0.012745 0.000000
0.363787 0.003677 0.000000
0.387009 0.000000 0.000000
0.414215 0.000000 0.000000
0.441422 0.000000 0.000000
0.472611 0.000000 0.000000
0.499142 0.000000 0.000000
0.524142 0.000000 0.000000
0.549510 0.000000 0.000000
0.574081 0.000000 0.000000
0.599999 0.000000 0.000000
0.621446 0.000000 0.000000
0.637500 0.000000 0.000000
0.660907 0.000000 0.000000
0.682108 0.000000 0.000000
0.700429 0.000000 0.000000
0.725000 0.000000 0.000000
0.742525 0.000000 0.000000
0.760294 0.000000 0.000000
0.777574 0.000000 0.000000
0.795098 0.000000 0.000000
0.813909 0.000000 0.000000
0.822549 0.000000 0.000000
0.835907 0.000000 0.000000
0.852206 0.000000 0.000000
0.863113 0.000000 0.000000
0.876715 0.000000 0.000000
0.886580 0.000000 0.000000
0.900000 0.000000 0.000000
0.909681 0.000000 0.000000
0.919608 0.000000 0.000000
0.933149 0.022304 0.000000
0.945833 0.044363 0.000000
0.952574 0.059620 0.000000
0.963603 0.080515 0.000000
0.975858 0.096691 0.000000
0.988725 0.110294 0.000000
0.997487 0.122732 0.000000
1.000000 0.137500 0.000000
1.000000 0.147427 0.000000
1.000000 0.164216 0.000000
1.000000 0.169547 0.000000
1.000000 0.182231 0.000000
1.000000 0.193995 0.000000
1.000000 0.211275 0.000000
0.000000 0.024203 0.004596
0.003922 0.024203 0.004596
0.005760 0.024203 0.003922
0.010601 0.026961 0.006679
0.015441 0.024877 0.003922
0.024203 0.028799 0.003922
0.035233 0.030392 0.000674
0.054596 0.035233 0.000000
0.066177 0.039890 0.000000
0.083885 0.040993 0.000000
0.101409 0.044485 0.000000
0.122855 0.048407 0.000000
0.146814 0.050920 0.000000
0.162683 0.048407 0.000000
0.183946 0.048407 0.000000
0.211887 0.051654 0.000000
0.239215 0.048407 0.000000
0.262561 0.047733 0.000000
0.284743 0.040380 0.000000
0.311887 0.040564 0.000000
0.340196 0.033395 0.000000
0.360845 0.025858 0.000000
0.393995 0.021017 0.000000
0.418750 0.012255 0.000000
0.446569 0.003493 0.000000
0.472181 -0.002696 0.000000
0.495895 0.000000 0.000000
0.526042 0.000000 0.000000
0.547794 0.000000 0.000000
0.574081 0.000000 0.000000
0.596323 0.000000 0.000000
0.618811 0.000000 0.000000
0.641177 0.000000 0.000000
0.663542 0.000000 0.000000
0.681985 0.000000 0.000000
0.701103 0.000000 0.000000
0.722794 0.000000 0.000000
0.742525 0.000000 0.000000
0.760049 0.000000 0.000000
0.774326 0.000000 0.000000
0.791850 0.000000 0.000000
0.806986 0.000000 0.000000
0.822916 0.000000 0.000000
0.836274 0.000000 0.000000
0.848959 0.000000 0.000000
0.863113 0.000000 0.000000
0.873652 0.000000 0.000000
0.887010 0.000674 0.000000
0.899020 0.003983 0.000000
0.909681 0.011765 0.000000
0.920466 0.029289 0.000000
0.929901 0.046323 0.000000
0.941850 0.066176 0.000000
0.954596 0.083762 0.000000
0.967279 0.098714 0.000000
0.976286 0.110969 0.000000
0.988909 0.124081 0.000000
0.993505 0.132843 0.000000
1.000000 0.147181 0.000000
1.000000 0.154290 0.000000
1.000000 0.166973 0.000000
1.000000 0.175735 0.000000
1.000000 0.188420 0.000000
1.000000 0.200184 0.000000
1.000000 0.207292 0.000000
0.000000 0.035294 0.006250
-0.000674 0.032966 0.004841
0.006005 0.032966 0.006005
0.010601 0.035724 0.007843
0.011765 0.036887 0.006250
0.024203 0.041728 0.004841
0.034559 0.040809 0.003922
0.048161 0.042402 0.000000
0.068015 0.050490 0.000000
0.086704 0.054167 0.000000
0.100490 0.056495 0.000000
0.122855 0.058762 0.000000
0.143627 0.062010 0.000000
0.167586 0.064338 0.000000
0.192034 0.065931 0.000000
0.213480 0.063909 0.000000
0.237255 0.062990 0.000000
0.264890 0.068198 0.000000
0.286520 0.062746 0.000000
0.313358 0.060233 0.000000
0.337500 0.053064 0.000000
0.367402 0.051839 0.000000
0.393995 0.047303 0.000000
0.418688 0.038541 0.000000
0.444118 0.028922 0.000000
0.471262 0.021017 0.000000
0.500368 0.015073 0.000000
0.523100 0.004780 0.000000
0.547794 0.001593 0.000000
0.574081 0.000000 0.000000
0.596323 0.000000 0.000000
0.617769 0.000000 0.000000
0.639215 0.000000 0.000000
0.664829 0.000000 0.000000
0.684314 0.000000 0.000000
0.703554 0.000000 0.000000
0.725123 0.000000 0.000000
0.742525 0.000000 0.000000
0.760049 0.000000 0.000000
0.777574 0.000000 0.000000
0.795098 0.000000 0.000000
0.810233 0.000000 0.000000
0.826226 0.000000 0.000000
0.834620 0.000000 0.000000
0.849510 0.000000 0.000000
0.863113 0.003738 0.000000
0.876715 0.012500 0.000000
0.886398 0.023774 0.000000
0.899020 0.040319 0.000000
0.909375 0.053002 0.000000
0.925613 0.070343 0.000000
0.927083 0.079106 0.000000
0.942647 0.095711 0.000000
0.954596 0.106801 0.000000
0.967279 0.117157 0.000000
0.976042 0.134068 0.000000
0.988725 0.139829 0.000000
0.997487 0.152022 0.000000
1.000000 0.160049 0.000000
1.000000 0.172795 0.000000
1.000000 0.183823 0.000000
1.000000 0.190992 0.000000
1.000000 0.201348 0.000000
1.000000 0.213113 0.000000
1.000000 0.226716 0.000000
0.000000 0.044240 0.006434
0.000919 0.044240 0.010356
0.005760 0.041054 0.007169
0.010601 0.044240 0.007598
0.015441 0.049325 0.006434
0.023529 0.051409 0.007169
0.032966 0.049571 0.003922
0.045650 0.052083 0.002513
0.063174 0.057415 0.003922
0.077206 0.061765 0.000000
0.098223 0.066667 0.000000
0.118015 0.071446 0.000000
0.139705 0.076286 0.000000
0.162745 0.073284 0.000000
0.190441 0.079534 0.000000
0.215809 0.080944 0.000000
0.236275 0.079534 0.000000
0.262561 0.079534 0.000000
0.283272 0.073958 0.000000
0.315135 0.079534 0.000000
0.338725 0.075429 0.000000
0.362684 0.070589 0.000000
0.391483 0.071079 0.000000
0.421262 0.067341 0.000000
0.442647 0.059988 0.000000
0.472304 0.057108 0.000000
0.501287 0.052451 0.000000
0.521507 0.040135 0.000000
0.547794 0.033885 0.000000
0.569546 0.021997 0.000000
0.592525 0.016361 0.000000
0.614890 0.007537 0.000000
0.638664 0.005024 0.000000
0.661029 0.002513 0.000000
0.682108 0.000000 0.000000
0.701838 0.000000 0.000000
0.725797 0.000000 0.000000
0.742647 0.000000 0.000000
0.760049 0.000000 0.000000
0.780944 0.002513 0.000000
0.792586 0.002513 0.000000
0.807720 0.007537 0.000000
0.823713 0.013358 0.000000
0.839522 0.023223 0.000000
0.846997 0.026777 0.000000
0.860601 0.040747 0.000000
0.873652 0.050919 0.000000
0.886336 0.065012 0.000000
0.899020 0.075184 0.000000
0.909681 0.086459 0.000000
0.919056 0.092402 0.000000
0.930638 0.106802 0.000000
0.947611 0.118076 0.000000
0.952083 0.123468 0.000000
0.963358 0.137010 0.000000
0.976042 0.145772 0.000000
0.986213 0.155943 0.000000
0.997487 0.167218 0.000000
1.000000 0.175980 0.000000
1.000000 0.184743 0.000000
1.000000 0.197181 0.000000
1.000000 0.202267 0.000000
1.000000 0.212438 0.000000
1.000000 0.221201 0.000000
1.000000 0.236397 0.000000
0.000000 0.054412 0.007843
0.000000 0.054412 0.010846
0.003922 0.053922 0.007843
0.006679 0.053248 0.007843
0.011275 0.054412 0.007843
0.020282 0.058334 0.007843
0.034804 0.064093 0.009681
0.040809 0.062255 0.003922
0.054412 0.066177 0.000490
0.071936 0.070528 0.000000
0.090808 0.075367 0.000000
0.114338 0.080209 0.000000
0.139705 0.089216 0.000000
0.161335 0.089399 0.000000
0.186520 0.093138 0.000000
0.215319 0.098468 0.000000
0.236275 0.097059 0.000000
0.262561 0.097059 0.000000
0.288848 0.097059 0.000000
0.315135 0.097059 0.000000
0.340931 0.096569 0.000000
0.367708 0.097059 0.000000
0.387254 0.086397 0.000000
0.422181 0.091115 0.000000
0.441667 0.086275 0.000000
0.472856 0.085356 0.000000
0.499142 0.083946 0.000000
0.521507 0.073039 0.000000
0.544363 0.070343 0.000000
0.570956 0.065503 0.000000
0.592525 0.060294 0.000000
0.617769 0.054840 0.000000
0.633824 0.046569 0.000000
0.660171 0.045160 0.000000
0.682108 0.040318 0.000000
0.703554 0.042831 0.000000
0.719362 0.037990 0.000000
0.742034 0.039706 0.000000
0.760171 0.043750 0.000000
0.777022 0.044668 0.000000
0.789215 0.049510 0.000000
0.806311 0.055883 0.000000
0.819485 0.060171 0.000000
0.835600 0.068443 0.000000
0.848284 0.073775 0.000000
0.857904 0.077329 0.000000
0.873162 0.088235 0.000000
0.882476 0.092770 0.000000
0.895098 0.107843 0.000000
0.907782 0.112255 0.000000
0.915931 0.118383 0.000000
0.932965 0.127941 0.000000
0.941911 0.137010 0.000000
0.951164 0.145773 0.000000
0.962500 0.154534 0.000000
0.976103 0.163297 0.000000
0.984804 0.172060 0.000000
0.997487 0.183334 0.000000
1.000000 0.190074 0.000000
1.000000 0.194914 0.000000
1.000000 0.203676 0.000000
0.997242 0.210171 0.000000
1.000000 0.223284 0.000000
1.000000 0.233885 0.000000
1.000000 0.246569 0.000000
0.000000 0.067525 0.008272
0.000000 0.071507 0.012255
0.001838 0.065686 0.008272
0.003922 0.060846 0.011765
0.008272 0.067096 0.008518
0.019608 0.071017 0.011091
0.028615 0.072610 0.007843
0.037377 0.074939 0.007843
0.050062 0.075368 0.000920
0.067096 0.082782 0.003493
0.085049 0.084559 0.000000
0.111826 0.092892 0.000000
0.131127 0.098162 0.000000
0.153247 0.102574 0.000000
0.178677 0.106740 0.000000
0.207660 0.112255 0.000000
0.232353 0.110662 0.000000
0.258640 0.111091 0.000000
0.288420 0.114583 0.000000
0.315135 0.118505 0.000000
0.343688 0.117279 0.000000
0.367280 0.114583 0.000000
0.389889 0.114399 0.000000
0.418750 0.111091 0.000000
0.448591 0.114583 0.000000
0.468934 0.107169 0.000000
0.495221 0.106801 0.000000
0.516728 0.101961 0.000000
0.543873 0.101531 0.000000
0.572855 0.099326 0.000000
0.592402 0.095282 0.000000
0.613848 0.090441 0.000000
0.635294 0.087562 0.000000
0.663113 0.085110 0.000000
0.681985 0.084069 0.000000
0.699632 0.084436 0.000000
0.721078 0.084069 0.000000
0.742096 0.084069 0.000000
0.756128 0.084069 0.000000
0.773101 0.087991 0.000000
0.792218 0.092953 0.000000
0.804779 0.097795 0.000000
0.821875 0.102634 0.000000
0.831986 0.103677 0.000000
0.845159 0.107169 0.000000
0.857047 0.107598 0.000000
0.872365 0.118076 0.000000
0.882047 0.122917 0.000000
0.894118 0.130699 0.000000
0.905760 0.136520 0.000000
0.916544 0.138971 0.000000
0.932537 0.153615 0.000000
0.937990 0.158456 0.000000
0.947181 0.163725 0.000000
0.962928 0.175551 0.000000
0.972120 0.177758 0.000000
0.984804 0.186091 0.000000
0.998468 0.197916 0.000000
1.000000 0.200858 0.000000
1.000000 0.211949 0.000000
1.000000 0.220282 0.000000
1.000000 0.229044 0.000000
1.000000 0.239461 0.000000
1.000000 0.249142 0.000000
1.000000 0.258824 0.000000
0.000000 0.081127 0.007843
0.000000 0.081127 0.008762
0.000000 0.081618 0.013603
0.002574 0.077206 0.011765
0.010171 0.079535 0.015441
0.015686 0.079779 0.011765
0.023774 0.083701 0.011765
0.032537 0.086213 0.007843
0.042647 0.088971 0.005270
0.062255 0.091973 0.003922
0.081127 0.098162 0.000000
0.100919 0.103002 0.000000
0.128432 0.112990 0.000000
0.153309 0.116421 0.000000
0.175613 0.120098 0.000000
0.204718 0.128860 0.000000
0.231005 0.128186 0.000000
0.257292 0.130760 0.000000
0.284436 0.132966 0.000000
0.313787 0.136029 0.000000
0.342769 0.136029 0.000000
0.363787 0.133456 0.000000
0.392647 0.136029 0.000000
0.416360 0.131924 0.000000
0.442647 0.132108 0.000000
0.465564 0.129534 0.000000
0.493873 0.129534 0.000000
0.517525 0.128186 0.000000
0.541667 0.124755 0.000000
0.566237 0.127390 0.000000
0.589828 0.122917 0.000000
0.610968 0.117769 0.000000
0.637255 0.119730 0.000000
0.659620 0.115196 0.000000
0.678186 0.117769 0.000000
0.704106 0.118321 0.000000
0.716790 0.115196 0.000000
0.738603 0.113909 0.000000
0.754780 0.117769 0.000000
0.772304 0.118321 0.000000
0.787255 0.123162 0.000000
0.802390 0.125613 0.000000
0.818383 0.126961 0.000000
0.831679 0.134498 0.000000
0.844363 0.137377 0.000000
0.855270 0.139522 0.000000
0.865809 0.141299 0.000000
0.877205 0.147855 0.000000
0.893750 0.152696 0.000000
0.904412 0.161458 0.000000
0.915195 0.163480 0.000000
0.925306 0.168750 0.000000
0.936642 0.179167 0.000000
0.948407 0.184743 0.000000
0.960662 0.192156 0.000000
0.971691 0.198346 0.000000
0.980025 0.202329 0.000000
0.989644 0.210539 0.000000
1.000981 0.219362 0.000000
1.000000 0.222304 0.000000
1.000000 0.231618 0.000000
1.000000 0.237806 0.000000
1.000000 0.249142 0.000000
1.000000 0.256986 0.000000
1.000000 0.265319 0.000000
0.000000 0.100306 0.011765
0.000000 0.097304 0.010417
0.000000 0.101164 0.016115
0.000000 0.094730 0.014522
0.005331 0.096385 0.017953
0.006250 0.094730 0.017279
0.017341 0.098652 0.014093
0.026287 0.101164 0.011765
0.039890 0.107660 0.007843
0.057414 0.108578 0.006189
0.074939 0.113419 0.000000
0.096385 0.118260 0.000000
0.117831 0.122181 0.000000
0.153309 0.133946 0.000000
0.173590 0.136703 0.000000
0.197978 0.141544 0.000000
0.226164 0.145711 0.000000
0.256311 0.151225 0.000000
0.281005 0.153554 0.000000
0.309436 0.153554 0.000000
0.335233 0.153554 0.000000
0.365135 0.158823 0.000000
0.390073 0.153554 0.000000
0.416360 0.155821 0.000000
0.442647 0.153554 0.000000
0.467279 0.151900 0.000000
0.494853 0.155454 0.000000
0.517586 0.151900 0.000000
0.539890 0.149632 0.000000
0.565380 0.147120 0.000000
0.592402 0.145711 0.000000
0.616115 0.147978 0.000000
0.637255 0.145711 0.000000
0.656128 0.143444 0.000000
0.681985 0.149509 0.000000
0.698161 0.144057 0.000000
0.721078 0.147978 0.000000
0.735968 0.147978 0.000000
0.750919 0.147978 0.000000
0.769730 0.150245 0.000000
0.787255 0.151900 0.000000
0.804902 0.154289 0.000000
0.816115 0.155821 0.000000
0.828064 0.157782 0.000000
0.842095 0.161397 0.000000
0.857047 0.167586 0.000000
0.867464 0.167586 0.000000
0.882414 0.175429 0.000000
0.889890 0.175122 0.000000
0.899571 0.181250 0.000000
0.917095 0.190563 0.000000
0.925306 0.191115 0.000000
0.937990 0.197427 0.000000
0.946753 0.202267 0.000000
0.957782 0.209375 0.000000
0.969852 0.217525 0.000000
0.980882 0.220710 0.000000
0.993566 0.229473 0.000000
1.000000 0.238297 0.000000
1.000000 0.239828 0.000000
1.000000 0.247916 0.000000
1.000000 0.256679 0.000000
1.000000 0.263358 0.000000
1.000000 0.270282 0.000000
1.000000 0.280698 0.000000
0.000000 0.116176 0.012500
0.000000 0.116176 0.012684
0.000000 0.112990 0.015686
0.000000 0.109069 0.015686
0.000000 0.108578 0.015931
-0.001838 0.105822 0.018873
0.004657 0.110661 0.015686
0.014338 0.112990 0.011765
0.031128 0.119608 0.011765
0.048651 0.124019 0.010600
0.071936 0.127941 0.008334
0.087623 0.131862 0.000000
0.112254 0.135784 0.000000
0.131618 0.140625 0.000000
0.170833 0.154657 0.000000
0.194301 0.157414 0.000000
0.218137 0.160049 0.000000
0.247611 0.166421 0.000000
0.277084 0.173407 0.000000
0.304105 0.171078 0.000000
0.330392 0.173775 0.000000
0.359865 0.174265 0.000000
0.390073 0.178186 0.000000
0.418014 0.179840 0.000000
0.442647 0.178186 0.000000
0.465013 0.174265 0.000000
0.491299 0.174265 0.000000
0.514400 0.176899 0.000000
0.541667 0.175980 0.000000
0.566237 0.174265 0.000000
0.588725 0.174265 0.000000
0.614890 0.174265 0.000000
0.634069 0.171078 0.000000
0.660662 0.174571 0.000000
0.678186 0.174142 0.000000
0.697242 0.174265 0.000000
0.719363 0.174265 0.000000
0.739154 0.174265 0.000000
0.752573 0.174633 0.000000
0.769730 0.178186 0.000000
0.784068 0.176470 0.000000
0.797671 0.177389 0.000000
0.814338 0.182108 0.000000
0.831679 0.186029 0.000000
0.838480 0.184069 0.000000
0.853125 0.189951 0.000000
0.864951 0.193014 0.000000
0.878492 0.197794 0.000000
0.887990 0.198529 0.000000
0.901961 0.202451 0.000000
0.912622 0.208088 0.000000
0.925858 0.214032 0.000000
0.934804 0.218137 0.000000
0.946753 0.218260 0.000000
0.956250 0.228554 0.000000
0.968198 0.233088 0.000000
0.980882 0.241666 0.000000
0.987868 0.243812 0.000000
0.998407 0.251838 0.000000
1.000000 0.257353 0.000000
1.000000 0.265196 0.000000
1.000000 0.267095 0.000000
1.000000 0.276960 0.000000
1.000000 0.283885 0.000000
1.000000 0.296568 0.000000
0.000000 0.133517 0.015502
0.000000 0.132782 0.015686
0.000000 0.128125 0.014031
0.000000 0.129780 0.019608
0.000000 0.126041 0.019546
0.000000 0.126348 0.020282
0.000000 0.127267 0.019608
0.010171 0.126041 0.019608
0.022365 0.136948 0.015686
0.039890 0.137623 0.011520
0.057415 0.142708 0.007843
0.083211 0.147549 0.003922
0.100307 0.149388 -0.003003
0.125858 0.153492 0.000000
0.156985 0.162255 0.000000
0.182353 0.170833 0.000000
0.212745 0.173100 0.000000
0.242770 0.184436 0.000000
0.269240 0.184865 0.000000
0.299265 0.194118 0.000000
0.328247 0.195221 0.000000
0.352022 0.192708 0.000000
0.382230 0.197058 0.000000
0.412255 0.200184 0.000000
0.432537 0.194179 0.000000
0.465013 0.196629 0.000000
0.491299 0.196629 0.000000
0.514951 0.196629 0.000000
0.539951 0.196629 0.000000
0.563297 0.197426 0.000000
0.588603 0.196629 0.000000
0.613848 0.199510 0.000000
0.635294 0.196629 0.000000
0.656740 0.200368 0.000000
0.681801 0.200368 0.000000
0.695098 0.196017 0.000000
0.716973 0.200368 0.000000
0.734682 0.200551 0.000000
0.752023 0.200368 0.000000
