Color/Kodak/Kodak Ektachrome 100 VS 65x.cube
TITLE "Kodak Ektachrome 100 VS"
LUT_3D_SIZE 9
DOMAIN_MIN 0.000000 0.000000 0.000000
DOMAIN_MAX 1.000000 1.000000 1.000000
0.000000 0.000000 0.000000
0.034804 0.000000 0.000000
0.119608 0.000000 0.000000
0.267647 0.000000 0.000000
0.435295 0.000000 0.000000
0.612255 0.000000 0.000000
0.767647 0.000000 0.000000
0.926470 0.000000 0.000000
1.000000 0.000000 0.000000
0.023039 0.054412 0.011275
0.073530 0.050490 0.007353
0.189706 0.046569 0.000000
0.322059 0.038726 0.000000
0.480393 0.030883 0.000000
0.645588 0.019118 0.000000
0.793628 0.010294 0.000000
0.946078 0.000000 0.000000
1.000000 0.000000 0.000000
0.089216 0.186274 0.078431
0.134804 0.182353 0.069608
0.225490 0.178431 0.050000
0.357843 0.166666 0.026471
0.512745 0.150980 0.008823
0.661765 0.123529 0.000000
0.805883 0.087255 0.000000
0.956863 0.040686 0.000000
1.000000 0.011765 0.000000
0.112255 0.334314 0.139706
0.170588 0.332843 0.132353
0.275000 0.328921 0.120098
0.403431 0.322549 0.100490
0.543628 0.311275 0.076961
0.683823 0.287255 0.061275
0.821569 0.255883 0.061275
0.965686 0.210785 0.057353
1.000000 0.168137 0.057353
0.235295 0.486274 0.178431
0.274510 0.486274 0.171078
0.357843 0.486274 0.162745
0.463236 0.482353 0.150981
0.586275 0.474510 0.137255
0.714706 0.462746 0.123529
0.847059 0.443137 0.125490
0.981372 0.413235 0.143137
1.000000 0.378432 0.158824
0.363725 0.634314 0.232843
0.387255 0.631863 0.228922
0.447549 0.630392 0.217157
0.533334 0.630392 0.197549
0.644608 0.626470 0.168137
0.761274 0.618627 0.149020
0.885784 0.606863 0.141176
1.000000 0.583333 0.169117
1.000000 0.561275 0.205392
0.480392 0.770588 0.287255
0.502450 0.770588 0.283334
0.545098 0.770588 0.275490
0.617647 0.770588 0.259804
0.708824 0.770588 0.236274
0.814706 0.766667 0.207353
0.931373 0.758824 0.165686
1.000000 0.747059 0.156373
1.000000 0.731373 0.195098
0.624510 0.906862 0.333333
0.636274 0.906862 0.329902
0.667647 0.906862 0.325490
0.721079 0.906862 0.313726
0.791176 0.906862 0.294608
0.876471 0.906372 0.273530
0.978432 0.902941 0.243627
1.000000 0.895098 0.207843
1.000000 0.891176 0.173039
0.831373 1.000000 0.372549
0.838726 1.000000 0.368627
0.857843 1.000000 0.364706
0.888726 1.000000 0.360784
0.935294 1.000000 0.349020
0.993627 1.000000 0.335784
1.000000 1.000000 0.317647
1.000000 1.000000 0.293628
1.000000 1.000000 0.270588
0.000000 0.000000 0.023039
0.015196 0.000000 0.023039
0.089216 0.000000 0.023039
0.236275 0.000000 0.015196
0.406373 0.000000 0.007353
0.583333 0.000000 0.003922
0.743137 0.000000 0.003922
0.907353 0.000000 0.007353
1.000000 0.000000 0.007843
0.011765 0.053922 0.057844
0.050490 0.046569 0.050490
0.166666 0.042647 0.038726
0.299020 0.034804 0.026471
0.458823 0.023529 0.015196
0.618627 0.011765 0.005882
0.770588 0.003922 0.003922
0.930392 0.000000 0.000000
1.000000 0.000000 0.003432
0.077451 0.186274 0.120098
0.123039 0.182353 0.112255
0.209804 0.174510 0.096569
0.342157 0.166666 0.080882
0.493627 0.147059 0.065196
0.642157 0.121078 0.045588
0.790196 0.080392 0.028922
0.942647 0.033824 0.018627
1.000000 0.010784 0.015196
0.091667 0.334314 0.167157
0.154902 0.330392 0.163235
0.263726 0.326471 0.151961
0.392157 0.322549 0.136765
0.529902 0.306863 0.125000
0.668628 0.287255 0.119608
0.809804 0.255883 0.111764
0.954412 0.208334 0.107843
1.000000 0.164216 0.099020
0.223529 0.486274 0.203432
0.266176 0.486274 0.199510
0.349020 0.485294 0.190196
0.454412 0.481863 0.175981
0.578431 0.474510 0.164216
0.703431 0.460784 0.164216
0.833334 0.440196 0.173039
0.969607 0.409314 0.187745
1.000000 0.378432 0.197549
0.363725 0.634314 0.236765
0.389216 0.634314 0.231373
0.447549 0.634314 0.219608
0.533333 0.630392 0.203922
0.638725 0.626470 0.191667
0.755882 0.618627 0.179902
0.876471 0.606863 0.187255
0.996568 0.582843 0.227451
1.000000 0.559804 0.255883
0.480392 0.774510 0.287255
0.500000 0.774510 0.283334
0.545098 0.774510 0.275490
0.617647 0.770588 0.259804
0.708823 0.770588 0.236274
0.814706 0.766667 0.207353
0.928431 0.762745 0.184314
1.000000 0.747059 0.202451
1.000000 0.727451 0.258334
0.624510 0.906862 0.333823
0.636274 0.906862 0.329902
0.670588 0.906862 0.325490
0.721079 0.906862 0.313726
0.792647 0.906862 0.296569
0.877941 0.906862 0.275000
0.977942 0.902941 0.246569
1.000000 0.899019 0.207843
1.000000 0.891176 0.187745
0.831373 1.000000 0.372549
0.839216 1.000000 0.372549
0.858824 1.000000 0.368627
0.892647 1.000000 0.360784
0.939215 1.000000 0.349020
0.997549 1.000000 0.335784
1.000000 1.000000 0.317647
1.000000 1.000000 0.293628
1.000000 1.000000 0.274510
0.000000 0.000000 0.104902
0.000000 0.000000 0.104902
0.061765 0.000000 0.100981
0.212745 0.000000 0.089216
0.387255 0.000000 0.069608
0.567647 0.000000 0.053921
0.731373 0.000000 0.046078
0.899510 0.000000 0.042157
1.000000 0.000000 0.043137
0.000490 0.046569 0.139706
0.024019 0.042157 0.136274
0.138725 0.034804 0.124510
0.275490 0.026961 0.108333
0.438725 0.019118 0.086275
0.600980 0.007843 0.069117
0.754902 0.003432 0.053431
0.918627 0.000000 0.034314
1.000000 0.000000 0.030392
0.053921 0.178431 0.198039
0.096569 0.175490 0.194117
0.179412 0.170588 0.182353
0.314706 0.159804 0.164216
0.470588 0.143137 0.144118
0.622549 0.115686 0.123529
0.774510 0.076470 0.100000
0.930392 0.029902 0.075980
1.000000 0.007843 0.061765
0.068137 0.330392 0.248529
0.106372 0.326471 0.244608
0.228922 0.322549 0.237255
0.361765 0.314706 0.225490
0.505392 0.302941 0.213235
0.645588 0.280392 0.201471
0.789706 0.251961 0.189706
0.942156 0.204412 0.170098
1.000000 0.161765 0.152941
0.187255 0.486274 0.269608
0.233824 0.484314 0.268627
0.320588 0.482353 0.265686
0.427451 0.477451 0.264706
0.549019 0.466666 0.261765
0.677451 0.454902 0.260784
0.809804 0.436275 0.263726
0.952941 0.405392 0.263726
1.000000 0.374509 0.261765
0.348039 0.634314 0.277451
0.372059 0.634314 0.273529
0.427941 0.634314 0.269608
0.515196 0.630392 0.265686
0.619117 0.622549 0.266177
0.730882 0.614706 0.280392
0.849020 0.599019 0.296078
0.975981 0.575490 0.319608
1.000000 0.555882 0.333823
0.480392 0.778432 0.290196
0.500000 0.778432 0.287255
0.546078 0.778432 0.278431
0.616176 0.774510 0.264216
0.704902 0.771568 0.257844
0.804902 0.766667 0.253922
0.909804 0.758824 0.270588
1.000000 0.739216 0.323039
1.000000 0.719608 0.365686
0.624510 0.910784 0.333823
0.639706 0.910784 0.333333
0.670588 0.910784 0.325980
0.724510 0.910784 0.314216
0.794608 0.910784 0.298039
0.880392 0.910784 0.275000
0.978922 0.906862 0.246569
1.000000 0.899019 0.236765
1.000000 0.887255 0.287255
0.839216 1.000000 0.372549
0.846569 1.000000 0.372549
0.865686 1.000000 0.368627
0.896569 1.000000 0.360784
0.943137 1.000000 0.350000
1.000000 1.000000 0.337255
1.000000 1.000000 0.317647
1.000000 1.000000 0.294118
1.000000 1.000000 0.274510
0.000000 0.000000 0.186765
0.000000 0.000000 0.186765
0.030883 0.000000 0.178922
0.186765 0.000000 0.163235
0.368137 0.000000 0.139706
0.551961 0.000000 0.117647
0.719608 0.000000 0.101961
0.891176 0.000000 0.092157
0.996078 0.000000 0.088726
0.000000 0.038726 0.232353
0.007353 0.034804 0.228432
0.104902 0.026961 0.214706
0.247549 0.020588 0.194117
0.415196 0.011765 0.167157
0.581863 0.003922 0.141666
0.741176 0.000000 0.116176
0.906862 0.000000 0.091667
1.000000 0.000000 0.080882
0.022549 0.171569 0.295588
0.061765 0.170588 0.291177
0.147059 0.162745 0.275980
0.283824 0.152451 0.257353
0.445588 0.137255 0.232843
0.600980 0.110294 0.203922
0.754902 0.071569 0.170098
0.918627 0.025980 0.134804
1.000000 0.003922 0.116667
0.047059 0.322549 0.353922
0.069608 0.322549 0.350000
0.178431 0.318138 0.342157
0.326471 0.310785 0.326471
0.474510 0.295588 0.310785
0.618627 0.276470 0.291177
0.769118 0.248039 0.266176
0.926470 0.200490 0.236275
1.000000 0.157843 0.212745
0.103431 0.477941 0.393137
0.159804 0.474510 0.391176
0.266177 0.474510 0.387255
0.384804 0.470098 0.381373
0.513235 0.458823 0.375490
0.646078 0.447549 0.366176
0.785784 0.431373 0.355882
0.934313 0.401470 0.341667
1.000000 0.372549 0.329902
0.282843 0.626470 0.404902
0.310294 0.626470 0.404902
0.372059 0.622549 0.404902
0.462745 0.618627 0.407353
0.571569 0.614706 0.408824
0.689216 0.604412 0.412745
0.815686 0.591176 0.414216
0.950000 0.571569 0.415686
1.000000 0.549510 0.415686
0.449019 0.774510 0.371079
0.467157 0.774510 0.371079
0.510294 0.770588 0.375000
0.578432 0.768137 0.382843
0.661275 0.762745 0.394608
0.758333 0.756373 0.410294
0.863235 0.747059 0.432353
0.981372 0.729412 0.455882
1.000000 0.712745 0.471569
0.625000 0.914705 0.337255
0.639706 0.914705 0.333823
0.671568 0.914705 0.326961
0.725000 0.914705 0.317647
0.792647 0.914705 0.308333
0.872549 0.910784 0.312745
0.960294 0.902941 0.334314
1.000000 0.887255 0.404412
1.000000 0.873529 0.463236
0.847059 1.000000 0.376471
0.853431 1.000000 0.372549
0.870588 1.000000 0.368627
0.904412 1.000000 0.362255
0.949020 1.000000 0.352941
1.000000 1.000000 0.337255
1.000000 1.000000 0.321569
1.000000 1.000000 0.298039
1.000000 1.000000 0.278431
0.000000 0.000000 0.268628
0.000000 0.000000 0.260784
0.010784 0.000000 0.252941
0.161765 0.000000 0.229412
0.347058 0.000000 0.203922
0.533824 0.000000 0.178431
0.703922 0.000000 0.158824
0.879412 0.000000 0.143137
0.988235 0.000000 0.139215
0.000000 0.030883 0.319118
0.000000 0.026961 0.311765
0.069118 0.021078 0.296569
0.215196 0.015686 0.273529
0.391666 0.009314 0.241177
0.559804 0.003922 0.211765
0.723530 0.000000 0.182353
0.891667 0.000000 0.150980
0.997549 0.000000 0.135294
0.002942 0.164706 0.389216
0.027941 0.162745 0.381373
0.115686 0.155882 0.365686
0.250490 0.147059 0.343627
0.418627 0.131372 0.314706
0.577941 0.105392 0.280883
0.735294 0.064706 0.242157
0.902941 0.018627 0.200981
1.000000 0.002942 0.177451
0.025980 0.314706 0.457353
0.044608 0.314706 0.451471
0.122059 0.310785 0.441667
0.287255 0.302941 0.424020
0.443137 0.291177 0.400490
0.593137 0.271569 0.375490
0.747059 0.241667 0.345588
0.906862 0.195098 0.308334
1.000000 0.152451 0.278922
0.058824 0.466666 0.513726
0.091667 0.466666 0.509804
0.198039 0.466666 0.501961
0.336274 0.462746 0.490197
0.474510 0.454902 0.478432
0.614706 0.443138 0.462746
0.758824 0.427451 0.443137
0.911275 0.397549 0.419607
1.000000 0.368627 0.401960
0.181373 0.614706 0.549019
0.222059 0.614706 0.548529
0.301961 0.614216 0.545098
0.407843 0.610784 0.540686
0.525490 0.604902 0.532843
0.653431 0.597059 0.525000
0.785784 0.583823 0.513235
0.926470 0.563725 0.501470
1.000000 0.544118 0.493627
0.357843 0.758824 0.556863
0.379902 0.758824 0.556863
0.430392 0.756863 0.557843
0.508333 0.754902 0.559804
0.602941 0.750981 0.559804
0.708333 0.745098 0.559804
0.824510 0.735294 0.559804
0.950000 0.723530 0.560785
1.000000 0.707843 0.563725
0.576471 0.906862 0.467157
0.589706 0.906862 0.469118
0.619118 0.905392 0.475000
0.668628 0.902941 0.484804
0.730882 0.899019 0.500490
0.808333 0.895098 0.520098
0.894608 0.887255 0.545098
0.995098 0.875490 0.572549
1.000000 0.863725 0.594118
0.852941 1.000000 0.376471
0.858824 1.000000 0.376471
0.878431 1.000000 0.372549
0.911764 1.000000 0.364706
0.954902 1.000000 0.352941
1.000000 1.000000 0.341176
1.000000 1.000000 0.322549
1.000000 1.000000 0.301471
1.000000 1.000000 0.339216
0.000000 0.000000 0.342647
0.000000 0.000000 0.334804
0.000000 0.000000 0.326961
0.130392 0.000000 0.303431
0.322059 0.000000 0.274020
0.512745 0.000000 0.247059
0.687746 0.000000 0.224019
0.864216 0.000000 0.203922
0.976471 0.000000 0.193627
0.000000 0.023039 0.404902
0.000000 0.019118 0.397059
0.025490 0.015196 0.377941
0.181373 0.011275 0.353922
0.362745 0.003922 0.320588
0.536274 0.000000 0.285785
0.703431 0.000000 0.252451
0.875490 0.000000 0.216176
0.984314 0.000000 0.197549
0.000000 0.158823 0.478921
0.002942 0.154902 0.471079
0.077941 0.148039 0.451470
0.211274 0.139215 0.427941
0.386274 0.123529 0.396079
0.551961 0.098529 0.358823
0.715197 0.058824 0.316176
0.883824 0.014216 0.266667
0.992157 0.000000 0.239706
0.011765 0.310785 0.549020
0.023039 0.306863 0.545098
0.089706 0.302941 0.531863
0.241176 0.297549 0.511274
0.409804 0.284314 0.486765
0.564706 0.266177 0.454902
0.723530 0.237745 0.421078
0.887745 0.191176 0.376471
0.996078 0.148529 0.342157
0.005882 0.462746 0.611274
0.035294 0.459314 0.607353
0.127941 0.458824 0.599510
0.287745 0.454902 0.583823
0.439215 0.447059 0.568137
0.583823 0.439215 0.548529
0.734804 0.420588 0.522059
0.891176 0.393627 0.493627
0.994608 0.364706 0.470098
0.063726 0.606863 0.657843
0.111765 0.606863 0.657843
0.227941 0.606863 0.653922
0.353922 0.602941 0.645098
0.485784 0.599020 0.633824
0.618627 0.591176 0.618627
0.754902 0.579412 0.602941
0.902941 0.559804 0.583333
0.996078 0.540196 0.567647
0.268137 0.747059 0.693137
0.297549 0.747059 0.692647
0.360294 0.747059 0.689216
0.450000 0.745588 0.685294
0.552451 0.743137 0.677451
0.665196 0.737745 0.673039
0.789706 0.730392 0.665196
0.922549 0.715687 0.653922
1.000000 0.700980 0.649510
0.478921 0.887255 0.680882
0.494118 0.887255 0.680882
0.530882 0.887255 0.680882
0.586765 0.887255 0.682353
0.660295 0.883333 0.684804
0.747059 0.881863 0.685294
0.848039 0.875490 0.689216
0.957843 0.867647 0.697059
1.000000 0.855882 0.703922
0.858824 1.000000 0.381863
0.866667 1.000000 0.379412
0.883824 1.000000 0.381863
0.912255 1.000000 0.384804
0.951471 1.000000 0.390686
0.996078 1.000000 0.411275
1.000000 1.000000 0.463235
1.000000 1.000000 0.545098
1.000000 1.000000 0.620098
0.000000 0.000000 0.420588
0.000000 0.000000 0.412745
0.000000 0.000000 0.400981
0.092647 0.000000 0.375000
0.292157 0.000000 0.344117
0.489216 0.000000 0.313236
0.665686 0.000000 0.286275
0.848530 0.000000 0.259804
0.964706 0.000000 0.247059
0.000000 0.019118 0.482843
0.000000 0.015196 0.475000
0.002942 0.011275 0.459314
0.140686 0.007353 0.428432
0.329902 0.003432 0.394608
0.511274 0.000000 0.355882
0.680392 0.000000 0.317157
0.859804 0.000000 0.274510
0.971078 0.000000 0.251960
0.000000 0.150980 0.560784
0.000000 0.147059 0.552941
0.039216 0.143137 0.533333
0.168137 0.132843 0.505882
0.353922 0.115686 0.471569
0.524510 0.092157 0.429902
0.692157 0.051961 0.382353
0.867647 0.010294 0.328922
0.976471 0.000000 0.295098
0.002451 0.302941 0.634804
0.007843 0.302941 0.628431
0.057353 0.299020 0.615196
0.191667 0.291177 0.591666
0.374509 0.279412 0.563235
0.536274 0.259804 0.528921
0.700000 0.233824 0.491177
0.871078 0.187255 0.440686
0.980392 0.140686 0.400980
0.000000 0.454902 0.700980
0.000000 0.454902 0.697059
0.066666 0.452941 0.685294
0.231863 0.450980 0.669608
0.400000 0.443137 0.650000
0.552941 0.431373 0.626961
0.707843 0.415687 0.596079
0.871568 0.389216 0.561275
0.976471 0.358823 0.532353
0.010784 0.599019 0.755392
0.033824 0.599019 0.755392
0.127451 0.599019 0.747549
0.295588 0.595098 0.735784
0.439706 0.591176 0.723040
0.583333 0.583823 0.704412
0.727451 0.575490 0.683824
0.879412 0.555882 0.657353
0.980392 0.536274 0.635294
0.153921 0.739216 0.805883
0.193628 0.739216 0.801961
0.281373 0.739216 0.798039
0.387745 0.738235 0.791666
0.502941 0.735294 0.782353
0.626470 0.731373 0.770588
0.754902 0.723530 0.754902
0.895098 0.711765 0.739216
0.992157 0.696079 0.724510
0.393137 0.875490 0.825490
0.412255 0.875490 0.825490
0.454412 0.875490 0.825490
0.520098 0.875490 0.821569
0.601961 0.875490 0.817647
0.696569 0.871568 0.813726
0.805393 0.867647 0.809314
0.922549 0.859804 0.801471
1.000000 0.851470 0.797549
0.731372 1.000000 0.705882
0.739215 1.000000 0.705882
0.755882 1.000000 0.709804
0.787255 1.000000 0.713726
0.827451 1.000000 0.721569
0.881373 1.000000 0.732353
0.945098 1.000000 0.745098
1.000000 1.000000 0.767647
1.000000 1.000000 0.795098
0.000000 0.000000 0.490686
0.000000 0.000000 0.482843
0.000000 0.000000 0.471078
0.050000 0.000000 0.443627
0.256862 0.000000 0.410294
0.462745 0.000000 0.375491
0.645588 0.000000 0.345098
0.832844 0.000000 0.313726
0.952451 0.000000 0.298039
0.000000 0.015196 0.556863
0.000000 0.011275 0.549020
0.000000 0.007353 0.533333
0.098039 0.003922 0.501961
0.295099 0.000000 0.460785
0.481372 0.000000 0.422059
0.657843 0.000000 0.379412
0.840686 0.000000 0.332843
0.956863 0.000000 0.305882
0.000000 0.143137 0.634804
0.000000 0.139215 0.626961
0.006863 0.135294 0.607353
0.118627 0.126961 0.579902
0.320098 0.112745 0.541667
0.494118 0.084314 0.496079
0.668628 0.046569 0.442647
0.848039 0.006373 0.387255
0.960784 0.000000 0.348530
0.000000 0.295098 0.712745
0.000000 0.295098 0.708824
0.026961 0.291177 0.693137
0.133824 0.285294 0.667157
0.334804 0.274019 0.634314
0.506863 0.256863 0.600000
0.673529 0.226961 0.554902
0.851961 0.179412 0.499020
0.964706 0.136274 0.455882
0.000000 0.450981 0.782843
0.000000 0.448529 0.778922
0.002451 0.447059 0.767157
0.159804 0.443137 0.747059
0.354412 0.439215 0.724020
0.517647 0.427451 0.696569
0.681862 0.411765 0.666176
0.851961 0.384313 0.623529
0.960784 0.354902 0.590686
0.000000 0.595098 0.845098
0.000000 0.595098 0.841177
0.037255 0.591176 0.833334
0.220098 0.591176 0.821569
0.389216 0.587255 0.801471
0.544117 0.579412 0.782353
0.696079 0.567647 0.754902
0.855882 0.551961 0.723530
0.964216 0.532353 0.697059
0.014216 0.731373 0.899510
0.049020 0.731373 0.899510
0.175490 0.731373 0.895098
0.315686 0.731373 0.883824
0.448039 0.727451 0.872059
0.583333 0.723530 0.856373
0.720098 0.719608 0.836765
0.867647 0.707843 0.813236
0.969117 0.692157 0.793627
0.295098 0.867647 0.946078
0.318137 0.867647 0.946078
0.372059 0.867647 0.942157
0.450000 0.867647 0.936274
0.541667 0.867157 0.930392
0.646078 0.863725 0.918627
0.762745 0.859804 0.906862
0.891176 0.855392 0.891176
0.984314 0.844117 0.875981
0.626471 1.000000 0.926470
0.634314 1.000000 0.926470
0.654412 1.000000 0.926470
0.689706 1.000000 0.926470
0.738725 1.000000 0.926470
0.800980 1.000000 0.926470
0.875000 1.000000 0.926470
0.957353 1.000000 0.926470
1.000000 1.000000 0.934313
0.000000 0.000000 0.525490
0.000000 0.000000 0.517647
0.000000 0.000000 0.505882
0.028431 0.000000 0.478431
0.237255 0.000000 0.443137
0.447549 0.000000 0.406373
0.634314 0.000000 0.375491
0.825000 0.000000 0.341176
0.945098 0.000000 0.321569
0.000000 0.011275 0.591667
0.000000 0.007843 0.583824
0.000000 0.003922 0.569117
0.071079 0.003432 0.536765
0.272549 0.000000 0.495589
0.465686 0.000000 0.452941
0.648529 0.000000 0.410294
0.832843 0.000000 0.359804
0.949020 0.000000 0.329412
0.000000 0.139215 0.673530
0.000000 0.135294 0.665686
0.000000 0.131372 0.646079
0.094118 0.121079 0.614706
0.296079 0.105882 0.573530
0.480393 0.080392 0.529902
0.653921 0.043137 0.473529
0.836765 0.003922 0.414216
0.952941 0.000000 0.375491
0.000000 0.293627 0.751471
0.000000 0.291177 0.747549
0.013235 0.287255 0.731863
0.114706 0.283334 0.704412
0.311764 0.272059 0.669118
0.486765 0.251961 0.629902
0.660785 0.225981 0.585785
0.840686 0.179412 0.527451
0.956863 0.130392 0.480882
0.000000 0.447059 0.825490
0.000000 0.447059 0.817647
0.000000 0.443138 0.805882
0.125000 0.441176 0.786274
0.327451 0.435295 0.762745
0.498530 0.423530 0.731372
0.665686 0.407843 0.696079
0.840196 0.380393 0.654411
0.952941 0.352942 0.615687
0.000000 0.591176 0.887745
0.000000 0.591176 0.883824
0.006863 0.591176 0.875980
0.164216 0.587255 0.860294
0.358333 0.583333 0.840686
0.520588 0.575490 0.817157
0.680392 0.567647 0.789706
0.845588 0.548039 0.755392
0.952941 0.528431 0.724510
0.000000 0.731373 0.946079
0.000000 0.727941 0.945098
0.096079 0.727451 0.938235
0.267157 0.727451 0.927942
0.416667 0.727451 0.914705
0.556863 0.723530 0.897549
0.700980 0.715687 0.875490
0.855882 0.703922 0.847549
0.960784 0.692157 0.824510
0.214216 0.863725 0.996568
0.248529 0.863725 0.996078
0.314215 0.863725 0.992647
0.403432 0.863725 0.988725
0.504902 0.863725 0.980392
0.617647 0.859804 0.968627
0.738726 0.858824 0.952451
0.875490 0.851961 0.929902
0.972549 0.844117 0.914215
0.572549 1.000000 1.000000
0.580392 1.000000 1.000000
0.603922 1.000000 1.000000
0.641667 1.000000 1.000000
0.696079 1.000000 1.000000
0.762255 1.000000 1.000000
0.837255 1.000000 1.000000
0.926470 1.000000 1.000000
1.000000 1.000000 1.000000
