Color/Kodak/Kodak Portra 400 NC 1 - 65x.cube
TITLE "Kodak Portra 400 NC 1 -"
LUT_3D_SIZE 9
DOMAIN_MIN 0.000000 0.000000 0.000000
DOMAIN_MAX 1.000000 1.000000 1.000000
0.000000 0.000000 0.000000
0.026961 0.003432 0.000000
0.158823 0.015686 0.000000
0.358824 0.023529 0.000000
0.572549 0.000000 0.000000
0.742647 0.000000 0.000000
0.852941 0.005883 0.000000
0.953431 0.086765 0.000000
1.000000 0.168627 0.000000
0.000000 0.030392 0.003432
0.030883 0.046569 0.000000
0.193137 0.092647 0.000000
0.395098 0.113235 0.000000
0.588725 0.107353 0.000000
0.755392 0.116176 0.000000
0.859804 0.128432 0.000000
0.950491 0.163726 0.000000
1.000000 0.215196 0.000000
0.000000 0.182353 0.010784
0.011275 0.184314 0.010294
0.178431 0.224510 0.000000
0.443627 0.281863 0.000000
0.657843 0.273530 0.000000
0.779902 0.266177 0.000000
0.873529 0.263726 0.000000
0.957843 0.272549 0.000000
1.000000 0.301960 0.000000
0.000000 0.373529 0.088726
0.000000 0.390196 0.106863
0.181373 0.403921 0.059314
0.403431 0.442647 0.000000
0.643138 0.477941 0.000000
0.783334 0.438725 0.000000
0.887255 0.408824 0.000000
0.969117 0.402451 0.000000
1.000000 0.414216 0.000000
0.003921 0.543137 0.217647
0.126960 0.545589 0.225490
0.249019 0.542157 0.220588
0.375491 0.563235 0.160294
0.547059 0.586275 0.000000
0.738725 0.616177 0.000000
0.861765 0.583333 0.000000
0.969117 0.546568 0.000000
1.000000 0.535294 0.000000
0.242157 0.650000 0.324510
0.288726 0.657843 0.336274
0.340196 0.652451 0.336274
0.413235 0.655392 0.318138
0.513235 0.673529 0.263726
0.650000 0.693137 0.169118
0.820098 0.726961 0.000000
0.930392 0.700980 0.000000
1.000000 0.677451 0.000000
0.408824 0.755882 0.448039
0.423530 0.755882 0.453921
0.450981 0.749020 0.448040
0.498529 0.747059 0.450000
0.552941 0.760784 0.421569
0.637745 0.774510 0.378432
0.744117 0.786275 0.306863
0.894608 0.810294 0.189216
1.000000 0.799019 0.205882
0.553921 0.843137 0.580882
0.565196 0.843627 0.581372
0.580392 0.840196 0.581372
0.610294 0.839706 0.584804
0.639706 0.838235 0.573529
0.688236 0.854902 0.552451
0.757843 0.863235 0.518627
0.847549 0.875490 0.472059
0.968137 0.898529 0.405883
0.717647 0.937255 0.737255
0.721569 0.937255 0.741176
0.733333 0.934313 0.741176
0.749020 0.937255 0.745098
0.772549 0.937255 0.749020
0.797549 0.946569 0.738725
0.831373 0.959804 0.724510
0.882843 0.972549 0.705882
0.949020 0.988235 0.678431
0.000000 0.000000 0.030883
0.034804 0.000000 0.034804
0.165196 0.000000 0.049509
0.365196 0.000000 0.032353
0.570588 0.000000 0.026471
0.732843 0.000000 0.001961
0.840196 0.000000 0.000000
0.938235 0.048039 0.000000
1.000000 0.149020 0.000000
0.000000 0.046569 0.046569
0.046079 0.057844 0.061274
0.197059 0.069117 0.056863
0.398039 0.073530 0.041667
0.598040 0.055392 0.015686
0.748039 0.063235 0.000000
0.849510 0.097549 0.000000
0.946569 0.142156 0.000000
1.000000 0.203432 0.000000
0.000000 0.216666 0.117157
0.037745 0.211764 0.111764
0.194117 0.236275 0.073039
0.465196 0.271569 0.007353
0.655882 0.257353 0.000000
0.771078 0.248529 0.000000
0.865196 0.250490 0.000000
0.955883 0.268137 0.000000
1.000000 0.300980 0.000000
0.000000 0.394117 0.179412
0.052941 0.408824 0.193627
0.219608 0.411274 0.181373
0.416177 0.448039 0.096078
0.646568 0.472059 0.000000
0.784804 0.429412 0.000000
0.883333 0.406373 0.000000
0.965196 0.400981 0.000000
1.000000 0.416667 0.000000
0.116667 0.556863 0.277941
0.197059 0.559314 0.285784
0.287745 0.549019 0.284804
0.397059 0.568628 0.243137
0.554902 0.588726 0.153922
0.736764 0.612255 0.000000
0.859804 0.578431 0.000000
0.967647 0.541667 0.000000
1.000000 0.537255 0.000000
0.284804 0.656373 0.365686
0.324020 0.665686 0.378922
0.373039 0.658333 0.377451
0.438725 0.661765 0.364706
0.525981 0.676470 0.315196
0.656373 0.697059 0.244118
0.820588 0.725490 0.102451
0.932843 0.700000 0.098039
1.000000 0.675490 0.119118
0.425490 0.756372 0.471569
0.446078 0.761764 0.477451
0.469608 0.755882 0.476961
0.511765 0.750000 0.476471
0.564216 0.762255 0.452451
0.642647 0.775490 0.411274
0.748039 0.786275 0.349020
0.895098 0.812255 0.249510
1.000000 0.799019 0.263235
0.561764 0.843627 0.592647
0.573529 0.843627 0.596568
0.588235 0.843137 0.596078
0.615196 0.839706 0.597059
0.647549 0.842647 0.589215
0.692157 0.851470 0.565686
0.757843 0.863725 0.537255
0.848039 0.875490 0.490686
0.968137 0.898039 0.428922
0.721569 0.937255 0.745098
0.725490 0.937255 0.745098
0.736765 0.936765 0.748530
0.750490 0.934804 0.750000
0.776471 0.937255 0.754902
0.800000 0.945588 0.745588
0.834804 0.959314 0.731863
0.883334 0.969607 0.710294
0.949510 0.984804 0.686275
0.000000 0.000000 0.200981
0.073530 0.000000 0.198039
0.200981 0.000000 0.208824
0.395098 0.000000 0.213725
0.607843 0.000000 0.197059
0.746569 0.000000 0.171568
0.831373 0.000000 0.204902
0.931373 0.081863 0.197059
1.000000 0.174510 0.200981
0.000000 0.085295 0.217157
0.019118 0.070098 0.228922
0.221078 0.076961 0.232843
0.423039 0.046079 0.225490
0.622059 0.000000 0.204902
0.741667 0.028921 0.214215
0.838235 0.115686 0.209314
0.934804 0.163235 0.200490
1.000000 0.225980 0.208334
0.000000 0.238235 0.250000
0.000000 0.247058 0.255883
0.247058 0.259804 0.274509
0.469118 0.262745 0.267647
0.641177 0.259804 0.253922
0.755882 0.254902 0.232353
0.852941 0.260784 0.219607
0.944608 0.279902 0.207843
1.000000 0.315686 0.212745
0.067157 0.431372 0.319608
0.207843 0.447059 0.341666
0.309804 0.440196 0.338235
0.454412 0.463236 0.302451
0.655882 0.461275 0.260784
0.778922 0.426961 0.244118
0.868137 0.412745 0.229412
0.953431 0.412745 0.219117
1.000000 0.431863 0.229412
0.266667 0.580392 0.392157
0.309804 0.583823 0.400490
0.366666 0.570588 0.394117
0.446569 0.574020 0.377941
0.573530 0.594118 0.323529
0.740196 0.608334 0.265686
0.860785 0.575490 0.248039
0.959804 0.550490 0.238235
1.000000 0.545098 0.240196
0.365196 0.672059 0.447549
0.396568 0.679902 0.459314
0.433333 0.673530 0.456863
0.483824 0.663235 0.451961
0.552941 0.681372 0.416176
0.665686 0.698039 0.364216
0.820098 0.723039 0.297549
0.928922 0.700490 0.287255
1.000000 0.677451 0.287255
0.466667 0.763725 0.524510
0.480392 0.766667 0.526961
0.502941 0.762745 0.525490
0.541667 0.758824 0.526470
0.585294 0.761764 0.509804
0.655882 0.775980 0.477451
0.754902 0.787255 0.429412
0.899019 0.813726 0.356863
1.000000 0.798039 0.366667
0.585294 0.847549 0.624510
0.595588 0.847549 0.627941
0.608333 0.847549 0.627941
0.631373 0.843627 0.625490
0.662255 0.842157 0.624019
0.703431 0.852451 0.604412
0.765686 0.863235 0.575490
0.851470 0.875490 0.534804
0.972059 0.900980 0.482353
0.725490 0.937255 0.756863
0.730392 0.938235 0.757843
0.741176 0.937255 0.756863
0.756863 0.937255 0.760784
0.780392 0.938235 0.764706
0.803922 0.945098 0.759804
0.836274 0.956863 0.745098
0.883333 0.969117 0.728431
0.952941 0.988235 0.704902
0.000000 0.000000 0.403431
0.012255 0.000000 0.407353
0.255883 0.000000 0.412745
0.450490 0.000000 0.423039
0.621568 0.000000 0.403431
0.769118 0.000000 0.375980
0.862255 0.000000 0.342157
0.944118 0.000000 0.318628
1.000000 0.209314 0.351471
0.000000 0.088235 0.415196
0.000000 0.095588 0.425981
0.259313 0.093138 0.428431
0.466177 0.084804 0.436275
0.637255 0.096569 0.419118
0.766176 0.104902 0.386274
0.859804 0.081863 0.351471
0.937745 0.157353 0.343627
1.000000 0.277941 0.371078
0.000000 0.275000 0.429412
0.000000 0.279412 0.443628
0.267647 0.280392 0.459804
0.500980 0.301960 0.471079
0.649510 0.313725 0.445098
0.759804 0.285294 0.407843
0.844118 0.288725 0.386765
0.918627 0.329902 0.388235
1.000000 0.361274 0.384314
0.000000 0.453431 0.457353
0.158824 0.472549 0.476470
0.345098 0.481863 0.485784
0.506863 0.487255 0.495098
0.636765 0.467647 0.467647
0.742647 0.452941 0.442647
0.839216 0.445588 0.422059
0.926470 0.440686 0.399510
1.000000 0.459804 0.399510
0.343627 0.601961 0.506863
0.392647 0.609804 0.518628
0.462255 0.605392 0.522549
0.519118 0.592647 0.517157
0.600490 0.606373 0.487255
0.744117 0.607843 0.458333
0.855392 0.582353 0.439216
0.937255 0.570098 0.420098
1.000000 0.567157 0.411274
0.458824 0.694118 0.552941
0.487745 0.702451 0.563235
0.501961 0.698039 0.553922
0.541176 0.687745 0.549020
0.590196 0.687745 0.531863
0.679902 0.703431 0.495098
0.820588 0.721569 0.459804
0.926471 0.699510 0.444118
1.000000 0.679902 0.440196
0.522549 0.779412 0.597549
0.534804 0.778432 0.600490
0.551961 0.775490 0.597549
0.580882 0.770588 0.595588
0.618627 0.764216 0.586275
0.674019 0.776471 0.559314
0.763725 0.788725 0.523039
0.897549 0.811275 0.479902
1.000000 0.799019 0.479902
0.616666 0.851470 0.669608
0.626470 0.853921 0.674020
0.636274 0.851470 0.671568
0.655392 0.849020 0.671078
0.686275 0.845588 0.667647
0.719608 0.851470 0.655392
0.774020 0.863235 0.629902
0.855882 0.875490 0.599019
0.977451 0.903922 0.552451
0.735784 0.941176 0.776471
0.741176 0.941176 0.780392
0.749020 0.941176 0.779902
0.764706 0.941176 0.780392
0.786274 0.941176 0.782353
0.811765 0.945098 0.784314
0.843137 0.956863 0.771568
0.890686 0.972549 0.754902
0.955392 0.986765 0.731863
0.000000 0.001961 0.572549
0.000000 0.000000 0.572549
0.264706 0.000000 0.578431
0.477941 0.000000 0.584313
0.654902 0.000000 0.592156
0.753922 0.083333 0.549019
0.869608 0.205883 0.528431
0.952941 0.236765 0.505392
1.000000 0.266667 0.490197
0.000000 0.120589 0.574510
0.000000 0.124510 0.581863
0.271079 0.130392 0.584313
0.491177 0.153922 0.595098
0.658824 0.173530 0.598039
0.756372 0.209314 0.557843
0.866667 0.283824 0.537254
0.947549 0.285784 0.511274
1.000000 0.307843 0.496569
0.000000 0.304902 0.590196
0.000000 0.306863 0.600000
0.297059 0.305883 0.602941
0.504412 0.329411 0.604902
0.657843 0.349020 0.606863
0.751471 0.365686 0.573530
0.855883 0.395098 0.555882
0.938235 0.374510 0.524510
1.000000 0.369608 0.501961
0.000000 0.459804 0.584313
0.128922 0.475490 0.600000
0.315687 0.478431 0.600980
0.505392 0.485784 0.611765
0.646569 0.504902 0.611765
0.745588 0.514216 0.594608
0.837745 0.489706 0.564705
0.918137 0.460294 0.529902
1.000000 0.485294 0.529902
0.300000 0.611765 0.605882
0.357843 0.617647 0.611765
0.442157 0.619607 0.614706
0.537745 0.623530 0.619607
0.635294 0.623530 0.623530
0.730882 0.610294 0.600980
0.820588 0.595098 0.576470
0.906862 0.581863 0.552941
0.998039 0.580392 0.537255
0.479902 0.715196 0.633333
0.509314 0.723529 0.643137
0.545588 0.719608 0.645098
0.600000 0.719118 0.649020
0.639215 0.704902 0.638725
0.703431 0.715196 0.613725
0.825000 0.717157 0.591176
0.925490 0.695588 0.572549
1.000000 0.685784 0.560785
0.576470 0.793137 0.677451
0.592157 0.794118 0.681372
0.612745 0.792157 0.683333
0.631863 0.786765 0.673529
0.662745 0.780392 0.666667
0.698530 0.779412 0.648039
0.779412 0.794118 0.623530
0.900980 0.807843 0.592157
1.000000 0.794118 0.588235
0.665196 0.861275 0.733333
0.669608 0.863235 0.734313
0.672549 0.861275 0.727941
0.688236 0.857353 0.723530
0.712255 0.855392 0.722059
0.742156 0.850490 0.714706
0.789215 0.864216 0.695588
0.865196 0.876961 0.667157
0.984314 0.906372 0.637255
0.745098 0.945098 0.803922
0.752941 0.948530 0.805883
0.756863 0.945098 0.803922
0.774510 0.947059 0.805883
0.792157 0.945098 0.807843
0.819608 0.945098 0.811765
0.850000 0.957843 0.801961
0.894608 0.972549 0.788235
0.958824 0.988235 0.766666
0.000000 0.072059 0.693137
0.000000 0.074019 0.693627
0.280882 0.085294 0.698039
0.481863 0.113725 0.704902
0.647058 0.170588 0.703431
0.774020 0.214706 0.703431
0.846569 0.259804 0.668137
0.940686 0.351471 0.650000
1.000000 0.434314 0.647549
0.000000 0.169117 0.695098
0.042647 0.179412 0.703431
0.302941 0.189706 0.705882
0.491177 0.210785 0.707353
0.649510 0.254412 0.707353
0.772059 0.289216 0.707353
0.846569 0.325980 0.672059
0.936765 0.396078 0.655883
1.000000 0.457843 0.653922
0.000000 0.317157 0.707353
0.150000 0.324510 0.710294
0.337255 0.334314 0.711275
0.505882 0.353922 0.711765
0.650980 0.384314 0.707843
0.766176 0.411275 0.710294
0.839216 0.433333 0.682843
0.929902 0.480392 0.669118
1.000000 0.503922 0.658824
0.084804 0.467647 0.690196
0.242157 0.484314 0.704412
0.387745 0.492647 0.705882
0.510784 0.491177 0.707353
0.646078 0.514216 0.711275
0.755882 0.535784 0.715196
0.828432 0.545098 0.690196
0.921079 0.571569 0.682843
1.000000 0.558333 0.664216
0.278922 0.605882 0.697549
0.332843 0.611764 0.699510
0.409314 0.614216 0.698529
0.499510 0.612745 0.700490
0.627451 0.619607 0.711275
0.740686 0.640686 0.717157
0.824509 0.648039 0.706373
0.906372 0.624020 0.678432
0.994117 0.593628 0.647549
0.436765 0.719118 0.707353
0.467647 0.724510 0.714706
0.513235 0.725981 0.714216
0.578922 0.725490 0.717647
0.652941 0.726961 0.722549
0.734804 0.730882 0.728431
0.812745 0.715196 0.707353
0.894608 0.699510 0.680882
0.984314 0.693137 0.665686
0.600490 0.809804 0.748530
0.615196 0.810294 0.751471
0.637255 0.809804 0.752451
0.668137 0.805883 0.752451
0.709804 0.801961 0.752451
0.743627 0.793137 0.743137
0.795588 0.799509 0.721569
0.902941 0.801961 0.701961
1.000000 0.790196 0.696569
0.686765 0.872059 0.785784
0.694608 0.871078 0.786765
0.709314 0.874020 0.789706
0.729412 0.871078 0.789706
0.750490 0.868137 0.785294
0.773039 0.862255 0.776961
0.808824 0.866667 0.765686
0.875490 0.881863 0.746078
0.985784 0.900000 0.724510
0.772549 0.952941 0.847059
0.773039 0.952941 0.847059
0.784314 0.954412 0.848529
0.789706 0.952941 0.842157
0.803922 0.952941 0.840686
0.831373 0.952941 0.840686
0.862745 0.956863 0.843137
0.902451 0.972549 0.827451
0.964706 0.988235 0.809314
0.034314 0.174510 0.804902
0.185294 0.181372 0.804902
0.343137 0.193137 0.803922
0.498039 0.216666 0.800981
0.642157 0.264706 0.800981
0.766667 0.332353 0.800980
0.867647 0.370588 0.800981
0.922549 0.397058 0.766177
1.000000 0.490196 0.758824
0.104412 0.239216 0.800490
0.226961 0.251470 0.804902
0.359804 0.259314 0.804902
0.509314 0.285295 0.803432
0.645588 0.324510 0.803432
0.769117 0.381373 0.803432
0.865196 0.411274 0.802451
0.918137 0.432353 0.766667
1.000000 0.515686 0.764216
0.208823 0.360784 0.802941
0.277451 0.366667 0.803922
0.390196 0.374510 0.800981
0.523039 0.395098 0.805393
0.651961 0.426471 0.805883
0.763725 0.470098 0.803922
0.858824 0.492157 0.803922
0.912745 0.503431 0.772549
0.997059 0.567647 0.770588
0.299019 0.496569 0.789215
0.358823 0.508333 0.798039
0.413725 0.496569 0.798529
0.528921 0.510784 0.798039
0.644608 0.529902 0.796568
0.754902 0.563235 0.800000
0.845588 0.581373 0.802451
0.903922 0.590686 0.777451
0.987255 0.635294 0.778922
0.266667 0.603921 0.777451
0.322059 0.610784 0.782843
0.413725 0.611765 0.786275
0.525000 0.618137 0.789706
0.631373 0.624510 0.797058
0.743627 0.650980 0.800981
0.833334 0.667647 0.803922
0.896569 0.675000 0.787745
0.981373 0.699020 0.788235
0.402451 0.715687 0.785294
0.431863 0.721568 0.789216
0.476961 0.722058 0.789216
0.537254 0.719118 0.789215
0.611274 0.714706 0.789215
0.726961 0.726961 0.800980
0.827451 0.745588 0.811765
0.896079 0.750490 0.800980
0.979412 0.734804 0.785294
0.546078 0.805883 0.802941
0.563725 0.808823 0.804902
0.593137 0.809804 0.805883
0.635784 0.809804 0.806863
0.694118 0.809804 0.809804
0.758824 0.812255 0.813726
0.828432 0.816667 0.820588
0.892157 0.798039 0.798529
0.980392 0.790196 0.782353
0.707353 0.886765 0.844117
0.715196 0.887255 0.845588
0.729902 0.887745 0.848039
0.752941 0.888236 0.849510
0.780882 0.886765 0.849510
0.813236 0.883333 0.848529
0.840196 0.875000 0.836765
0.890686 0.886275 0.824510
0.992157 0.894608 0.809314
0.780392 0.960784 0.886275
0.784314 0.961765 0.887255
0.793137 0.962745 0.887255
0.806373 0.963235 0.888726
0.825490 0.961764 0.888236
0.850980 0.964706 0.887255
0.875490 0.964706 0.883333
0.910294 0.973039 0.875490
0.976471 0.992157 0.862745
0.310784 0.302451 0.894118
0.350000 0.306372 0.890686
0.437745 0.321079 0.890686
0.546078 0.345588 0.890196
0.654902 0.379412 0.886765
0.762745 0.429902 0.883333
0.859804 0.487745 0.882843
0.941666 0.510784 0.882843
1.000000 0.534313 0.863725
0.323039 0.341666 0.886765
0.376471 0.356863 0.890686
0.452941 0.367647 0.890686
0.551961 0.388725 0.887255
0.658824 0.419608 0.888236
0.760294 0.460785 0.880882
0.859804 0.514706 0.882843
0.938235 0.533823 0.882843
0.996078 0.556863 0.863725
0.370098 0.435784 0.886275
0.403922 0.441666 0.886765
0.473039 0.450490 0.887745
0.562255 0.464706 0.886765
0.663726 0.488235 0.883333
0.761275 0.521569 0.884804
0.852941 0.564216 0.880392
0.933823 0.583334 0.883333
0.984804 0.596569 0.862745
0.383824 0.526961 0.880882
0.421079 0.536765 0.884314
0.479411 0.540196 0.884314
0.567157 0.551961 0.882843
0.658824 0.569608 0.880882
0.758333 0.599509 0.883824
0.850000 0.630882 0.882353
0.925980 0.646078 0.883333
0.972549 0.653431 0.863235
0.400490 0.633333 0.873039
0.431373 0.635785 0.875000
0.487746 0.637745 0.875000
0.549510 0.631373 0.878921
0.647058 0.645588 0.878921
0.746569 0.666667 0.878921
0.837255 0.689706 0.879412
0.917647 0.705882 0.884804
0.968627 0.711765 0.865196
0.395098 0.719118 0.867157
0.418627 0.723039 0.865687
0.454902 0.717647 0.867157
0.527941 0.719608 0.870098
0.629902 0.723039 0.871078
0.730882 0.730882 0.877451
0.833334 0.751471 0.882843
0.913725 0.768627 0.889216
0.972549 0.774020 0.878921
0.525490 0.809804 0.873039
0.537255 0.812745 0.873040
0.565196 0.812745 0.877451
0.600000 0.804902 0.871079
0.653921 0.805883 0.874510
0.712745 0.798039 0.872059
0.817647 0.809804 0.883824
0.911274 0.829412 0.895589
0.981373 0.837255 0.892647
0.655392 0.890196 0.890686
0.663235 0.889706 0.893628
0.681373 0.890196 0.894118
0.710294 0.888726 0.892647
0.749510 0.890686 0.896569
0.798039 0.894608 0.900000
0.855883 0.895589 0.903432
0.918137 0.902451 0.910294
0.988725 0.883333 0.887255
0.788235 0.968627 0.929412
0.795098 0.971568 0.932843
0.803922 0.970098 0.930882
0.823529 0.972549 0.933823
0.843627 0.974510 0.935784
0.869608 0.975490 0.937745
0.902451 0.976961 0.938235
0.929902 0.976961 0.933823
0.984314 0.995588 0.925490
0.513726 0.494118 0.976471
0.533333 0.498039 0.976471
0.572549 0.502941 0.973530
0.633824 0.521569 0.972549
0.709804 0.545098 0.970588
0.791176 0.576471 0.968627
0.868628 0.612745 0.964706
0.945588 0.654902 0.964216
1.000000 0.666667 0.964706
0.517157 0.513236 0.972549
0.537255 0.521569 0.973039
0.575981 0.525000 0.972549
0.637745 0.541176 0.972549
0.708333 0.564216 0.970588
0.789706 0.589706 0.966176
0.868628 0.624510 0.961765
0.945588 0.662746 0.964216
1.000000 0.677941 0.968137
0.531372 0.565686 0.972549
0.548039 0.570588 0.972549
0.586274 0.575490 0.972549
0.641667 0.590196 0.971078
0.711765 0.605882 0.968627
0.789706 0.627941 0.964706
0.870589 0.657843 0.961764
0.942647 0.689216 0.961765
1.000000 0.699020 0.964706
0.529412 0.619608 0.968627
0.552941 0.629902 0.972549
0.587255 0.633824 0.973039
0.641667 0.641667 0.968627
0.713726 0.657353 0.968627
0.789706 0.674510 0.966176
0.867647 0.696569 0.964706
0.941666 0.724020 0.964706
1.000000 0.731863 0.968627
0.549019 0.701960 0.968627
0.564705 0.705882 0.970588
0.580392 0.694117 0.968627
0.629902 0.696079 0.968627
0.703921 0.707843 0.968627
0.783823 0.724020 0.969117
0.863725 0.736274 0.964706
0.939706 0.760784 0.966667
1.000000 0.766666 0.970588
0.508333 0.758333 0.964706
0.531373 0.762255 0.970588
0.564706 0.762255 0.968627
0.622059 0.762255 0.966176
0.684314 0.758333 0.968627
0.766176 0.766176 0.968627
0.855882 0.781372 0.972549
0.937745 0.798039 0.968627
1.000000 0.810784 0.974020
0.560785 0.836274 0.968627
0.574019 0.837255 0.969607
0.589216 0.836274 0.968627
0.613726 0.832353 0.967156
0.660784 0.828431 0.972549
0.746569 0.824510 0.972549
0.837255 0.829412 0.976471
0.933823 0.852451 0.980882
1.000000 0.860785 0.980392
0.667647 0.918137 0.976961
0.671078 0.911274 0.976471
0.686765 0.918137 0.980392
0.708333 0.917647 0.979902
0.734313 0.912744 0.976961
0.774510 0.914215 0.984314
0.820098 0.901961 0.979902
0.917647 0.902451 0.987745
1.000000 0.925490 0.988235
0.752941 0.984314 0.984314
0.756863 0.984314 0.984314
0.768627 0.988235 0.984314
0.784314 0.988235 0.985784
0.811765 0.988235 0.986274
0.844608 0.988235 0.988235
0.887255 0.989216 0.989216
0.941666 0.992647 0.992647
1.000000 1.000000 1.000000
