Color/Kodak/Kodak Elite Color 200 65x.cube
TITLE "Kodak Elite Color 200"
LUT_3D_SIZE 65
DOMAIN_MIN 0.000000 0.000000 0.000000
DOMAIN_MAX 1.000000 1.000000 1.000000
0.000000 0.000000 0.000000
0.004841 0.000000 0.000000
0.011765 0.000000 0.000000
0.018444 0.000000 0.000000
0.027206 0.000000 0.000000
0.035968 0.000000 0.000000
0.046323 0.000000 0.000000
0.057415 0.000000 0.000000
0.066177 0.000000 0.000000
0.078860 0.000000 0.000000
0.087623 0.000000 0.000000
0.096385 0.000000 0.000000
0.105147 0.000000 0.000000
0.117831 0.000000 0.000000
0.127696 0.000000 0.000000
0.139277 0.000000 0.000000
0.151961 0.000000 0.000000
0.160723 0.000000 0.000000
0.173407 0.000000 0.000000
0.186091 0.000000 0.000000
0.197549 0.000000 0.000000
0.211152 0.000000 0.000000
0.220833 0.000000 0.000000
0.234437 0.000000 0.000000
0.249510 0.000000 0.003922
0.262194 0.003370 0.003922
0.275245 0.003922 0.003922
0.288848 0.003922 0.003922
0.302451 0.003922 0.003922
0.316851 0.003922 0.003922
0.333578 0.003922 0.003922
0.347181 0.003922 0.003922
0.364706 0.003922 0.003922
0.382231 0.003922 0.007843
0.399755 0.003922 0.007843
0.417279 0.007843 0.007843
0.438725 0.007843 0.007843
0.456250 0.007843 0.010478
0.477696 0.007843 0.011765
0.499142 0.011765 0.011765
0.520588 0.011765 0.011765
0.542034 0.011765 0.011765
0.559559 0.011765 0.015073
0.581005 0.012071 0.015686
0.599755 0.015686 0.016912
0.619975 0.017831 0.019608
0.640564 0.019608 0.019608
0.658947 0.019669 0.019608
0.677451 0.023529 0.023529
0.697917 0.027451 0.023529
0.718260 0.027451 0.027451
0.736887 0.031189 0.027451
0.758334 0.035294 0.032108
0.775858 0.039216 0.035294
0.795956 0.043137 0.035294
0.814828 0.047059 0.039216
0.832353 0.050980 0.043137
0.849878 0.054902 0.044546
0.867402 0.058824 0.049387
0.884927 0.065993 0.054228
0.902451 0.070833 0.058824
0.919975 0.075674 0.059988
0.935417 0.080515 0.066667
0.951103 0.089277 0.070588
0.968627 0.094118 0.074510
0.000000 0.003922 0.000000
0.004841 0.003922 0.000000
0.013603 0.003922 0.000000
0.022365 0.003922 0.000000
0.031128 0.004841 0.000000
0.039890 0.004841 0.000000
0.048652 0.004841 0.000000
0.058333 0.004841 0.000000
0.070098 0.004841 0.000000
0.079779 0.004841 0.000000
0.091544 0.004841 0.000000
0.100306 0.007843 0.000000
0.109069 0.007843 0.000000
0.118015 0.008762 0.000000
0.131618 0.008762 0.000000
0.143198 0.008762 0.000000
0.151961 0.008762 0.000000
0.164645 0.008762 0.000000
0.177329 0.008762 0.000000
0.187868 0.008762 0.000000
0.198774 0.008762 0.000000
0.211459 0.012684 0.000000
0.224755 0.012684 0.000000
0.238358 0.012684 0.001532
0.251961 0.012684 0.003922
0.265564 0.012684 0.003922
0.278799 0.013052 0.003922
0.292769 0.016605 0.003922
0.306373 0.016605 0.003922
0.319976 0.016605 0.003922
0.333578 0.020527 0.003922
0.351103 0.020527 0.003922
0.368627 0.020527 0.005882
0.383150 0.020527 0.007843
0.400675 0.024326 0.007843
0.421201 0.021324 0.007843
0.438725 0.024448 0.007843
0.460172 0.025367 0.008762
0.481250 0.028370 0.011765
0.499693 0.029289 0.011765
0.522059 0.029289 0.011765
0.542034 0.034682 0.011765
0.563481 0.033211 0.012684
0.581311 0.037132 0.015686
0.602451 0.038358 0.016605
0.622120 0.041054 0.019608
0.641421 0.044975 0.019608
0.659008 0.045036 0.019669
0.680392 0.049878 0.023529
0.699816 0.052818 0.024448
0.719363 0.056740 0.027451
0.740625 0.060478 0.031189
0.758334 0.064583 0.032108
0.777512 0.068505 0.035294
0.797304 0.071078 0.037868
0.814828 0.075919 0.039216
0.833272 0.080269 0.043627
0.853799 0.084191 0.047059
0.871324 0.088113 0.047978
0.885845 0.095282 0.054902
0.902451 0.099877 0.058824
0.919975 0.104963 0.062745
0.937500 0.109804 0.068750
0.951103 0.115563 0.070588
0.968627 0.123407 0.075429
0.001838 0.007843 0.000000
0.008762 0.009681 0.000000
0.013603 0.009681 0.000000
0.022365 0.009681 0.000000
0.031128 0.009681 0.000000
0.039890 0.009681 0.000000
0.050245 0.009681 0.000000
0.061336 0.009681 0.000000
0.070098 0.011765 0.000000
0.082782 0.011765 0.000000
0.091544 0.013603 0.000000
0.100306 0.013603 0.000000
0.112254 0.013603 0.000000
0.121753 0.013603 0.000000
0.131618 0.013603 0.000000
0.143198 0.015686 0.000000
0.153799 0.015686 0.000000
0.164645 0.017524 0.000000
0.177329 0.017524 0.000000
0.190012 0.017524 0.000000
0.201471 0.017524 0.000000
0.215073 0.017524 0.000000
0.224755 0.021446 0.001838
0.238358 0.021446 0.003922
0.251961 0.021446 0.003922
0.264032 0.021446 0.003922
0.280637 0.025367 0.003922
0.292769 0.025367 0.003922
0.306373 0.025367 0.003922
0.318689 0.028493 0.003922
0.337378 0.029289 0.003922
0.351103 0.029289 0.005760
0.368627 0.029289 0.007843
0.386152 0.031127 0.007843
0.403677 0.033211 0.007843
0.421201 0.033211 0.007843
0.440441 0.037132 0.009681
0.460172 0.037132 0.011765
0.481618 0.038970 0.011765
0.503064 0.041054 0.011765
0.524510 0.042525 0.011765
0.544424 0.044975 0.013603
0.563481 0.046813 0.015686
0.584927 0.050735 0.017524
0.602451 0.052818 0.019608
0.621814 0.054657 0.019608
0.641421 0.059804 0.022671
0.662868 0.062500 0.023529
0.680392 0.064583 0.025367
0.699755 0.066421 0.027451
0.719363 0.071324 0.027451
0.738725 0.072426 0.029289
0.758334 0.077084 0.035294
0.779780 0.082108 0.036949
0.797304 0.086765 0.039216
0.814828 0.088113 0.042708
0.836274 0.092524 0.047059
0.853799 0.097366 0.048468
0.871324 0.102206 0.050980
0.888848 0.105637 0.054902
0.902451 0.111888 0.059069
0.919975 0.116728 0.063909
0.937500 0.125491 0.068750
0.952022 0.130330 0.073591
0.968627 0.137009 0.078431
0.006679 0.011765 0.000000
0.011519 0.014522 0.000000
0.017524 0.014522 0.000000
0.026287 0.014522 0.000000
0.033885 0.014522 0.000000
0.043811 0.015686 0.000000
0.052573 0.015686 0.000000
0.061336 0.018444 0.000000
0.072856 0.018444 0.000000
0.082782 0.018444 0.000000
0.091544 0.018444 0.000000
0.100306 0.018444 0.000000
0.112990 0.019608 0.000000
0.121753 0.022365 0.000000
0.134436 0.022365 0.000000
0.145956 0.022365 0.000000
0.155883 0.022365 0.000000
0.168504 0.022365 0.000000
0.180086 0.020466 0.000000
0.190012 0.023529 0.000000
0.202696 0.026287 0.000000
0.215073 0.026287 0.003616
0.228064 0.026287 0.003922
0.240748 0.030209 0.003922
0.253431 0.030209 0.003922
0.266115 0.030209 0.003922
0.279166 0.030576 0.003922
0.292769 0.034130 0.003922
0.306373 0.034130 0.003922
0.320772 0.037255 0.003922
0.337500 0.038052 0.006679
0.351103 0.038052 0.007843
0.368627 0.038052 0.007843
0.386152 0.041973 0.007843
0.403677 0.041973 0.007843
0.421201 0.042770 0.010601
0.442647 0.045895 0.011765
0.462929 0.048529 0.011765
0.481618 0.049816 0.011765
0.503064 0.050368 0.011765
0.524510 0.053738 0.013235
0.544424 0.056495 0.015686
0.563481 0.057660 0.015686
0.584927 0.061581 0.015992
0.605209 0.064339 0.019608
0.623897 0.065503 0.022365
0.641421 0.068260 0.023529
0.662868 0.069486 0.023529
0.680392 0.076103 0.024510
0.701838 0.077267 0.027451
0.719363 0.080025 0.030209
0.740808 0.084927 0.031373
0.761091 0.089032 0.038052
0.779780 0.090687 0.039216
0.797304 0.095527 0.039216
0.818321 0.100368 0.043137
0.836274 0.101286 0.047059
0.853799 0.106128 0.050980
0.871324 0.110968 0.053309
0.888848 0.116483 0.058150
0.906127 0.124326 0.059069
0.919975 0.128248 0.063909
0.937500 0.134253 0.070588
0.952022 0.139093 0.074510
0.968627 0.147856 0.078431
0.007843 0.019363 0.000000
0.012684 0.019363 0.000000
0.019608 0.019608 0.000000
0.026287 0.019608 0.000000
0.035049 0.023284 0.000000
0.043811 0.023284 0.000000
0.052573 0.023284 0.000000
0.063848 0.023284 0.000000
0.074020 0.023284 0.000000
0.086458 0.023529 0.000000
0.092892 0.027206 0.000000
0.104228 0.027206 0.000000
0.112990 0.027206 0.000000
0.121937 0.027206 0.000000
0.134436 0.024632 0.000000
0.147120 0.031128 0.000000
0.155883 0.031128 0.000000
0.168321 0.031128 0.000000
0.178187 0.031128 0.000000
0.193688 0.031128 0.003677
0.202696 0.035049 0.002696
0.215380 0.035049 0.003922
0.228064 0.035049 0.003922
0.240748 0.035049 0.003922
0.253431 0.038971 0.003922
0.269791 0.038971 0.003922
0.279166 0.039338 0.003922
0.295405 0.042892 0.003922
0.308088 0.042892 0.003922
0.323897 0.046017 0.007598
0.337500 0.046814 0.007843
0.357659 0.046814 0.007843
0.368627 0.050490 0.007843
0.386152 0.050735 0.007843
0.403677 0.050735 0.007843
0.421998 0.051532 0.011765
0.442647 0.054657 0.011765
0.462807 0.057292 0.011765
0.485295 0.058579 0.011765
0.503615 0.062500 0.015686
0.524510 0.062500 0.015686
0.545956 0.064890 0.015686
0.566789 0.066422 0.019363
0.584927 0.070343 0.019608
0.603677 0.071569 0.023284
0.623897 0.074265 0.023529
0.645098 0.078186 0.023529
0.662868 0.078248 0.023590
0.681372 0.083088 0.027451
0.701838 0.086030 0.029351
0.722181 0.089951 0.031373
0.740808 0.093689 0.035049
0.759069 0.097794 0.036029
0.779780 0.101716 0.042892
0.797304 0.104289 0.041789
0.818321 0.109130 0.046814
0.836274 0.113480 0.047549
0.853799 0.117402 0.054657
0.871324 0.121324 0.054902
0.888848 0.125245 0.058824
0.906372 0.133088 0.066422
0.919975 0.137010 0.070343
0.937500 0.143015 0.072672
0.955025 0.147856 0.078186
0.968627 0.156618 0.082353
0.012439 0.028125 0.000000
0.017279 0.028125 0.000000
0.025367 0.028125 0.000000
0.030209 0.028125 0.000000
0.038971 0.028125 0.000000
0.047733 0.032047 0.000000
0.056495 0.032047 0.000000
0.065258 0.032047 0.000000
0.074693 0.032047 0.000000
0.086704 0.032047 0.000000
0.095466 0.035968 0.000000
0.104228 0.035968 0.000000
0.112990 0.035968 0.000000
0.125674 0.035968 0.000000
0.135110 0.037071 0.000000
0.147120 0.039890 0.002022
0.158823 0.039890 0.000674
0.168566 0.039890 0.000674
0.181250 0.039890 0.003922
0.190686 0.041667 0.003922
0.205392 0.043811 0.003922
0.218995 0.043811 0.003922
0.228676 0.043811 0.003922
0.242280 0.044485 0.003922
0.255882 0.047733 0.003922
0.269485 0.047733 0.003922
0.282721 0.051654 0.004596
0.296691 0.051654 0.007843
0.310294 0.051654 0.007843
0.323897 0.055576 0.007843
0.337500 0.055576 0.007843
0.355024 0.055576 0.007843
0.372549 0.059498 0.009804
0.386826 0.059498 0.008517
0.407598 0.059498 0.011765
0.425122 0.063419 0.011765
0.444363 0.065135 0.013480
0.464094 0.067341 0.012439
0.482293 0.067341 0.015686
0.506985 0.071262 0.015686
0.525184 0.071262 0.016360
0.545956 0.075184 0.019608
0.567402 0.078493 0.019608
0.585233 0.079105 0.019914
0.606373 0.083027 0.023529
0.623897 0.085171 0.024203
0.645343 0.086949 0.027451
0.662868 0.090870 0.028125
0.684314 0.091544 0.031373
0.701838 0.096692 0.032047
0.723284 0.098713 0.035294
0.740808 0.099387 0.035968
0.762255 0.106556 0.039951
0.779780 0.110478 0.043137
0.799878 0.113052 0.043811
0.818750 0.117892 0.050551
0.836274 0.122243 0.051470
0.853799 0.126164 0.056311
0.871324 0.130086 0.058824
0.888848 0.134007 0.059498
0.906372 0.141850 0.067341
0.922733 0.145772 0.071752
0.937500 0.151777 0.076593
0.955025 0.156617 0.081434
0.968627 0.165380 0.083027
0.017279 0.036887 0.000000
0.022120 0.036887 0.000000
0.029289 0.036887 0.000000
0.034130 0.036887 0.000000
0.036887 0.038480 0.000000
0.047733 0.040809 0.000000
0.058088 0.040809 0.000000
0.069179 0.040809 0.000000
0.077941 0.040809 0.000000
0.086704 0.042402 0.000000
0.095466 0.044730 0.000000
0.106495 0.044730 0.000000
0.116912 0.044730 0.000000
0.127267 0.044730 0.001593
0.138358 0.045833 0.003922
0.149142 0.048652 0.003922
0.159804 0.048652 0.003922
0.172426 0.048652 0.003922
0.182843 0.048652 0.003922
0.193934 0.052573 0.003922
0.206618 0.052573 0.003922
0.216974 0.052573 0.003922
0.231986 0.053186 0.003922
0.244669 0.056495 0.003922
0.257353 0.056495 0.006373
0.270037 0.059865 0.005515
0.283088 0.060417 0.007843
0.296691 0.060417 0.007843
0.309681 0.062623 0.007843
0.324694 0.064338 0.007843
0.342892 0.064338 0.009436
0.355024 0.065380 0.011765
0.372549 0.068260 0.011765
0.390074 0.068260 0.011765
0.407598 0.072059 0.011765
0.425122 0.072181 0.013358
0.444240 0.073897 0.015686
0.466728 0.076103 0.015686
0.485540 0.079657 0.015686
0.506985 0.080024 0.019608
0.528431 0.081495 0.019608
0.548345 0.083946 0.021997
0.567402 0.087255 0.021201
0.588848 0.087868 0.023529
0.606373 0.091789 0.024755
0.626042 0.093382 0.027451
0.645343 0.095711 0.029044
0.662929 0.099632 0.032966
0.684314 0.103554 0.032353
0.703738 0.105454 0.037194
0.723284 0.107475 0.036887
0.744547 0.111397 0.042953
0.762255 0.115318 0.044730
0.781434 0.119240 0.047059
0.801226 0.123162 0.049632
0.818750 0.126655 0.054473
0.836274 0.131005 0.056495
0.853799 0.134926 0.058824
0.871324 0.138848 0.060417
0.888848 0.142769 0.064338
0.906372 0.150613 0.070588
0.924326 0.154534 0.074510
0.937500 0.160539 0.078431
0.955025 0.165379 0.080024
0.968627 0.174142 0.087868
0.022120 0.045650 0.000000
0.029964 0.048161 0.000000
0.033885 0.047487 0.000000
0.037807 0.049571 0.000000
0.045405 0.049571 0.000000
0.051654 0.049571 0.000000
0.060417 0.049571 0.000000
0.069179 0.049571 0.000000
0.081373 0.053003 0.000000
0.090625 0.053493 0.002513
0.099387 0.053493 0.002513
0.108149 0.053493 0.002513
0.116912 0.053493 0.003922
0.129596 0.053676 0.003922
0.140870 0.057415 0.003922
0.151042 0.057415 0.003922
0.159804 0.057415 0.003922
0.171079 0.057415 0.003922
0.182108 0.061336 0.003922
0.196446 0.061336 0.003922
0.209314 0.061336 0.006618
0.219302 0.061336 0.006434
0.234498 0.065258 0.007843
0.247181 0.065258 0.007843
0.257353 0.065258 0.007843
0.273407 0.067769 0.007843
0.283088 0.069179 0.007843
0.299326 0.069179 0.010356
0.312010 0.073101 0.010356
0.327819 0.073101 0.011765
0.341421 0.075612 0.011765
0.360417 0.077022 0.011765
0.372549 0.077022 0.011765
0.390074 0.077022 0.014644
0.407598 0.079534 0.015686
0.425919 0.080944 0.015686
0.446568 0.084866 0.018199
0.466605 0.084866 0.019608
0.489093 0.087377 0.019608
0.507536 0.088787 0.022120
0.528431 0.092709 0.021078
0.549877 0.092709 0.023529
0.570711 0.096630 0.023529
0.588848 0.096937 0.023835
0.608885 0.100552 0.029964
0.627819 0.104473 0.029596
0.645343 0.107537 0.033885
0.666790 0.110906 0.035294
0.684314 0.112316 0.037807
0.703738 0.114216 0.039216
0.723284 0.116238 0.041728
0.743321 0.120160 0.043137
0.762255 0.124081 0.047059
0.781434 0.128003 0.048713
0.801226 0.131924 0.053554
0.818750 0.135417 0.058395
0.836274 0.139767 0.061336
0.853799 0.143689 0.062745
0.871324 0.147611 0.065074
0.888848 0.151532 0.069914
0.906372 0.159375 0.070833
0.923897 0.163297 0.075674
0.937500 0.169302 0.080515
0.955025 0.174142 0.084866
0.971140 0.182905 0.092709
0.027451 0.058334 0.000000
0.032292 0.058334 0.000000
0.037132 0.058334 0.003432
0.041973 0.058334 0.003432
0.050245 0.058334 0.003432
0.055576 0.058334 0.003432
0.063849 0.061765 0.003432
0.073101 0.060845 0.003432
0.081863 0.062255 0.003432
0.090625 0.062255 0.003922
0.099387 0.062255 0.003922
0.108149 0.062255 0.003922
0.120343 0.065442 0.003922
0.129596 0.066177 0.003922
0.142279 0.066177 0.003922
0.151042 0.066177 0.003922
0.162745 0.069608 0.003922
0.172488 0.070098 0.007353
0.185172 0.070098 0.007353
0.195711 0.070098 0.007843
0.209314 0.070098 0.007843
0.222916 0.073530 0.007843
0.232598 0.074020 0.007843
0.246201 0.074020 0.007843
0.259804 0.077451 0.007843
0.273407 0.077941 0.011275
0.286643 0.077941 0.011765
0.302757 0.079228 0.011765
0.314216 0.081863 0.011765
0.327819 0.081863 0.011765
0.341421 0.085785 0.015196
0.358946 0.085785 0.015196
0.376471 0.085785 0.013725
0.393505 0.088664 0.015686
0.411030 0.089706 0.019118
0.429044 0.090503 0.019608
0.450000 0.093628 0.019608
0.468015 0.097059 0.023039
0.488970 0.097549 0.023039
0.510907 0.100981 0.023529
0.529902 0.101471 0.026961
0.549877 0.103860 0.025919
0.570711 0.105392 0.027451
0.588848 0.105699 0.030883
0.607598 0.112745 0.031373
0.627819 0.113235 0.033517
0.648774 0.116299 0.038726
0.666790 0.117218 0.039216
0.687746 0.121079 0.042647
0.705760 0.125000 0.041115
0.726716 0.127819 0.046569
0.744730 0.128922 0.050796
0.765686 0.133579 0.050980
0.783701 0.136765 0.052635
0.801226 0.140686 0.058334
0.818750 0.144608 0.062316
0.836765 0.148530 0.066177
0.857721 0.152451 0.066667
0.876348 0.156373 0.068995
0.888848 0.160294 0.074020
0.906372 0.168137 0.074755
0.923897 0.172059 0.079595
0.939338 0.178063 0.084437
0.955025 0.182905 0.089277
0.972549 0.188235 0.097549
0.035723 0.067096 0.003922
0.039645 0.067096 0.003922
0.043566 0.067096 0.003922
0.050246 0.067096 0.003922
0.055086 0.070773 0.003922
0.059927 0.071017 0.003922
0.068260 0.071017 0.003922
0.077022 0.071017 0.003922
0.085785 0.071017 0.003922
0.094547 0.071017 0.003922
0.103309 0.071017 0.003922
0.112071 0.071446 0.006189
0.120834 0.074939 0.004351
0.133517 0.074939 0.007843
0.142279 0.074939 0.007843
0.151471 0.074939 0.007843
0.163725 0.078860 0.007843
0.172917 0.078860 0.007843
0.185601 0.078860 0.008272
0.199632 0.078860 0.008272
0.210539 0.081556 0.011765
0.223223 0.082782 0.011765
0.236519 0.082782 0.011765
0.248591 0.082782 0.011765
0.261275 0.086704 0.011765
0.273958 0.086704 0.011765
0.287010 0.087133 0.012194
0.299755 0.090625 0.015686
0.315932 0.090625 0.015686
0.331740 0.090625 0.018811
0.345343 0.094547 0.019608
0.359375 0.094547 0.019608
0.376471 0.094547 0.019608
0.393995 0.094976 0.019608
0.411520 0.098468 0.020037
0.429473 0.099264 0.023529
0.450490 0.102390 0.023958
0.468443 0.105025 0.023958
0.493015 0.106311 0.023958
0.511458 0.106862 0.028003
0.532353 0.110233 0.031373
0.550306 0.112623 0.033762
0.571324 0.114154 0.031802
0.592770 0.118076 0.035294
0.610294 0.118076 0.035723
0.629963 0.121998 0.041360
0.649264 0.125062 0.043137
0.666851 0.125980 0.043198
0.688236 0.129841 0.048039
0.707660 0.133762 0.047488
0.727206 0.136580 0.053799
0.744730 0.137684 0.051409
0.766177 0.141605 0.055331
0.783701 0.145527 0.060478
0.803799 0.149449 0.061827
0.822671 0.152942 0.063174
0.840196 0.157292 0.067096
0.857721 0.161213 0.071017
0.875245 0.165135 0.074939
0.892770 0.169056 0.078431
0.906372 0.176900 0.082598
0.923897 0.180821 0.086704
0.941422 0.184743 0.092280
0.955025 0.191666 0.097120
0.972549 0.196507 0.101961
0.043137 0.075858 0.005270
0.048407 0.077206 0.005270
0.052818 0.077206 0.005270
0.057660 0.079779 0.005270
0.062500 0.079779 0.005270
0.068015 0.079779 0.007843
0.071936 0.079779 0.007843
0.078370 0.079779 0.007843
0.083701 0.079779 0.007843
0.094547 0.079779 0.007843
0.103309 0.081127 0.007843
0.114338 0.083701 0.007843
0.122181 0.083701 0.007843
0.134865 0.083701 0.007843
0.146201 0.083701 0.009191
0.154963 0.085049 0.009191
0.165073 0.087623 0.011765
0.176410 0.087623 0.011765
0.189093 0.087623 0.011765
0.199203 0.089400 0.011765
0.213235 0.091544 0.014461
0.226838 0.091544 0.013113
0.236519 0.091544 0.015686
0.250123 0.092892 0.015686
0.263726 0.095466 0.015686
0.277328 0.095466 0.015686
0.290564 0.095834 0.017034
0.304596 0.099387 0.016973
0.318138 0.099387 0.019608
0.331740 0.102512 0.022733
0.345343 0.103309 0.019731
0.362867 0.103309 0.023835
0.380393 0.103309 0.023529
0.395343 0.107230 0.023529
0.412868 0.107230 0.027328
0.432966 0.111152 0.027451
0.452206 0.111152 0.028799
0.471937 0.112500 0.031373
0.490809 0.115073 0.028799
0.514829 0.115625 0.032721
0.533824 0.118995 0.035294
0.553799 0.121385 0.036642
0.572672 0.122917 0.039216
0.592770 0.126838 0.039216
0.611642 0.128186 0.040564
0.631740 0.130760 0.045282
0.649264 0.133824 0.047059
0.670711 0.134742 0.047120
0.688236 0.138603 0.052328
0.707108 0.142524 0.052328
0.727206 0.145343 0.056250
0.748469 0.146446 0.062561
0.766177 0.150368 0.062745
0.785355 0.154289 0.064400
0.805147 0.158211 0.069240
0.822671 0.161704 0.074081
0.840196 0.166054 0.071078
0.857721 0.169975 0.075858
0.875245 0.173897 0.079779
0.892770 0.177819 0.085601
0.910049 0.181985 0.086520
0.923897 0.189583 0.091360
0.941422 0.193505 0.095466
0.955944 0.200429 0.101042
0.972549 0.205270 0.107230
0.049326 0.088542 0.007843
0.051899 0.088542 0.007843
0.056740 0.088542 0.007843
0.061091 0.088542 0.007843
0.065012 0.088542 0.007843
0.072855 0.088542 0.007843
0.076103 0.088542 0.007843
0.083211 0.090809 0.007843
0.089706 0.090809 0.010110
0.096814 0.092463 0.010110
0.104657 0.092463 0.010110
0.115992 0.092463 0.010110
0.124755 0.092463 0.011765
0.137439 0.094730 0.011765
0.146201 0.096385 0.011765
0.157230 0.096385 0.011765
0.167647 0.096385 0.011765
0.178676 0.096385 0.015625
0.191360 0.098652 0.012623
0.204044 0.100306 0.015686
0.214461 0.100306 0.015686
0.225490 0.100306 0.015686
0.239829 0.100919 0.017953
0.252512 0.104228 0.017953
0.265196 0.104228 0.017953
0.277880 0.104228 0.019608
0.290931 0.108149 0.019608
0.304534 0.108149 0.021875
0.318138 0.110416 0.021814
0.332537 0.112071 0.023529
0.351410 0.112071 0.025796
0.362867 0.112071 0.025796
0.380393 0.114032 0.025796
0.397917 0.115992 0.027451
0.415441 0.115992 0.031250
0.435233 0.119914 0.031373
0.454412 0.119914 0.033640
0.474203 0.123836 0.033640
0.496936 0.123836 0.035294
0.517096 0.127757 0.037561
0.536274 0.127757 0.039216
0.556189 0.131679 0.041483
0.575245 0.131679 0.043137
0.593076 0.135600 0.045404
0.614216 0.136825 0.044363
0.631740 0.139522 0.049326
0.651532 0.141789 0.050980
0.670711 0.143505 0.051041
0.689216 0.147365 0.057169
0.709681 0.151287 0.056802
0.730024 0.154106 0.061642
0.748652 0.155208 0.062745
0.766177 0.159866 0.066667
0.787623 0.163051 0.068934
0.805147 0.166973 0.073162
0.822671 0.169240 0.074510
0.840196 0.174816 0.075000
0.857721 0.178738 0.079840
0.875245 0.182659 0.084620
0.892770 0.186581 0.089522
0.910294 0.190747 0.090441
0.923897 0.198345 0.095282
0.941422 0.202267 0.100306
0.958946 0.209192 0.104963
0.972549 0.214032 0.109804
0.058089 0.097304 0.007843
0.062010 0.097304 0.007843
0.065932 0.097304 0.011030
0.069853 0.100490 0.011030
0.074265 0.100490 0.011030
0.075184 0.101226 0.011765
0.083211 0.101226 0.011765
0.089461 0.101226 0.011765
0.093628 0.101226 0.011765
0.098468 0.101226 0.011765
0.107230 0.101226 0.011765
0.119179 0.104411 0.011765
0.128677 0.104411 0.011765
0.137439 0.105147 0.011765
0.149387 0.105147 0.011765
0.158885 0.105147 0.014951
0.170588 0.108333 0.015686
0.180331 0.108333 0.015686
0.193015 0.109069 0.015686
0.203554 0.109069 0.015686
0.217157 0.109069 0.018873
0.227145 0.112254 0.019608
0.240441 0.112990 0.019608
0.255699 0.112990 0.019608
0.268382 0.112990 0.019608
0.281250 0.116176 0.019608
0.290931 0.116912 0.019976
0.307169 0.120098 0.023529
0.323039 0.120834 0.023529
0.335662 0.120834 0.026716
0.349265 0.124019 0.027451
0.366789 0.121875 0.027451
0.383578 0.124755 0.027451
0.401103 0.124755 0.030638
0.418628 0.127941 0.031373
0.436887 0.128677 0.032169
0.457598 0.130392 0.035294
0.475858 0.132598 0.038481
0.496569 0.136152 0.038481
0.515380 0.136520 0.039216
0.539461 0.137990 0.040686
0.557720 0.140441 0.043137
0.575245 0.143750 0.046446
0.596691 0.144363 0.047059
0.614216 0.148285 0.050245
0.633885 0.148285 0.050980
0.653186 0.152206 0.054044
0.673897 0.156128 0.054963
0.692157 0.157107 0.058824
0.709681 0.160049 0.062010
0.731127 0.162868 0.062745
0.748652 0.167708 0.065932
0.766912 0.168628 0.067402
0.787623 0.171814 0.070588
0.805147 0.175736 0.074510
0.822671 0.179657 0.077696
0.843382 0.183579 0.078921
0.860907 0.187500 0.083762
0.875245 0.191422 0.089461
0.892770 0.195343 0.090196
0.910294 0.199510 0.097304
0.926654 0.207108 0.098039
0.941422 0.211030 0.101961
0.958946 0.217954 0.105882
0.972549 0.222794 0.112990
0.062929 0.109988 0.011765
0.066851 0.109988 0.011765
0.070772 0.109988 0.011765
0.074694 0.109988 0.011765
0.082108 0.109988 0.011765
0.082537 0.109988 0.011765
0.086459 0.109988 0.011765
0.090380 0.109988 0.011765
0.101471 0.109988 0.011765
0.106311 0.110172 0.011765
0.109988 0.113909 0.011949
0.120098 0.113909 0.011949
0.128860 0.113909 0.011949
0.141360 0.113909 0.015686
0.151226 0.113909 0.015686
0.159069 0.115931 0.015686
0.174510 0.117831 0.018627
0.184253 0.117831 0.015870
0.193199 0.117831 0.019608
0.207476 0.117831 0.019608
0.218382 0.118015 0.019608
0.231067 0.121753 0.023223
0.244362 0.121753 0.023529
0.256434 0.121753 0.023529
0.269118 0.125674 0.023529
0.281801 0.125674 0.023529
0.294853 0.125674 0.023529
0.308456 0.125858 0.023713
0.320036 0.129596 0.027451
0.339583 0.129596 0.027451
0.353247 0.129718 0.027574
0.365932 0.133517 0.031373
0.384313 0.133517 0.031373
0.401838 0.133517 0.034252
0.419363 0.137439 0.035294
0.437071 0.137439 0.036091
0.458333 0.141360 0.039216
0.476041 0.141360 0.039216
0.500858 0.144914 0.039400
