Black-and-White/Polaroid/Polaroid 665 Negative 1 - 65x.cube
TITLE "Polaroid 665 Negative 1 -"
LUT_3D_SIZE 65
DOMAIN_MIN 0.000000 0.000000 0.000000
DOMAIN_MAX 1.000000 1.000000 1.000000
0.000000 0.000000 0.000000
0.003003 0.003003 0.003003
0.003922 0.003922 0.003922
0.003922 0.003922 0.003922
0.007598 0.007598 0.007598
0.011765 0.011765 0.011765
0.015686 0.015686 0.015686
0.018199 0.018199 0.018199
0.023039 0.023039 0.023039
0.027451 0.027451 0.027451
0.032721 0.032721 0.032721
0.037561 0.037561 0.037561
0.042402 0.042402 0.042402
0.050980 0.050980 0.050980
0.054902 0.054902 0.054902
0.062868 0.062868 0.062868
0.066667 0.066667 0.066667
0.074449 0.074449 0.074449
0.083211 0.083211 0.083211
0.089829 0.089829 0.089829
0.100735 0.100735 0.100735
0.105576 0.105576 0.105576
0.114338 0.114338 0.114338
0.123101 0.123101 0.123101
0.134314 0.134314 0.134314
0.143995 0.143995 0.143995
0.157231 0.157231 0.157231
0.165993 0.165993 0.165993
0.174755 0.174755 0.174755
0.186642 0.186642 0.186642
0.196201 0.196201 0.196201
0.208885 0.208885 0.208885
0.217647 0.217647 0.217647
0.230331 0.230331 0.230331
0.239216 0.239216 0.239216
0.251777 0.251777 0.251777
0.264461 0.264461 0.264461
0.273223 0.273223 0.273223
0.285907 0.285907 0.285907
0.294669 0.294669 0.294669
0.305882 0.305882 0.305882
0.313726 0.313726 0.313726
0.324877 0.324877 0.324877
0.333946 0.333946 0.333946
0.346324 0.346324 0.346324
0.355086 0.355086 0.355086
0.363848 0.363848 0.363848
0.376471 0.376471 0.376471
0.385294 0.385294 0.385294
0.394056 0.394056 0.394056
0.405637 0.405637 0.405637
0.415502 0.415502 0.415502
0.428186 0.428186 0.428186
0.440870 0.440870 0.440870
0.452206 0.452206 0.452206
0.462316 0.462316 0.462316
0.475000 0.475000 0.475000
0.487684 0.487684 0.487684
0.498775 0.498775 0.498775
0.512378 0.512378 0.512378
0.525735 0.525735 0.525735
0.538419 0.538419 0.538419
0.553187 0.553187 0.553187
0.569792 0.569792 0.569792
0.584314 0.584314 0.584314
0.000919 0.000919 0.000919
0.003922 0.003922 0.003922
0.004841 0.004841 0.004841
0.007843 0.007843 0.007843
0.011765 0.011765 0.011765
0.016360 0.016360 0.016360
0.021201 0.021201 0.021201
0.022120 0.022120 0.022120
0.024448 0.024448 0.024448
0.032292 0.032292 0.032292
0.036642 0.036642 0.036642
0.043750 0.043750 0.043750
0.050245 0.050245 0.050245
0.051164 0.051164 0.051164
0.056924 0.056924 0.056924
0.065686 0.065686 0.065686
0.070527 0.070527 0.070527
0.075429 0.075429 0.075429
0.087133 0.087133 0.087133
0.095895 0.095895 0.095895
0.103431 0.103431 0.103431
0.106801 0.106801 0.106801
0.122182 0.122182 0.122182
0.126409 0.126409 0.126409
0.139706 0.139706 0.139706
0.145466 0.145466 0.145466
0.157231 0.157231 0.157231
0.165625 0.165625 0.165625
0.178677 0.178677 0.178677
0.190564 0.190564 0.190564
0.200123 0.200123 0.200123
0.209926 0.209926 0.209926
0.221569 0.221569 0.221569
0.231373 0.231373 0.231373
0.240012 0.240012 0.240012
0.252696 0.252696 0.252696
0.264461 0.264461 0.264461
0.271507 0.271507 0.271507
0.289461 0.289461 0.289461
0.297671 0.297671 0.297671
0.307904 0.307904 0.307904
0.316115 0.316115 0.316115
0.325797 0.325797 0.325797
0.334558 0.334558 0.334558
0.346324 0.346324 0.346324
0.355086 0.355086 0.355086
0.364766 0.364766 0.364766
0.372672 0.372672 0.372672
0.385294 0.385294 0.385294
0.397978 0.397978 0.397978
0.406740 0.406740 0.406740
0.419240 0.419240 0.419240
0.428186 0.428186 0.428186
0.440870 0.440870 0.440870
0.450552 0.450552 0.450552
0.465809 0.465809 0.465809
0.475919 0.475919 0.475919
0.487684 0.487684 0.487684
0.500368 0.500368 0.500368
0.513052 0.513052 0.513052
0.525061 0.525061 0.525061
0.542585 0.542585 0.542585
0.552023 0.552023 0.552023
0.567708 0.567708 0.567708
0.584314 0.584314 0.584314
0.009681 0.009681 0.009681
0.004841 0.004841 0.004841
0.009681 0.009681 0.009681
0.009681 0.009681 0.009681
0.015441 0.015441 0.015441
0.020772 0.020772 0.020772
0.021446 0.021446 0.021446
0.026042 0.026042 0.026042
0.029289 0.029289 0.029289
0.037132 0.037132 0.037132
0.041054 0.041054 0.041054
0.045404 0.045404 0.045404
0.050245 0.050245 0.050245
0.055086 0.055086 0.055086
0.061765 0.061765 0.061765
0.066667 0.066667 0.066667
0.072426 0.072426 0.072426
0.082292 0.082292 0.082292
0.087991 0.087991 0.087991
0.095895 0.095895 0.095895
0.104657 0.104657 0.104657
0.113419 0.113419 0.113419
0.123407 0.123407 0.123407
0.130944 0.130944 0.130944
0.139093 0.139093 0.139093
0.148468 0.148468 0.148468
0.157598 0.157598 0.157598
0.171752 0.171752 0.171752
0.178309 0.178309 0.178309
0.189277 0.189277 0.189277
0.200245 0.200245 0.200245
0.212807 0.212807 0.212807
0.221446 0.221446 0.221446
0.232169 0.232169 0.232169
0.246814 0.246814 0.246814
0.255699 0.255699 0.255699
0.266299 0.266299 0.266299
0.277144 0.277144 0.277144
0.285907 0.285907 0.285907
0.300428 0.300428 0.300428
0.307353 0.307353 0.307353
0.317954 0.317954 0.317954
0.328799 0.328799 0.328799
0.333946 0.333946 0.333946
0.349020 0.349020 0.349020
0.355086 0.355086 0.355086
0.362622 0.362622 0.362622
0.378371 0.378371 0.378371
0.389216 0.389216 0.389216
0.397978 0.397978 0.397978
0.406740 0.406740 0.406740
0.413603 0.413603 0.413603
0.430024 0.430024 0.430024
0.440870 0.440870 0.440870
0.451471 0.451471 0.451471
0.466238 0.466238 0.466238
0.475490 0.475490 0.475490
0.489523 0.489523 0.489523
0.502206 0.502206 0.502206
0.516299 0.516299 0.516299
0.525980 0.525980 0.525980
0.539583 0.539583 0.539583
0.555270 0.555270 0.555270
0.569792 0.569792 0.569792
0.584314 0.584314 0.584314
0.014522 0.014522 0.014522
0.014522 0.014522 0.014522
0.014522 0.014522 0.014522
0.014522 0.014522 0.014522
0.018199 0.018199 0.018199
0.020282 0.020282 0.020282
0.023529 0.023529 0.023529
0.026042 0.026042 0.026042
0.034804 0.034804 0.034804
0.038480 0.038480 0.038480
0.043137 0.043137 0.043137
0.047059 0.047059 0.047059
0.054167 0.054167 0.054167
0.061581 0.061581 0.061581
0.063848 0.063848 0.063848
0.071446 0.071446 0.071446
0.077451 0.077451 0.077451
0.086214 0.086214 0.086214
0.092954 0.092954 0.092954
0.100797 0.100797 0.100797
0.107353 0.107353 0.107353
0.117341 0.117341 0.117341
0.122794 0.122794 0.122794
0.133701 0.133701 0.133701
0.142157 0.142157 0.142157
0.155760 0.155760 0.155760
0.163909 0.163909 0.163909
0.171201 0.171201 0.171201
0.182598 0.182598 0.182598
0.194485 0.194485 0.194485
0.204045 0.204045 0.204045
0.215564 0.215564 0.215564
0.225490 0.225490 0.225490
0.237133 0.237133 0.237133
0.246936 0.246936 0.246936
0.255699 0.255699 0.255699
0.266176 0.266176 0.266176
0.277144 0.277144 0.277144
0.288664 0.288664 0.288664
0.298591 0.298591 0.298591
0.308824 0.308824 0.308824
0.317279 0.317279 0.317279
0.328799 0.328799 0.328799
0.340319 0.340319 0.340319
0.346324 0.346324 0.346324
0.357230 0.357230 0.357230
0.366605 0.366605 0.366605
0.377696 0.377696 0.377696
0.388235 0.388235 0.388235
0.397978 0.397978 0.397978
0.406740 0.406740 0.406740
0.423161 0.423161 0.423161
0.432108 0.432108 0.432108
0.443628 0.443628 0.443628
0.456311 0.456311 0.456311
0.462316 0.462316 0.462316
0.478921 0.478921 0.478921
0.490442 0.490442 0.490442
0.499939 0.499939 0.499939
0.512562 0.512562 0.512562
0.525980 0.525980 0.525980
0.539583 0.539583 0.539583
0.553187 0.553187 0.553187
0.570711 0.570711 0.570711
0.587071 0.587071 0.587071
0.019363 0.019363 0.019363
0.019363 0.019363 0.019363
0.017524 0.017524 0.017524
0.020527 0.020527 0.020527
0.019363 0.019363 0.019363
0.020282 0.020282 0.020282
0.027451 0.027451 0.027451
0.029964 0.029964 0.029964
0.038481 0.038481 0.038481
0.039645 0.039645 0.039645
0.044485 0.044485 0.044485
0.049326 0.049326 0.049326
0.058579 0.058579 0.058579
0.066422 0.066422 0.066422
0.070343 0.070343 0.070343
0.074632 0.074632 0.074632
0.082108 0.082108 0.082108
0.090073 0.090073 0.090073
0.097794 0.097794 0.097794
0.101593 0.101593 0.101593
0.108824 0.108824 0.108824
0.117341 0.117341 0.117341
0.126103 0.126103 0.126103
0.134865 0.134865 0.134865
0.143627 0.143627 0.143627
0.156066 0.156066 0.156066
0.168750 0.168750 0.168750
0.173836 0.173836 0.173836
0.187990 0.187990 0.187990
0.198958 0.198958 0.198958
0.204167 0.204167 0.204167
0.220404 0.220404 0.220404
0.229167 0.229167 0.229167
0.238174 0.238174 0.238174
0.247182 0.247182 0.247182
0.259375 0.259375 0.259375
0.272304 0.272304 0.272304
0.281066 0.281066 0.281066
0.293383 0.293383 0.293383
0.298591 0.298591 0.298591
0.311275 0.311275 0.311275
0.323713 0.323713 0.323713
0.329412 0.329412 0.329412
0.337868 0.337868 0.337868
0.350245 0.350245 0.350245
0.359007 0.359007 0.359007
0.371446 0.371446 0.371446
0.384069 0.384069 0.384069
0.386275 0.386275 0.386275
0.397978 0.397978 0.397978
0.409559 0.409559 0.409559
0.423161 0.423161 0.423161
0.435785 0.435785 0.435785
0.438848 0.438848 0.438848
0.452451 0.452451 0.452451
0.465809 0.465809 0.465809
0.482598 0.482598 0.482598
0.489094 0.489094 0.489094
0.502696 0.502696 0.502696
0.512623 0.512623 0.512623
0.529657 0.529657 0.529657
0.539583 0.539583 0.539583
0.555025 0.555025 0.555025
0.570711 0.570711 0.570711
0.588235 0.588235 0.588235
0.024877 0.024877 0.024877
0.023958 0.023958 0.023958
0.024203 0.024203 0.024203
0.026961 0.026961 0.026961
0.024877 0.024877 0.024877
0.028125 0.028125 0.028125
0.028799 0.028799 0.028799
0.032721 0.032721 0.032721
0.039890 0.039890 0.039890
0.044240 0.044240 0.044240
0.052328 0.052328 0.052328
0.057843 0.057843 0.057843
0.065932 0.065932 0.065932
0.067525 0.067525 0.067525
0.072365 0.072365 0.072365
0.079105 0.079105 0.079105
0.085968 0.085968 0.085968
0.094057 0.094057 0.094057
0.098713 0.098713 0.098713
0.108333 0.108333 0.108333
0.115871 0.115871 0.115871
0.125184 0.125184 0.125184
0.133946 0.133946 0.133946
0.142708 0.142708 0.142708
0.149694 0.149694 0.149694
0.160233 0.160233 0.160233
0.169669 0.169669 0.169669
0.181679 0.181679 0.181679
0.187194 0.187194 0.187194
0.199877 0.199877 0.199877
0.211888 0.211888 0.211888
0.221324 0.221324 0.221324
0.233334 0.233334 0.233334
0.242770 0.242770 0.242770
0.254657 0.254657 0.254657
0.261091 0.261091 0.261091
0.274019 0.274019 0.274019
0.284988 0.284988 0.284988
0.293750 0.293750 0.293750
0.302512 0.302512 0.302512
0.311948 0.311948 0.311948
0.320710 0.320710 0.320710
0.330086 0.330086 0.330086
0.342156 0.342156 0.342156
0.350920 0.350920 0.350920
0.361152 0.361152 0.361152
0.371691 0.371691 0.371691
0.381127 0.381127 0.381127
0.389889 0.389889 0.389889
0.403799 0.403799 0.403799
0.410662 0.410662 0.410662
0.420097 0.420097 0.420097
0.432047 0.432047 0.432047
0.441545 0.441545 0.441545
0.457476 0.457476 0.457476
0.466483 0.466483 0.466483
0.479595 0.479595 0.479595
0.489032 0.489032 0.489032
0.503370 0.503370 0.503370
0.513725 0.513725 0.513725
0.527083 0.527083 0.527083
0.540258 0.540258 0.540258
0.555698 0.555698 0.555698
0.571385 0.571385 0.571385
0.582414 0.582414 0.582414
0.035294 0.035294 0.035294
0.032966 0.032966 0.032966
0.031128 0.031128 0.031128
0.032966 0.032966 0.032966
0.035294 0.035294 0.035294
0.036887 0.036887 0.036887
0.036887 0.036887 0.036887
0.038480 0.038480 0.038480
0.046569 0.046569 0.046569
0.052573 0.052573 0.052573
0.056250 0.056250 0.056250
0.060417 0.060417 0.060417
0.068260 0.068260 0.068260
0.074694 0.074694 0.074694
0.081618 0.081618 0.081618
0.085968 0.085968 0.085968
0.091789 0.091789 0.091789
0.101900 0.101900 0.101900
0.104412 0.104412 0.104412
0.113725 0.113725 0.113725
0.119240 0.119240 0.119240
0.132720 0.132720 0.132720
0.139461 0.139461 0.139461
0.146630 0.146630 0.146630
0.155392 0.155392 0.155392
0.164154 0.164154 0.164154
0.178064 0.178064 0.178064
0.184865 0.184865 0.184865
0.194363 0.194363 0.194363
0.204718 0.204718 0.204718
0.212010 0.212010 0.212010
0.224571 0.224571 0.224571
0.235295 0.235295 0.235295
0.248897 0.248897 0.248897
0.258579 0.258579 0.258579
0.264338 0.264338 0.264338
0.277941 0.277941 0.277941
0.287623 0.287623 0.287623
0.295343 0.295343 0.295343
0.308027 0.308027 0.308027
0.316667 0.316667 0.316667
0.323162 0.323162 0.323162
0.334314 0.334314 0.334314
0.341789 0.341789 0.341789
0.354167 0.354167 0.354167
0.362929 0.362929 0.362929
0.374755 0.374755 0.374755
0.385969 0.385969 0.385969
0.394731 0.394731 0.394731
0.403493 0.403493 0.403493
0.417402 0.417402 0.417402
0.423345 0.423345 0.423345
0.436029 0.436029 0.436029
0.446446 0.446446 0.446446
0.460049 0.460049 0.460049
0.475552 0.475552 0.475552
0.482843 0.482843 0.482843
0.495527 0.495527 0.495527
0.503554 0.503554 0.503554
0.520221 0.520221 0.520221
0.529902 0.529902 0.529902
0.546262 0.546262 0.546262
0.558701 0.558701 0.558701
0.572304 0.572304 0.572304
0.592157 0.592157 0.592157
0.044240 0.044240 0.044240
0.041728 0.041728 0.041728
0.039644 0.039644 0.039644
0.041728 0.041728 0.041728
0.045405 0.045405 0.045405
0.047488 0.047488 0.047488
0.045650 0.045650 0.045650
0.045650 0.045650 0.045650
0.053003 0.053003 0.053003
0.055331 0.055331 0.055331
0.062745 0.062745 0.062745
0.067279 0.067279 0.067279
0.073775 0.073775 0.073775
0.080944 0.080944 0.080944
0.088787 0.088787 0.088787
0.092218 0.092218 0.092218
0.096630 0.096630 0.096630
0.104411 0.104411 0.104411
0.107598 0.107598 0.107598
0.119424 0.119424 0.119424
0.126777 0.126777 0.126777
0.135539 0.135539 0.135539
0.141789 0.141789 0.141789
0.153064 0.153064 0.153064
0.159314 0.159314 0.159314
0.170588 0.170588 0.170588
0.182905 0.182905 0.182905
0.189522 0.189522 0.189522
0.200797 0.200797 0.200797
0.209559 0.209559 0.209559
0.215931 0.215931 0.215931
0.228493 0.228493 0.228493
0.239215 0.239215 0.239215
0.252819 0.252819 0.252819
0.261213 0.261213 0.261213
0.271385 0.271385 0.271385
0.280147 0.280147 0.280147
0.292954 0.292954 0.292954
0.300184 0.300184 0.300184
0.310356 0.310356 0.310356
0.319118 0.319118 0.319118
0.327880 0.327880 0.327880
0.341360 0.341360 0.341360
0.351532 0.351532 0.351532
0.352880 0.352880 0.352880
0.366850 0.366850 0.366850
0.375613 0.375613 0.375613
0.386888 0.386888 0.386888
0.398591 0.398591 0.398591
0.405821 0.405821 0.405821
0.414583 0.414583 0.414583
0.427267 0.427267 0.427267
0.441728 0.441728 0.441728
0.448713 0.448713 0.448713
0.460049 0.460049 0.460049
0.472672 0.472672 0.472672
0.480821 0.480821 0.480821
0.498040 0.498040 0.498040
0.506618 0.506618 0.506618
0.519486 0.519486 0.519486
0.536090 0.536090 0.536090
0.546017 0.546017 0.546017
0.558517 0.558517 0.558517
0.574633 0.574633 0.574633
0.594669 0.594669 0.594669
0.054412 0.054412 0.054412
0.053492 0.053492 0.053492
0.050490 0.050490 0.050490
0.045895 0.045895 0.045895
0.050490 0.050490 0.050490
0.054412 0.054412 0.054412
0.054412 0.054412 0.054412
0.054412 0.054412 0.054412
0.058334 0.058334 0.058334
0.055760 0.055760 0.055760
0.064093 0.064093 0.064093
0.072366 0.072366 0.072366
0.081128 0.081128 0.081128
0.085968 0.085968 0.085968
0.090810 0.090810 0.090810
0.100981 0.100981 0.100981
0.104411 0.104411 0.104411
0.113173 0.113173 0.113173
0.121079 0.121079 0.121079
0.126777 0.126777 0.126777
0.135539 0.135539 0.135539
0.140686 0.140686 0.140686
0.146323 0.146323 0.146323
0.160294 0.160294 0.160294
0.166666 0.166666 0.166666
0.179350 0.179350 0.179350
0.188113 0.188113 0.188113
0.196875 0.196875 0.196875
0.207353 0.207353 0.207353
0.214890 0.214890 0.214890
0.227083 0.227083 0.227083
0.235846 0.235846 0.235846
0.243138 0.243138 0.243138
0.257844 0.257844 0.257844
0.266054 0.266054 0.266054
0.277941 0.277941 0.277941
0.284069 0.284069 0.284069
0.296262 0.296262 0.296262
0.305147 0.305147 0.305147
0.317157 0.317157 0.317157
0.320588 0.320588 0.320588
0.331801 0.331801 0.331801
0.340563 0.340563 0.340563
0.352758 0.352758 0.352758
0.361520 0.361520 0.361520
0.368995 0.368995 0.368995
0.379044 0.379044 0.379044
0.388296 0.388296 0.388296
0.397059 0.397059 0.397059
0.411275 0.411275 0.411275
0.417402 0.417402 0.417402
0.430699 0.430699 0.430699
0.439951 0.439951 0.439951
0.449203 0.449203 0.449203
0.463971 0.463971 0.463971
0.474081 0.474081 0.474081
0.483333 0.483333 0.483333
0.501471 0.501471 0.501471
0.510539 0.510539 0.510539
0.520895 0.520895 0.520895
0.537009 0.537009 0.537009
0.547426 0.547426 0.547426
0.561030 0.561030 0.561030
0.574204 0.574204 0.574204
0.592157 0.592157 0.592157
0.067096 0.067096 0.067096
0.063174 0.063174 0.063174
0.059682 0.059682 0.059682
0.059253 0.059253 0.059253
0.059253 0.059253 0.059253
0.062500 0.062500 0.062500
0.063174 0.063174 0.063174
0.063174 0.063174 0.063174
0.067096 0.067096 0.067096
0.070588 0.070588 0.070588
0.072365 0.072365 0.072365
0.078431 0.078431 0.078431
0.085968 0.085968 0.085968
0.090809 0.090809 0.090809
0.095650 0.095650 0.095650
0.103983 0.103983 0.103983
0.109252 0.109252 0.109252
0.114583 0.114583 0.114583
0.126348 0.126348 0.126348
0.135539 0.135539 0.135539
0.140380 0.140380 0.140380
0.149142 0.149142 0.149142
0.157905 0.157905 0.157905
0.166667 0.166667 0.166667
0.175429 0.175429 0.175429
0.180698 0.180698 0.180698
0.192954 0.192954 0.192954
0.201716 0.201716 0.201716
0.212684 0.212684 0.212684
0.225858 0.225858 0.225858
0.231496 0.231496 0.231496
0.240258 0.240258 0.240258
0.249020 0.249020 0.249020
0.261703 0.261703 0.261703
0.266972 0.266972 0.266972
0.279228 0.279228 0.279228
0.288420 0.288420 0.288420
0.300674 0.300674 0.300674
0.309069 0.309069 0.309069
0.314706 0.314706 0.314706
0.328431 0.328431 0.328431
0.335723 0.335723 0.335723
0.347794 0.347794 0.347794
0.353676 0.353676 0.353676
0.362010 0.362010 0.362010
0.369056 0.369056 0.369056
0.382598 0.382598 0.382598
0.388358 0.388358 0.388358
0.400429 0.400429 0.400429
0.411642 0.411642 0.411642
0.418933 0.418933 0.418933
0.434926 0.434926 0.434926
0.443872 0.443872 0.443872
0.454289 0.454289 0.454289
0.465319 0.465319 0.465319
0.474509 0.474509 0.474509
0.487194 0.487194 0.487194
0.500858 0.500858 0.500858
0.508640 0.508640 0.508640
0.524816 0.524816 0.524816
0.537316 0.537316 0.537316
0.551348 0.551348 0.551348
0.564951 0.564951 0.564951
0.578554 0.578554 0.578554
0.596078 0.596078 0.596078
0.075858 0.075858 0.075858
0.073284 0.073284 0.073284
0.076348 0.076348 0.076348
0.069179 0.069179 0.069179
0.068015 0.068015 0.068015
0.071936 0.071936 0.071936
0.071936 0.071936 0.071936
0.074448 0.074448 0.074448
0.075858 0.075858 0.075858
0.076287 0.076287 0.076287
0.081127 0.081127 0.081127
0.085968 0.085968 0.085968
0.090196 0.090196 0.090196
0.099387 0.099387 0.099387
0.103064 0.103064 0.103064
0.111152 0.111152 0.111152
0.115073 0.115073 0.115073
0.125429 0.125429 0.125429
0.134191 0.134191 0.134191
0.142953 0.142953 0.142953
0.149142 0.149142 0.149142
0.157904 0.157904 0.157904
0.166667 0.166667 0.166667
0.171507 0.171507 0.171507
0.180270 0.180270 0.180270
0.189032 0.189032 0.189032
0.200368 0.200368 0.200368
0.209130 0.209130 0.209130
0.214461 0.214461 0.214461
0.229780 0.229780 0.229780
0.236764 0.236764 0.236764
0.245527 0.245527 0.245527
0.256250 0.256250 0.256250
0.263052 0.263052 0.263052
0.271936 0.271936 0.271936
0.287623 0.287623 0.287623
0.293260 0.293260 0.293260
0.302022 0.302022 0.302022
0.310784 0.310784 0.310784
0.318750 0.318750 0.318750
0.330882 0.330882 0.330882
0.339644 0.339644 0.339644
0.348407 0.348407 0.348407
0.358211 0.358211 0.358211
0.365931 0.365931 0.365931
0.374694 0.374694 0.374694
0.383456 0.383456 0.383456
0.390931 0.390931 0.390931
0.404902 0.404902 0.404902
0.413664 0.413664 0.413664
0.422426 0.422426 0.422426
0.428799 0.428799 0.428799
0.443260 0.443260 0.443260
0.456557 0.456557 0.456557
0.465319 0.465319 0.465319
0.478921 0.478921 0.478921
0.490686 0.490686 0.490686
0.499448 0.499448 0.499448
0.512133 0.512133 0.512133
0.524816 0.524816 0.524816
0.536397 0.536397 0.536397
0.550184 0.550184 0.550184
0.565441 0.565441 0.565441
0.578554 0.578554 0.578554
0.593382 0.593382 0.593382
0.092463 0.092463 0.092463
0.085539 0.085539 0.085539
0.088971 0.088971 0.088971
0.084620 0.084620 0.084620
0.084620 0.084620 0.084620
0.080698 0.080698 0.080698
0.084620 0.084620 0.084620
0.087132 0.087132 0.087132
0.089706 0.089706 0.089706
0.088971 0.088971 0.088971
0.089890 0.089890 0.089890
0.096385 0.096385 0.096385
0.095466 0.095466 0.095466
0.108149 0.108149 0.108149
0.110907 0.110907 0.110907
0.118015 0.118015 0.118015
0.123836 0.123836 0.123836
0.137132 0.137132 0.137132
0.140380 0.140380 0.140380
0.149632 0.149632 0.149632
0.155637 0.155637 0.155637
0.168014 0.168014 0.168014
0.175429 0.175429 0.175429
0.182659 0.182659 0.182659
0.189032 0.189032 0.189032
0.197794 0.197794 0.197794
0.206557 0.206557 0.206557
0.217586 0.217586 0.217586
0.224020 0.224020 0.224020
0.231985 0.231985 0.231985
0.243260 0.243260 0.243260
0.254289 0.254289 0.254289
0.263052 0.263052 0.263052
0.271814 0.271814 0.271814
0.286030 0.286030 0.286030
0.287868 0.287868 0.287868
0.299755 0.299755 0.299755
0.308517 0.308517 0.308517
0.314338 0.314338 0.314338
0.324388 0.324388 0.324388
0.335600 0.335600 0.335600
0.345956 0.345956 0.345956
0.352328 0.352328 0.352328
0.361090 0.361090 0.361090
0.369853 0.369853 0.369853
0.380883 0.380883 0.380883
0.387377 0.387377 0.387377
0.402267 0.402267 0.402267
0.405883 0.405883 0.405883
0.415564 0.415564 0.415564
0.428615 0.428615 0.428615
0.437378 0.437378 0.437378
0.447794 0.447794 0.447794
0.458211 0.458211 0.458211
0.471508 0.471508 0.471508
0.481924 0.481924 0.481924
0.492953 0.492953 0.492953
0.504780 0.504780 0.504780
0.518383 0.518383 0.518383
0.528738 0.528738 0.528738
0.541666 0.541666 0.541666
0.558027 0.558027 0.558027
0.568873 0.568873 0.568873
0.585478 0.585478 0.585478
0.600000 0.600000 0.600000
0.101226 0.101226 0.101226
0.101226 0.101226 0.101226
0.098039 0.098039 0.098039
0.097304 0.097304 0.097304
0.092893 0.092893 0.092893
0.090136 0.090136 0.090136
0.091789 0.091789 0.091789
0.095894 0.095894 0.095894
0.097304 0.097304 0.097304
0.097733 0.097733 0.097733
0.106985 0.106985 0.106985
0.105147 0.105147 0.105147
0.108333 0.108333 0.108333
0.109252 0.109252 0.109252
0.120834 0.120834 0.120834
0.126777 0.126777 0.126777
0.132598 0.132598 0.132598
0.140379 0.140379 0.140379
0.151470 0.151470 0.151470
0.154718 0.154718 0.154718
0.162255 0.162255 0.162255
0.171078 0.171078 0.171078
0.181005 0.181005 0.181005
0.194607 0.194607 0.194607
0.202451 0.202451 0.202451
0.206556 0.206556 0.206556
0.215319 0.215319 0.215319
0.226716 0.226716 0.226716
0.232843 0.232843 0.232843
0.241605 0.241605 0.241605
0.250491 0.250491 0.250491
0.256985 0.256985 0.256985
0.268627 0.268627 0.268627
0.280576 0.280576 0.280576
0.289216 0.289216 0.289216
0.298101 0.298101 0.298101
0.306863 0.306863 0.306863
0.316176 0.316176 0.316176
0.320834 0.320834 0.320834
0.335784 0.335784 0.335784
0.338725 0.338725 0.338725
0.345956 0.345956 0.345956
0.355392 0.355392 0.355392
0.365012 0.365012 0.365012
0.371078 0.371078 0.371078
0.385723 0.385723 0.385723
0.394485 0.394485 0.394485
0.403247 0.403247 0.403247
0.412009 0.412009 0.412009
0.421507 0.421507 0.421507
0.433456 0.433456 0.433456
0.442769 0.442769 0.442769
0.454902 0.454902 0.454902
0.462133 0.462133 0.462133
0.473162 0.473162 0.473162
0.481618 0.481618 0.481618
0.501226 0.501226 0.501226
0.508701 0.508701 0.508701
0.518383 0.518383 0.518383
0.532659 0.532659 0.532659
0.545343 0.545343 0.545343
0.558027 0.558027 0.558027
0.573897 0.573897 0.573897
0.586397 0.586397 0.586397
0.603922 0.603922 0.603922
0.117831 0.117831 0.117831
0.116912 0.116912 0.116912
0.108517 0.108517 0.108517
0.113909 0.113909 0.113909
0.110172 0.110172 0.110172
0.106250 0.106250 0.106250
0.107659 0.107659 0.107659
0.108762 0.108762 0.108762
0.113420 0.113420 0.113420
0.113909 0.113909 0.113909
0.115257 0.115257 0.115257
0.120098 0.120098 0.120098
0.114829 0.114829 0.114829
0.121753 0.121753 0.121753
0.126777 0.126777 0.126777
0.129596 0.129596 0.129596
0.140380 0.140380 0.140380
0.148959 0.148959 0.148959
0.153309 0.153309 0.153309
0.162745 0.162745 0.162745
0.171507 0.171507 0.171507
0.172917 0.172917 0.172917
0.189032 0.189032 0.189032
0.197794 0.197794 0.197794
0.206557 0.206557 0.206557
0.215319 0.215319 0.215319
0.224081 0.224081 0.224081
0.232844 0.232844 0.232844
0.241606 0.241606 0.241606
0.250368 0.250368 0.250368
0.259130 0.259130 0.259130
0.267893 0.267893 0.267893
0.276655 0.276655 0.276655
0.285416 0.285416 0.285416
0.297794 0.297794 0.297794
0.302145 0.302145 0.302145
0.311520 0.311520 0.311520
0.320465 0.320465 0.320465
0.329044 0.329044 0.329044
