Black-and-White/Polaroid/Polaroid 665 1 -- 65x.cube
TITLE "Polaroid 665 1 --"
LUT_3D_SIZE 9
DOMAIN_MIN 0.000000 0.000000 0.000000
DOMAIN_MAX 1.000000 1.000000 1.000000
0.000000 0.000000 0.000000
0.019118 0.019118 0.019118
0.065687 0.065687 0.065687
0.143627 0.143627 0.143627
0.215686 0.215686 0.215686
0.287745 0.287745 0.287745
0.350000 0.350000 0.350000
0.420098 0.420098 0.420098
0.533333 0.533333 0.533333
0.042647 0.042647 0.042647
0.050490 0.050490 0.050490
0.120098 0.120098 0.120098
0.178922 0.178922 0.178922
0.237255 0.237255 0.237255
0.306863 0.306863 0.306863
0.364216 0.364216 0.364216
0.427941 0.427941 0.427941
0.537255 0.537255 0.537255
0.168627 0.168627 0.168627
0.173530 0.173530 0.173530
0.175490 0.175490 0.175490
0.228431 0.228431 0.228431
0.295098 0.295098 0.295098
0.347059 0.347059 0.347059
0.394117 0.394117 0.394117
0.454412 0.454412 0.454412
0.558824 0.558824 0.558824
0.261275 0.261275 0.261275
0.280392 0.280392 0.280392
0.279412 0.279412 0.279412
0.284804 0.284804 0.284804
0.323530 0.323530 0.323530
0.384314 0.384314 0.384314
0.436275 0.436275 0.436275
0.498529 0.498529 0.498529
0.603922 0.603922 0.603922
0.352941 0.352941 0.352941
0.359313 0.359313 0.359313
0.367647 0.367647 0.367647
0.367157 0.367157 0.367157
0.366667 0.366667 0.366667
0.398039 0.398039 0.398039
0.461765 0.461765 0.461765
0.557353 0.557353 0.557353
0.652942 0.652942 0.652942
0.426470 0.426470 0.426470
0.440686 0.440686 0.440686
0.444608 0.444608 0.444608
0.447549 0.447549 0.447549
0.448039 0.448039 0.448039
0.453922 0.453922 0.453922
0.487255 0.487255 0.487255
0.582843 0.582843 0.582843
0.699510 0.699510 0.699510
0.546078 0.546078 0.546078
0.551961 0.551961 0.551961
0.552941 0.552941 0.552941
0.563725 0.563725 0.563725
0.569608 0.569608 0.569608
0.575000 0.575000 0.575000
0.584314 0.584314 0.584314
0.623039 0.623039 0.623039
0.730392 0.730392 0.730392
0.698529 0.698529 0.698529
0.702451 0.702451 0.702451
0.702941 0.702941 0.702941
0.712745 0.712745 0.712745
0.716667 0.716667 0.716667
0.726470 0.726470 0.726470
0.734313 0.734313 0.734313
0.750000 0.750000 0.750000
0.780882 0.780882 0.780882
0.847059 0.847059 0.847059
0.847059 0.847059 0.847059
0.848039 0.848039 0.848039
0.854902 0.854902 0.854902
0.862745 0.862745 0.862745
0.868137 0.868137 0.868137
0.877451 0.877451 0.877451
0.890196 0.890196 0.890196
0.905882 0.905882 0.905882
0.053922 0.053922 0.053922
0.069608 0.069608 0.069608
0.139215 0.139215 0.139215
0.195588 0.195588 0.195588
0.250980 0.250980 0.250980
0.309804 0.309804 0.309804
0.364216 0.364216 0.364216
0.424019 0.424019 0.424019
0.521569 0.521569 0.521569
0.089216 0.089216 0.089216
0.135784 0.135784 0.135784
0.174510 0.174510 0.174510
0.220098 0.220098 0.220098
0.270098 0.270098 0.270098
0.326471 0.326471 0.326471
0.376471 0.376471 0.376471
0.436765 0.436765 0.436765
0.533333 0.533333 0.533333
0.211274 0.211274 0.211274
0.214215 0.214215 0.214215
0.218137 0.218137 0.218137
0.268627 0.268627 0.268627
0.318138 0.318138 0.318138
0.357843 0.357843 0.357843
0.403922 0.403922 0.403922
0.465687 0.465687 0.465687
0.567157 0.567157 0.567157
0.285785 0.285785 0.285785
0.300490 0.300490 0.300490
0.306863 0.306863 0.306863
0.309314 0.309314 0.309314
0.346569 0.346569 0.346569
0.399510 0.399510 0.399510
0.448039 0.448039 0.448039
0.508823 0.508823 0.508823
0.606373 0.606373 0.606373
0.372059 0.372059 0.372059
0.378432 0.378432 0.378432
0.382353 0.382353 0.382353
0.385294 0.385294 0.385294
0.386274 0.386274 0.386274
0.411274 0.411274 0.411274
0.476471 0.476471 0.476471
0.569118 0.569118 0.569118
0.660784 0.660784 0.660784
0.440686 0.440686 0.440686
0.453922 0.453922 0.453922
0.458333 0.458333 0.458333
0.464216 0.464216 0.464216
0.464216 0.464216 0.464216
0.468137 0.468137 0.468137
0.500490 0.500490 0.500490
0.596568 0.596568 0.596568
0.707843 0.707843 0.707843
0.556863 0.556863 0.556863
0.563725 0.563725 0.563725
0.567647 0.567647 0.567647
0.575490 0.575490 0.575490
0.582843 0.582843 0.582843
0.587745 0.587745 0.587745
0.595098 0.595098 0.595098
0.630882 0.630882 0.630882
0.738726 0.738726 0.738726
0.702941 0.702941 0.702941
0.706863 0.706863 0.706863
0.710784 0.710784 0.710784
0.718137 0.718137 0.718137
0.725490 0.725490 0.725490
0.730392 0.730392 0.730392
0.741666 0.741666 0.741666
0.753431 0.753431 0.753431
0.784804 0.784804 0.784804
0.847059 0.847059 0.847059
0.850980 0.850980 0.850980
0.851470 0.851470 0.851470
0.855883 0.855883 0.855883
0.862745 0.862745 0.862745
0.870588 0.870588 0.870588
0.878431 0.878431 0.878431
0.890686 0.890686 0.890686
0.906372 0.906372 0.906372
0.182353 0.182353 0.182353
0.186764 0.186764 0.186764
0.201961 0.201961 0.201961
0.256863 0.256863 0.256863
0.306863 0.306863 0.306863
0.350490 0.350490 0.350490
0.396078 0.396078 0.396078
0.458334 0.458334 0.458334
0.548039 0.548039 0.548039
0.210785 0.210785 0.210785
0.223039 0.223039 0.223039
0.230883 0.230883 0.230883
0.277941 0.277941 0.277941
0.323039 0.323039 0.323039
0.363725 0.363725 0.363725
0.408333 0.408333 0.408333
0.467157 0.467157 0.467157
0.560294 0.560294 0.560294
0.232353 0.232353 0.232353
0.249019 0.249019 0.249019
0.283334 0.283334 0.283334
0.319118 0.319118 0.319118
0.357843 0.357843 0.357843
0.391667 0.391667 0.391667
0.434314 0.434314 0.434314
0.494118 0.494118 0.494118
0.587255 0.587255 0.587255
0.316177 0.316177 0.316177
0.339706 0.339706 0.339706
0.354412 0.354412 0.354412
0.357843 0.357843 0.357843
0.390196 0.390196 0.390196
0.432843 0.432843 0.432843
0.474020 0.474020 0.474020
0.535294 0.535294 0.535294
0.629902 0.629902 0.629902
0.405882 0.405882 0.405882
0.416177 0.416177 0.416177
0.417647 0.417647 0.417647
0.421569 0.421569 0.421569
0.421569 0.421569 0.421569
0.448039 0.448039 0.448039
0.513726 0.513726 0.513726
0.594608 0.594608 0.594608
0.676470 0.676470 0.676470
0.473529 0.473529 0.473529
0.487745 0.487745 0.487745
0.490687 0.490687 0.490687
0.497059 0.497059 0.497059
0.497059 0.497059 0.497059
0.500980 0.500980 0.500980
0.537255 0.537255 0.537255
0.626961 0.626961 0.626961
0.728431 0.728431 0.728431
0.584314 0.584314 0.584314
0.589706 0.589706 0.589706
0.593137 0.593137 0.593137
0.601961 0.601961 0.601961
0.606863 0.606863 0.606863
0.613235 0.613235 0.613235
0.619608 0.619608 0.619608
0.657843 0.657843 0.657843
0.752941 0.752941 0.752941
0.718627 0.718627 0.718627
0.722059 0.722059 0.722059
0.726470 0.726470 0.726470
0.730392 0.730392 0.730392
0.740686 0.740686 0.740686
0.745588 0.745588 0.745588
0.753921 0.753921 0.753921
0.765686 0.765686 0.765686
0.796568 0.796568 0.796568
0.851961 0.851961 0.851961
0.851961 0.851961 0.851961
0.854902 0.854902 0.854902
0.861275 0.861275 0.861275
0.867647 0.867647 0.867647
0.874510 0.874510 0.874510
0.882353 0.882353 0.882353
0.894608 0.894608 0.894608
0.912745 0.912745 0.912745
0.284804 0.284804 0.284804
0.291177 0.291177 0.291177
0.300490 0.300490 0.300490
0.310785 0.310785 0.310785
0.350981 0.350981 0.350981
0.413235 0.413235 0.413235
0.451960 0.451960 0.451960
0.508333 0.508333 0.508333
0.592157 0.592157 0.592157
0.307843 0.307843 0.307843
0.318628 0.318628 0.318628
0.324020 0.324020 0.324020
0.330392 0.330392 0.330392
0.374020 0.374020 0.374020
0.422059 0.422059 0.422059
0.461765 0.461765 0.461765
0.517157 0.517157 0.517157
0.602451 0.602451 0.602451
0.330392 0.330392 0.330392
0.347059 0.347059 0.347059
0.366176 0.366176 0.366176
0.376961 0.376961 0.376961
0.413235 0.413235 0.413235
0.444608 0.444608 0.444608
0.482353 0.482353 0.482353
0.536765 0.536765 0.536765
0.625981 0.625981 0.625981
0.343627 0.343627 0.343627
0.364216 0.364216 0.364216
0.389216 0.389216 0.389216
0.424510 0.424510 0.424510
0.445588 0.445588 0.445588
0.475490 0.475490 0.475490
0.516177 0.516177 0.516177
0.574020 0.574020 0.574020
0.657353 0.657353 0.657353
0.417647 0.417647 0.417647
0.437255 0.437255 0.437255
0.459314 0.459314 0.459314
0.475490 0.475490 0.475490
0.476961 0.476961 0.476961
0.511765 0.511765 0.511765
0.569608 0.569608 0.569608
0.627451 0.627451 0.627451
0.702451 0.702451 0.702451
0.513726 0.513726 0.513726
0.534804 0.534804 0.534804
0.541176 0.541176 0.541176
0.545098 0.545098 0.545098
0.549020 0.549020 0.549020
0.550490 0.550490 0.550490
0.593137 0.593137 0.593137
0.668628 0.668628 0.668628
0.758333 0.758333 0.758333
0.623530 0.623530 0.623530
0.628921 0.628921 0.628921
0.630392 0.630392 0.630392
0.639706 0.639706 0.639706
0.647059 0.647059 0.647059
0.651961 0.651961 0.651961
0.654902 0.654902 0.654902
0.695098 0.695098 0.695098
0.778432 0.778432 0.778432
0.738235 0.738235 0.738235
0.744608 0.744608 0.744608
0.746078 0.746078 0.746078
0.751471 0.751471 0.751471
0.761274 0.761274 0.761274
0.766667 0.766667 0.766667
0.773529 0.773529 0.773529
0.783333 0.783333 0.783333
0.816176 0.816176 0.816176
0.858824 0.858824 0.858824
0.862745 0.862745 0.862745
0.866177 0.866177 0.866177
0.870588 0.870588 0.870588
0.874510 0.874510 0.874510
0.882353 0.882353 0.882353
0.890196 0.890196 0.890196
0.901961 0.901961 0.901961
0.917647 0.917647 0.917647
0.388235 0.388235 0.388235
0.392157 0.392157 0.392157
0.398039 0.398039 0.398039
0.407844 0.407844 0.407844
0.419608 0.419608 0.419608
0.440686 0.440686 0.440686
0.522549 0.522549 0.522549
0.586765 0.586765 0.586765
0.664706 0.664706 0.664706
0.401961 0.401961 0.401961
0.409804 0.409804 0.409804
0.415686 0.415686 0.415686
0.428922 0.428922 0.428922
0.433334 0.433334 0.433334
0.456373 0.456373 0.456373
0.538235 0.538235 0.538235
0.593137 0.593137 0.593137
0.672549 0.672549 0.672549
0.442157 0.442157 0.442157
0.454902 0.454902 0.454902
0.457843 0.457843 0.457843
0.462255 0.462255 0.462255
0.462745 0.462745 0.462745
0.489216 0.489216 0.489216
0.559804 0.559804 0.559804
0.609314 0.609314 0.609314
0.684314 0.684314 0.684314
0.444608 0.444608 0.444608
0.469118 0.469118 0.469118
0.487255 0.487255 0.487255
0.502451 0.502451 0.502451
0.501961 0.501961 0.501961
0.542647 0.542647 0.542647
0.582353 0.582353 0.582353
0.628431 0.628431 0.628431
0.696569 0.696569 0.696569
0.452941 0.452941 0.452941
0.468137 0.468137 0.468137
0.485294 0.485294 0.485294
0.513726 0.513726 0.513726
0.549019 0.549019 0.549019
0.576470 0.576470 0.576470
0.615687 0.615687 0.615687
0.663236 0.663236 0.663236
0.727451 0.727451 0.727451
0.515196 0.515196 0.515196
0.536765 0.536765 0.536765
0.554412 0.554412 0.554412
0.589706 0.589706 0.589706
0.611274 0.611274 0.611274
0.613235 0.613235 0.613235
0.657843 0.657843 0.657843
0.717647 0.717647 0.717647
0.775980 0.775980 0.775980
0.645098 0.645098 0.645098
0.653921 0.653921 0.653921
0.667647 0.667647 0.667647
0.682843 0.682843 0.682843
0.692157 0.692157 0.692157
0.695588 0.695588 0.695588
0.702941 0.702941 0.702941
0.739706 0.739706 0.739706
0.808823 0.808823 0.808823
0.767157 0.767157 0.767157
0.770098 0.770098 0.770098
0.775000 0.775000 0.775000
0.778432 0.778432 0.778432
0.784804 0.784804 0.784804
0.793137 0.793137 0.793137
0.798529 0.798529 0.798529
0.806863 0.806863 0.806863
0.841176 0.841176 0.841176
0.870588 0.870588 0.870588
0.874510 0.874510 0.874510
0.874510 0.874510 0.874510
0.880392 0.880392 0.880392
0.886275 0.886275 0.886275
0.894118 0.894118 0.894118
0.902941 0.902941 0.902941
0.913725 0.913725 0.913725
0.925490 0.925490 0.925490
0.499510 0.499510 0.499510
0.501470 0.501470 0.501470
0.509804 0.509804 0.509804
0.521569 0.521569 0.521569
0.526961 0.526961 0.526961
0.526961 0.526961 0.526961
0.539216 0.539216 0.539216
0.640196 0.640196 0.640196
0.738725 0.738725 0.738725
0.514706 0.514706 0.514706
0.526471 0.526471 0.526471
0.532843 0.532843 0.532843
0.536765 0.536765 0.536765
0.540686 0.540686 0.540686
0.540686 0.540686 0.540686
0.556373 0.556373 0.556373
0.650980 0.650980 0.650980
0.742647 0.742647 0.742647
0.558823 0.558823 0.558823
0.564216 0.564216 0.564216
0.565196 0.565196 0.565196
0.565686 0.565686 0.565686
0.565196 0.565196 0.565196
0.565196 0.565196 0.565196
0.587255 0.587255 0.587255
0.674020 0.674020 0.674020
0.750000 0.750000 0.750000
0.562255 0.562255 0.562255
0.586765 0.586765 0.586765
0.596078 0.596078 0.596078
0.597549 0.597549 0.597549
0.599020 0.599020 0.599020
0.600000 0.600000 0.600000
0.626961 0.626961 0.626961
0.706863 0.706863 0.706863
0.763235 0.763235 0.763235
0.569608 0.569608 0.569608
0.583333 0.583333 0.583333
0.595588 0.595588 0.595588
0.617647 0.617647 0.617647
0.632843 0.632843 0.632843
0.636765 0.636765 0.636765
0.679412 0.679412 0.679412
0.724510 0.724510 0.724510
0.770098 0.770098 0.770098
0.567647 0.567647 0.567647
0.581373 0.581373 0.581373
0.594118 0.594118 0.594118
0.617157 0.617157 0.617157
0.646078 0.646078 0.646078
0.685294 0.685294 0.685294
0.716177 0.716177 0.716177
0.751961 0.751961 0.751961
0.799019 0.799019 0.799019
0.645588 0.645588 0.645588
0.653921 0.653921 0.653921
0.668628 0.668628 0.668628
0.691667 0.691667 0.691667
0.724510 0.724510 0.724510
0.748530 0.748530 0.748530
0.752451 0.752451 0.752451
0.787255 0.787255 0.787255
0.844118 0.844118 0.844118
0.769117 0.769117 0.769117
0.773039 0.773039 0.773039
0.783824 0.783824 0.783824
0.796568 0.796568 0.796568
0.813235 0.813235 0.813235
0.820588 0.820588 0.820588
0.828922 0.828922 0.828922
0.836274 0.836274 0.836274
0.868137 0.868137 0.868137
0.882353 0.882353 0.882353
0.882843 0.882843 0.882843
0.890196 0.890196 0.890196
0.894118 0.894118 0.894118
0.900000 0.900000 0.900000
0.909804 0.909804 0.909804
0.918627 0.918627 0.918627
0.925980 0.925980 0.925980
0.938725 0.938725 0.938725
0.651960 0.651960 0.651960
0.651961 0.651961 0.651961
0.651960 0.651960 0.651960
0.651960 0.651960 0.651960
0.654902 0.654902 0.654902
0.659804 0.659804 0.659804
0.660785 0.660785 0.660785
0.664216 0.664216 0.664216
0.765686 0.765686 0.765686
0.651961 0.651961 0.651961
0.663726 0.663726 0.663726
0.660785 0.660785 0.660785
0.663235 0.663235 0.663235
0.667157 0.667157 0.667157
0.671078 0.671078 0.671078
0.669118 0.669118 0.669118
0.672059 0.672059 0.672059
0.772059 0.772059 0.772059
0.679412 0.679412 0.679412
0.683333 0.683333 0.683333
0.680392 0.680392 0.680392
0.682353 0.682353 0.682353
0.685294 0.685294 0.685294
0.686275 0.686275 0.686275
0.687255 0.687255 0.687255
0.693628 0.693628 0.693628
0.785294 0.785294 0.785294
0.687255 0.687255 0.687255
0.702941 0.702941 0.702941
0.702941 0.702941 0.702941
0.703922 0.703922 0.703922
0.702941 0.702941 0.702941
0.706862 0.706862 0.706862
0.709314 0.709314 0.709314
0.723039 0.723039 0.723039
0.803922 0.803922 0.803922
0.697059 0.697059 0.697059
0.706862 0.706862 0.706862
0.712745 0.712745 0.712745
0.723040 0.723040 0.723040
0.728431 0.728431 0.728431
0.734804 0.734804 0.734804
0.737255 0.737255 0.737255
0.760294 0.760294 0.760294
0.828431 0.828431 0.828431
0.695098 0.695098 0.695098
0.702941 0.702941 0.702941
0.713726 0.713726 0.713726
0.727451 0.727451 0.727451
0.747059 0.747059 0.747059
0.765686 0.765686 0.765686
0.770098 0.770098 0.770098
0.801961 0.801961 0.801961
0.844118 0.844118 0.844118
0.700980 0.700980 0.700980
0.707843 0.707843 0.707843
0.716667 0.716667 0.716667
0.729902 0.729902 0.729902
0.750000 0.750000 0.750000
0.778432 0.778432 0.778432
0.809804 0.809804 0.809804
0.833334 0.833334 0.833334
0.868628 0.868628 0.868628
0.769117 0.769117 0.769117
0.773039 0.773039 0.773039
0.782353 0.782353 0.782353
0.799510 0.799510 0.799510
0.818137 0.818137 0.818137
0.844608 0.844608 0.844608
0.864216 0.864216 0.864216
0.871568 0.871568 0.871568
0.902941 0.902941 0.902941
0.882353 0.882353 0.882353
0.885785 0.885785 0.885785
0.888236 0.888236 0.888236
0.898039 0.898039 0.898039
0.910784 0.910784 0.910784
0.929412 0.929412 0.929412
0.934313 0.934313 0.934313
0.945588 0.945588 0.945588
0.956863 0.956863 0.956863
0.780392 0.780392 0.780392
0.777451 0.777451 0.777451
0.780882 0.780882 0.780882
0.780882 0.780882 0.780882
0.780882 0.780882 0.780882
0.782843 0.782843 0.782843
0.788725 0.788725 0.788725
0.793137 0.793137 0.793137
0.797059 0.797059 0.797059
0.777451 0.777451 0.777451
0.785294 0.785294 0.785294
0.784804 0.784804 0.784804
0.785294 0.785294 0.785294
0.784804 0.784804 0.784804
0.785784 0.785784 0.785784
0.793137 0.793137 0.793137
0.793627 0.793627 0.793627
0.800490 0.800490 0.800490
0.791177 0.791177 0.791177
0.795588 0.795588 0.795588
0.796568 0.796568 0.796568
0.795588 0.795588 0.795588
0.793137 0.793137 0.793137
0.796078 0.796078 0.796078
0.800980 0.800980 0.800980
0.803922 0.803922 0.803922
0.806373 0.806373 0.806373
0.800490 0.800490 0.800490
0.804412 0.804412 0.804412
0.806373 0.806373 0.806373
0.808333 0.808333 0.808333
0.806863 0.806863 0.806863
0.810784 0.810784 0.810784
0.814216 0.814216 0.814216
0.816666 0.816666 0.816666
0.820098 0.820098 0.820098
0.810294 0.810294 0.810294
0.814216 0.814216 0.814216
0.816176 0.816176 0.816176
0.820098 0.820098 0.820098
0.822059 0.822059 0.822059
0.824019 0.824019 0.824019
0.826470 0.826470 0.826470
0.829902 0.829902 0.829902
0.841176 0.841176 0.841176
0.812255 0.812255 0.812255
0.816666 0.816666 0.816666
0.820098 0.820098 0.820098
0.828431 0.828431 0.828431
0.835784 0.835784 0.835784
0.843627 0.843627 0.843627
0.845588 0.845588 0.845588
0.851470 0.851470 0.851470
0.874510 0.874510 0.874510
0.813726 0.813726 0.813726
0.820588 0.820588 0.820588
0.824019 0.824019 0.824019
0.829412 0.829412 0.829412
0.843627 0.843627 0.843627
0.856373 0.856373 0.856373
0.872059 0.872059 0.872059
0.879902 0.879902 0.879902
0.910784 0.910784 0.910784
0.824019 0.824019 0.824019
0.826961 0.826961 0.826961
0.831863 0.831863 0.831863
0.837745 0.837745 0.837745
0.850000 0.850000 0.850000
0.868628 0.868628 0.868628
0.887745 0.887745 0.887745
0.918137 0.918137 0.918137
0.937745 0.937745 0.937745
0.882843 0.882843 0.882843
0.885785 0.885785 0.885785
0.890196 0.890196 0.890196
0.898039 0.898039 0.898039
0.911764 0.911764 0.911764
0.929412 0.929412 0.929412
0.950000 0.950000 0.950000
0.965196 0.965196 0.965196
0.976471 0.976471 0.976471
0.894118 0.894118 0.894118
0.894118 0.894118 0.894118
0.891177 0.891177 0.891177
0.894118 0.894118 0.894118
0.896079 0.896079 0.896079
0.898039 0.898039 0.898039
0.898039 0.898039 0.898039
0.905882 0.905882 0.905882
0.909804 0.909804 0.909804
0.894118 0.894118 0.894118
0.894608 0.894608 0.894608
0.894118 0.894118 0.894118
0.896569 0.896569 0.896569
0.894608 0.894608 0.894608
0.898039 0.898039 0.898039
0.901961 0.901961 0.901961
0.902451 0.902451 0.902451
0.909804 0.909804 0.909804
0.900980 0.900980 0.900980
0.899020 0.899020 0.899020
0.898039 0.898039 0.898039
0.900490 0.900490 0.900490
0.900980 0.900980 0.900980
0.901961 0.901961 0.901961
0.905883 0.905883 0.905883
0.909804 0.909804 0.909804
0.912745 0.912745 0.912745
0.901961 0.901961 0.901961
0.904901 0.904901 0.904901
0.905882 0.905882 0.905882
0.905882 0.905882 0.905882
0.907843 0.907843 0.907843
0.909804 0.909804 0.909804
0.910784 0.910784 0.910784
0.917647 0.917647 0.917647
0.921569 0.921569 0.921569
0.915686 0.915686 0.915686
0.917647 0.917647 0.917647
0.916666 0.916666 0.916666
0.917647 0.917647 0.917647
0.917647 0.917647 0.917647
0.922059 0.922059 0.922059
0.921569 0.921569 0.921569
0.927451 0.927451 0.927451
0.929412 0.929412 0.929412
0.917647 0.917647 0.917647
0.923530 0.923530 0.923530
0.921569 0.921569 0.921569
0.923039 0.923039 0.923039
0.929902 0.929902 0.929902
0.929412 0.929412 0.929412
0.933333 0.933333 0.933333
0.937255 0.937255 0.937255
0.942647 0.942647 0.942647
0.922549 0.922549 0.922549
0.925490 0.925490 0.925490
0.928432 0.928432 0.928432
0.927942 0.927942 0.927942
0.939215 0.939215 0.939215
0.945098 0.945098 0.945098
0.950000 0.950000 0.950000
0.957353 0.957353 0.957353
0.957843 0.957843 0.957843
0.933333 0.933333 0.933333
0.933333 0.933333 0.933333
0.937255 0.937255 0.937255
0.938725 0.938725 0.938725
0.945588 0.945588 0.945588
0.956863 0.956863 0.956863
0.961274 0.961274 0.961274
0.972549 0.972549 0.972549
0.976471 0.976471 0.976471
0.941176 0.941176 0.941176
0.944608 0.944608 0.944608
0.945098 0.945098 0.945098
0.950490 0.950490 0.950490
0.954902 0.954902 0.954902
0.962255 0.962255 0.962255
0.969607 0.969607 0.969607
0.984314 0.984314 0.984314
1.000000 1.000000 1.000000
