Black-and-White/Polaroid/Polaroid 664 65x.cube
TITLE "Polaroid 664"
LUT_3D_SIZE 9
DOMAIN_MIN 0.000000 0.000000 0.000000
DOMAIN_MAX 1.000000 1.000000 1.000000
0.000000 0.000000 0.000000
0.011275 0.011275 0.011275
0.043137 0.043137 0.043137
0.168137 0.168137 0.168137
0.343137 0.343137 0.343137
0.487745 0.487745 0.487745
0.557843 0.557843 0.557843
0.616176 0.616176 0.616176
0.682353 0.682353 0.682353
0.011765 0.011765 0.011765
0.030883 0.030883 0.030883
0.087745 0.087745 0.087745
0.235785 0.235785 0.235785
0.403431 0.403431 0.403431
0.503431 0.503431 0.503431
0.565686 0.565686 0.565686
0.624019 0.624019 0.624019
0.686275 0.686275 0.686275
0.057844 0.057844 0.057844
0.088725 0.088725 0.088725
0.192157 0.192157 0.192157
0.309804 0.309804 0.309804
0.448039 0.448039 0.448039
0.524510 0.524510 0.524510
0.577451 0.577451 0.577451
0.631863 0.631863 0.631863
0.694118 0.694118 0.694118
0.185294 0.185294 0.185294
0.220098 0.220098 0.220098
0.287745 0.287745 0.287745
0.400981 0.400981 0.400981
0.482843 0.482843 0.482843
0.538725 0.538725 0.538725
0.589216 0.589216 0.589216
0.645588 0.645588 0.645588
0.705882 0.705882 0.705882
0.313725 0.313725 0.313725
0.339216 0.339216 0.339216
0.404902 0.404902 0.404902
0.460785 0.460785 0.460785
0.513726 0.513726 0.513726
0.560784 0.560784 0.560784
0.604902 0.604902 0.604902
0.655392 0.655392 0.655392
0.717647 0.717647 0.717647
0.440686 0.440686 0.440686
0.451961 0.451961 0.451961
0.475000 0.475000 0.475000
0.508333 0.508333 0.508333
0.542647 0.542647 0.542647
0.581863 0.581863 0.581863
0.624510 0.624510 0.624510
0.671078 0.671078 0.671078
0.737255 0.737255 0.737255
0.502941 0.502941 0.502941
0.506862 0.506862 0.506862
0.522549 0.522549 0.522549
0.547549 0.547549 0.547549
0.573530 0.573530 0.573530
0.609314 0.609314 0.609314
0.647059 0.647059 0.647059
0.695098 0.695098 0.695098
0.764706 0.764706 0.764706
0.549510 0.549510 0.549510
0.553431 0.553431 0.553431
0.565196 0.565196 0.565196
0.580882 0.580882 0.580882
0.604412 0.604412 0.604412
0.636765 0.636765 0.636765
0.671078 0.671078 0.671078
0.722059 0.722059 0.722059
0.800490 0.800490 0.800490
0.592157 0.592157 0.592157
0.596078 0.596078 0.596078
0.603922 0.603922 0.603922
0.619608 0.619608 0.619608
0.639216 0.639216 0.639216
0.666667 0.666667 0.666667
0.702941 0.702941 0.702941
0.757353 0.757353 0.757353
0.854902 0.854902 0.854902
0.003922 0.003922 0.003922
0.046569 0.046569 0.046569
0.142157 0.142157 0.142157
0.283824 0.283824 0.283824
0.436765 0.436765 0.436765
0.518628 0.518628 0.518628
0.575981 0.575981 0.575981
0.631863 0.631863 0.631863
0.694118 0.694118 0.694118
0.038726 0.038726 0.038726
0.084804 0.084804 0.084804
0.200981 0.200981 0.200981
0.325491 0.325491 0.325491
0.456373 0.456373 0.456373
0.526471 0.526471 0.526471
0.581372 0.581372 0.581372
0.635784 0.635784 0.635784
0.698039 0.698039 0.698039
0.115196 0.115196 0.115196
0.173530 0.173530 0.173530
0.260294 0.260294 0.260294
0.383823 0.383823 0.383823
0.475490 0.475490 0.475490
0.536274 0.536274 0.536274
0.589215 0.589215 0.589215
0.639706 0.639706 0.639706
0.701961 0.701961 0.701961
0.241176 0.241176 0.241176
0.272059 0.272059 0.272059
0.342157 0.342157 0.342157
0.436275 0.436275 0.436275
0.499510 0.499510 0.499510
0.550490 0.550490 0.550490
0.598529 0.598529 0.598529
0.647549 0.647549 0.647549
0.709804 0.709804 0.709804
0.364215 0.364215 0.364215
0.389216 0.389216 0.389216
0.432843 0.432843 0.432843
0.479902 0.479902 0.479902
0.523529 0.523529 0.523529
0.569608 0.569608 0.569608
0.612745 0.612745 0.612745
0.660784 0.660784 0.660784
0.725490 0.725490 0.725490
0.459804 0.459804 0.459804
0.468137 0.468137 0.468137
0.489216 0.489216 0.489216
0.518628 0.518628 0.518628
0.553922 0.553922 0.553922
0.589706 0.589706 0.589706
0.628922 0.628922 0.628922
0.678921 0.678921 0.678921
0.744608 0.744608 0.744608
0.513726 0.513726 0.513726
0.518628 0.518628 0.518628
0.532843 0.532843 0.532843
0.553921 0.553921 0.553921
0.581373 0.581373 0.581373
0.613235 0.613235 0.613235
0.651961 0.651961 0.651961
0.698529 0.698529 0.698529
0.769607 0.769607 0.769607
0.557353 0.557353 0.557353
0.561274 0.561274 0.561274
0.573039 0.573039 0.573039
0.588725 0.588725 0.588725
0.612255 0.612255 0.612255
0.640686 0.640686 0.640686
0.675490 0.675490 0.675490
0.725980 0.725980 0.725980
0.807843 0.807843 0.807843
0.600000 0.600000 0.600000
0.603922 0.603922 0.603922
0.611765 0.611765 0.611765
0.625980 0.625980 0.625980
0.645098 0.645098 0.645098
0.672059 0.672059 0.672059
0.706863 0.706863 0.706863
0.761274 0.761274 0.761274
0.858824 0.858824 0.858824
0.023529 0.023529 0.023529
0.110784 0.110784 0.110784
0.237255 0.237255 0.237255
0.368627 0.368627 0.368627
0.471569 0.471569 0.471569
0.534804 0.534804 0.534804
0.589215 0.589215 0.589215
0.639706 0.639706 0.639706
0.705882 0.705882 0.705882
0.092647 0.092647 0.092647
0.181863 0.181863 0.181863
0.279902 0.279902 0.279902
0.404902 0.404902 0.404902
0.484314 0.484314 0.484314
0.542647 0.542647 0.542647
0.593137 0.593137 0.593137
0.643627 0.643627 0.643627
0.705882 0.705882 0.705882
0.216667 0.216667 0.216667
0.256373 0.256373 0.256373
0.341176 0.341176 0.341176
0.440686 0.440686 0.440686
0.500000 0.500000 0.500000
0.551961 0.551961 0.551961
0.600980 0.600980 0.600980
0.651470 0.651470 0.651470
0.713726 0.713726 0.713726
0.321569 0.321569 0.321569
0.355882 0.355882 0.355882
0.420098 0.420098 0.420098
0.472059 0.472059 0.472059
0.520098 0.520098 0.520098
0.566176 0.566176 0.566176
0.610294 0.610294 0.610294
0.659314 0.659314 0.659314
0.721569 0.721569 0.721569
0.432353 0.432353 0.432353
0.444608 0.444608 0.444608
0.471569 0.471569 0.471569
0.504412 0.504412 0.504412
0.543137 0.543137 0.543137
0.582353 0.582353 0.582353
0.624510 0.624510 0.624510
0.671078 0.671078 0.671078
0.735294 0.735294 0.735294
0.489216 0.489216 0.489216
0.497059 0.497059 0.497059
0.512746 0.512746 0.512746
0.537745 0.537745 0.537745
0.567647 0.567647 0.567647
0.601471 0.601471 0.601471
0.640686 0.640686 0.640686
0.686765 0.686765 0.686765
0.754412 0.754412 0.754412
0.534313 0.534313 0.534313
0.538235 0.538235 0.538235
0.550000 0.550000 0.550000
0.569608 0.569608 0.569608
0.595098 0.595098 0.595098
0.625000 0.625000 0.625000
0.661765 0.661765 0.661765
0.709314 0.709314 0.709314
0.781373 0.781373 0.781373
0.573039 0.573039 0.573039
0.576961 0.576961 0.576961
0.587255 0.587255 0.587255
0.602941 0.602941 0.602941
0.624019 0.624019 0.624019
0.651470 0.651470 0.651470
0.687255 0.687255 0.687255
0.736765 0.736765 0.736765
0.820098 0.820098 0.820098
0.614706 0.614706 0.614706
0.615686 0.615686 0.615686
0.623529 0.623529 0.623529
0.637745 0.637745 0.637745
0.656863 0.656863 0.656863
0.682353 0.682353 0.682353
0.718628 0.718628 0.718628
0.773039 0.773039 0.773039
0.870588 0.870588 0.870588
0.061275 0.061275 0.061275
0.221078 0.221078 0.221078
0.325490 0.325490 0.325490
0.436275 0.436275 0.436275
0.500000 0.500000 0.500000
0.554412 0.554412 0.554412
0.600980 0.600980 0.600980
0.651470 0.651470 0.651470
0.713726 0.713726 0.713726
0.211764 0.211764 0.211764
0.282353 0.282353 0.282353
0.379412 0.379412 0.379412
0.459804 0.459804 0.459804
0.512255 0.512255 0.512255
0.562255 0.562255 0.562255
0.608824 0.608824 0.608824
0.655392 0.655392 0.655392
0.717647 0.717647 0.717647
0.316667 0.316667 0.316667
0.360294 0.360294 0.360294
0.428922 0.428922 0.428922
0.480882 0.480882 0.480882
0.526471 0.526471 0.526471
0.570098 0.570098 0.570098
0.614216 0.614216 0.614216
0.663235 0.663235 0.663235
0.725490 0.725490 0.725490
0.420588 0.420588 0.420588
0.440196 0.440196 0.440196
0.469118 0.469118 0.469118
0.504412 0.504412 0.504412
0.543627 0.543627 0.543627
0.582843 0.582843 0.582843
0.624510 0.624510 0.624510
0.671078 0.671078 0.671078
0.733333 0.733333 0.733333
0.480392 0.480392 0.480392
0.488236 0.488236 0.488236
0.506863 0.506863 0.506863
0.531863 0.531863 0.531863
0.563235 0.563235 0.563235
0.600000 0.600000 0.600000
0.638726 0.638726 0.638726
0.684314 0.684314 0.684314
0.749020 0.749020 0.749020
0.523039 0.523039 0.523039
0.527941 0.527941 0.527941
0.539706 0.539706 0.539706
0.562255 0.562255 0.562255
0.588235 0.588235 0.588235
0.621078 0.621078 0.621078
0.655883 0.655883 0.655883
0.702451 0.702451 0.702451
0.770098 0.770098 0.770098
0.559314 0.559314 0.559314
0.563235 0.563235 0.563235
0.575000 0.575000 0.575000
0.590686 0.590686 0.590686
0.613725 0.613725 0.613725
0.641667 0.641667 0.641667
0.676961 0.676961 0.676961
0.723039 0.723039 0.723039
0.797058 0.797058 0.797058
0.596568 0.596568 0.596568
0.600000 0.600000 0.600000
0.608333 0.608333 0.608333
0.622059 0.622059 0.622059
0.641667 0.641667 0.641667
0.668137 0.668137 0.668137
0.702941 0.702941 0.702941
0.753431 0.753431 0.753431
0.835784 0.835784 0.835784
0.631373 0.631373 0.631373
0.635294 0.635294 0.635294
0.643137 0.643137 0.643137
0.654902 0.654902 0.654902
0.673039 0.673039 0.673039
0.698039 0.698039 0.698039
0.734314 0.734314 0.734314
0.791176 0.791176 0.791176
0.886275 0.886275 0.886275
0.186275 0.186275 0.186275
0.330392 0.330392 0.330392
0.424510 0.424510 0.424510
0.482843 0.482843 0.482843
0.527451 0.527451 0.527451
0.574020 0.574020 0.574020
0.616667 0.616667 0.616667
0.667157 0.667157 0.667157
0.729412 0.729412 0.729412
0.332353 0.332353 0.332353
0.402941 0.402941 0.402941
0.455882 0.455882 0.455882
0.500000 0.500000 0.500000
0.539216 0.539216 0.539216
0.581863 0.581863 0.581863
0.624510 0.624510 0.624510
0.671078 0.671078 0.671078
0.733333 0.733333 0.733333
0.432353 0.432353 0.432353
0.451961 0.451961 0.451961
0.483333 0.483333 0.483333
0.518138 0.518138 0.518138
0.553922 0.553922 0.553922
0.591176 0.591176 0.591176
0.632353 0.632353 0.632353
0.678921 0.678921 0.678921
0.741176 0.741176 0.741176
0.484314 0.484314 0.484314
0.493628 0.493628 0.493628
0.512746 0.512746 0.512746
0.539216 0.539216 0.539216
0.570588 0.570588 0.570588
0.605392 0.605392 0.605392
0.644118 0.644118 0.644118
0.688236 0.688236 0.688236
0.751471 0.751471 0.751471
0.523529 0.523529 0.523529
0.527451 0.527451 0.527451
0.543137 0.543137 0.543137
0.562745 0.562745 0.562745
0.590196 0.590196 0.590196
0.621568 0.621568 0.621568
0.656863 0.656863 0.656863
0.702451 0.702451 0.702451
0.766666 0.766666 0.766666
0.554902 0.554902 0.554902
0.562255 0.562255 0.562255
0.570588 0.570588 0.570588
0.589706 0.589706 0.589706
0.613235 0.613235 0.613235
0.640686 0.640686 0.640686
0.675490 0.675490 0.675490
0.719608 0.719608 0.719608
0.789706 0.789706 0.789706
0.589215 0.589215 0.589215
0.593137 0.593137 0.593137
0.600980 0.600980 0.600980
0.616667 0.616667 0.616667
0.637255 0.637255 0.637255
0.663726 0.663726 0.663726
0.695098 0.695098 0.695098
0.742647 0.742647 0.742647
0.817647 0.817647 0.817647
0.621568 0.621568 0.621568
0.624019 0.624019 0.624019
0.631863 0.631863 0.631863
0.645098 0.645098 0.645098
0.663235 0.663235 0.663235
0.687745 0.687745 0.687745
0.722549 0.722549 0.722549
0.773529 0.773529 0.773529
0.855392 0.855392 0.855392
0.654902 0.654902 0.654902
0.658824 0.658824 0.658824
0.664706 0.664706 0.664706
0.676470 0.676470 0.676470
0.694118 0.694118 0.694118
0.719118 0.719118 0.719118
0.757843 0.757843 0.757843
0.812255 0.812255 0.812255
0.905882 0.905882 0.905882
0.329902 0.329902 0.329902
0.446078 0.446078 0.446078
0.486765 0.486765 0.486765
0.523039 0.523039 0.523039
0.558333 0.558333 0.558333
0.597549 0.597549 0.597549
0.636275 0.636275 0.636275
0.682843 0.682843 0.682843
0.745098 0.745098 0.745098
0.455883 0.455883 0.455883
0.479902 0.479902 0.479902
0.509314 0.509314 0.509314
0.538725 0.538725 0.538725
0.572059 0.572059 0.572059
0.605392 0.605392 0.605392
0.644117 0.644117 0.644117
0.690686 0.690686 0.690686
0.752941 0.752941 0.752941
0.498530 0.498530 0.498530
0.510294 0.510294 0.510294
0.529902 0.529902 0.529902
0.554412 0.554412 0.554412
0.582353 0.582353 0.582353
0.617157 0.617157 0.617157
0.652451 0.652451 0.652451
0.697549 0.697549 0.697549
0.760784 0.760784 0.760784
0.531863 0.531863 0.531863
0.538725 0.538725 0.538725
0.551471 0.551471 0.551471
0.572549 0.572549 0.572549
0.598039 0.598039 0.598039
0.628922 0.628922 0.628922
0.664216 0.664216 0.664216
0.707843 0.707843 0.707843
0.772549 0.772549 0.772549
0.562255 0.562255 0.562255
0.566176 0.566176 0.566176
0.577941 0.577941 0.577941
0.594608 0.594608 0.594608
0.617647 0.617647 0.617647
0.644608 0.644608 0.644608
0.679411 0.679411 0.679411
0.723039 0.723039 0.723039
0.789706 0.789706 0.789706
0.589706 0.589706 0.589706
0.593627 0.593627 0.593627
0.601471 0.601471 0.601471
0.617157 0.617157 0.617157
0.637255 0.637255 0.637255
0.664216 0.664216 0.664216
0.696569 0.696569 0.696569
0.742647 0.742647 0.742647
0.813235 0.813235 0.813235
0.620588 0.620588 0.620588
0.621078 0.621078 0.621078
0.630392 0.630392 0.630392
0.644117 0.644117 0.644117
0.663726 0.663726 0.663726
0.687745 0.687745 0.687745
0.719118 0.719118 0.719118
0.766667 0.766667 0.766667
0.843137 0.843137 0.843137
0.651470 0.651470 0.651470
0.652451 0.652451 0.652451
0.660294 0.660294 0.660294
0.672059 0.672059 0.672059
0.688726 0.688726 0.688726
0.714216 0.714216 0.714216
0.747059 0.747059 0.747059
0.800490 0.800490 0.800490
0.879902 0.879902 0.879902
0.683824 0.683824 0.683824
0.686275 0.686275 0.686275
0.693137 0.693137 0.693137
0.704412 0.704412 0.704412
0.721569 0.721569 0.721569
0.746569 0.746569 0.746569
0.785294 0.785294 0.785294
0.839706 0.839706 0.839706
0.926961 0.926961 0.926961
0.467647 0.467647 0.467647
0.510784 0.510784 0.510784
0.534313 0.534313 0.534313
0.560784 0.560784 0.560784
0.589215 0.589215 0.589215
0.621078 0.621078 0.621078
0.659804 0.659804 0.659804
0.702451 0.702451 0.702451
0.768627 0.768627 0.768627
0.518628 0.518628 0.518628
0.534313 0.534313 0.534313
0.552941 0.552941 0.552941
0.575000 0.575000 0.575000
0.600981 0.600981 0.600981
0.632353 0.632353 0.632353
0.667647 0.667647 0.667647
0.710294 0.710294 0.710294
0.775981 0.775981 0.775981
0.548040 0.548040 0.548040
0.556373 0.556373 0.556373
0.569608 0.569608 0.569608
0.589215 0.589215 0.589215
0.614706 0.614706 0.614706
0.644117 0.644117 0.644117
0.675490 0.675490 0.675490
0.719118 0.719118 0.719118
0.784314 0.784314 0.784314
0.573530 0.573530 0.573530
0.578922 0.578922 0.578922
0.591176 0.591176 0.591176
0.606373 0.606373 0.606373
0.629902 0.629902 0.629902
0.657353 0.657353 0.657353
0.689706 0.689706 0.689706
0.733823 0.733823 0.733823
0.798529 0.798529 0.798529
0.600000 0.600000 0.600000
0.601961 0.601961 0.601961
0.612745 0.612745 0.612745
0.625490 0.625490 0.625490
0.648039 0.648039 0.648039
0.672059 0.672059 0.672059
0.704902 0.704902 0.704902
0.749510 0.749510 0.749510
0.816667 0.816667 0.816667
0.625000 0.625000 0.625000
0.630883 0.630883 0.630883
0.636275 0.636275 0.636275
0.648529 0.648529 0.648529
0.668628 0.668628 0.668628
0.692647 0.692647 0.692647
0.726470 0.726470 0.726470
0.770588 0.770588 0.770588
0.840686 0.840686 0.840686
0.651960 0.651960 0.651960
0.655882 0.655882 0.655882
0.663725 0.663725 0.663725
0.675490 0.675490 0.675490
0.693137 0.693137 0.693137
0.718628 0.718628 0.718628
0.750981 0.750981 0.750981
0.797549 0.797549 0.797549
0.871568 0.871568 0.871568
0.683334 0.683334 0.683334
0.687255 0.687255 0.687255
0.694608 0.694608 0.694608
0.706372 0.706372 0.706372
0.722549 0.722549 0.722549
0.747059 0.747059 0.747059
0.781863 0.781863 0.781863
0.832844 0.832844 0.832844
0.906863 0.906863 0.906863
0.721569 0.721569 0.721569
0.722549 0.722549 0.722549
0.730392 0.730392 0.730392
0.742156 0.742156 0.742156
0.758823 0.758823 0.758823
0.785294 0.785294 0.785294
0.821569 0.821569 0.821569
0.875000 0.875000 0.875000
0.950000 0.950000 0.950000
0.533333 0.533333 0.533333
0.557353 0.557353 0.557353
0.576961 0.576961 0.576961
0.596568 0.596568 0.596568
0.620098 0.620098 0.620098
0.650980 0.650980 0.650980
0.683334 0.683334 0.683334
0.726470 0.726470 0.726470
0.792647 0.792647 0.792647
0.568137 0.568137 0.568137
0.579902 0.579902 0.579902
0.592647 0.592647 0.592647
0.612255 0.612255 0.612255
0.633333 0.633333 0.633333
0.660294 0.660294 0.660294
0.697549 0.697549 0.697549
0.737745 0.737745 0.737745
0.803922 0.803922 0.803922
0.592647 0.592647 0.592647
0.596568 0.596568 0.596568
0.610785 0.610785 0.610785
0.625980 0.625980 0.625980
0.647549 0.647549 0.647549
0.672059 0.672059 0.672059
0.706372 0.706372 0.706372
0.749510 0.749510 0.749510
0.814706 0.814706 0.814706
0.616176 0.616176 0.616176
0.620098 0.620098 0.620098
0.630392 0.630392 0.630392
0.643627 0.643627 0.643627
0.663235 0.663235 0.663235
0.687745 0.687745 0.687745
0.719118 0.719118 0.719118
0.765196 0.765196 0.765196
0.829902 0.829902 0.829902
0.639706 0.639706 0.639706
0.643627 0.643627 0.643627
0.651470 0.651470 0.651470
0.663235 0.663235 0.663235
0.682843 0.682843 0.682843
0.707843 0.707843 0.707843
0.738725 0.738725 0.738725
0.784804 0.784804 0.784804
0.850980 0.850980 0.850980
0.667157 0.667157 0.667157
0.668137 0.668137 0.668137
0.677451 0.677451 0.677451
0.688726 0.688726 0.688726
0.706372 0.706372 0.706372
0.730882 0.730882 0.730882
0.762255 0.762255 0.762255
0.808823 0.808823 0.808823
0.875000 0.875000 0.875000
0.695098 0.695098 0.695098
0.698529 0.698529 0.698529
0.703431 0.703431 0.703431
0.715196 0.715196 0.715196
0.735294 0.735294 0.735294
0.758333 0.758333 0.758333
0.793627 0.793627 0.793627
0.840196 0.840196 0.840196
0.902941 0.902941 0.902941
0.729902 0.729902 0.729902
0.733823 0.733823 0.733823
0.738235 0.738235 0.738235
0.750000 0.750000 0.750000
0.769607 0.769607 0.769607
0.794118 0.794118 0.794118
0.828922 0.828922 0.828922
0.875490 0.875490 0.875490
0.937745 0.937745 0.937745
0.773039 0.773039 0.773039
0.776961 0.776961 0.776961
0.784804 0.784804 0.784804
0.796568 0.796568 0.796568
0.812255 0.812255 0.812255
0.839706 0.839706 0.839706
0.871568 0.871568 0.871568
0.914215 0.914215 0.914215
0.976471 0.976471 0.976471
0.584314 0.584314 0.584314
0.603922 0.603922 0.603922
0.619608 0.619608 0.619608
0.635294 0.635294 0.635294
0.656863 0.656863 0.656863
0.682353 0.682353 0.682353
0.714706 0.714706 0.714706
0.761274 0.761274 0.761274
0.827451 0.827451 0.827451
0.615196 0.615196 0.615196
0.623529 0.623529 0.623529
0.635294 0.635294 0.635294
0.650980 0.650980 0.650980
0.674020 0.674020 0.674020
0.698039 0.698039 0.698039
0.729412 0.729412 0.729412
0.773039 0.773039 0.773039
0.839216 0.839216 0.839216
0.638235 0.638235 0.638235
0.643137 0.643137 0.643137
0.653922 0.653922 0.653922
0.666667 0.666667 0.666667
0.686275 0.686275 0.686275
0.711275 0.711275 0.711275
0.742156 0.742156 0.742156
0.788725 0.788725 0.788725
0.850980 0.850980 0.850980
0.661275 0.661275 0.661275
0.665196 0.665196 0.665196
0.673039 0.673039 0.673039
0.686275 0.686275 0.686275
0.703921 0.703921 0.703921
0.729412 0.729412 0.729412
0.761764 0.761764 0.761764
0.810294 0.810294 0.810294
0.869118 0.869118 0.869118
0.686275 0.686275 0.686275
0.690196 0.690196 0.690196
0.698039 0.698039 0.698039
0.709804 0.709804 0.709804
0.727451 0.727451 0.727451
0.754902 0.754902 0.754902
0.785294 0.785294 0.785294
0.833333 0.833333 0.833333
0.890196 0.890196 0.890196
0.717647 0.717647 0.717647
0.719118 0.719118 0.719118
0.726961 0.726961 0.726961
0.738725 0.738725 0.738725
0.758823 0.758823 0.758823
0.781863 0.781863 0.781863
0.817157 0.817157 0.817157
0.859314 0.859314 0.859314
0.915196 0.915196 0.915196
0.753922 0.753922 0.753922
0.757843 0.757843 0.757843
0.767647 0.767647 0.767647
0.777451 0.777451 0.777451
0.798039 0.798039 0.798039
0.820588 0.820588 0.820588
0.851961 0.851961 0.851961
0.895098 0.895098 0.895098
0.942157 0.942157 0.942157
0.804412 0.804412 0.804412
0.804412 0.804412 0.804412
0.812255 0.812255 0.812255
0.824019 0.824019 0.824019
0.843627 0.843627 0.843627
0.868137 0.868137 0.868137
0.894608 0.894608 0.894608
0.929902 0.929902 0.929902
0.972549 0.972549 0.972549
0.866667 0.866667 0.866667
0.870588 0.870588 0.870588
0.874510 0.874510 0.874510
0.886275 0.886275 0.886275
0.901961 0.901961 0.901961
0.921569 0.921569 0.921569
0.945098 0.945098 0.945098
0.972549 0.972549 0.972549
1.000000 1.000000 1.000000
