Black-and-White/Polaroid/Polaroid 672 65x.cube
TITLE "Polaroid 672"
LUT_3D_SIZE 65
DOMAIN_MIN 0.000000 0.000000 0.000000
DOMAIN_MAX 1.000000 1.000000 1.000000
0.000000 0.000000 0.000000
0.000000 0.000000 0.000000
0.000000 0.000000 0.000000
0.000000 0.000000 0.000000
0.000000 0.000000 0.000000
0.000674 0.000674 0.000674
0.003922 0.003922 0.003922
0.003922 0.003922 0.003922
0.003922 0.003922 0.003922
0.007843 0.007843 0.007843
0.007843 0.007843 0.007843
0.010110 0.010110 0.010110
0.011765 0.011765 0.011765
0.011949 0.011949 0.011949
0.015686 0.015686 0.015686
0.019608 0.019608 0.019608
0.019608 0.019608 0.019608
0.023529 0.023529 0.023529
0.027451 0.027451 0.027451
0.031373 0.031373 0.031373
0.035294 0.035294 0.035294
0.039216 0.039216 0.039216
0.043750 0.043750 0.043750
0.048591 0.048591 0.048591
0.053431 0.053431 0.053431
0.058824 0.058824 0.058824
0.063113 0.063113 0.063113
0.070588 0.070588 0.070588
0.076716 0.076716 0.076716
0.082353 0.082353 0.082353
0.090319 0.090319 0.090319
0.099081 0.099081 0.099081
0.107843 0.107843 0.107843
0.116605 0.116605 0.116605
0.125367 0.125367 0.125367
0.134130 0.134130 0.134130
0.142892 0.142892 0.142892
0.155576 0.155576 0.155576
0.164338 0.164338 0.164338
0.177022 0.177022 0.177022
0.187255 0.187255 0.187255
0.198468 0.198468 0.198468
0.211152 0.211152 0.211152
0.223835 0.223835 0.223835
0.236520 0.236520 0.236520
0.247426 0.247426 0.247426
0.261029 0.261029 0.261029
0.274571 0.274571 0.274571
0.288236 0.288236 0.288236
0.301838 0.301838 0.301838
0.315441 0.315441 0.315441
0.329044 0.329044 0.329044
0.345833 0.345833 0.345833
0.360172 0.360172 0.360172
0.377696 0.377696 0.377696
0.391728 0.391728 0.391728
0.408823 0.408823 0.408823
0.426348 0.426348 0.426348
0.443873 0.443873 0.443873
0.461397 0.461397 0.461397
0.478921 0.478921 0.478921
0.496446 0.496446 0.496446
0.513971 0.513971 0.513971
0.531495 0.531495 0.531495
0.549020 0.549020 0.549020
0.000000 0.000000 0.000000
0.000000 0.000000 0.000000
0.000919 0.000919 0.000919
0.003922 0.003922 0.003922
0.003922 0.003922 0.003922
0.004841 0.004841 0.004841
0.007843 0.007843 0.007843
0.007843 0.007843 0.007843
0.008762 0.008762 0.008762
0.012684 0.012684 0.012684
0.012684 0.012684 0.012684
0.017953 0.017953 0.017953
0.016605 0.016605 0.016605
0.020527 0.020527 0.020527
0.024632 0.024632 0.024632
0.024448 0.024448 0.024448
0.028370 0.028370 0.028370
0.035233 0.035233 0.035233
0.036152 0.036152 0.036152
0.040135 0.040135 0.040135
0.044056 0.044056 0.044056
0.047978 0.047978 0.047978
0.055821 0.055821 0.055821
0.059743 0.059743 0.059743
0.063664 0.063664 0.063664
0.070956 0.070956 0.070956
0.075797 0.075797 0.075797
0.080637 0.080637 0.080637
0.089400 0.089400 0.089400
0.094240 0.094240 0.094240
0.103003 0.103003 0.103003
0.111765 0.111765 0.111765
0.121568 0.121568 0.121568
0.129289 0.129289 0.129289
0.138051 0.138051 0.138051
0.146814 0.146814 0.146814
0.155576 0.155576 0.155576
0.169976 0.169976 0.169976
0.177022 0.177022 0.177022
0.189706 0.189706 0.189706
0.198468 0.198468 0.198468
0.211152 0.211152 0.211152
0.223223 0.223223 0.223223
0.236519 0.236519 0.236519
0.246507 0.246507 0.246507
0.257966 0.257966 0.257966
0.270650 0.270650 0.270650
0.283395 0.283395 0.283395
0.296998 0.296998 0.296998
0.313603 0.313603 0.313603
0.327206 0.327206 0.327206
0.337989 0.337989 0.337989
0.355331 0.355331 0.355331
0.371936 0.371936 0.371936
0.386458 0.386458 0.386458
0.403064 0.403064 0.403064
0.417586 0.417586 0.417586
0.435111 0.435111 0.435111
0.450307 0.450307 0.450307
0.469240 0.469240 0.469240
0.486765 0.486765 0.486765
0.504289 0.504289 0.504289
0.521814 0.521814 0.521814
0.536336 0.536336 0.536336
0.552941 0.552941 0.552941
0.000000 0.000000 0.000000
0.003922 0.003922 0.003922
0.003922 0.003922 0.003922
0.003922 0.003922 0.003922
0.005760 0.005760 0.005760
0.007843 0.007843 0.007843
0.009681 0.009681 0.009681
0.011765 0.011765 0.011765
0.011765 0.011765 0.011765
0.015686 0.015686 0.015686
0.017524 0.017524 0.017524
0.019608 0.019608 0.019608
0.022794 0.022794 0.022794
0.025367 0.025367 0.025367
0.027451 0.027451 0.027451
0.029289 0.029289 0.029289
0.033211 0.033211 0.033211
0.037132 0.037132 0.037132
0.040074 0.040074 0.040074
0.044914 0.044914 0.044914
0.048897 0.048897 0.048897
0.052818 0.052818 0.052818
0.059437 0.059437 0.059437
0.064277 0.064277 0.064277
0.070956 0.070956 0.070956
0.077880 0.077880 0.077880
0.084191 0.084191 0.084191
0.087562 0.087562 0.087562
0.094240 0.094240 0.094240
0.099877 0.099877 0.099877
0.107843 0.107843 0.107843
0.116605 0.116605 0.116605
0.125368 0.125368 0.125368
0.134130 0.134130 0.134130
0.142892 0.142892 0.142892
0.150613 0.150613 0.150613
0.164338 0.164338 0.164338
0.173101 0.173101 0.173101
0.183946 0.183946 0.183946
0.194547 0.194547 0.194547
0.207231 0.207231 0.207231
0.215993 0.215993 0.215993
0.230147 0.230147 0.230147
0.241361 0.241361 0.241361
0.254044 0.254044 0.254044
0.267034 0.267034 0.267034
0.275490 0.275490 0.275490
0.292095 0.292095 0.292095
0.304780 0.304780 0.304780
0.317525 0.317525 0.317525
0.330147 0.330147 0.330147
0.342831 0.342831 0.342831
0.360172 0.360172 0.360172
0.375858 0.375858 0.375858
0.391299 0.391299 0.391299
0.406985 0.406985 0.406985
0.422427 0.422427 0.422427
0.438113 0.438113 0.438113
0.455637 0.455637 0.455637
0.473162 0.473162 0.473162
0.490686 0.490686 0.490686
0.508885 0.508885 0.508885
0.523652 0.523652 0.523652
0.539338 0.539338 0.539338
0.556863 0.556863 0.556863
0.003922 0.003922 0.003922
0.003922 0.003922 0.003922
0.006679 0.006679 0.006679
0.006679 0.006679 0.006679
0.007843 0.007843 0.007843
0.010601 0.010601 0.010601
0.011765 0.011765 0.011765
0.011765 0.011765 0.011765
0.014522 0.014522 0.014522
0.016115 0.016115 0.016115
0.019608 0.019608 0.019608
0.021875 0.021875 0.021875
0.023529 0.023529 0.023529
0.030209 0.030209 0.030209
0.031373 0.031373 0.031373
0.033395 0.033395 0.033395
0.038052 0.038052 0.038052
0.043076 0.043076 0.043076
0.043995 0.043995 0.043995
0.048836 0.048836 0.048836
0.053676 0.053676 0.053676
0.057660 0.057660 0.057660
0.065503 0.065503 0.065503
0.068199 0.068199 0.068199
0.075796 0.075796 0.075796
0.081801 0.081801 0.081801
0.089032 0.089032 0.089032
0.091483 0.091483 0.091483
0.100797 0.100797 0.100797
0.104718 0.104718 0.104718
0.116483 0.116483 0.116483
0.121446 0.121446 0.121446
0.130208 0.130208 0.130208
0.138970 0.138970 0.138970
0.147733 0.147733 0.147733
0.157659 0.157659 0.157659
0.169179 0.169179 0.169179
0.177941 0.177941 0.177941
0.187867 0.187867 0.187867
0.197181 0.197181 0.197181
0.212071 0.212071 0.212071
0.220465 0.220465 0.220465
0.234069 0.234069 0.234069
0.246200 0.246200 0.246200
0.258885 0.258885 0.258885
0.268811 0.268811 0.268811
0.280331 0.280331 0.280331
0.296937 0.296937 0.296937
0.309620 0.309620 0.309620
0.322304 0.322304 0.322304
0.335049 0.335049 0.335049
0.347672 0.347672 0.347672
0.362255 0.362255 0.362255
0.380883 0.380883 0.380883
0.393382 0.393382 0.393382
0.410907 0.410907 0.410907
0.427266 0.427266 0.427266
0.442035 0.442035 0.442035
0.459559 0.459559 0.459559
0.477083 0.477083 0.477083
0.493444 0.493444 0.493444
0.508211 0.508211 0.508211
0.525736 0.525736 0.525736
0.543260 0.543260 0.543260
0.559620 0.559620 0.559620
0.003922 0.003922 0.003922
0.007598 0.007598 0.007598
0.007843 0.007843 0.007843
0.007843 0.007843 0.007843
0.011520 0.011520 0.011520
0.011765 0.011765 0.011765
0.015441 0.015441 0.015441
0.015686 0.015686 0.015686
0.019363 0.019363 0.019363
0.019608 0.019608 0.019608
0.020956 0.020956 0.020956
0.027206 0.027206 0.027206
0.027451 0.027451 0.027451
0.031373 0.031373 0.031373
0.032476 0.032476 0.032476
0.037316 0.037316 0.037316
0.042892 0.042892 0.042892
0.046998 0.046998 0.046998
0.047917 0.047917 0.047917
0.052757 0.052757 0.052757
0.057598 0.057598 0.057598
0.062439 0.062439 0.062439
0.070343 0.070343 0.070343
0.072120 0.072120 0.072120
0.076961 0.076961 0.076961
0.086030 0.086030 0.086030
0.093873 0.093873 0.093873
0.095405 0.095405 0.095405
0.105637 0.105637 0.105637
0.112683 0.112683 0.112683
0.117770 0.117770 0.117770
0.126287 0.126287 0.126287
0.135049 0.135049 0.135049
0.143811 0.143811 0.143811
0.152573 0.152573 0.152573
0.161581 0.161581 0.161581
0.174020 0.174020 0.174020
0.182782 0.182782 0.182782
0.191789 0.191789 0.191789
0.201103 0.201103 0.201103
0.216912 0.216912 0.216912
0.224387 0.224387 0.224387
0.238358 0.238358 0.238358
0.251042 0.251042 0.251042
0.263726 0.263726 0.263726
0.272733 0.272733 0.272733
0.284559 0.284559 0.284559
0.301776 0.301776 0.301776
0.314460 0.314460 0.314460
0.327145 0.327145 0.327145
0.339828 0.339828 0.339828
0.352512 0.352512 0.352512
0.366177 0.366177 0.366177
0.385723 0.385723 0.385723
0.397304 0.397304 0.397304
0.415012 0.415012 0.415012
0.428431 0.428431 0.428431
0.445956 0.445956 0.445956
0.463236 0.463236 0.463236
0.480760 0.480760 0.480760
0.494608 0.494608 0.494608
0.512132 0.512132 0.512132
0.531249 0.531249 0.531249
0.543260 0.543260 0.543260
0.560784 0.560784 0.560784
0.007843 0.007843 0.007843
0.008517 0.008517 0.008517
0.011765 0.011765 0.011765
0.011765 0.011765 0.011765
0.015441 0.015441 0.015441
0.015686 0.015686 0.015686
0.016360 0.016360 0.016360
0.019608 0.019608 0.019608
0.023039 0.023039 0.023039
0.024203 0.024203 0.024203
0.024203 0.024203 0.024203
0.028125 0.028125 0.028125
0.034559 0.034559 0.034559
0.035968 0.035968 0.035968
0.040319 0.040319 0.040319
0.043137 0.043137 0.043137
0.043811 0.043811 0.043811
0.047733 0.047733 0.047733
0.055760 0.055760 0.055760
0.060601 0.060601 0.060601
0.065441 0.065441 0.065441
0.070282 0.070282 0.070282
0.071875 0.071875 0.071875
0.079963 0.079963 0.079963
0.084804 0.084804 0.084804
0.086949 0.086949 0.086949
0.095160 0.095160 0.095160
0.103248 0.103248 0.103248
0.108762 0.108762 0.108762
0.116850 0.116850 0.116850
0.122366 0.122366 0.122366
0.131128 0.131128 0.131128
0.139890 0.139890 0.139890
0.148652 0.148652 0.148652
0.157414 0.157414 0.157414
0.166177 0.166177 0.166177
0.178186 0.178186 0.178186
0.189584 0.189584 0.189584
0.196385 0.196385 0.196385
0.209068 0.209068 0.209068
0.217830 0.217830 0.217830
0.232230 0.232230 0.232230
0.239276 0.239276 0.239276
0.251593 0.251593 0.251593
0.264644 0.264644 0.264644
0.278799 0.278799 0.278799
0.292402 0.292402 0.292402
0.302084 0.302084 0.302084
0.315380 0.315380 0.315380
0.328063 0.328063 0.328063
0.340748 0.340748 0.340748
0.357169 0.357169 0.357169
0.370772 0.370772 0.370772
0.387623 0.387623 0.387623
0.399326 0.399326 0.399326
0.418750 0.418750 0.418750
0.432353 0.432353 0.432353
0.449878 0.449878 0.449878
0.467402 0.467402 0.467402
0.481680 0.481680 0.481680
0.498529 0.498529 0.498529
0.516054 0.516054 0.516054
0.530331 0.530331 0.530331
0.547182 0.547182 0.547182
0.564706 0.564706 0.564706
0.009436 0.009436 0.009436
0.011765 0.011765 0.011765
0.013603 0.013603 0.013603
0.013358 0.013358 0.013358
0.015686 0.015686 0.015686
0.016360 0.016360 0.016360
0.021201 0.021201 0.021201
0.021201 0.021201 0.021201
0.026961 0.026961 0.026961
0.027451 0.027451 0.027451
0.028799 0.028799 0.028799
0.033640 0.033640 0.033640
0.038481 0.038481 0.038481
0.040809 0.040809 0.040809
0.044730 0.044730 0.044730
0.047059 0.047059 0.047059
0.048652 0.048652 0.048652
0.052573 0.052573 0.052573
0.060417 0.060417 0.060417
0.064522 0.064522 0.064522
0.069363 0.069363 0.069363
0.074204 0.074204 0.074204
0.076716 0.076716 0.076716
0.083946 0.083946 0.083946
0.087868 0.087868 0.087868
0.095159 0.095159 0.095159
0.100000 0.100000 0.100000
0.107169 0.107169 0.107169
0.113603 0.113603 0.113603
0.120772 0.120772 0.120772
0.131005 0.131005 0.131005
0.135968 0.135968 0.135968
0.144730 0.144730 0.144730
0.153493 0.153493 0.153493
0.162255 0.162255 0.162255
0.170220 0.170220 0.170220
0.182108 0.182108 0.182108
0.192463 0.192463 0.192463
0.201226 0.201226 0.201226
0.213910 0.213910 0.213910
0.222549 0.222549 0.222549
0.235356 0.235356 0.235356
0.246446 0.246446 0.246446
0.255515 0.255515 0.255515
0.269118 0.269118 0.269118
0.282721 0.282721 0.282721
0.296323 0.296323 0.296323
0.306005 0.306005 0.306005
0.319608 0.319608 0.319608
0.332905 0.332905 0.332905
0.345588 0.345588 0.345588
0.358272 0.358272 0.358272
0.374020 0.374020 0.374020
0.391544 0.391544 0.391544
0.404166 0.404166 0.404166
0.422671 0.422671 0.422671
0.436274 0.436274 0.436274
0.453799 0.453799 0.453799
0.468995 0.468995 0.468995
0.484927 0.484927 0.484927
0.502451 0.502451 0.502451
0.517647 0.517647 0.517647
0.533579 0.533579 0.533579
0.551103 0.551103 0.551103
0.564706 0.564706 0.564706
0.014277 0.014277 0.014277
0.015686 0.015686 0.015686
0.018199 0.018199 0.018199
0.018199 0.018199 0.018199
0.019608 0.019608 0.019608
0.022120 0.022120 0.022120
0.023529 0.023529 0.023529
0.026042 0.026042 0.026042
0.030883 0.030883 0.030883
0.033885 0.033885 0.033885
0.032721 0.032721 0.032721
0.037807 0.037807 0.037807
0.042402 0.042402 0.042402
0.045650 0.045650 0.045650
0.049571 0.049571 0.049571
0.053493 0.053493 0.053493
0.053493 0.053493 0.053493
0.057415 0.057415 0.057415
0.065258 0.065258 0.065258
0.069179 0.069179 0.069179
0.073284 0.073284 0.073284
0.078125 0.078125 0.078125
0.084866 0.084866 0.084866
0.088787 0.088787 0.088787
0.092647 0.092647 0.092647
0.100000 0.100000 0.100000
0.108395 0.108395 0.108395
0.111091 0.111091 0.111091
0.120160 0.120160 0.120160
0.127206 0.127206 0.127206
0.133456 0.133456 0.133456
0.140809 0.140809 0.140809
0.149571 0.149571 0.149571
0.158333 0.158333 0.158333
0.167095 0.167095 0.167095
0.177267 0.177267 0.177267
0.188542 0.188542 0.188542
0.197304 0.197304 0.197304
0.206066 0.206066 0.206066
0.218749 0.218749 0.218749
0.228922 0.228922 0.228922
0.240196 0.240196 0.240196
0.250367 0.250367 0.250367
0.259437 0.259437 0.259437
0.273039 0.273039 0.273039
0.287010 0.287010 0.287010
0.300245 0.300245 0.300245
0.309927 0.309927 0.309927
0.323530 0.323530 0.323530
0.337132 0.337132 0.337132
0.350429 0.350429 0.350429
0.363113 0.363113 0.363113
0.377942 0.377942 0.377942
0.396324 0.396324 0.396324
0.409069 0.409069 0.409069
0.426593 0.426593 0.426593
0.440196 0.440196 0.440196
0.458823 0.458823 0.458823
0.471324 0.471324 0.471324
0.488848 0.488848 0.488848
0.504964 0.504964 0.504964
0.519975 0.519975 0.519975
0.537928 0.537928 0.537928
0.550613 0.550613 0.550613
0.568627 0.568627 0.568627
0.019118 0.019118 0.019118
0.019608 0.019608 0.019608
0.023039 0.023039 0.023039
0.023039 0.023039 0.023039
0.023529 0.023529 0.023529
0.026961 0.026961 0.026961
0.027451 0.027451 0.027451
0.030883 0.030883 0.030883
0.034804 0.034804 0.034804
0.038726 0.038726 0.038726
0.036642 0.036642 0.036642
0.042647 0.042647 0.042647
0.046569 0.046569 0.046569
0.050490 0.050490 0.050490
0.054412 0.054412 0.054412
0.058334 0.058334 0.058334
0.058824 0.058824 0.058824
0.062255 0.062255 0.062255
0.070098 0.070098 0.070098
0.074020 0.074020 0.074020
0.077206 0.077206 0.077206
0.081863 0.081863 0.081863
0.089706 0.089706 0.089706
0.091728 0.091728 0.091728
0.100000 0.100000 0.100000
0.105392 0.105392 0.105392
0.110172 0.110172 0.110172
0.118444 0.118444 0.118444
0.123775 0.123775 0.123775
0.132046 0.132046 0.132046
0.137378 0.137378 0.137378
0.146140 0.146140 0.146140
0.154902 0.154902 0.154902
0.163664 0.163664 0.163664
0.172426 0.172426 0.172426
0.184620 0.184620 0.184620
0.193382 0.193382 0.193382
0.202145 0.202145 0.202145
0.211397 0.211397 0.211397
0.223591 0.223591 0.223591
0.236275 0.236275 0.236275
0.245037 0.245037 0.245037
0.257721 0.257721 0.257721
0.266973 0.266973 0.266973
0.276961 0.276961 0.276961
0.291851 0.291851 0.291851
0.304534 0.304534 0.304534
0.313849 0.313849 0.313849
0.327451 0.327451 0.327451
0.341054 0.341054 0.341054
0.354657 0.354657 0.354657
0.371691 0.371691 0.371691
0.381863 0.381863 0.381863
0.401164 0.401164 0.401164
0.412990 0.412990 0.412990
0.430025 0.430025 0.430025
0.444117 0.444117 0.444117
0.461152 0.461152 0.461152
0.475245 0.475245 0.475245
0.492954 0.492954 0.492954
0.506372 0.506372 0.506372
0.523897 0.523897 0.523897
0.537500 0.537500 0.537500
0.555025 0.555025 0.555025
0.568627 0.568627 0.568627
0.023529 0.023529 0.023529
0.023958 0.023958 0.023958
0.023958 0.023958 0.023958
0.027451 0.027451 0.027451
0.027880 0.027880 0.027880
0.032047 0.032047 0.032047
0.031802 0.031802 0.031802
0.037807 0.037807 0.037807
0.035723 0.035723 0.035723
0.039645 0.039645 0.039645
0.044485 0.044485 0.044485
0.049326 0.049326 0.049326
0.047488 0.047488 0.047488
0.055331 0.055331 0.055331
0.058824 0.058824 0.058824
0.059253 0.059253 0.059253
0.063174 0.063174 0.063174
0.067096 0.067096 0.067096
0.075368 0.075368 0.075368
0.080208 0.080208 0.080208
0.085049 0.085049 0.085049
0.086704 0.086704 0.086704
0.094731 0.094731 0.094731
0.099571 0.099571 0.099571
0.102390 0.102390 0.102390
0.109681 0.109681 0.109681
0.118076 0.118076 0.118076
0.121998 0.121998 0.121998
0.131618 0.131618 0.131618
0.136887 0.136887 0.136887
0.145221 0.145221 0.145221
0.153983 0.153983 0.153983
0.159253 0.159253 0.159253
0.168015 0.168015 0.168015
0.176776 0.176776 0.176776
0.189032 0.189032 0.189032
0.198223 0.198223 0.198223
0.206986 0.206986 0.206986
0.215748 0.215748 0.215748
0.228431 0.228431 0.228431
0.237193 0.237193 0.237193
0.249878 0.249878 0.249878
0.258639 0.258639 0.258639
0.271201 0.271201 0.271201
0.284804 0.284804 0.284804
0.298407 0.298407 0.298407
0.305454 0.305454 0.305454
0.322059 0.322059 0.322059
0.335294 0.335294 0.335294
0.348897 0.348897 0.348897
0.362500 0.362500 0.362500
0.376103 0.376103 0.376103
0.389706 0.389706 0.389706
0.402083 0.402083 0.402083
0.417341 0.417341 0.417341
0.434436 0.434436 0.434436
0.447978 0.447978 0.447978
0.465564 0.465564 0.465564
0.479596 0.479596 0.479596
0.496691 0.496691 0.496691
0.510294 0.510294 0.510294
0.527818 0.527818 0.527818
0.539767 0.539767 0.539767
0.558946 0.558946 0.558946
0.572549 0.572549 0.572549
0.028799 0.028799 0.028799
0.028799 0.028799 0.028799
0.031373 0.031373 0.031373
0.032721 0.032721 0.032721
0.032721 0.032721 0.032721
0.036642 0.036642 0.036642
0.039216 0.039216 0.039216
0.040564 0.040564 0.040564
0.043137 0.043137 0.043137
0.043566 0.043566 0.043566
0.048407 0.048407 0.048407
0.053247 0.053247 0.053247
0.058089 0.058089 0.058089
0.060172 0.060172 0.060172
0.064093 0.064093 0.064093
0.066115 0.066115 0.066115
0.068015 0.068015 0.068015
0.071936 0.071936 0.071936
0.079779 0.079779 0.079779
0.084130 0.084130 0.084130
0.087623 0.087623 0.087623
0.091544 0.091544 0.091544
0.098652 0.098652 0.098652
0.103309 0.103309 0.103309
0.109681 0.109681 0.109681
0.117095 0.117095 0.117095
0.121937 0.121937 0.121937
0.128125 0.128125 0.128125
0.134681 0.134681 0.134681
0.144301 0.144301 0.144301
0.150491 0.150491 0.150491
0.157905 0.157905 0.157905
0.166666 0.166666 0.166666
0.175429 0.175429 0.175429
0.184191 0.184191 0.184191
0.194302 0.194302 0.194302
0.203064 0.203064 0.203064
0.211826 0.211826 0.211826
0.223161 0.223161 0.223161
0.233273 0.233273 0.233273
0.244608 0.244608 0.244608
0.254718 0.254718 0.254718
0.266054 0.266054 0.266054
0.275123 0.275123 0.275123
0.288849 0.288849 0.288849
0.302328 0.302328 0.302328
0.315931 0.315931 0.315931
0.326899 0.326899 0.326899
0.339583 0.339583 0.339583
0.352819 0.352819 0.352819
0.366421 0.366421 0.366421
0.380024 0.380024 0.380024
0.394240 0.394240 0.394240
0.406924 0.406924 0.406924
0.422181 0.422181 0.422181
0.438358 0.438358 0.438358
0.451960 0.451960 0.451960
0.469486 0.469486 0.469486
0.482108 0.482108 0.482108
0.500613 0.500613 0.500613
0.514216 0.514216 0.514216
0.531924 0.531924 0.531924
0.545343 0.545343 0.545343
0.560294 0.560294 0.560294
0.576471 0.576471 0.576471
0.033640 0.033640 0.033640
0.035294 0.035294 0.035294
0.037561 0.037561 0.037561
0.037561 0.037561 0.037561
0.042892 0.042892 0.042892
0.039890 0.039890 0.039890
0.045404 0.045404 0.045404
0.045404 0.045404 0.045404
0.049326 0.049326 0.049326
0.053247 0.053247 0.053247
0.052328 0.052328 0.052328
0.057169 0.057169 0.057169
0.061091 0.061091 0.061091
0.062929 0.062929 0.062929
0.068934 0.068934 0.068934
0.072855 0.072855 0.072855
0.077451 0.077451 0.077451
0.082292 0.082292 0.082292
0.083211 0.083211 0.083211
0.088052 0.088052 0.088052
0.092463 0.092463 0.092463
0.100000 0.100000 0.100000
0.104841 0.104841 0.104841
0.109681 0.109681 0.109681
0.116176 0.116176 0.116176
0.119914 0.119914 0.119914
0.128125 0.128125 0.128125
0.135600 0.135600 0.135600
0.141728 0.141728 0.141728
0.147365 0.147365 0.147365
0.155330 0.155330 0.155330
0.164093 0.164093 0.164093
0.172855 0.172855 0.172855
0.181618 0.181618 0.181618
0.190380 0.190380 0.190380
0.199142 0.199142 0.199142
0.207353 0.207353 0.207353
0.218321 0.218321 0.218321
0.229351 0.229351 0.229351
0.236397 0.236397 0.236397
0.250797 0.250797 0.250797
0.259559 0.259559 0.259559
0.273285 0.273285 0.273285
0.282659 0.282659 0.282659
0.292647 0.292647 0.292647
0.306373 0.306373 0.306373
0.319853 0.319853 0.319853
0.331741 0.331741 0.331741
0.344424 0.344424 0.344424
0.357108 0.357108 0.357108
0.370343 0.370343 0.370343
0.382476 0.382476 0.382476
0.399081 0.399081 0.399081
0.411152 0.411152 0.411152
0.427022 0.427022 0.427022
0.442279 0.442279 0.442279
0.455882 0.455882 0.455882
0.474264 0.474264 0.474264
0.486949 0.486949 0.486949
0.504534 0.504534 0.504534
0.518137 0.518137 0.518137
0.531740 0.531740 0.531740
0.549448 0.549448 0.549448
0.562868 0.562868 0.562868
0.578738 0.578738 0.578738
0.039216 0.039216 0.039216
0.042402 0.042402 0.042402
0.042402 0.042402 0.042402
0.043137 0.043137 0.043137
0.046324 0.046324 0.046324
0.050245 0.050245 0.050245
0.050245 0.050245 0.050245
0.054167 0.054167 0.054167
0.054167 0.054167 0.054167
0.058089 0.058089 0.058089
0.062010 0.062010 0.062010
0.061091 0.061091 0.061091
0.065932 0.065932 0.065932
0.066851 0.066851 0.066851
0.071691 0.071691 0.071691
0.077696 0.077696 0.077696
0.081618 0.081618 0.081618
0.085540 0.085540 0.085540
0.090319 0.090319 0.090319
0.095159 0.095159 0.095159
0.101226 0.101226 0.101226
0.105576 0.105576 0.105576
0.112990 0.112990 0.112990
0.116912 0.116912 0.116912
0.120098 0.120098 0.120098
0.128125 0.128125 0.128125
0.136520 0.136520 0.136520
0.138542 0.138542 0.138542
0.148285 0.148285 0.148285
0.155331 0.155331 0.155331
0.160907 0.160907 0.160907
0.171814 0.171814 0.171814
0.177696 0.177696 0.177696
0.186458 0.186458 0.186458
0.195220 0.195220 0.195220
0.201593 0.201593 0.201593
0.213480 0.213480 0.213480
0.225429 0.225429 0.225429
0.234191 0.234191 0.234191
0.243689 0.243689 0.243689
0.255637 0.255637 0.255637
0.263603 0.263603 0.263603
0.277083 0.277083 0.277083
0.289768 0.289768 0.289768
0.296569 0.296569 0.296569
0.311213 0.311213 0.311213
0.323897 0.323897 0.323897
0.333456 0.333456 0.333456
0.349264 0.349264 0.349264
0.361949 0.361949 0.361949
0.374633 0.374633 0.374633
0.387316 0.387316 0.387316
0.403921 0.403921 0.403921
0.415074 0.415074 0.415074
0.431862 0.431862 0.431862
0.446201 0.446201 0.446201
0.459804 0.459804 0.459804
0.476593 0.476593 0.476593
0.490932 0.490932 0.490932
0.507721 0.507721 0.507721
0.525001 0.525001 0.525001
0.535661 0.535661 0.535661
0.549265 0.549265 0.549265
0.566789 0.566789 0.566789
0.580392 0.580392 0.580392
0.047059 0.047059 0.047059
0.047243 0.047243 0.047243
0.047243 0.047243 0.047243
0.053738 0.053738 0.053738
0.051164 0.051164 0.051164
0.055576 0.055576 0.055576
0.055086 0.055086 0.055086
0.061336 0.061336 0.061336
0.059008 0.059008 0.059008
0.062929 0.062929 0.062929
0.068015 0.068015 0.068015
0.066851 0.066851 0.066851
0.070772 0.070772 0.070772
0.074694 0.074694 0.074694
0.078615 0.078615 0.078615
0.082537 0.082537 0.082537
0.089216 0.089216 0.089216
0.094057 0.094057 0.094057
0.094302 0.094302 0.094302
0.100000 0.100000 0.100000
0.104841 0.104841 0.104841
0.113419 0.113419 0.113419
0.114522 0.114522 0.114522
0.123101 0.123101 0.123101
0.125674 0.125674 0.125674
0.132966 0.132966 0.132966
0.137806 0.137806 0.137806
0.145282 0.145282 0.145282
0.151410 0.151410 0.151410
0.160172 0.160172 0.160172
0.168811 0.168811 0.168811
0.173774 0.173774 0.173774
0.182536 0.182536 0.182536
0.191298 0.191298 0.191298
0.200061 0.200061 0.200061
0.208823 0.208823 0.208823
0.221323 0.221323 0.221323
0.230086 0.230086 0.230086
0.239031 0.239031 0.239031
