Black-and-White/Polaroid/Polaroid 664 65x.cube
TITLE "Polaroid 664"
LUT_3D_SIZE 5
DOMAIN_MIN 0.000000 0.000000 0.000000
DOMAIN_MAX 1.000000 1.000000 1.000000
0.000000 0.000000 0.000000
0.043137 0.043137 0.043137
0.343137 0.343137 0.343137
0.557843 0.557843 0.557843
0.682353 0.682353 0.682353
0.057844 0.057844 0.057844
0.192157 0.192157 0.192157
0.448039 0.448039 0.448039
0.577451 0.577451 0.577451
0.694118 0.694118 0.694118
0.313725 0.313725 0.313725
0.404902 0.404902 0.404902
0.513726 0.513726 0.513726
0.604902 0.604902 0.604902
0.717647 0.717647 0.717647
0.502941 0.502941 0.502941
0.522549 0.522549 0.522549
0.573530 0.573530 0.573530
0.647059 0.647059 0.647059
0.764706 0.764706 0.764706
0.592157 0.592157 0.592157
0.603922 0.603922 0.603922
0.639216 0.639216 0.639216
0.702941 0.702941 0.702941
0.854902 0.854902 0.854902
0.023529 0.023529 0.023529
0.237255 0.237255 0.237255
0.471569 0.471569 0.471569
0.589215 0.589215 0.589215
0.705882 0.705882 0.705882
0.216667 0.216667 0.216667
0.341176 0.341176 0.341176
0.500000 0.500000 0.500000
0.600980 0.600980 0.600980
0.713726 0.713726 0.713726
0.432353 0.432353 0.432353
0.471569 0.471569 0.471569
0.543137 0.543137 0.543137
0.624510 0.624510 0.624510
0.735294 0.735294 0.735294
0.534313 0.534313 0.534313
0.550000 0.550000 0.550000
0.595098 0.595098 0.595098
0.661765 0.661765 0.661765
0.781373 0.781373 0.781373
0.614706 0.614706 0.614706
0.623529 0.623529 0.623529
0.656863 0.656863 0.656863
0.718628 0.718628 0.718628
0.870588 0.870588 0.870588
0.186275 0.186275 0.186275
0.424510 0.424510 0.424510
0.527451 0.527451 0.527451
0.616667 0.616667 0.616667
0.729412 0.729412 0.729412
0.432353 0.432353 0.432353
0.483333 0.483333 0.483333
0.553922 0.553922 0.553922
0.632353 0.632353 0.632353
0.741176 0.741176 0.741176
0.523529 0.523529 0.523529
0.543137 0.543137 0.543137
0.590196 0.590196 0.590196
0.656863 0.656863 0.656863
0.766666 0.766666 0.766666
0.589215 0.589215 0.589215
0.600980 0.600980 0.600980
0.637255 0.637255 0.637255
0.695098 0.695098 0.695098
0.817647 0.817647 0.817647
0.654902 0.654902 0.654902
0.664706 0.664706 0.664706
0.694118 0.694118 0.694118
0.757843 0.757843 0.757843
0.905882 0.905882 0.905882
0.467647 0.467647 0.467647
0.534313 0.534313 0.534313
0.589215 0.589215 0.589215
0.659804 0.659804 0.659804
0.768627 0.768627 0.768627
0.548040 0.548040 0.548040
0.569608 0.569608 0.569608
0.614706 0.614706 0.614706
0.675490 0.675490 0.675490
0.784314 0.784314 0.784314
0.600000 0.600000 0.600000
0.612745 0.612745 0.612745
0.648039 0.648039 0.648039
0.704902 0.704902 0.704902
0.816667 0.816667 0.816667
0.651960 0.651960 0.651960
0.663725 0.663725 0.663725
0.693137 0.693137 0.693137
0.750981 0.750981 0.750981
0.871568 0.871568 0.871568
0.721569 0.721569 0.721569
0.730392 0.730392 0.730392
0.758823 0.758823 0.758823
0.821569 0.821569 0.821569
0.950000 0.950000 0.950000
0.584314 0.584314 0.584314
0.619608 0.619608 0.619608
0.656863 0.656863 0.656863
0.714706 0.714706 0.714706
0.827451 0.827451 0.827451
0.638235 0.638235 0.638235
0.653922 0.653922 0.653922
0.686275 0.686275 0.686275
0.742156 0.742156 0.742156
0.850980 0.850980 0.850980
0.686275 0.686275 0.686275
0.698039 0.698039 0.698039
0.727451 0.727451 0.727451
0.785294 0.785294 0.785294
0.890196 0.890196 0.890196
0.753922 0.753922 0.753922
0.767647 0.767647 0.767647
0.798039 0.798039 0.798039
0.851961 0.851961 0.851961
0.942157 0.942157 0.942157
0.866667 0.866667 0.866667
0.874510 0.874510 0.874510
0.901961 0.901961 0.901961
0.945098 0.945098 0.945098
1.000000 1.000000 1.000000
