Black-and-White/Polaroid/Polaroid 665 Negative 1 - 65x.cube
TITLE "Polaroid 665 Negative 1 -"
LUT_3D_SIZE 9
DOMAIN_MIN 0.000000 0.000000 0.000000
DOMAIN_MAX 1.000000 1.000000 1.000000
0.000000 0.000000 0.000000
0.023039 0.023039 0.023039
0.066667 0.066667 0.066667
0.134314 0.134314 0.134314
0.217647 0.217647 0.217647
0.305882 0.305882 0.305882
0.385294 0.385294 0.385294
0.475000 0.475000 0.475000
0.584314 0.584314 0.584314
0.054412 0.054412 0.054412
0.058334 0.058334 0.058334
0.104411 0.104411 0.104411
0.166666 0.166666 0.166666
0.243138 0.243138 0.243138
0.320588 0.320588 0.320588
0.397059 0.397059 0.397059
0.483333 0.483333 0.483333
0.592157 0.592157 0.592157
0.161765 0.161765 0.161765
0.150980 0.150980 0.150980
0.167647 0.167647 0.167647
0.228431 0.228431 0.228431
0.299020 0.299020 0.299020
0.363725 0.363725 0.363725
0.433333 0.433333 0.433333
0.509803 0.509803 0.509803
0.613725 0.613725 0.613725
0.284804 0.284804 0.284804
0.281863 0.281863 0.281863
0.279412 0.279412 0.279412
0.300490 0.300490 0.300490
0.353432 0.353432 0.353432
0.414216 0.414216 0.414216
0.477942 0.477942 0.477942
0.553431 0.553431 0.553431
0.650980 0.650980 0.650980
0.400000 0.400000 0.400000
0.398039 0.398039 0.398039
0.382353 0.382353 0.382353
0.394118 0.394118 0.394118
0.413725 0.413725 0.413725
0.462255 0.462255 0.462255
0.529411 0.529411 0.529411
0.606373 0.606373 0.606373
0.692157 0.692157 0.692157
0.508824 0.508824 0.508824
0.508824 0.508824 0.508824
0.495588 0.495588 0.495588
0.493137 0.493137 0.493137
0.508824 0.508824 0.508824
0.532353 0.532353 0.532353
0.582843 0.582843 0.582843
0.654411 0.654411 0.654411
0.738725 0.738725 0.738725
0.634314 0.634314 0.634314
0.633334 0.633334 0.633334
0.622549 0.622549 0.622549
0.609804 0.609804 0.609804
0.620588 0.620588 0.620588
0.641177 0.641177 0.641177
0.657843 0.657843 0.657843
0.707353 0.707353 0.707353
0.778432 0.778432 0.778432
0.761274 0.761274 0.761274
0.757843 0.757843 0.757843
0.753921 0.753921 0.753921
0.745588 0.745588 0.745588
0.742156 0.742156 0.742156
0.758824 0.758824 0.758824
0.773529 0.773529 0.773529
0.793137 0.793137 0.793137
0.831373 0.831373 0.831373
0.882353 0.882353 0.882353
0.882353 0.882353 0.882353
0.879412 0.879412 0.879412
0.875980 0.875980 0.875980
0.870588 0.870588 0.870588
0.879902 0.879902 0.879902
0.893138 0.893138 0.893138
0.906372 0.906372 0.906372
0.929412 0.929412 0.929412
0.058334 0.058334 0.058334
0.077451 0.077451 0.077451
0.115686 0.115686 0.115686
0.183824 0.183824 0.183824
0.260294 0.260294 0.260294
0.330882 0.330882 0.330882
0.403432 0.403432 0.403432
0.486765 0.486765 0.486765
0.592157 0.592157 0.592157
0.097549 0.097549 0.097549
0.108824 0.108824 0.108824
0.151471 0.151471 0.151471
0.212255 0.212255 0.212255
0.279902 0.279902 0.279902
0.346079 0.346079 0.346079
0.416666 0.416666 0.416666
0.499019 0.499019 0.499019
0.600000 0.600000 0.600000
0.220588 0.220588 0.220588
0.205392 0.205392 0.205392
0.210294 0.210294 0.210294
0.267157 0.267157 0.267157
0.322549 0.322549 0.322549
0.380883 0.380883 0.380883
0.444117 0.444117 0.444117
0.525000 0.525000 0.525000
0.621568 0.621568 0.621568
0.319608 0.319608 0.319608
0.315686 0.315686 0.315686
0.306863 0.306863 0.306863
0.323529 0.323529 0.323529
0.372549 0.372549 0.372549
0.429902 0.429902 0.429902
0.490686 0.490686 0.490686
0.564706 0.564706 0.564706
0.657353 0.657353 0.657353
0.425490 0.425490 0.425490
0.419608 0.419608 0.419608
0.403922 0.403922 0.403922
0.412745 0.412745 0.412745
0.429412 0.429412 0.429412
0.474019 0.474019 0.474019
0.538725 0.538725 0.538725
0.616667 0.616667 0.616667
0.698039 0.698039 0.698039
0.526471 0.526471 0.526471
0.524510 0.524510 0.524510
0.513235 0.513235 0.513235
0.508824 0.508824 0.508824
0.521078 0.521078 0.521078
0.542647 0.542647 0.542647
0.590686 0.590686 0.590686
0.662745 0.662745 0.662745
0.741176 0.741176 0.741176
0.642157 0.642157 0.642157
0.645098 0.645098 0.645098
0.634804 0.634804 0.634804
0.620588 0.620588 0.620588
0.631373 0.631373 0.631373
0.646568 0.646568 0.646568
0.668138 0.668138 0.668138
0.711275 0.711275 0.711275
0.784804 0.784804 0.784804
0.765196 0.765196 0.765196
0.762255 0.762255 0.762255
0.760784 0.760784 0.760784
0.750981 0.750981 0.750981
0.749020 0.749020 0.749020
0.759314 0.759314 0.759314
0.776961 0.776961 0.776961
0.796568 0.796568 0.796568
0.831373 0.831373 0.831373
0.886275 0.886275 0.886275
0.885785 0.885785 0.885785
0.882353 0.882353 0.882353
0.879412 0.879412 0.879412
0.874510 0.874510 0.874510
0.882353 0.882353 0.882353
0.893628 0.893628 0.893628
0.906863 0.906863 0.906863
0.925980 0.925980 0.925980
0.170588 0.170588 0.170588
0.186274 0.186274 0.186274
0.209804 0.209804 0.209804
0.245588 0.245588 0.245588
0.310785 0.310785 0.310785
0.374020 0.374020 0.374020
0.442157 0.442157 0.442157
0.521079 0.521079 0.521079
0.610784 0.610784 0.610784
0.194117 0.194117 0.194117
0.210785 0.210785 0.210785
0.233824 0.233824 0.233824
0.272059 0.272059 0.272059
0.327451 0.327451 0.327451
0.388726 0.388726 0.388726
0.451470 0.451470 0.451470
0.528431 0.528431 0.528431
0.622549 0.622549 0.622549
0.256863 0.256863 0.256863
0.263726 0.263726 0.263726
0.272549 0.272549 0.272549
0.315196 0.315196 0.315196
0.365686 0.365686 0.365686
0.416176 0.416176 0.416176
0.477451 0.477451 0.477451
0.550000 0.550000 0.550000
0.640196 0.640196 0.640196
0.377941 0.377941 0.377941
0.377941 0.377941 0.377941
0.362255 0.362255 0.362255
0.368627 0.368627 0.368627
0.412255 0.412255 0.412255
0.462745 0.462745 0.462745
0.517157 0.517157 0.517157
0.587745 0.587745 0.587745
0.673039 0.673039 0.673039
0.475490 0.475490 0.475490
0.471079 0.471079 0.471079
0.455882 0.455882 0.455882
0.448039 0.448039 0.448039
0.463726 0.463726 0.463726
0.506373 0.506373 0.506373
0.566666 0.566666 0.566666
0.636275 0.636275 0.636275
0.709804 0.709804 0.709804
0.565196 0.565196 0.565196
0.565686 0.565686 0.565686
0.554412 0.554412 0.554412
0.533824 0.533824 0.533824
0.548529 0.548529 0.548529
0.567647 0.567647 0.567647
0.614216 0.614216 0.614216
0.678921 0.678921 0.678921
0.755883 0.755883 0.755883
0.669608 0.669608 0.669608
0.668628 0.668628 0.668628
0.662745 0.662745 0.662745
0.650490 0.650490 0.650490
0.649020 0.649020 0.649020
0.663235 0.663235 0.663235
0.681372 0.681372 0.681372
0.724020 0.724020 0.724020
0.793137 0.793137 0.793137
0.780882 0.780882 0.780882
0.779902 0.779902 0.779902
0.776961 0.776961 0.776961
0.766667 0.766667 0.766667
0.757353 0.757353 0.757353
0.771568 0.771568 0.771568
0.785294 0.785294 0.785294
0.802451 0.802451 0.802451
0.839706 0.839706 0.839706
0.890196 0.890196 0.890196
0.890686 0.890686 0.890686
0.887255 0.887255 0.887255
0.886275 0.886275 0.886275
0.879412 0.879412 0.879412
0.883824 0.883824 0.883824
0.894118 0.894118 0.894118
0.910294 0.910294 0.910294
0.929412 0.929412 0.929412
0.299020 0.299020 0.299020
0.306863 0.306863 0.306863
0.331863 0.331863 0.331863
0.346078 0.346078 0.346078
0.367157 0.367157 0.367157
0.428922 0.428922 0.428922
0.487255 0.487255 0.487255
0.559804 0.559804 0.559804
0.643137 0.643137 0.643137
0.314706 0.314706 0.314706
0.326471 0.326471 0.326471
0.343137 0.343137 0.343137
0.359314 0.359314 0.359314
0.384804 0.384804 0.384804
0.440196 0.440196 0.440196
0.498039 0.498039 0.498039
0.569117 0.569117 0.569117
0.653431 0.653431 0.653431
0.331372 0.331372 0.331372
0.344117 0.344117 0.344117
0.370098 0.370098 0.370098
0.392647 0.392647 0.392647
0.421078 0.421078 0.421078
0.469608 0.469608 0.469608
0.521569 0.521569 0.521569
0.587745 0.587745 0.587745
0.671079 0.671079 0.671079
0.402451 0.402451 0.402451
0.410294 0.410294 0.410294
0.420588 0.420588 0.420588
0.432353 0.432353 0.432353
0.465196 0.465196 0.465196
0.506863 0.506863 0.506863
0.557843 0.557843 0.557843
0.618627 0.618627 0.618627
0.696569 0.696569 0.696569
0.526470 0.526470 0.526470
0.529902 0.529902 0.529902
0.525490 0.525490 0.525490
0.508333 0.508333 0.508333
0.512255 0.512255 0.512255
0.552941 0.552941 0.552941
0.606863 0.606863 0.606863
0.662745 0.662745 0.662745
0.727941 0.727941 0.727941
0.615686 0.615686 0.615686
0.620098 0.620098 0.620098
0.613235 0.613235 0.613235
0.596078 0.596078 0.596078
0.588235 0.588235 0.588235
0.603922 0.603922 0.603922
0.647059 0.647059 0.647059
0.706372 0.706372 0.706372
0.774020 0.774020 0.774020
0.708823 0.708823 0.708823
0.707353 0.707353 0.707353
0.700980 0.700980 0.700980
0.692157 0.692157 0.692157
0.676471 0.676471 0.676471
0.689216 0.689216 0.689216
0.704902 0.704902 0.704902
0.745098 0.745098 0.745098
0.809804 0.809804 0.809804
0.800980 0.800980 0.800980
0.803432 0.803432 0.803432
0.797058 0.797058 0.797058
0.790686 0.790686 0.790686
0.781372 0.781372 0.781372
0.783824 0.783824 0.783824
0.797058 0.797058 0.797058
0.816176 0.816176 0.816176
0.851470 0.851470 0.851470
0.901961 0.901961 0.901961
0.901961 0.901961 0.901961
0.901471 0.901471 0.901471
0.898039 0.898039 0.898039
0.892157 0.892157 0.892157
0.890196 0.890196 0.890196
0.901961 0.901961 0.901961
0.917647 0.917647 0.917647
0.933333 0.933333 0.933333
0.417647 0.417647 0.417647
0.425490 0.425490 0.425490
0.443137 0.443137 0.443137
0.466666 0.466666 0.466666
0.478432 0.478432 0.478432
0.481863 0.481863 0.481863
0.546079 0.546079 0.546079
0.614216 0.614216 0.614216
0.690196 0.690196 0.690196
0.431373 0.431373 0.431373
0.437255 0.437255 0.437255
0.454902 0.454902 0.454902
0.476471 0.476471 0.476471
0.490197 0.490197 0.490197
0.494118 0.494118 0.494118
0.557353 0.557353 0.557353
0.622059 0.622059 0.622059
0.696079 0.696079 0.696079
0.453922 0.453922 0.453922
0.466176 0.466176 0.466176
0.477451 0.477451 0.477451
0.496569 0.496569 0.496569
0.508824 0.508824 0.508824
0.520588 0.520588 0.520588
0.579412 0.579412 0.579412
0.637745 0.637745 0.637745
0.706863 0.706863 0.706863
0.475000 0.475000 0.475000
0.485294 0.485294 0.485294
0.491177 0.491177 0.491177
0.520588 0.520588 0.520588
0.535784 0.535784 0.535784
0.562745 0.562745 0.562745
0.609804 0.609804 0.609804
0.657843 0.657843 0.657843
0.725490 0.725490 0.725490
0.545098 0.545098 0.545098
0.550490 0.550490 0.550490
0.554902 0.554902 0.554902
0.560785 0.560785 0.560785
0.568628 0.568628 0.568628
0.603921 0.603921 0.603921
0.643138 0.643138 0.643138
0.692647 0.692647 0.692647
0.749019 0.749019 0.749019
0.660294 0.660294 0.660294
0.664216 0.664216 0.664216
0.662255 0.662255 0.662255
0.660294 0.660294 0.660294
0.644118 0.644118 0.644118
0.646568 0.646568 0.646568
0.685784 0.685784 0.685784
0.735294 0.735294 0.735294
0.790196 0.790196 0.790196
0.747059 0.747059 0.747059
0.747059 0.747059 0.747059
0.746078 0.746078 0.746078
0.736764 0.736764 0.736764
0.724510 0.724510 0.724510
0.717647 0.717647 0.717647
0.733333 0.733333 0.733333
0.773529 0.773529 0.773529
0.828432 0.828432 0.828432
0.829902 0.829902 0.829902
0.832353 0.832353 0.832353
0.829902 0.829902 0.829902
0.821569 0.821569 0.821569
0.814216 0.814216 0.814216
0.800980 0.800980 0.800980
0.814216 0.814216 0.814216
0.830392 0.830392 0.830392
0.870588 0.870588 0.870588
0.917647 0.917647 0.917647
0.917647 0.917647 0.917647
0.913725 0.913725 0.913725
0.915686 0.915686 0.915686
0.909804 0.909804 0.909804
0.901961 0.901961 0.901961
0.907843 0.907843 0.907843
0.925490 0.925490 0.925490
0.941176 0.941176 0.941176
0.540196 0.540196 0.540196
0.544608 0.544608 0.544608
0.555882 0.555882 0.555882
0.576471 0.576471 0.576471
0.599020 0.599020 0.599020
0.602941 0.602941 0.602941
0.597058 0.597058 0.597058
0.663725 0.663725 0.663725
0.738725 0.738725 0.738725
0.550000 0.550000 0.550000
0.557843 0.557843 0.557843
0.566176 0.566176 0.566176
0.585294 0.585294 0.585294
0.603431 0.603431 0.603431
0.609314 0.609314 0.609314
0.606373 0.606373 0.606373
0.670588 0.670588 0.670588
0.742647 0.742647 0.742647
0.571078 0.571078 0.571078
0.575490 0.575490 0.575490
0.584804 0.584804 0.584804
0.600980 0.600980 0.600980
0.617157 0.617157 0.617157
0.622549 0.622549 0.622549
0.627451 0.627451 0.627451
0.688236 0.688236 0.688236
0.753432 0.753432 0.753432
0.575490 0.575490 0.575490
0.589216 0.589216 0.589216
0.604412 0.604412 0.604412
0.616177 0.616177 0.616177
0.634314 0.634314 0.634314
0.644608 0.644608 0.644608
0.654902 0.654902 0.654902
0.711765 0.711765 0.711765
0.767157 0.767157 0.767157
0.617157 0.617157 0.617157
0.621078 0.621078 0.621078
0.625000 0.625000 0.625000
0.629412 0.629412 0.629412
0.653922 0.653922 0.653922
0.667647 0.667647 0.667647
0.692647 0.692647 0.692647
0.732843 0.732843 0.732843
0.781863 0.781863 0.781863
0.673529 0.673529 0.673529
0.675490 0.675490 0.675490
0.678922 0.678922 0.678922
0.683824 0.683824 0.683824
0.687745 0.687745 0.687745
0.697059 0.697059 0.697059
0.727941 0.727941 0.727941
0.762255 0.762255 0.762255
0.810784 0.810784 0.810784
0.782353 0.782353 0.782353
0.782843 0.782843 0.782843
0.782353 0.782353 0.782353
0.778922 0.778922 0.778922
0.775000 0.775000 0.775000
0.763235 0.763235 0.763235
0.768137 0.768137 0.768137
0.802451 0.802451 0.802451
0.851961 0.851961 0.851961
0.856373 0.856373 0.856373
0.855882 0.855882 0.855882
0.858334 0.858334 0.858334
0.855392 0.855392 0.855392
0.851961 0.851961 0.851961
0.839706 0.839706 0.839706
0.839216 0.839216 0.839216
0.851961 0.851961 0.851961
0.887745 0.887745 0.887745
0.937255 0.937255 0.937255
0.937255 0.937255 0.937255
0.937255 0.937255 0.937255
0.933333 0.933333 0.933333
0.929412 0.929412 0.929412
0.925490 0.925490 0.925490
0.919118 0.919118 0.919118
0.933333 0.933333 0.933333
0.949020 0.949020 0.949020
0.672549 0.672549 0.672549
0.675490 0.675490 0.675490
0.681372 0.681372 0.681372
0.691176 0.691176 0.691176
0.705882 0.705882 0.705882
0.723039 0.723039 0.723039
0.723530 0.723530 0.723530
0.710785 0.710785 0.710785
0.777451 0.777451 0.777451
0.675000 0.675000 0.675000
0.682843 0.682843 0.682843
0.684314 0.684314 0.684314
0.695098 0.695098 0.695098
0.710294 0.710294 0.710294
0.726470 0.726470 0.726470
0.727941 0.727941 0.727941
0.715197 0.715197 0.715197
0.780392 0.780392 0.780392
0.687255 0.687255 0.687255
0.691177 0.691177 0.691177
0.694118 0.694118 0.694118
0.705882 0.705882 0.705882
0.720588 0.720588 0.720588
0.736274 0.736274 0.736274
0.737255 0.737255 0.737255
0.726961 0.726961 0.726961
0.792157 0.792157 0.792157
0.695098 0.695098 0.695098
0.702941 0.702941 0.702941
0.708333 0.708333 0.708333
0.715687 0.715687 0.715687
0.726961 0.726961 0.726961
0.746079 0.746079 0.746079
0.747549 0.747549 0.747549
0.746569 0.746569 0.746569
0.806373 0.806373 0.806373
0.698039 0.698039 0.698039
0.703922 0.703922 0.703922
0.712745 0.712745 0.712745
0.726961 0.726961 0.726961
0.742156 0.742156 0.742156
0.758333 0.758333 0.758333
0.763725 0.763725 0.763725
0.772059 0.772059 0.772059
0.825490 0.825490 0.825490
0.739706 0.739706 0.739706
0.742647 0.742647 0.742647
0.745588 0.745588 0.745588
0.747549 0.747549 0.747549
0.750491 0.750491 0.750491
0.773529 0.773529 0.773529
0.785294 0.785294 0.785294
0.805393 0.805393 0.805393
0.847059 0.847059 0.847059
0.786275 0.786275 0.786275
0.789216 0.789216 0.789216
0.790196 0.790196 0.790196
0.792647 0.792647 0.792647
0.796079 0.796079 0.796079
0.801961 0.801961 0.801961
0.812745 0.812745 0.812745
0.837255 0.837255 0.837255
0.872549 0.872549 0.872549
0.883333 0.883333 0.883333
0.883824 0.883824 0.883824
0.884804 0.884804 0.884804
0.886275 0.886275 0.886275
0.883333 0.883333 0.883333
0.879902 0.879902 0.879902
0.871568 0.871568 0.871568
0.878921 0.878921 0.878921
0.909804 0.909804 0.909804
0.952941 0.952941 0.952941
0.953922 0.953922 0.953922
0.954902 0.954902 0.954902
0.955392 0.955392 0.955392
0.952941 0.952941 0.952941
0.952941 0.952941 0.952941
0.945098 0.945098 0.945098
0.945588 0.945588 0.945588
0.960784 0.960784 0.960784
0.792647 0.792647 0.792647
0.792647 0.792647 0.792647
0.796568 0.796568 0.796568
0.804412 0.804412 0.804412
0.810294 0.810294 0.810294
0.820588 0.820588 0.820588
0.831863 0.831863 0.831863
0.832353 0.832353 0.832353
0.824510 0.824510 0.824510
0.790196 0.790196 0.790196
0.796568 0.796568 0.796568
0.799510 0.799510 0.799510
0.804902 0.804902 0.804902
0.812255 0.812255 0.812255
0.818628 0.818628 0.818628
0.836274 0.836274 0.836274
0.832353 0.832353 0.832353
0.827941 0.827941 0.827941
0.800000 0.800000 0.800000
0.800980 0.800980 0.800980
0.804412 0.804412 0.804412
0.808823 0.808823 0.808823
0.816666 0.816666 0.816666
0.827451 0.827451 0.827451
0.837255 0.837255 0.837255
0.838726 0.838726 0.838726
0.830883 0.830883 0.830883
0.804902 0.804902 0.804902
0.808333 0.808333 0.808333
0.812255 0.812255 0.812255
0.816666 0.816666 0.816666
0.822059 0.822059 0.822059
0.836764 0.836764 0.836764
0.845588 0.845588 0.845588
0.847549 0.847549 0.847549
0.839706 0.839706 0.839706
0.810294 0.810294 0.810294
0.812745 0.812745 0.812745
0.816176 0.816176 0.816176
0.824019 0.824019 0.824019
0.831863 0.831863 0.831863
0.839706 0.839706 0.839706
0.851961 0.851961 0.851961
0.854902 0.854902 0.854902
0.856863 0.856863 0.856863
0.817647 0.817647 0.817647
0.818628 0.818628 0.818628
0.820098 0.820098 0.820098
0.826961 0.826961 0.826961
0.835784 0.835784 0.835784
0.849020 0.849020 0.849020
0.860294 0.860294 0.860294
0.869608 0.869608 0.869608
0.879902 0.879902 0.879902
0.852451 0.852451 0.852451
0.855392 0.855392 0.855392
0.855392 0.855392 0.855392
0.851470 0.851470 0.851470
0.856373 0.856373 0.856373
0.856373 0.856373 0.856373
0.875981 0.875981 0.875981
0.887745 0.887745 0.887745
0.907353 0.907353 0.907353
0.890686 0.890686 0.890686
0.890686 0.890686 0.890686
0.893137 0.893137 0.893137
0.892647 0.892647 0.892647
0.896569 0.896569 0.896569
0.900000 0.900000 0.900000
0.903432 0.903432 0.903432
0.910784 0.910784 0.910784
0.933823 0.933823 0.933823
0.968627 0.968627 0.968627
0.971568 0.971568 0.971568
0.970098 0.970098 0.970098
0.972549 0.972549 0.972549
0.974510 0.974510 0.974510
0.975490 0.975490 0.975490
0.973530 0.973530 0.973530
0.965196 0.965196 0.965196
0.976471 0.976471 0.976471
0.901961 0.901961 0.901961
0.902451 0.902451 0.902451
0.902941 0.902941 0.902941
0.905882 0.905882 0.905882
0.913725 0.913725 0.913725
0.917647 0.917647 0.917647
0.922549 0.922549 0.922549
0.933333 0.933333 0.933333
0.933333 0.933333 0.933333
0.901961 0.901961 0.901961
0.902451 0.902451 0.902451
0.905882 0.905882 0.905882
0.909804 0.909804 0.909804
0.910294 0.910294 0.910294
0.917647 0.917647 0.917647
0.925490 0.925490 0.925490
0.936765 0.936765 0.936765
0.936765 0.936765 0.936765
0.905882 0.905882 0.905882
0.905882 0.905882 0.905882
0.905882 0.905882 0.905882
0.909804 0.909804 0.909804
0.913725 0.913725 0.913725
0.921569 0.921569 0.921569
0.928432 0.928432 0.928432
0.934313 0.934313 0.934313
0.936274 0.936274 0.936274
0.905882 0.905882 0.905882
0.909804 0.909804 0.909804
0.914215 0.914215 0.914215
0.913725 0.913725 0.913725
0.919608 0.919608 0.919608
0.925490 0.925490 0.925490
0.929412 0.929412 0.929412
0.941176 0.941176 0.941176
0.941176 0.941176 0.941176
0.913725 0.913725 0.913725
0.915686 0.915686 0.915686
0.915686 0.915686 0.915686
0.922059 0.922059 0.922059
0.923530 0.923530 0.923530
0.929412 0.929412 0.929412
0.937255 0.937255 0.937255
0.947059 0.947059 0.947059
0.947059 0.947059 0.947059
0.913725 0.913725 0.913725
0.913725 0.913725 0.913725
0.916176 0.916176 0.916176
0.924020 0.924020 0.924020
0.929902 0.929902 0.929902
0.934804 0.934804 0.934804
0.945098 0.945098 0.945098
0.950490 0.950490 0.950490
0.954412 0.954412 0.954412
0.930392 0.930392 0.930392
0.933333 0.933333 0.933333
0.932353 0.932353 0.932353
0.927942 0.927942 0.927942
0.933333 0.933333 0.933333
0.941176 0.941176 0.941176
0.950000 0.950000 0.950000
0.965196 0.965196 0.965196
0.965686 0.965686 0.965686
0.957353 0.957353 0.957353
0.957353 0.957353 0.957353
0.960784 0.960784 0.960784
0.958333 0.958333 0.958333
0.955882 0.955882 0.955882
0.961274 0.961274 0.961274
0.960784 0.960784 0.960784
0.972549 0.972549 0.972549
0.980392 0.980392 0.980392
0.984314 0.984314 0.984314
0.984314 0.984314 0.984314
0.984314 0.984314 0.984314
0.985784 0.985784 0.985784
0.986274 0.986274 0.986274
0.988235 0.988235 0.988235
0.989216 0.989216 0.989216
0.996078 0.996078 0.996078
1.000000 1.000000 1.000000
