Black-and-White/Polaroid/Polaroid 665 1 -- 65x.cube
TITLE "Polaroid 665 1 --"
LUT_3D_SIZE 65
DOMAIN_MIN 0.000000 0.000000 0.000000
DOMAIN_MAX 1.000000 1.000000 1.000000
0.000000 0.000000 0.000000
0.000000 0.000000 0.000000
0.003922 0.003922 0.003922
0.003922 0.003922 0.003922
0.003922 0.003922 0.003922
0.007843 0.007843 0.007843
0.011765 0.011765 0.011765
0.011765 0.011765 0.011765
0.019118 0.019118 0.019118
0.019608 0.019608 0.019608
0.024877 0.024877 0.024877
0.029718 0.029718 0.029718
0.034559 0.034559 0.034559
0.043137 0.043137 0.043137
0.047059 0.047059 0.047059
0.056924 0.056924 0.056924
0.065687 0.065687 0.065687
0.074387 0.074387 0.074387
0.086275 0.086275 0.086275
0.093750 0.093750 0.093750
0.104657 0.104657 0.104657
0.113419 0.113419 0.113419
0.122794 0.122794 0.122794
0.134865 0.134865 0.134865
0.143627 0.143627 0.143627
0.152390 0.152390 0.152390
0.165074 0.165074 0.165074
0.172549 0.172549 0.172549
0.180392 0.180392 0.180392
0.190564 0.190564 0.190564
0.196201 0.196201 0.196201
0.207843 0.207843 0.207843
0.215686 0.215686 0.215686
0.226409 0.226409 0.226409
0.231373 0.231373 0.231373
0.239216 0.239216 0.239216
0.248774 0.248774 0.248774
0.258824 0.258824 0.258824
0.270220 0.270220 0.270220
0.275061 0.275061 0.275061
0.287745 0.287745 0.287745
0.294118 0.294118 0.294118
0.305269 0.305269 0.305269
0.310110 0.310110 0.310110
0.321569 0.321569 0.321569
0.327635 0.327635 0.327635
0.333333 0.333333 0.333333
0.345098 0.345098 0.345098
0.350000 0.350000 0.350000
0.358762 0.358762 0.358762
0.366421 0.366421 0.366421
0.372549 0.372549 0.372549
0.381863 0.381863 0.381863
0.393811 0.393811 0.393811
0.402574 0.402574 0.402574
0.411336 0.411336 0.411336
0.420098 0.420098 0.420098
0.428860 0.428860 0.428860
0.441544 0.441544 0.441544
0.453554 0.453554 0.453554
0.462990 0.462990 0.462990
0.472916 0.472916 0.472916
0.488358 0.488358 0.488358
0.507047 0.507047 0.507047
0.533333 0.533333 0.533333
0.000919 0.000919 0.000919
0.003922 0.003922 0.003922
0.003922 0.003922 0.003922
0.003922 0.003922 0.003922
0.007843 0.007843 0.007843
0.012684 0.012684 0.012684
0.016360 0.016360 0.016360
0.018199 0.018199 0.018199
0.019608 0.019608 0.019608
0.024448 0.024448 0.024448
0.028799 0.028799 0.028799
0.035907 0.035907 0.035907
0.042402 0.042402 0.042402
0.042586 0.042586 0.042586
0.053186 0.053186 0.053186
0.061765 0.061765 0.061765
0.069546 0.069546 0.069546
0.079290 0.079290 0.079290
0.087991 0.087991 0.087991
0.099816 0.099816 0.099816
0.108272 0.108272 0.108272
0.114644 0.114644 0.114644
0.130025 0.130025 0.130025
0.135784 0.135784 0.135784
0.147549 0.147549 0.147549
0.156311 0.156311 0.156311
0.165074 0.165074 0.165074
0.173468 0.173468 0.173468
0.182598 0.182598 0.182598
0.192279 0.192279 0.192279
0.200123 0.200123 0.200123
0.208885 0.208885 0.208885
0.217647 0.217647 0.217647
0.226409 0.226409 0.226409
0.232169 0.232169 0.232169
0.240012 0.240012 0.240012
0.248774 0.248774 0.248774
0.255821 0.255821 0.255821
0.270220 0.270220 0.270220
0.278983 0.278983 0.278983
0.287745 0.287745 0.287745
0.296507 0.296507 0.296507
0.305269 0.305269 0.305269
0.310110 0.310110 0.310110
0.321569 0.321569 0.321569
0.327635 0.327635 0.327635
0.336397 0.336397 0.336397
0.341237 0.341237 0.341237
0.349939 0.349939 0.349939
0.361764 0.361764 0.361764
0.367524 0.367524 0.367524
0.376287 0.376287 0.376287
0.381127 0.381127 0.381127
0.393811 0.393811 0.393811
0.402574 0.402574 0.402574
0.414828 0.414828 0.414828
0.420098 0.420098 0.420098
0.431863 0.431863 0.431863
0.441544 0.441544 0.441544
0.453554 0.453554 0.453554
0.462990 0.462990 0.462990
0.475919 0.475919 0.475919
0.485355 0.485355 0.485355
0.507047 0.507047 0.507047
0.529412 0.529412 0.529412
0.005760 0.005760 0.005760
0.005760 0.005760 0.005760
0.005760 0.005760 0.005760
0.005760 0.005760 0.005760
0.011520 0.011520 0.011520
0.015012 0.015012 0.015012
0.017524 0.017524 0.017524
0.017524 0.017524 0.017524
0.026961 0.026961 0.026961
0.027880 0.027880 0.027880
0.033211 0.033211 0.033211
0.039828 0.039828 0.039828
0.042402 0.042402 0.042402
0.050980 0.050980 0.050980
0.058578 0.058578 0.058578
0.064583 0.064583 0.064583
0.072426 0.072426 0.072426
0.086152 0.086152 0.086152
0.091912 0.091912 0.091912
0.101654 0.101654 0.101654
0.112500 0.112500 0.112500
0.121263 0.121263 0.121263
0.131863 0.131863 0.131863
0.143014 0.143014 0.143014
0.149387 0.149387 0.149387
0.160233 0.160233 0.160233
0.168995 0.168995 0.168995
0.177758 0.177758 0.177758
0.184436 0.184436 0.184436
0.193198 0.193198 0.193198
0.198407 0.198407 0.198407
0.213603 0.213603 0.213603
0.217524 0.217524 0.217524
0.226409 0.226409 0.226409
0.235171 0.235171 0.235171
0.244975 0.244975 0.244975
0.250490 0.250490 0.250490
0.260662 0.260662 0.260662
0.270220 0.270220 0.270220
0.280821 0.280821 0.280821
0.287745 0.287745 0.287745
0.298346 0.298346 0.298346
0.303799 0.303799 0.303799
0.310417 0.310417 0.310417
0.320956 0.320956 0.320956
0.327635 0.327635 0.327635
0.336397 0.336397 0.336397
0.343076 0.343076 0.343076
0.353921 0.353921 0.353921
0.362745 0.362745 0.362745
0.367524 0.367524 0.367524
0.376287 0.376287 0.376287
0.385049 0.385049 0.385049
0.393811 0.393811 0.393811
0.405147 0.405147 0.405147
0.416912 0.416912 0.416912
0.418750 0.418750 0.418750
0.430270 0.430270 0.430270
0.443873 0.443873 0.443873
0.453554 0.453554 0.453554
0.461397 0.461397 0.461397
0.475000 0.475000 0.475000
0.488603 0.488603 0.488603
0.507047 0.507047 0.507047
0.529412 0.529412 0.529412
0.006679 0.006679 0.006679
0.013603 0.013603 0.013603
0.010601 0.010601 0.010601
0.010601 0.010601 0.010601
0.010601 0.010601 0.010601
0.012439 0.012439 0.012439
0.017279 0.017279 0.017279
0.022120 0.022120 0.022120
0.030883 0.030883 0.030883
0.034130 0.034130 0.034130
0.033885 0.033885 0.033885
0.041483 0.041483 0.041483
0.045895 0.045895 0.045895
0.053921 0.053921 0.053921
0.059927 0.059927 0.059927
0.071446 0.071446 0.071446
0.077451 0.077451 0.077451
0.090073 0.090073 0.090073
0.097733 0.097733 0.097733
0.108640 0.108640 0.108640
0.115196 0.115196 0.115196
0.128799 0.128799 0.128799
0.136703 0.136703 0.136703
0.142708 0.142708 0.142708
0.154228 0.154228 0.154228
0.162990 0.162990 0.162990
0.169362 0.169362 0.169362
0.180515 0.180515 0.180515
0.186520 0.186520 0.186520
0.195282 0.195282 0.195282
0.204045 0.204045 0.204045
0.209926 0.209926 0.209926
0.221569 0.221569 0.221569
0.229167 0.229167 0.229167
0.239093 0.239093 0.239093
0.243934 0.243934 0.243934
0.255454 0.255454 0.255454
0.261458 0.261458 0.261458
0.274142 0.274142 0.274142
0.281740 0.281740 0.281740
0.291667 0.291667 0.291667
0.297671 0.297671 0.297671
0.305269 0.305269 0.305269
0.314032 0.314032 0.314032
0.318873 0.318873 0.318873
0.330392 0.330392 0.330392
0.336397 0.336397 0.336397
0.345159 0.345159 0.345159
0.352941 0.352941 0.352941
0.358762 0.358762 0.358762
0.367524 0.367524 0.367524
0.381189 0.381189 0.381189
0.385049 0.385049 0.385049
0.393811 0.393811 0.393811
0.405331 0.405331 0.405331
0.411336 0.411336 0.411336
0.421262 0.421262 0.421262
0.431617 0.431617 0.431617
0.441115 0.441115 0.441115
0.450980 0.450980 0.450980
0.465747 0.465747 0.465747
0.471323 0.471323 0.471323
0.486520 0.486520 0.486520
0.504044 0.504044 0.504044
0.529412 0.529412 0.529412
0.011765 0.011765 0.011765
0.011765 0.011765 0.011765
0.009927 0.009927 0.009927
0.015441 0.015441 0.015441
0.015441 0.015441 0.015441
0.015686 0.015686 0.015686
0.017525 0.017525 0.017525
0.022120 0.022120 0.022120
0.030883 0.030883 0.030883
0.038971 0.038971 0.038971
0.040564 0.040564 0.040564
0.045404 0.045404 0.045404
0.053922 0.053922 0.053922
0.062500 0.062500 0.062500
0.070343 0.070343 0.070343
0.074632 0.074632 0.074632
0.085049 0.085049 0.085049
0.093812 0.093812 0.093812
0.105637 0.105637 0.105637
0.109436 0.109436 0.109436
0.120343 0.120343 0.120343
0.129167 0.129167 0.129167
0.137868 0.137868 0.137868
0.146630 0.146630 0.146630
0.155392 0.155392 0.155392
0.164154 0.164154 0.164154
0.180147 0.180147 0.180147
0.181679 0.181679 0.181679
0.191912 0.191912 0.191912
0.199203 0.199203 0.199203
0.207721 0.207721 0.207721
0.216483 0.216483 0.216483
0.221569 0.221569 0.221569
0.230331 0.230331 0.230331
0.235294 0.235294 0.235294
0.247610 0.247610 0.247610
0.256618 0.256618 0.256618
0.265380 0.265380 0.265380
0.277818 0.277818 0.277818
0.282905 0.282905 0.282905
0.291667 0.291667 0.291667
0.301716 0.301716 0.301716
0.305514 0.305514 0.305514
0.314032 0.314032 0.314032
0.322794 0.322794 0.322794
0.329779 0.329779 0.329779
0.340073 0.340073 0.340073
0.345159 0.345159 0.345159
0.350981 0.350981 0.350981
0.358762 0.358762 0.358762
0.367524 0.367524 0.367524
0.376287 0.376287 0.376287
0.388726 0.388726 0.388726
0.391789 0.391789 0.391789
0.402574 0.402574 0.402574
0.411336 0.411336 0.411336
0.423775 0.423775 0.423775
0.432782 0.432782 0.432782
0.441544 0.441544 0.441544
0.449877 0.449877 0.449877
0.462990 0.462990 0.462990
0.472916 0.472916 0.472916
0.488358 0.488358 0.488358
0.503370 0.503370 0.503370
0.529412 0.529412 0.529412
0.017034 0.017034 0.017034
0.020282 0.020282 0.020282
0.020282 0.020282 0.020282
0.023040 0.023040 0.023040
0.020282 0.020282 0.020282
0.020956 0.020956 0.020956
0.020956 0.020956 0.020956
0.026716 0.026716 0.026716
0.034804 0.034804 0.034804
0.036826 0.036826 0.036826
0.045159 0.045159 0.045159
0.054595 0.054595 0.054595
0.063358 0.063358 0.063358
0.068873 0.068873 0.068873
0.076961 0.076961 0.076961
0.083701 0.083701 0.083701
0.096752 0.096752 0.096752
0.102573 0.102573 0.102573
0.108088 0.108088 0.108088
0.120098 0.120098 0.120098
0.125613 0.125613 0.125613
0.137622 0.137622 0.137622
0.145711 0.145711 0.145711
0.154473 0.154473 0.154473
0.161458 0.161458 0.161458
0.168750 0.168750 0.168750
0.177513 0.177513 0.177513
0.189522 0.189522 0.189522
0.192831 0.192831 0.192831
0.203799 0.203799 0.203799
0.212439 0.212439 0.212439
0.217402 0.217402 0.217402
0.226164 0.226164 0.226164
0.234927 0.234927 0.234927
0.243014 0.243014 0.243014
0.249326 0.249326 0.249326
0.259007 0.259007 0.259007
0.267341 0.267341 0.267341
0.281618 0.281618 0.281618
0.283578 0.283578 0.283578
0.291544 0.291544 0.291544
0.301102 0.301102 0.301102
0.309865 0.309865 0.309865
0.315380 0.315380 0.315380
0.323469 0.323469 0.323469
0.328983 0.328983 0.328983
0.340318 0.340318 0.340318
0.345833 0.345833 0.345833
0.354595 0.354595 0.354595
0.364583 0.364583 0.364583
0.371446 0.371446 0.371446
0.373897 0.373897 0.373897
0.385723 0.385723 0.385723
0.394486 0.394486 0.394486
0.406495 0.406495 0.406495
0.415502 0.415502 0.415502
0.421446 0.421446 0.421446
0.430208 0.430208 0.430208
0.441299 0.441299 0.441299
0.448407 0.448407 0.448407
0.461091 0.461091 0.461091
0.469853 0.469853 0.469853
0.484620 0.484620 0.484620
0.498898 0.498898 0.498898
0.511274 0.511274 0.511274
0.027451 0.027451 0.027451
0.024448 0.024448 0.024448
0.027206 0.027206 0.027206
0.029044 0.029044 0.029044
0.029044 0.029044 0.029044
0.032292 0.032292 0.032292
0.029044 0.029044 0.029044
0.029044 0.029044 0.029044
0.035294 0.035294 0.035294
0.044730 0.044730 0.044730
0.052328 0.052328 0.052328
0.061091 0.061091 0.061091
0.071447 0.071447 0.071447
0.083946 0.083946 0.083946
0.088971 0.088971 0.088971
0.097733 0.097733 0.097733
0.103554 0.103554 0.103554
0.113664 0.113664 0.113664
0.120098 0.120098 0.120098
0.127083 0.127083 0.127083
0.133701 0.133701 0.133701
0.146079 0.146079 0.146079
0.154534 0.154534 0.154534
0.158395 0.158395 0.158395
0.166299 0.166299 0.166299
0.175919 0.175919 0.175919
0.185907 0.185907 0.185907
0.191115 0.191115 0.191115
0.198284 0.198284 0.198284
0.210172 0.210172 0.210172
0.217279 0.217279 0.217279
0.222243 0.222243 0.222243
0.229412 0.229412 0.229412
0.241054 0.241054 0.241054
0.246936 0.246936 0.246936
0.252573 0.252573 0.252573
0.266176 0.266176 0.266176
0.273223 0.273223 0.273223
0.281985 0.281985 0.281985
0.292340 0.292340 0.292340
0.299510 0.299510 0.299510
0.308272 0.308272 0.308272
0.314706 0.314706 0.314706
0.321875 0.321875 0.321875
0.328309 0.328309 0.328309
0.335478 0.335478 0.335478
0.341912 0.341912 0.341912
0.354534 0.354534 0.354534
0.357843 0.357843 0.357843
0.366605 0.366605 0.366605
0.375368 0.375368 0.375368
0.378064 0.378064 0.378064
0.390563 0.390563 0.390563
0.397733 0.397733 0.397733
0.408089 0.408089 0.408089
0.421078 0.421078 0.421078
0.427941 0.427941 0.427941
0.436520 0.436520 0.436520
0.444730 0.444730 0.444730
0.458150 0.458150 0.458150
0.467157 0.467157 0.467157
0.479166 0.479166 0.479166
0.494363 0.494363 0.494363
0.510969 0.510969 0.510969
0.537255 0.537255 0.537255
0.033885 0.033885 0.033885
0.034805 0.034805 0.034805
0.037807 0.037807 0.037807
0.037807 0.037807 0.037807
0.041482 0.041482 0.041482
0.037807 0.037807 0.037807
0.037807 0.037807 0.037807
0.037807 0.037807 0.037807
0.041728 0.041728 0.041728
0.043566 0.043566 0.043566
0.054902 0.054902 0.054902
0.063358 0.063358 0.063358
0.073775 0.073775 0.073775
0.085049 0.085049 0.085049
0.095221 0.095221 0.095221
0.106495 0.106495 0.106495
0.111335 0.111335 0.111335
0.120098 0.120098 0.120098
0.123285 0.123285 0.123285
0.133701 0.133701 0.133701
0.142463 0.142463 0.142463
0.151225 0.151225 0.151225
0.157476 0.157476 0.157476
0.164828 0.164828 0.164828
0.171078 0.171078 0.171078
0.182353 0.182353 0.182353
0.191115 0.191115 0.191115
0.198591 0.198591 0.198591
0.206434 0.206434 0.206434
0.210356 0.210356 0.210356
0.218320 0.218320 0.218320
0.227083 0.227083 0.227083
0.233333 0.233333 0.233333
0.242095 0.242095 0.242095
0.250857 0.250857 0.250857
0.259620 0.259620 0.259620
0.269179 0.269179 0.269179
0.277144 0.277144 0.277144
0.284498 0.284498 0.284498
0.294669 0.294669 0.294669
0.298468 0.298468 0.298468
0.309804 0.309804 0.309804
0.317034 0.317034 0.317034
0.328003 0.328003 0.328003
0.330637 0.330637 0.330637
0.336887 0.336887 0.336887
0.347304 0.347304 0.347304
0.355454 0.355454 0.355454
0.360784 0.360784 0.360784
0.366605 0.366605 0.366605
0.375368 0.375368 0.375368
0.384130 0.384130 0.384130
0.394669 0.394669 0.394669
0.399142 0.399142 0.399142
0.409069 0.409069 0.409069
0.419179 0.419179 0.419179
0.427941 0.427941 0.427941
0.439215 0.439215 0.439215
0.447794 0.447794 0.447794
0.457415 0.457415 0.457415
0.470833 0.470833 0.470833
0.480760 0.480760 0.480760
0.496201 0.496201 0.496201
0.510478 0.510478 0.510478
0.539767 0.539767 0.539767
0.042647 0.042647 0.042647
0.046569 0.046569 0.046569
0.046569 0.046569 0.046569
0.046569 0.046569 0.046569
0.046569 0.046569 0.046569
0.053248 0.053248 0.053248
0.052328 0.052328 0.052328
0.049080 0.049080 0.049080
0.050490 0.050490 0.050490
0.047488 0.047488 0.047488
0.058334 0.058334 0.058334
0.068443 0.068443 0.068443
0.077941 0.077941 0.077941
0.086643 0.086643 0.086643
0.098653 0.098653 0.098653
0.111335 0.111335 0.111335
0.120098 0.120098 0.120098
0.128861 0.128861 0.128861
0.134191 0.134191 0.134191
0.144241 0.144241 0.144241
0.151225 0.151225 0.151225
0.159987 0.159987 0.159987
0.162009 0.162009 0.162009
0.173591 0.173591 0.173591
0.178922 0.178922 0.178922
0.187745 0.187745 0.187745
0.199510 0.199510 0.199510
0.201287 0.201287 0.201287
0.207843 0.207843 0.207843
0.219118 0.219118 0.219118
0.223652 0.223652 0.223652
0.231924 0.231924 0.231924
0.237255 0.237255 0.237255
0.250000 0.250000 0.250000
0.254412 0.254412 0.254412
0.266177 0.266177 0.266177
0.272304 0.272304 0.272304
0.280576 0.280576 0.280576
0.289828 0.289828 0.289828
0.298039 0.298039 0.298039
0.306863 0.306863 0.306863
0.312194 0.312194 0.312194
0.317647 0.317647 0.317647
0.325796 0.325796 0.325796
0.334069 0.334069 0.334069
0.339399 0.339399 0.339399
0.348530 0.348530 0.348530
0.353064 0.353064 0.353064
0.364216 0.364216 0.364216
0.372059 0.372059 0.372059
0.374755 0.374755 0.374755
0.388051 0.388051 0.388051
0.392892 0.392892 0.392892
0.403922 0.403922 0.403922
0.412990 0.412990 0.412990
0.422671 0.422671 0.422671
0.427941 0.427941 0.427941
0.440625 0.440625 0.440625
0.449387 0.449387 0.449387
0.458150 0.458150 0.458150
0.470833 0.470833 0.470833
0.480760 0.480760 0.480760
0.496201 0.496201 0.496201
0.511888 0.511888 0.511888
0.537255 0.537255 0.537255
0.055760 0.055760 0.055760
0.060172 0.060172 0.060172
0.059682 0.059682 0.059682
0.059682 0.059682 0.059682
0.063174 0.063174 0.063174
0.062929 0.062929 0.062929
0.064767 0.064767 0.064767
0.063174 0.063174 0.063174
0.060172 0.060172 0.060172
0.063174 0.063174 0.063174
0.063603 0.063603 0.063603
0.072855 0.072855 0.072855
0.081312 0.081312 0.081312
0.090564 0.090564 0.090564
0.099571 0.099571 0.099571
0.115747 0.115747 0.115747
0.121017 0.121017 0.121017
0.133702 0.133702 0.133702
0.145956 0.145956 0.145956
0.153370 0.153370 0.153370
0.159988 0.159988 0.159988
0.168321 0.168321 0.168321
0.173591 0.173591 0.173591
0.180821 0.180821 0.180821
0.190686 0.190686 0.190686
0.189093 0.189093 0.189093
0.203922 0.203922 0.203922
0.205638 0.205638 0.205638
0.214400 0.214400 0.214400
0.225858 0.225858 0.225858
0.231373 0.231373 0.231373
0.236336 0.236336 0.236336
0.245098 0.245098 0.245098
0.251409 0.251409 0.251409
0.259129 0.259129 0.259129
0.267893 0.267893 0.267893
0.276655 0.276655 0.276655
0.288909 0.288909 0.288909
0.293750 0.293750 0.293750
0.298468 0.298468 0.298468
0.312317 0.312317 0.312317
0.316115 0.316115 0.316115
0.324877 0.324877 0.324877
0.329718 0.329718 0.329718
0.334559 0.334559 0.334559
0.339829 0.339829 0.339829
0.348162 0.348162 0.348162
0.356924 0.356924 0.356924
0.365686 0.365686 0.365686
0.370956 0.370956 0.370956
0.376900 0.376900 0.376900
0.391789 0.391789 0.391789
0.396813 0.396813 0.396813
0.402083 0.402083 0.402083
0.414338 0.414338 0.414338
0.423100 0.423100 0.423100
0.432292 0.432292 0.432292
0.445527 0.445527 0.445527
0.447488 0.447488 0.447488
0.462071 0.462071 0.462071
0.471078 0.471078 0.471078
0.484681 0.484681 0.484681
0.498285 0.498285 0.498285
0.515381 0.515381 0.515381
0.540747 0.540747 0.540747
0.068015 0.068015 0.068015
0.070282 0.070282 0.070282
0.077696 0.077696 0.077696
0.075858 0.075858 0.075858
0.075858 0.075858 0.075858
0.075858 0.075858 0.075858
0.079779 0.079779 0.079779
0.077206 0.077206 0.077206
0.077206 0.077206 0.077206
0.077635 0.077635 0.077635
0.081127 0.081127 0.081127
0.081127 0.081127 0.081127
0.086887 0.086887 0.086887
0.099387 0.099387 0.099387
0.106985 0.106985 0.106985
0.119669 0.119669 0.119669
0.128432 0.128432 0.128432
0.137194 0.137194 0.137194
0.149878 0.149878 0.149878
0.160417 0.160417 0.160417
0.168750 0.168750 0.168750
0.173591 0.173591 0.173591
0.181005 0.181005 0.181005
0.185662 0.185662 0.185662
0.194608 0.194608 0.194608
0.197426 0.197426 0.197426
0.208211 0.208211 0.208211
0.213052 0.213052 0.213052
0.218382 0.218382 0.218382
0.229780 0.229780 0.229780
0.232844 0.232844 0.232844
0.240258 0.240258 0.240258
0.250368 0.250368 0.250368
0.259130 0.259130 0.259130
0.264093 0.264093 0.264093
0.277206 0.277206 0.277206
0.279779 0.279779 0.279779
0.290258 0.290258 0.290258
0.297671 0.297671 0.297671
0.303064 0.303064 0.303064
0.312745 0.312745 0.312745
0.320037 0.320037 0.320037
0.322917 0.322917 0.322917
0.333333 0.333333 0.333333
0.338480 0.338480 0.338480
0.344669 0.344669 0.344669
0.352083 0.352083 0.352083
0.355637 0.355637 0.355637
0.368627 0.368627 0.368627
0.374449 0.374449 0.374449
0.381862 0.381862 0.381862
0.385662 0.385662 0.385662
0.396813 0.396813 0.396813
0.405576 0.405576 0.405576
0.414338 0.414338 0.414338
0.423100 0.423100 0.423100
0.431005 0.431005 0.431005
0.440625 0.440625 0.440625
0.451960 0.451960 0.451960
0.460724 0.460724 0.460724
0.472059 0.472059 0.472059
0.482169 0.482169 0.482169
0.497427 0.497427 0.497427
0.513113 0.513113 0.513113
0.534436 0.534436 0.534436
0.094118 0.094118 0.094118
0.093382 0.093382 0.093382
0.099081 0.099081 0.099081
0.097488 0.097488 0.097488
0.098652 0.098652 0.098652
0.098652 0.098652 0.098652
0.100980 0.100980 0.100980
0.098652 0.098652 0.098652
0.098652 0.098652 0.098652
0.099081 0.099081 0.099081
0.097733 0.097733 0.097733
0.100306 0.100306 0.100306
0.099387 0.099387 0.099387
0.110416 0.110416 0.110416
0.114828 0.114828 0.114828
0.125858 0.125858 0.125858
0.134620 0.134620 0.134620
0.145037 0.145037 0.145037
0.153799 0.153799 0.153799
0.162561 0.162561 0.162561
0.171323 0.171323 0.171323
0.185355 0.185355 0.185355
0.188848 0.188848 0.188848
0.195956 0.195956 0.195956
0.200797 0.200797 0.200797
0.209559 0.209559 0.209559
0.214400 0.214400 0.214400
0.224142 0.224142 0.224142
0.228003 0.228003 0.228003
0.231985 0.231985 0.231985
0.241606 0.241606 0.241606
0.250368 0.250368 0.250368
0.256863 0.256863 0.256863
0.263358 0.263358 0.263358
0.278186 0.278186 0.278186
0.281495 0.281495 0.281495
0.290258 0.290258 0.290258
0.296385 0.296385 0.296385
0.303860 0.303860 0.303860
0.308701 0.308701 0.308701
0.319914 0.319914 0.319914
0.326348 0.326348 0.326348
0.332720 0.332720 0.332720
0.337561 0.337561 0.337561
0.345098 0.345098 0.345098
0.351287 0.351287 0.351287
0.359926 0.359926 0.359926
0.366973 0.366973 0.366973
0.370588 0.370588 0.370588
0.378370 0.378370 0.378370
0.389951 0.389951 0.389951
0.390502 0.390502 0.390502
0.403922 0.403922 0.403922
0.409498 0.409498 0.409498
0.420527 0.420527 0.420527
0.429289 0.429289 0.429289
0.438051 0.438051 0.438051
0.448468 0.448468 0.448468
0.459559 0.459559 0.459559
0.469914 0.469914 0.469914
0.480944 0.480944 0.480944
0.492524 0.492524 0.492524
0.506311 0.506311 0.506311
0.522733 0.522733 0.522733
0.549020 0.549020 0.549020
0.105147 0.105147 0.105147
0.112254 0.112254 0.112254
0.110906 0.110906 0.110906
0.112254 0.112254 0.112254
0.112990 0.112990 0.112990
0.109742 0.109742 0.109742
0.112990 0.112990 0.112990
0.111580 0.111580 0.111580
0.112990 0.112990 0.112990
0.116176 0.116176 0.116176
0.116176 0.116176 0.116176
0.112990 0.112990 0.112990
0.116176 0.116176 0.116176
0.113174 0.113174 0.113174
0.121936 0.121936 0.121936
0.130698 0.130698 0.130698
0.137255 0.137255 0.137255
0.148223 0.148223 0.148223
0.160049 0.160049 0.160049
0.166483 0.166483 0.166483
0.175245 0.175245 0.175245
0.183579 0.183579 0.183579
0.195956 0.195956 0.195956
0.206372 0.206372 0.206372
0.211030 0.211030 0.211030
0.214215 0.214215 0.214215
0.222794 0.222794 0.222794
0.227451 0.227451 0.227451
0.237745 0.237745 0.237745
0.241605 0.241605 0.241605
0.250368 0.250368 0.250368
0.259130 0.259130 0.259130
0.264706 0.264706 0.264706
0.273775 0.273775 0.273775
0.282108 0.282108 0.282108
0.287071 0.287071 0.287071
0.297304 0.297304 0.297304
0.304411 0.304411 0.304411
0.309069 0.309069 0.309069
0.320098 0.320098 0.320098
0.323039 0.323039 0.323039
0.327880 0.327880 0.327880
0.335784 0.335784 0.335784
0.341482 0.341482 0.341482
0.346324 0.346324 0.346324
0.356128 0.356128 0.356128
0.363113 0.363113 0.363113
0.371814 0.371814 0.371814
0.373530 0.373530 0.373530
0.382292 0.382292 0.382292
0.389951 0.389951 0.389951
0.399632 0.399632 0.399632
0.407844 0.407844 0.407844
0.413419 0.413419 0.413419
0.422181 0.422181 0.422181
0.430944 0.430944 0.430944
0.442893 0.442893 0.442893
0.449878 0.449878 0.449878
0.459559 0.459559 0.459559
0.469853 0.469853 0.469853
0.482598 0.482598 0.482598
0.495282 0.495282 0.495282
0.509069 0.509069 0.509069
0.523652 0.523652 0.523652
0.552206 0.552206 0.552206
0.121753 0.121753 0.121753
0.124939 0.124939 0.124939
0.125858 0.125858 0.125858
0.125858 0.125858 0.125858
0.129535 0.129535 0.129535
0.130270 0.130270 0.130270
0.129596 0.129596 0.129596
0.129780 0.129780 0.129780
0.133028 0.133028 0.133028
0.129780 0.129780 0.129780
0.129780 0.129780 0.129780
0.131863 0.131863 0.131863
0.126593 0.126593 0.126593
0.129780 0.129780 0.129780
0.134620 0.134620 0.134620
0.131679 0.131679 0.131679
0.140564 0.140564 0.140564
0.152880 0.152880 0.152880
0.161826 0.161826 0.161826
0.170588 0.170588 0.170588
0.181863 0.181863 0.181863
0.187929 0.187929 0.187929
0.196875 0.196875 0.196875
0.209191 0.209191 0.209191
0.211949 0.211949 0.211949
0.223162 0.223162 0.223162
0.231557 0.231557 0.231557
0.236764 0.236764 0.236764
0.245526 0.245526 0.245526
0.251164 0.251164 0.251164
0.259130 0.259130 0.259130
0.266851 0.266851 0.266851
0.272732 0.272732 0.272732
0.281495 0.281495 0.281495
0.290073 0.290073 0.290073
0.294302 0.294302 0.294302
0.303676 0.303676 0.303676
0.308701 0.308701 0.308701
0.317279 0.317279 0.317279
