Black-and-White/Polaroid/Polaroid 672 65x.cube
TITLE "Polaroid 672"
LUT_3D_SIZE 9
DOMAIN_MIN 0.000000 0.000000 0.000000
DOMAIN_MAX 1.000000 1.000000 1.000000
0.000000 0.000000 0.000000
0.003922 0.003922 0.003922
0.019608 0.019608 0.019608
0.053431 0.053431 0.053431
0.107843 0.107843 0.107843
0.187255 0.187255 0.187255
0.288236 0.288236 0.288236
0.408823 0.408823 0.408823
0.549020 0.549020 0.549020
0.019118 0.019118 0.019118
0.034804 0.034804 0.034804
0.058824 0.058824 0.058824
0.100000 0.100000 0.100000
0.154902 0.154902 0.154902
0.236275 0.236275 0.236275
0.327451 0.327451 0.327451
0.444117 0.444117 0.444117
0.568627 0.568627 0.568627
0.065687 0.065687 0.065687
0.077451 0.077451 0.077451
0.104902 0.104902 0.104902
0.146569 0.146569 0.146569
0.200981 0.200981 0.200981
0.273529 0.273529 0.273529
0.368628 0.368628 0.368628
0.475490 0.475490 0.475490
0.592157 0.592157 0.592157
0.131863 0.131863 0.131863
0.142157 0.142157 0.142157
0.166176 0.166176 0.166176
0.202451 0.202451 0.202451
0.255392 0.255392 0.255392
0.329411 0.329411 0.329411
0.415197 0.415197 0.415197
0.516667 0.516667 0.516667
0.618137 0.618137 0.618137
0.217647 0.217647 0.217647
0.225490 0.225490 0.225490
0.245098 0.245098 0.245098
0.278922 0.278922 0.278922
0.329411 0.329411 0.329411
0.395588 0.395588 0.395588
0.474510 0.474510 0.474510
0.563235 0.563235 0.563235
0.650980 0.650980 0.650980
0.319118 0.319118 0.319118
0.324510 0.324510 0.324510
0.345588 0.345588 0.345588
0.376470 0.376470 0.376470
0.420588 0.420588 0.420588
0.477451 0.477451 0.477451
0.543627 0.543627 0.543627
0.613726 0.613726 0.613726
0.690196 0.690196 0.690196
0.437255 0.437255 0.437255
0.447548 0.447548 0.447548
0.459804 0.459804 0.459804
0.484314 0.484314 0.484314
0.519608 0.519608 0.519608
0.563235 0.563235 0.563235
0.612745 0.612745 0.612745
0.668138 0.668138 0.668138
0.737255 0.737255 0.737255
0.565686 0.565686 0.565686
0.569608 0.569608 0.569608
0.577451 0.577451 0.577451
0.596568 0.596568 0.596568
0.620098 0.620098 0.620098
0.649020 0.649020 0.649020
0.683333 0.683333 0.683333
0.730392 0.730392 0.730392
0.788725 0.788725 0.788725
0.694118 0.694118 0.694118
0.698039 0.698039 0.698039
0.704902 0.704902 0.704902
0.713726 0.713726 0.713726
0.729412 0.729412 0.729412
0.749020 0.749020 0.749020
0.776471 0.776471 0.776471
0.808333 0.808333 0.808333
0.862745 0.862745 0.862745
0.000000 0.000000 0.000000
0.019608 0.019608 0.019608
0.046079 0.046079 0.046079
0.084804 0.084804 0.084804
0.139215 0.139215 0.139215
0.221078 0.221078 0.221078
0.319608 0.319608 0.319608
0.439216 0.439216 0.439216
0.568627 0.568627 0.568627
0.034804 0.034804 0.034804
0.054412 0.054412 0.054412
0.084804 0.084804 0.084804
0.125000 0.125000 0.125000
0.181863 0.181863 0.181863
0.259804 0.259804 0.259804
0.353431 0.353431 0.353431
0.467157 0.467157 0.467157
0.584314 0.584314 0.584314
0.085295 0.085295 0.085295
0.097059 0.097059 0.097059
0.124510 0.124510 0.124510
0.166176 0.166176 0.166176
0.220588 0.220588 0.220588
0.294608 0.294608 0.294608
0.385784 0.385784 0.385784
0.493628 0.493628 0.493628
0.602942 0.602942 0.602942
0.147549 0.147549 0.147549
0.158823 0.158823 0.158823
0.182353 0.182353 0.182353
0.218137 0.218137 0.218137
0.271079 0.271079 0.271079
0.342157 0.342157 0.342157
0.428922 0.428922 0.428922
0.526470 0.526470 0.526470
0.625980 0.625980 0.625980
0.229412 0.229412 0.229412
0.239215 0.239215 0.239215
0.258823 0.258823 0.258823
0.290687 0.290687 0.290687
0.341176 0.341176 0.341176
0.407353 0.407353 0.407353
0.485294 0.485294 0.485294
0.569607 0.569607 0.569607
0.656863 0.656863 0.656863
0.330392 0.330392 0.330392
0.338235 0.338235 0.338235
0.355392 0.355392 0.355392
0.386765 0.386765 0.386765
0.430882 0.430882 0.430882
0.489216 0.489216 0.489216
0.551471 0.551471 0.551471
0.617647 0.617647 0.617647
0.695588 0.695588 0.695588
0.449020 0.449020 0.449020
0.452941 0.452941 0.452941
0.468628 0.468628 0.468628
0.495588 0.495588 0.495588
0.528431 0.528431 0.528431
0.571078 0.571078 0.571078
0.617647 0.617647 0.617647
0.672059 0.672059 0.672059
0.741176 0.741176 0.741176
0.573039 0.573039 0.573039
0.576961 0.576961 0.576961
0.585294 0.585294 0.585294
0.600980 0.600980 0.600980
0.624510 0.624510 0.624510
0.652941 0.652941 0.652941
0.690686 0.690686 0.690686
0.734313 0.734313 0.734313
0.792647 0.792647 0.792647
0.701961 0.701961 0.701961
0.701961 0.701961 0.701961
0.709804 0.709804 0.709804
0.717647 0.717647 0.717647
0.733333 0.733333 0.733333
0.752941 0.752941 0.752941
0.779902 0.779902 0.779902
0.812255 0.812255 0.812255
0.866667 0.866667 0.866667
0.007843 0.007843 0.007843
0.034804 0.034804 0.034804
0.065687 0.065687 0.065687
0.104902 0.104902 0.104902
0.165686 0.165686 0.165686
0.244608 0.244608 0.244608
0.341176 0.341176 0.341176
0.458824 0.458824 0.458824
0.583333 0.583333 0.583333
0.054412 0.054412 0.054412
0.077451 0.077451 0.077451
0.108333 0.108333 0.108333
0.150980 0.150980 0.150980
0.205882 0.205882 0.205882
0.283334 0.283334 0.283334
0.376471 0.376471 0.376471
0.486275 0.486275 0.486275
0.599510 0.599510 0.599510
0.107843 0.107843 0.107843
0.120589 0.120589 0.120589
0.148039 0.148039 0.148039
0.189706 0.189706 0.189706
0.244118 0.244118 0.244118
0.318137 0.318137 0.318137
0.407843 0.407843 0.407843
0.510784 0.510784 0.510784
0.615686 0.615686 0.615686
0.171569 0.171569 0.171569
0.182843 0.182843 0.182843
0.205392 0.205392 0.205392
0.244118 0.244118 0.244118
0.294608 0.294608 0.294608
0.364706 0.364706 0.364706
0.450490 0.450490 0.450490
0.544117 0.544117 0.544117
0.637745 0.637745 0.637745
0.254902 0.254902 0.254902
0.262745 0.262745 0.262745
0.283334 0.283334 0.283334
0.314706 0.314706 0.314706
0.364706 0.364706 0.364706
0.430882 0.430882 0.430882
0.504902 0.504902 0.504902
0.583824 0.583824 0.583824
0.668627 0.668627 0.668627
0.353432 0.353432 0.353432
0.359804 0.359804 0.359804
0.376961 0.376961 0.376961
0.407843 0.407843 0.407843
0.452941 0.452941 0.452941
0.507843 0.507843 0.507843
0.567157 0.567157 0.567157
0.630883 0.630883 0.630883
0.705882 0.705882 0.705882
0.468628 0.468628 0.468628
0.474510 0.474510 0.474510
0.488236 0.488236 0.488236
0.513235 0.513235 0.513235
0.545098 0.545098 0.545098
0.584314 0.584314 0.584314
0.629412 0.629412 0.629412
0.683824 0.683824 0.683824
0.750000 0.750000 0.750000
0.585294 0.585294 0.585294
0.589215 0.589215 0.589215
0.599510 0.599510 0.599510
0.615196 0.615196 0.615196
0.636274 0.636274 0.636274
0.664706 0.664706 0.664706
0.699510 0.699510 0.699510
0.742156 0.742156 0.742156
0.800490 0.800490 0.800490
0.709804 0.709804 0.709804
0.713726 0.713726 0.713726
0.717647 0.717647 0.717647
0.728431 0.728431 0.728431
0.741176 0.741176 0.741176
0.760784 0.760784 0.760784
0.787255 0.787255 0.787255
0.820098 0.820098 0.820098
0.874510 0.874510 0.874510
0.019608 0.019608 0.019608
0.057353 0.057353 0.057353
0.089216 0.089216 0.089216
0.131863 0.131863 0.131863
0.192647 0.192647 0.192647
0.272059 0.272059 0.272059
0.366667 0.366667 0.366667
0.481372 0.481372 0.481372
0.598529 0.598529 0.598529
0.080882 0.080882 0.080882
0.103921 0.103921 0.103921
0.134804 0.134804 0.134804
0.178431 0.178431 0.178431
0.235785 0.235785 0.235785
0.310785 0.310785 0.310785
0.401961 0.401961 0.401961
0.506862 0.506862 0.506862
0.615196 0.615196 0.615196
0.136274 0.136274 0.136274
0.150490 0.150490 0.150490
0.179412 0.179412 0.179412
0.218137 0.218137 0.218137
0.273039 0.273039 0.273039
0.345588 0.345588 0.345588
0.434804 0.434804 0.434804
0.532353 0.532353 0.532353
0.630392 0.630392 0.630392
0.202451 0.202451 0.202451
0.213725 0.213725 0.213725
0.236765 0.236765 0.236765
0.271569 0.271569 0.271569
0.325981 0.325981 0.325981
0.394608 0.394608 0.394608
0.475000 0.475000 0.475000
0.563725 0.563725 0.563725
0.653431 0.653431 0.653431
0.286274 0.286274 0.286274
0.294608 0.294608 0.294608
0.314216 0.314216 0.314216
0.345588 0.345588 0.345588
0.396079 0.396079 0.396079
0.458333 0.458333 0.458333
0.528431 0.528431 0.528431
0.602451 0.602451 0.602451
0.682353 0.682353 0.682353
0.384314 0.384314 0.384314
0.392157 0.392157 0.392157
0.407843 0.407843 0.407843
0.439216 0.439216 0.439216
0.481863 0.481863 0.481863
0.532353 0.532353 0.532353
0.586765 0.586765 0.586765
0.646078 0.646078 0.646078
0.719118 0.719118 0.719118
0.497549 0.497549 0.497549
0.503432 0.503432 0.503432
0.515687 0.515687 0.515687
0.537745 0.537745 0.537745
0.567647 0.567647 0.567647
0.603431 0.603431 0.603431
0.646568 0.646568 0.646568
0.697059 0.697059 0.697059
0.761764 0.761764 0.761764
0.606863 0.606863 0.606863
0.610784 0.610784 0.610784
0.618627 0.618627 0.618627
0.632353 0.632353 0.632353
0.653431 0.653431 0.653431
0.680392 0.680392 0.680392
0.712745 0.712745 0.712745
0.753921 0.753921 0.753921
0.812255 0.812255 0.812255
0.725490 0.725490 0.725490
0.727941 0.727941 0.727941
0.733333 0.733333 0.733333
0.741176 0.741176 0.741176
0.755392 0.755392 0.755392
0.774020 0.774020 0.774020
0.797058 0.797058 0.797058
0.831373 0.831373 0.831373
0.882353 0.882353 0.882353
0.043137 0.043137 0.043137
0.085785 0.085785 0.085785
0.120588 0.120588 0.120588
0.167157 0.167157 0.167157
0.227451 0.227451 0.227451
0.303431 0.303431 0.303431
0.398039 0.398039 0.398039
0.506862 0.506862 0.506862
0.615686 0.615686 0.615686
0.115196 0.115196 0.115196
0.138725 0.138725 0.138725
0.171078 0.171078 0.171078
0.213725 0.213725 0.213725
0.270589 0.270589 0.270589
0.344608 0.344608 0.344608
0.434314 0.434314 0.434314
0.531863 0.531863 0.531863
0.631373 0.631373 0.631373
0.175490 0.175490 0.175490
0.189216 0.189216 0.189216
0.216667 0.216667 0.216667
0.255392 0.255392 0.255392
0.309804 0.309804 0.309804
0.380883 0.380883 0.380883
0.465686 0.465686 0.465686
0.556373 0.556373 0.556373
0.647059 0.647059 0.647059
0.243628 0.243628 0.243628
0.253431 0.253431 0.253431
0.275980 0.275980 0.275980
0.310785 0.310785 0.310785
0.363235 0.363235 0.363235
0.430882 0.430882 0.430882
0.507353 0.507353 0.507353
0.586765 0.586765 0.586765
0.669118 0.669118 0.669118
0.327451 0.327451 0.327451
0.336764 0.336764 0.336764
0.355882 0.355882 0.355882
0.386765 0.386765 0.386765
0.435295 0.435295 0.435295
0.493627 0.493627 0.493627
0.555882 0.555882 0.555882
0.622059 0.622059 0.622059
0.700000 0.700000 0.700000
0.426470 0.426470 0.426470
0.433824 0.433824 0.433824
0.449020 0.449020 0.449020
0.477941 0.477941 0.477941
0.515196 0.515196 0.515196
0.559804 0.559804 0.559804
0.610294 0.610294 0.610294
0.665196 0.665196 0.665196
0.734804 0.734804 0.734804
0.531373 0.531373 0.531373
0.536274 0.536274 0.536274
0.548039 0.548039 0.548039
0.567647 0.567647 0.567647
0.595098 0.595098 0.595098
0.626470 0.626470 0.626470
0.665686 0.665686 0.665686
0.714706 0.714706 0.714706
0.774510 0.774510 0.774510
0.629902 0.629902 0.629902
0.633824 0.633824 0.633824
0.641667 0.641667 0.641667
0.653921 0.653921 0.653921
0.673039 0.673039 0.673039
0.698529 0.698529 0.698529
0.729902 0.729902 0.729902
0.769607 0.769607 0.769607
0.824019 0.824019 0.824019
0.743137 0.743137 0.743137
0.745098 0.745098 0.745098
0.749020 0.749020 0.749020
0.758823 0.758823 0.758823
0.770588 0.770588 0.770588
0.788235 0.788235 0.788235
0.811765 0.811765 0.811765
0.843627 0.843627 0.843627
0.896079 0.896079 0.896079
0.079902 0.079902 0.079902
0.128922 0.128922 0.128922
0.165196 0.165196 0.165196
0.211765 0.211765 0.211765
0.268628 0.268628 0.268628
0.344117 0.344117 0.344117
0.433824 0.433824 0.433824
0.535294 0.535294 0.535294
0.635294 0.635294 0.635294
0.161765 0.161765 0.161765
0.185294 0.185294 0.185294
0.216176 0.216176 0.216176
0.258824 0.258824 0.258824
0.315196 0.315196 0.315196
0.387255 0.387255 0.387255
0.473039 0.473039 0.473039
0.561764 0.561764 0.561764
0.652451 0.652451 0.652451
0.224020 0.224020 0.224020
0.238726 0.238726 0.238726
0.265686 0.265686 0.265686
0.303431 0.303431 0.303431
0.356372 0.356372 0.356372
0.425490 0.425490 0.425490
0.504412 0.504412 0.504412
0.583824 0.583824 0.583824
0.668137 0.668137 0.668137
0.294118 0.294118 0.294118
0.303921 0.303921 0.303921
0.325490 0.325490 0.325490
0.360784 0.360784 0.360784
0.411274 0.411274 0.411274
0.474510 0.474510 0.474510
0.540686 0.540686 0.540686
0.612255 0.612255 0.612255
0.690196 0.690196 0.690196
0.379902 0.379902 0.379902
0.385784 0.385784 0.385784
0.404902 0.404902 0.404902
0.435785 0.435785 0.435785
0.479902 0.479902 0.479902
0.532353 0.532353 0.532353
0.587255 0.587255 0.587255
0.647549 0.647549 0.647549
0.717647 0.717647 0.717647
0.473529 0.473529 0.473529
0.480882 0.480882 0.480882
0.493137 0.493137 0.493137
0.519118 0.519118 0.519118
0.552451 0.552451 0.552451
0.591176 0.591176 0.591176
0.636765 0.636765 0.636765
0.688236 0.688236 0.688236
0.750490 0.750490 0.750490
0.567157 0.567157 0.567157
0.571078 0.571078 0.571078
0.582843 0.582843 0.582843
0.599510 0.599510 0.599510
0.622549 0.622549 0.622549
0.653431 0.653431 0.653431
0.688726 0.688726 0.688726
0.734314 0.734314 0.734314
0.789706 0.789706 0.789706
0.656863 0.656863 0.656863
0.660785 0.660785 0.660785
0.667647 0.667647 0.667647
0.679412 0.679412 0.679412
0.696569 0.696569 0.696569
0.719608 0.719608 0.719608
0.749510 0.749510 0.749510
0.785294 0.785294 0.785294
0.839706 0.839706 0.839706
0.764706 0.764706 0.764706
0.764706 0.764706 0.764706
0.770098 0.770098 0.770098
0.777941 0.777941 0.777941
0.790196 0.790196 0.790196
0.807843 0.807843 0.807843
0.828432 0.828432 0.828432
0.859314 0.859314 0.859314
0.909804 0.909804 0.909804
0.134314 0.134314 0.134314
0.184804 0.184804 0.184804
0.220588 0.220588 0.220588
0.263726 0.263726 0.263726
0.320588 0.320588 0.320588
0.394608 0.394608 0.394608
0.480392 0.480392 0.480392
0.569607 0.569607 0.569607
0.658824 0.658824 0.658824
0.220098 0.220098 0.220098
0.243627 0.243627 0.243627
0.275000 0.275000 0.275000
0.315686 0.315686 0.315686
0.367647 0.367647 0.367647
0.437745 0.437745 0.437745
0.515687 0.515687 0.515687
0.593137 0.593137 0.593137
0.675490 0.675490 0.675490
0.282353 0.282353 0.282353
0.298529 0.298529 0.298529
0.323529 0.323529 0.323529
0.360294 0.360294 0.360294
0.410784 0.410784 0.410784
0.475980 0.475980 0.475980
0.543137 0.543137 0.543137
0.613236 0.613236 0.613236
0.691176 0.691176 0.691176
0.353922 0.353922 0.353922
0.364216 0.364216 0.364216
0.386764 0.386764 0.386764
0.419117 0.419117 0.419117
0.466177 0.466177 0.466177
0.520098 0.520098 0.520098
0.578432 0.578432 0.578432
0.640686 0.640686 0.640686
0.712255 0.712255 0.712255
0.438235 0.438235 0.438235
0.446078 0.446078 0.446078
0.461765 0.461765 0.461765
0.490687 0.490687 0.490687
0.528431 0.528431 0.528431
0.572059 0.572059 0.572059
0.618627 0.618627 0.618627
0.675000 0.675000 0.675000
0.739215 0.739215 0.739215
0.524510 0.524510 0.524510
0.531863 0.531863 0.531863
0.543627 0.543627 0.543627
0.563235 0.563235 0.563235
0.591666 0.591666 0.591666
0.625980 0.625980 0.625980
0.665196 0.665196 0.665196
0.711765 0.711765 0.711765
0.772549 0.772549 0.772549
0.605883 0.605883 0.605883
0.609804 0.609804 0.609804
0.620588 0.620588 0.620588
0.634804 0.634804 0.634804
0.656863 0.656863 0.656863
0.683334 0.683334 0.683334
0.715687 0.715687 0.715687
0.754412 0.754412 0.754412
0.808823 0.808823 0.808823
0.687745 0.687745 0.687745
0.691667 0.691667 0.691667
0.698529 0.698529 0.698529
0.708824 0.708824 0.708824
0.724020 0.724020 0.724020
0.745588 0.745588 0.745588
0.770098 0.770098 0.770098
0.805393 0.805393 0.805393
0.855883 0.855883 0.855883
0.788235 0.788235 0.788235
0.789216 0.789216 0.789216
0.795098 0.795098 0.795098
0.802451 0.802451 0.802451
0.812745 0.812745 0.812745
0.828432 0.828432 0.828432
0.848039 0.848039 0.848039
0.878431 0.878431 0.878431
0.929412 0.929412 0.929412
0.204412 0.204412 0.204412
0.251470 0.251470 0.251470
0.285785 0.285785 0.285785
0.328431 0.328431 0.328431
0.382843 0.382843 0.382843
0.452941 0.452941 0.452941
0.526961 0.526961 0.526961
0.604412 0.604412 0.604412
0.686275 0.686275 0.686275
0.290196 0.290196 0.290196
0.313726 0.313726 0.313726
0.340686 0.340686 0.340686
0.382843 0.382843 0.382843
0.433333 0.433333 0.433333
0.495588 0.495588 0.495588
0.558334 0.558334 0.558334
0.627451 0.627451 0.627451
0.701961 0.701961 0.701961
0.356373 0.356373 0.356373
0.368137 0.368137 0.368137
0.391667 0.391667 0.391667
0.429412 0.429412 0.429412
0.475980 0.475980 0.475980
0.529901 0.529901 0.529901
0.585785 0.585785 0.585785
0.647549 0.647549 0.647549
0.717647 0.717647 0.717647
0.426470 0.426470 0.426470
0.434314 0.434314 0.434314
0.454412 0.454412 0.454412
0.485294 0.485294 0.485294
0.524020 0.524020 0.524020
0.571569 0.571569 0.571569
0.617157 0.617157 0.617157
0.673529 0.673529 0.673529
0.737745 0.737745 0.737745
0.504412 0.504412 0.504412
0.512255 0.512255 0.512255
0.526961 0.526961 0.526961
0.547549 0.547549 0.547549
0.578922 0.578922 0.578922
0.617647 0.617647 0.617647
0.656373 0.656373 0.656373
0.704412 0.704412 0.704412
0.764706 0.764706 0.764706
0.581863 0.581863 0.581863
0.586275 0.586275 0.586275
0.594118 0.594118 0.594118
0.613726 0.613726 0.613726
0.637255 0.637255 0.637255
0.664706 0.664706 0.664706
0.699510 0.699510 0.699510
0.742156 0.742156 0.742156
0.796568 0.796568 0.796568
0.652451 0.652451 0.652451
0.656373 0.656373 0.656373
0.664216 0.664216 0.664216
0.675980 0.675980 0.675980
0.695098 0.695098 0.695098
0.719118 0.719118 0.719118
0.746569 0.746569 0.746569
0.781863 0.781863 0.781863
0.832353 0.832353 0.832353
0.726470 0.726470 0.726470
0.729902 0.729902 0.729902
0.734313 0.734313 0.734313
0.744117 0.744117 0.744117
0.757843 0.757843 0.757843
0.776961 0.776961 0.776961
0.800490 0.800490 0.800490
0.831863 0.831863 0.831863
0.878921 0.878921 0.878921
0.819608 0.819608 0.819608
0.820098 0.820098 0.820098
0.824019 0.824019 0.824019
0.831863 0.831863 0.831863
0.843137 0.843137 0.843137
0.855392 0.855392 0.855392
0.875000 0.875000 0.875000
0.902451 0.902451 0.902451
0.952941 0.952941 0.952941
0.286275 0.286275 0.286275
0.332843 0.332843 0.332843
0.364706 0.364706 0.364706
0.406373 0.406373 0.406373
0.456863 0.456863 0.456863
0.515196 0.515196 0.515196
0.577451 0.577451 0.577451
0.639706 0.639706 0.639706
0.713726 0.713726 0.713726
0.375981 0.375981 0.375981
0.395588 0.395588 0.395588
0.422549 0.422549 0.422549
0.462255 0.462255 0.462255
0.503922 0.503922 0.503922
0.554412 0.554412 0.554412
0.611275 0.611275 0.611275
0.663235 0.663235 0.663235
0.729412 0.729412 0.729412
0.442157 0.442157 0.442157
0.454412 0.454412 0.454412
0.476470 0.476470 0.476470
0.504412 0.504412 0.504412
0.543137 0.543137 0.543137
0.585784 0.585784 0.585784
0.632353 0.632353 0.632353
0.689216 0.689216 0.689216
0.748040 0.748040 0.748040
0.508333 0.508333 0.508333
0.516177 0.516177 0.516177
0.531863 0.531863 0.531863
0.555392 0.555392 0.555392
0.586275 0.586275 0.586275
0.625980 0.625980 0.625980
0.663725 0.663725 0.663725
0.710294 0.710294 0.710294
0.768627 0.768627 0.768627
0.578431 0.578431 0.578431
0.582353 0.582353 0.582353
0.594118 0.594118 0.594118
0.609804 0.609804 0.609804
0.637255 0.637255 0.637255
0.666176 0.666176 0.666176
0.699019 0.699019 0.699019
0.741666 0.741666 0.741666
0.794118 0.794118 0.794118
0.640686 0.640686 0.640686
0.644608 0.644608 0.644608
0.652451 0.652451 0.652451
0.668137 0.668137 0.668137
0.687745 0.687745 0.687745
0.711275 0.711275 0.711275
0.742647 0.742647 0.742647
0.776961 0.776961 0.776961
0.825000 0.825000 0.825000
0.706863 0.706863 0.706863
0.710784 0.710784 0.710784
0.714706 0.714706 0.714706
0.726471 0.726471 0.726471
0.742156 0.742156 0.742156
0.761764 0.761764 0.761764
0.786275 0.786275 0.786275
0.820588 0.820588 0.820588
0.863726 0.863726 0.863726
0.776961 0.776961 0.776961
0.776961 0.776961 0.776961
0.780882 0.780882 0.780882
0.791176 0.791176 0.791176
0.805883 0.805883 0.805883
0.820098 0.820098 0.820098
0.839706 0.839706 0.839706
0.867157 0.867157 0.867157
0.913725 0.913725 0.913725
0.866667 0.866667 0.866667
0.866667 0.866667 0.866667
0.870588 0.870588 0.870588
0.878431 0.878431 0.878431
0.890196 0.890196 0.890196
0.901961 0.901961 0.901961
0.921569 0.921569 0.921569
0.945588 0.945588 0.945588
1.000000 1.000000 1.000000
