Black-and-White/Polaroid/Polaroid 664 65x.cube
TITLE "Polaroid 664"
LUT_3D_SIZE 65
DOMAIN_MIN 0.000000 0.000000 0.000000
DOMAIN_MAX 1.000000 1.000000 1.000000
0.000000 0.000000 0.000000
0.000000 0.000000 0.000000
0.000000 0.000000 0.000000
0.000000 0.000000 0.000000
0.003922 0.003922 0.003922
0.003922 0.003922 0.003922
0.005515 0.005515 0.005515
0.007843 0.007843 0.007843
0.011275 0.011275 0.011275
0.012194 0.012194 0.012194
0.015686 0.015686 0.015686
0.019608 0.019608 0.019608
0.023529 0.023529 0.023529
0.027451 0.027451 0.027451
0.032476 0.032476 0.032476
0.039216 0.039216 0.039216
0.043137 0.043137 0.043137
0.050919 0.050919 0.050919
0.059682 0.059682 0.059682
0.068444 0.068444 0.068444
0.081127 0.081127 0.081127
0.097426 0.097426 0.097426
0.118872 0.118872 0.118872
0.141851 0.141851 0.141851
0.168137 0.168137 0.168137
0.190503 0.190503 0.190503
0.212500 0.212500 0.212500
0.231311 0.231311 0.231311
0.251471 0.251471 0.251471
0.272120 0.272120 0.272120
0.294363 0.294363 0.294363
0.316851 0.316851 0.316851
0.343137 0.343137 0.343137
0.372304 0.372304 0.372304
0.395833 0.395833 0.395833
0.417279 0.417279 0.417279
0.434804 0.434804 0.434804
0.449693 0.449693 0.449693
0.462377 0.462377 0.462377
0.475061 0.475061 0.475061
0.487745 0.487745 0.487745
0.496507 0.496507 0.496507
0.505269 0.505269 0.505269
0.514032 0.514032 0.514032
0.522794 0.522794 0.522794
0.531556 0.531556 0.531556
0.540318 0.540318 0.540318
0.549081 0.549081 0.549081
0.557843 0.557843 0.557843
0.564706 0.564706 0.564706
0.571446 0.571446 0.571446
0.580208 0.580208 0.580208
0.588235 0.588235 0.588235
0.593811 0.593811 0.593811
0.602574 0.602574 0.602574
0.607843 0.607843 0.607843
0.616176 0.616176 0.616176
0.624938 0.624938 0.624938
0.633701 0.633701 0.633701
0.638542 0.638542 0.638542
0.647304 0.647304 0.647304
0.656066 0.656066 0.656066
0.664829 0.664829 0.664829
0.673591 0.673591 0.673591
0.682353 0.682353 0.682353
0.000000 0.000000 0.000000
0.000000 0.000000 0.000000
0.001838 0.001838 0.001838
0.003922 0.003922 0.003922
0.003922 0.003922 0.003922
0.004596 0.004596 0.004596
0.007843 0.007843 0.007843
0.008762 0.008762 0.008762
0.011765 0.011765 0.011765
0.016605 0.016605 0.016605
0.019608 0.019608 0.019608
0.023529 0.023529 0.023529
0.024448 0.024448 0.024448
0.031557 0.031557 0.031557
0.037316 0.037316 0.037316
0.045159 0.045159 0.045159
0.047978 0.047978 0.047978
0.058763 0.058763 0.058763
0.068444 0.068444 0.068444
0.077206 0.077206 0.077206
0.092586 0.092586 0.092586
0.113726 0.113726 0.113726
0.132169 0.132169 0.132169
0.158456 0.158456 0.158456
0.179289 0.179289 0.179289
0.203737 0.203737 0.203737
0.225183 0.225183 0.225183
0.242708 0.242708 0.242708
0.265441 0.265441 0.265441
0.281680 0.281680 0.281680
0.303248 0.303248 0.303248
0.329534 0.329534 0.329534
0.355821 0.355821 0.355821
0.382107 0.382107 0.382107
0.404595 0.404595 0.404595
0.425122 0.425122 0.425122
0.442647 0.442647 0.442647
0.456250 0.456250 0.456250
0.469853 0.469853 0.469853
0.478983 0.478983 0.478983
0.488665 0.488665 0.488665
0.500429 0.500429 0.500429
0.509191 0.509191 0.509191
0.517953 0.517953 0.517953
0.526716 0.526716 0.526716
0.535478 0.535478 0.535478
0.544240 0.544240 0.544240
0.549081 0.549081 0.549081
0.557843 0.557843 0.557843
0.566605 0.566605 0.566605
0.575368 0.575368 0.575368
0.580208 0.580208 0.580208
0.588970 0.588970 0.588970
0.596078 0.596078 0.596078
0.602574 0.602574 0.602574
0.611336 0.611336 0.611336
0.616176 0.616176 0.616176
0.624938 0.624938 0.624938
0.633701 0.633701 0.633701
0.642463 0.642463 0.642463
0.647304 0.647304 0.647304
0.656066 0.656066 0.656066
0.664829 0.664829 0.664829
0.673591 0.673591 0.673591
0.682353 0.682353 0.682353
0.000000 0.000000 0.000000
0.001838 0.001838 0.001838
0.003922 0.003922 0.003922
0.003922 0.003922 0.003922
0.003922 0.003922 0.003922
0.007843 0.007843 0.007843
0.009436 0.009436 0.009436
0.011765 0.011765 0.011765
0.013603 0.013603 0.013603
0.019608 0.019608 0.019608
0.020956 0.020956 0.020956
0.025796 0.025796 0.025796
0.030638 0.030638 0.030638
0.037132 0.037132 0.037132
0.040319 0.040319 0.040319
0.049081 0.049081 0.049081
0.052818 0.052818 0.052818
0.062684 0.062684 0.062684
0.073284 0.073284 0.073284
0.085968 0.085968 0.085968
0.101348 0.101348 0.101348
0.122488 0.122488 0.122488
0.144240 0.144240 0.144240
0.167218 0.167218 0.167218
0.191667 0.191667 0.191667
0.214032 0.214032 0.214032
0.232108 0.232108 0.232108
0.251471 0.251471 0.251471
0.268995 0.268995 0.268995
0.291728 0.291728 0.291728
0.310172 0.310172 0.310172
0.336458 0.336458 0.336458
0.364706 0.364706 0.364706
0.387990 0.387990 0.387990
0.409436 0.409436 0.409436
0.429044 0.429044 0.429044
0.442647 0.442647 0.442647
0.457537 0.457537 0.457537
0.470220 0.470220 0.470220
0.479534 0.479534 0.479534
0.491667 0.491667 0.491667
0.500429 0.500429 0.500429
0.512500 0.512500 0.512500
0.519791 0.519791 0.519791
0.526716 0.526716 0.526716
0.535478 0.535478 0.535478
0.544240 0.544240 0.544240
0.553002 0.553002 0.553002
0.557843 0.557843 0.557843
0.566605 0.566605 0.566605
0.575368 0.575368 0.575368
0.580392 0.580392 0.580392
0.588970 0.588970 0.588970
0.597733 0.597733 0.597733
0.602574 0.602574 0.602574
0.611336 0.611336 0.611336
0.621446 0.621446 0.621446
0.624938 0.624938 0.624938
0.633701 0.633701 0.633701
0.642463 0.642463 0.642463
0.652818 0.652818 0.652818
0.656066 0.656066 0.656066
0.664829 0.664829 0.664829
0.673591 0.673591 0.673591
0.682353 0.682353 0.682353
0.000000 0.000000 0.000000
0.000919 0.000919 0.000919
0.003922 0.003922 0.003922
0.003922 0.003922 0.003922
0.006679 0.006679 0.006679
0.010601 0.010601 0.010601
0.011765 0.011765 0.011765
0.014522 0.014522 0.014522
0.015686 0.015686 0.015686
0.022365 0.022365 0.022365
0.023529 0.023529 0.023529
0.027451 0.027451 0.027451
0.030209 0.030209 0.030209
0.035478 0.035478 0.035478
0.045895 0.045895 0.045895
0.049081 0.049081 0.049081
0.057844 0.057844 0.057844
0.066606 0.066606 0.066606
0.078125 0.078125 0.078125
0.090809 0.090809 0.090809
0.106127 0.106127 0.106127
0.127635 0.127635 0.127635
0.153002 0.153002 0.153002
0.175980 0.175980 0.175980
0.195588 0.195588 0.195588
0.217341 0.217341 0.217341
0.238787 0.238787 0.238787
0.256311 0.256311 0.256311
0.273284 0.273284 0.273284
0.295282 0.295282 0.295282
0.316851 0.316851 0.316851
0.343137 0.343137 0.343137
0.369424 0.369424 0.369424
0.392831 0.392831 0.392831
0.414277 0.414277 0.414277
0.434927 0.434927 0.434927
0.446568 0.446568 0.446568
0.460172 0.460172 0.460172
0.473775 0.473775 0.473775
0.482905 0.482905 0.482905
0.494424 0.494424 0.494424
0.504350 0.504350 0.504350
0.513113 0.513113 0.513113
0.521875 0.521875 0.521875
0.530637 0.530637 0.530637
0.540012 0.540012 0.540012
0.544240 0.544240 0.544240
0.553002 0.553002 0.553002
0.561764 0.561764 0.561764
0.566605 0.566605 0.566605
0.575368 0.575368 0.575368
0.584130 0.584130 0.584130
0.588970 0.588970 0.588970
0.597733 0.597733 0.597733
0.603922 0.603922 0.603922
0.611336 0.611336 0.611336
0.620098 0.620098 0.620098
0.624938 0.624938 0.624938
0.633701 0.633701 0.633701
0.642463 0.642463 0.642463
0.651225 0.651225 0.651225
0.661581 0.661581 0.661581
0.664829 0.664829 0.664829
0.673591 0.673591 0.673591
0.682353 0.682353 0.682353
0.003677 0.003677 0.003677
0.003922 0.003922 0.003922
0.003922 0.003922 0.003922
0.006679 0.006679 0.006679
0.007843 0.007843 0.007843
0.008517 0.008517 0.008517
0.011765 0.011765 0.011765
0.014277 0.014277 0.014277
0.019118 0.019118 0.019118
0.020037 0.020037 0.020037
0.024877 0.024877 0.024877
0.031128 0.031128 0.031128
0.034559 0.034559 0.034559
0.039400 0.039400 0.039400
0.050735 0.050735 0.050735
0.053002 0.053002 0.053002
0.061765 0.061765 0.061765
0.070527 0.070527 0.070527
0.080147 0.080147 0.080147
0.097427 0.097427 0.097427
0.114951 0.114951 0.114951
0.136397 0.136397 0.136397
0.161764 0.161764 0.161764
0.183211 0.183211 0.183211
0.204656 0.204656 0.204656
0.226103 0.226103 0.226103
0.243627 0.243627 0.243627
0.258762 0.258762 0.258762
0.282599 0.282599 0.282599
0.299571 0.299571 0.299571
0.321937 0.321937 0.321937
0.348223 0.348223 0.348223
0.374510 0.374510 0.374510
0.396875 0.396875 0.396875
0.419118 0.419118 0.419118
0.432966 0.432966 0.432966
0.452451 0.452451 0.452451
0.461458 0.461458 0.461458
0.474142 0.474142 0.474142
0.483456 0.483456 0.483456
0.495588 0.495588 0.495588
0.504350 0.504350 0.504350
0.513113 0.513113 0.513113
0.521875 0.521875 0.521875
0.530637 0.530637 0.530637
0.539399 0.539399 0.539399
0.548775 0.548775 0.548775
0.553002 0.553002 0.553002
0.561764 0.561764 0.561764
0.572304 0.572304 0.572304
0.575368 0.575368 0.575368
0.584130 0.584130 0.584130
0.588970 0.588970 0.588970
0.597733 0.597733 0.597733
0.606495 0.606495 0.606495
0.611336 0.611336 0.611336
0.620098 0.620098 0.620098
0.631128 0.631128 0.631128
0.633701 0.633701 0.633701
0.642463 0.642463 0.642463
0.651225 0.651225 0.651225
0.659988 0.659988 0.659988
0.668750 0.668750 0.668750
0.677267 0.677267 0.677267
0.686275 0.686275 0.686275
0.003922 0.003922 0.003922
0.004596 0.004596 0.004596
0.007843 0.007843 0.007843
0.007843 0.007843 0.007843
0.008517 0.008517 0.008517
0.012439 0.012439 0.012439
0.015686 0.015686 0.015686
0.016360 0.016360 0.016360
0.023039 0.023039 0.023039
0.023958 0.023958 0.023958
0.028799 0.028799 0.028799
0.033640 0.033640 0.033640
0.035968 0.035968 0.035968
0.043321 0.043321 0.043321
0.052083 0.052083 0.052083
0.057598 0.057598 0.057598
0.066360 0.066360 0.066360
0.075122 0.075122 0.075122
0.088665 0.088665 0.088665
0.106189 0.106189 0.106189
0.126409 0.126409 0.126409
0.148775 0.148775 0.148775
0.170527 0.170527 0.170527
0.191973 0.191973 0.191973
0.211949 0.211949 0.211949
0.230943 0.230943 0.230943
0.248468 0.248468 0.248468
0.269240 0.269240 0.269240
0.287439 0.287439 0.287439
0.308088 0.308088 0.308088
0.330454 0.330454 0.330454
0.356740 0.356740 0.356740
0.381066 0.381066 0.381066
0.402512 0.402512 0.402512
0.420159 0.420159 0.420159
0.440809 0.440809 0.440809
0.454412 0.454412 0.454412
0.465380 0.465380 0.465380
0.474816 0.474816 0.474816
0.486826 0.486826 0.486826
0.496263 0.496263 0.496263
0.505025 0.505025 0.505025
0.517034 0.517034 0.517034
0.522549 0.522549 0.522549
0.530086 0.530086 0.530086
0.539399 0.539399 0.539399
0.548162 0.548162 0.548162
0.557537 0.557537 0.557537
0.561764 0.561764 0.561764
0.570527 0.570527 0.570527
0.579289 0.579289 0.579289
0.584130 0.584130 0.584130
0.592892 0.592892 0.592892
0.597733 0.597733 0.597733
0.606495 0.606495 0.606495
0.615257 0.615257 0.615257
0.620098 0.620098 0.620098
0.628860 0.628860 0.628860
0.637623 0.637623 0.637623
0.642463 0.642463 0.642463
0.651225 0.651225 0.651225
0.659988 0.659988 0.659988
0.668750 0.668750 0.668750
0.677512 0.677512 0.677512
0.686275 0.686275 0.686275
0.005515 0.005515 0.005515
0.007843 0.007843 0.007843
0.009681 0.009681 0.009681
0.011765 0.011765 0.011765
0.011765 0.011765 0.011765
0.015686 0.015686 0.015686
0.017279 0.017279 0.017279
0.022120 0.022120 0.022120
0.023529 0.023529 0.023529
0.029044 0.029044 0.029044
0.032966 0.032966 0.032966
0.037561 0.037561 0.037561
0.042402 0.042402 0.042402
0.047243 0.047243 0.047243
0.056005 0.056005 0.056005
0.062439 0.062439 0.062439
0.071201 0.071201 0.071201
0.086152 0.086152 0.086152
0.097427 0.097427 0.097427
0.114951 0.114951 0.114951
0.139093 0.139093 0.139093
0.157843 0.157843 0.157843
0.179289 0.179289 0.179289
0.200735 0.200735 0.200735
0.218260 0.218260 0.218260
0.239706 0.239706 0.239706
0.257231 0.257231 0.257231
0.274755 0.274755 0.274755
0.294486 0.294486 0.294486
0.316851 0.316851 0.316851
0.339216 0.339216 0.339216
0.365502 0.365502 0.365502
0.387867 0.387867 0.387867
0.412561 0.412561 0.412561
0.425000 0.425000 0.425000
0.440809 0.440809 0.440809
0.456618 0.456618 0.456618
0.466973 0.466973 0.466973
0.478063 0.478063 0.478063
0.490748 0.490748 0.490748
0.499510 0.499510 0.499510
0.508272 0.508272 0.508272
0.517034 0.517034 0.517034
0.525796 0.525796 0.525796
0.534559 0.534559 0.534559
0.540993 0.540993 0.540993
0.548162 0.548162 0.548162
0.556924 0.556924 0.556924
0.564706 0.564706 0.564706
0.570527 0.570527 0.570527
0.579289 0.579289 0.579289
0.581985 0.581985 0.581985
0.592892 0.592892 0.592892
0.600000 0.600000 0.600000
0.606495 0.606495 0.606495
0.615257 0.615257 0.615257
0.620098 0.620098 0.620098
0.628860 0.628860 0.628860
0.637623 0.637623 0.637623
0.643137 0.643137 0.643137
0.651225 0.651225 0.651225
0.659988 0.659988 0.659988
0.668750 0.668750 0.668750
0.677512 0.677512 0.677512
0.686275 0.686275 0.686275
0.007843 0.007843 0.007843
0.008762 0.008762 0.008762
0.011765 0.011765 0.011765
0.014522 0.014522 0.014522
0.014277 0.014277 0.014277
0.016360 0.016360 0.016360
0.022120 0.022120 0.022120
0.023529 0.023529 0.023529
0.026042 0.026042 0.026042
0.033885 0.033885 0.033885
0.037807 0.037807 0.037807
0.041728 0.041728 0.041728
0.046324 0.046324 0.046324
0.053676 0.053676 0.053676
0.059927 0.059927 0.059927
0.068689 0.068689 0.068689
0.080392 0.080392 0.080392
0.092586 0.092586 0.092586
0.106189 0.106189 0.106189
0.125490 0.125490 0.125490
0.147671 0.147671 0.147671
0.169118 0.169118 0.169118
0.188665 0.188665 0.188665
0.209498 0.209498 0.209498
0.227022 0.227022 0.227022
0.244547 0.244547 0.244547
0.265993 0.265993 0.265993
0.283517 0.283517 0.283517
0.300735 0.300735 0.300735
0.325613 0.325613 0.325613
0.347978 0.347978 0.347978
0.373222 0.373222 0.373222
0.394118 0.394118 0.394118
0.416115 0.416115 0.416115
0.429841 0.429841 0.429841
0.444730 0.444730 0.444730
0.458333 0.458333 0.458333
0.471937 0.471937 0.471937
0.480576 0.480576 0.480576
0.490748 0.490748 0.490748
0.502022 0.502022 0.502022
0.510784 0.510784 0.510784
0.519547 0.519547 0.519547
0.525796 0.525796 0.525796
0.534559 0.534559 0.534559
0.543321 0.543321 0.543321
0.552083 0.552083 0.552083
0.556924 0.556924 0.556924
0.565686 0.565686 0.565686
0.570527 0.570527 0.570527
0.579289 0.579289 0.579289
0.588051 0.588051 0.588051
0.592892 0.592892 0.592892
0.601655 0.601655 0.601655
0.606434 0.606434 0.606434
0.615257 0.615257 0.615257
0.626042 0.626042 0.626042
0.628860 0.628860 0.628860
0.637623 0.637623 0.637623
0.646385 0.646385 0.646385
0.651225 0.651225 0.651225
0.659988 0.659988 0.659988
0.668750 0.668750 0.668750
0.677512 0.677512 0.677512
0.686275 0.686275 0.686275
0.011765 0.011765 0.011765
0.011765 0.011765 0.011765
0.013603 0.013603 0.013603
0.015686 0.015686 0.015686
0.019118 0.019118 0.019118
0.023039 0.023039 0.023039
0.023529 0.023529 0.023529
0.026042 0.026042 0.026042
0.030883 0.030883 0.030883
0.038726 0.038726 0.038726
0.042647 0.042647 0.042647
0.046569 0.046569 0.046569
0.050245 0.050245 0.050245
0.058517 0.058517 0.058517
0.067279 0.067279 0.067279
0.076041 0.076041 0.076041
0.087745 0.087745 0.087745
0.101348 0.101348 0.101348
0.118872 0.118872 0.118872
0.138174 0.138174 0.138174
0.160540 0.160540 0.160540
0.182721 0.182721 0.182721
0.200735 0.200735 0.200735
0.218260 0.218260 0.218260
0.235785 0.235785 0.235785
0.253309 0.253309 0.253309
0.274755 0.274755 0.274755
0.292279 0.292279 0.292279
0.312010 0.312010 0.312010
0.334375 0.334375 0.334375
0.356740 0.356740 0.356740
0.381985 0.381985 0.381985
0.403431 0.403431 0.403431
0.420956 0.420956 0.420956
0.438481 0.438481 0.438481
0.448652 0.448652 0.448652
0.463971 0.463971 0.463971
0.473223 0.473223 0.473223
0.485540 0.485540 0.485540
0.494669 0.494669 0.494669
0.503431 0.503431 0.503431
0.512194 0.512194 0.512194
0.520956 0.520956 0.520956
0.529718 0.529718 0.529718
0.537989 0.537989 0.537989
0.543321 0.543321 0.543321
0.552083 0.552083 0.552083
0.556924 0.556924 0.556924
0.565686 0.565686 0.565686
0.574449 0.574449 0.574449
0.579289 0.579289 0.579289
0.588051 0.588051 0.588051
0.592892 0.592892 0.592892
0.601655 0.601655 0.601655
0.611275 0.611275 0.611275
0.615257 0.615257 0.615257
0.624019 0.624019 0.624019
0.628860 0.628860 0.628860
0.637623 0.637623 0.637623
0.646385 0.646385 0.646385
0.658334 0.658334 0.658334
0.659988 0.659988 0.659988
0.668750 0.668750 0.668750
0.677512 0.677512 0.677512
0.686275 0.686275 0.686275
0.015686 0.015686 0.015686
0.016115 0.016115 0.016115
0.019608 0.019608 0.019608
0.020037 0.020037 0.020037
0.023529 0.023529 0.023529
0.023958 0.023958 0.023958
0.027880 0.027880 0.027880
0.033885 0.033885 0.033885
0.038726 0.038726 0.038726
0.039645 0.039645 0.039645
0.043566 0.043566 0.043566
0.049755 0.049755 0.049755
0.055331 0.055331 0.055331
0.067096 0.067096 0.067096
0.076716 0.076716 0.076716
0.084804 0.084804 0.084804
0.097488 0.097488 0.097488
0.114031 0.114031 0.114031
0.131985 0.131985 0.131985
0.154780 0.154780 0.154780
0.177144 0.177144 0.177144
0.192402 0.192402 0.192402
0.213419 0.213419 0.213419
0.230944 0.230944 0.230944
0.242524 0.242524 0.242524
0.262071 0.262071 0.262071
0.283517 0.283517 0.283517
0.301041 0.301041 0.301041
0.318996 0.318996 0.318996
0.340442 0.340442 0.340442
0.369424 0.369424 0.369424
0.390747 0.390747 0.390747
0.408272 0.408272 0.408272
0.425797 0.425797 0.425797
0.439521 0.439521 0.439521
0.455699 0.455699 0.455699
0.464889 0.464889 0.464889
0.477144 0.477144 0.477144
0.486335 0.486335 0.486335
0.495098 0.495098 0.495098
0.507353 0.507353 0.507353
0.516115 0.516115 0.516115
0.524877 0.524877 0.524877
0.529718 0.529718 0.529718
0.538480 0.538480 0.538480
0.547243 0.547243 0.547243
0.556005 0.556005 0.556005
0.560845 0.560845 0.560845
0.569607 0.569607 0.569607
0.574449 0.574449 0.574449
0.583211 0.583211 0.583211
0.584743 0.584743 0.584743
0.596813 0.596813 0.596813
0.600429 0.600429 0.600429
0.610417 0.610417 0.610417
0.619179 0.619179 0.619179
0.624019 0.624019 0.624019
0.632782 0.632782 0.632782
0.641544 0.641544 0.641544
0.646385 0.646385 0.646385
0.655147 0.655147 0.655147
0.663909 0.663909 0.663909
0.672672 0.672672 0.672672
0.677942 0.677942 0.677942
0.690196 0.690196 0.690196
0.019608 0.019608 0.019608
0.020956 0.020956 0.020956
0.023529 0.023529 0.023529
0.024877 0.024877 0.024877
0.027451 0.027451 0.027451
0.032721 0.032721 0.032721
0.032721 0.032721 0.032721
0.036642 0.036642 0.036642
0.040564 0.040564 0.040564
0.044914 0.044914 0.044914
0.049755 0.049755 0.049755
0.056250 0.056250 0.056250
0.063358 0.063358 0.063358
0.072120 0.072120 0.072120
0.081985 0.081985 0.081985
0.095588 0.095588 0.095588
0.110539 0.110539 0.110539
0.128063 0.128063 0.128063
0.148162 0.148162 0.148162
0.167034 0.167034 0.167034
0.187132 0.187132 0.187132
0.206005 0.206005 0.206005
0.223529 0.223529 0.223529
0.239706 0.239706 0.239706
0.257230 0.257230 0.257230
0.274755 0.274755 0.274755
0.292279 0.292279 0.292279
0.311152 0.311152 0.311152
0.333455 0.333455 0.333455
0.355821 0.355821 0.355821
0.378187 0.378187 0.378187
0.399509 0.399509 0.399509
0.417034 0.417034 0.417034
0.433211 0.433211 0.433211
0.444363 0.444363 0.444363
0.459620 0.459620 0.459620
0.469731 0.469731 0.469731
0.481066 0.481066 0.481066
0.489828 0.489828 0.489828
0.499938 0.499938 0.499938
0.508701 0.508701 0.508701
0.516115 0.516115 0.516115
0.524877 0.524877 0.524877
0.533639 0.533639 0.533639
0.538480 0.538480 0.538480
0.547243 0.547243 0.547243
0.556005 0.556005 0.556005
0.560845 0.560845 0.560845
0.569608 0.569608 0.569608
0.578370 0.578370 0.578370
0.583211 0.583211 0.583211
0.591973 0.591973 0.591973
0.596813 0.596813 0.596813
0.605576 0.605576 0.605576
0.610417 0.610417 0.610417
0.619179 0.619179 0.619179
0.624019 0.624019 0.624019
0.632782 0.632782 0.632782
0.641544 0.641544 0.641544
0.644485 0.644485 0.644485
0.655147 0.655147 0.655147
0.663909 0.663909 0.663909
0.672672 0.672672 0.672672
0.681434 0.681434 0.681434
0.690196 0.690196 0.690196
0.023529 0.023529 0.023529
0.024448 0.024448 0.024448
0.029718 0.029718 0.029718
0.029718 0.029718 0.029718
0.035049 0.035049 0.035049
0.037561 0.037561 0.037561
0.041483 0.041483 0.041483
0.041483 0.041483 0.041483
0.048835 0.048835 0.048835
0.053247 0.053247 0.053247
0.056250 0.056250 0.056250
0.063358 0.063358 0.063358
0.072120 0.072120 0.072120
0.081066 0.081066 0.081066
0.093566 0.093566 0.093566
0.108517 0.108517 0.108517
0.124142 0.124142 0.124142
0.141667 0.141667 0.141667
0.163113 0.163113 0.163113
0.180637 0.180637 0.180637
0.199817 0.199817 0.199817
0.217341 0.217341 0.217341
0.234865 0.234865 0.234865
0.248468 0.248468 0.248468
0.265993 0.265993 0.265993
0.283518 0.283518 0.283518
0.301042 0.301042 0.301042
0.319853 0.319853 0.319853
0.342218 0.342218 0.342218
0.363725 0.363725 0.363725
0.386949 0.386949 0.386949
0.408272 0.408272 0.408272
0.423836 0.423836 0.423836
0.436520 0.436520 0.436520
0.449203 0.449203 0.449203
0.460417 0.460417 0.460417
0.474571 0.474571 0.474571
0.483334 0.483334 0.483334
0.493750 0.493750 0.493750
0.502512 0.502512 0.502512
0.511275 0.511275 0.511275
0.520037 0.520037 0.520037
0.528799 0.528799 0.528799
0.533639 0.533639 0.533639
0.542402 0.542402 0.542402
0.551287 0.551287 0.551287
0.556005 0.556005 0.556005
0.564767 0.564767 0.564767
0.569608 0.569608 0.569608
0.578370 0.578370 0.578370
0.582659 0.582659 0.582659
0.591973 0.591973 0.591973
0.596813 0.596813 0.596813
0.605576 0.605576 0.605576
0.614338 0.614338 0.614338
0.619179 0.619179 0.619179
0.627941 0.627941 0.627941
0.632782 0.632782 0.632782
0.641544 0.641544 0.641544
0.650306 0.650306 0.650306
0.655147 0.655147 0.655147
0.663909 0.663909 0.663909
0.672672 0.672672 0.672672
0.681434 0.681434 0.681434
0.690196 0.690196 0.690196
0.030638 0.030638 0.030638
0.028370 0.028370 0.028370
0.034559 0.034559 0.034559
0.035294 0.035294 0.035294
0.038481 0.038481 0.038481
0.042402 0.042402 0.042402
0.046324 0.046324 0.046324
0.050245 0.050245 0.050245
0.054412 0.054412 0.054412
0.058517 0.058517 0.058517
0.065932 0.065932 0.065932
0.072120 0.072120 0.072120
0.080882 0.080882 0.080882
0.089828 0.089828 0.089828
0.103431 0.103431 0.103431
0.120220 0.120220 0.120220
0.137745 0.137745 0.137745
0.156005 0.156005 0.156005
0.173529 0.173529 0.173529
0.191054 0.191054 0.191054
0.208579 0.208579 0.208579
0.226103 0.226103 0.226103
0.243627 0.243627 0.243627
0.259620 0.259620 0.259620
0.274755 0.274755 0.274755
0.292280 0.292280 0.292280
0.309803 0.309803 0.309803
0.331250 0.331250 0.331250
0.350980 0.350980 0.350980
0.374143 0.374143 0.374143
0.395589 0.395589 0.395589
0.413113 0.413113 0.413113
0.427451 0.427451 0.427451
0.441054 0.441054 0.441054
0.454044 0.454044 0.454044
0.464338 0.464338 0.464338
0.476225 0.476225 0.476225
0.484988 0.484988 0.484988
0.496936 0.496936 0.496936
0.505699 0.505699 0.505699
0.514461 0.514461 0.514461
0.520037 0.520037 0.520037
0.528799 0.528799 0.528799
0.540441 0.540441 0.540441
0.542402 0.542402 0.542402
0.551164 0.551164 0.551164
0.560049 0.560049 0.560049
0.564767 0.564767 0.564767
0.575736 0.575736 0.575736
0.578370 0.578370 0.578370
0.587132 0.587132 0.587132
0.591973 0.591973 0.591973
0.603187 0.603187 0.603187
0.605576 0.605576 0.605576
0.614338 0.614338 0.614338
0.618873 0.618873 0.618873
0.627941 0.627941 0.627941
0.638481 0.638481 0.638481
0.641544 0.641544 0.641544
0.650306 0.650306 0.650306
0.662010 0.662010 0.662010
0.663909 0.663909 0.663909
0.672672 0.672672 0.672672
0.681434 0.681434 0.681434
0.690196 0.690196 0.690196
0.035478 0.035478 0.035478
0.039216 0.039216 0.039216
0.039400 0.039400 0.039400
0.045895 0.045895 0.045895
0.043321 0.043321 0.043321
0.047243 0.047243 0.047243
0.051164 0.051164 0.051164
0.055086 0.055086 0.055086
0.059008 0.059008 0.059008
0.067096 0.067096 0.067096
0.072120 0.072120 0.072120
0.080882 0.080882 0.080882
0.092831 0.092831 0.092831
0.102512 0.102512 0.102512
0.115195 0.115195 0.115195
0.133640 0.133640 0.133640
0.151164 0.151164 0.151164
0.168688 0.168688 0.168688
0.186213 0.186213 0.186213
0.203738 0.203738 0.203738
0.221262 0.221262 0.221262
0.234865 0.234865 0.234865
0.252389 0.252389 0.252389
0.265993 0.265993 0.265993
0.283517 0.283517 0.283517
0.301042 0.301042 0.301042
0.318566 0.318566 0.318566
0.340013 0.340013 0.340013
0.361458 0.361458 0.361458
0.382905 0.382905 0.382905
0.404167 0.404167 0.404167
0.417953 0.417953 0.417953
0.435295 0.435295 0.435295
0.448897 0.448897 0.448897
0.458701 0.458701 0.458701
0.467647 0.467647 0.467647
0.480147 0.480147 0.480147
0.488909 0.488909 0.488909
0.497671 0.497671 0.497671
