Black-and-White/Polaroid/Polaroid 667 65x.cube
TITLE "Polaroid 667"
LUT_3D_SIZE 65
DOMAIN_MIN 0.000000 0.000000 0.000000
DOMAIN_MAX 1.000000 1.000000 1.000000
0.000000 0.000000 0.000000
0.000000 0.000000 0.000000
0.001838 0.001838 0.001838
0.003922 0.003922 0.003922
0.007598 0.007598 0.007598
0.008517 0.008517 0.008517
0.011765 0.011765 0.011765
0.015686 0.015686 0.015686
0.019608 0.019608 0.019608
0.023958 0.023958 0.023958
0.028799 0.028799 0.028799
0.035294 0.035294 0.035294
0.042402 0.042402 0.042402
0.047243 0.047243 0.047243
0.054902 0.054902 0.054902
0.060846 0.060846 0.060846
0.066667 0.066667 0.066667
0.074449 0.074449 0.074449
0.083211 0.083211 0.083211
0.090196 0.090196 0.090196
0.096814 0.096814 0.096814
0.109191 0.109191 0.109191
0.118260 0.118260 0.118260
0.127022 0.127022 0.127022
0.135784 0.135784 0.135784
0.144546 0.144546 0.144546
0.157231 0.157231 0.157231
0.165993 0.165993 0.165993
0.178677 0.178677 0.178677
0.190564 0.190564 0.190564
0.204045 0.204045 0.204045
0.217769 0.217769 0.217769
0.235295 0.235295 0.235295
0.252819 0.252819 0.252819
0.270343 0.270343 0.270343
0.288665 0.288665 0.288665
0.309314 0.309314 0.309314
0.326839 0.326839 0.326839
0.348285 0.348285 0.348285
0.365809 0.365809 0.365809
0.383333 0.383333 0.383333
0.396936 0.396936 0.396936
0.414461 0.414461 0.414461
0.431986 0.431986 0.431986
0.449510 0.449510 0.449510
0.467034 0.467034 0.467034
0.484559 0.484559 0.484559
0.502084 0.502084 0.502084
0.519608 0.519608 0.519608
0.537132 0.537132 0.537132
0.550735 0.550735 0.550735
0.564522 0.564522 0.564522
0.581127 0.581127 0.581127
0.593811 0.593811 0.593811
0.609069 0.609069 0.609069
0.622671 0.622671 0.622671
0.635784 0.635784 0.635784
0.645956 0.645956 0.645956
0.659559 0.659559 0.659559
0.673162 0.673162 0.673162
0.682843 0.682843 0.682843
0.695282 0.695282 0.695282
0.707966 0.707966 0.707966
0.719731 0.719731 0.719731
0.729412 0.729412 0.729412
0.000000 0.000000 0.000000
0.004841 0.004841 0.004841
0.007843 0.007843 0.007843
0.008762 0.008762 0.008762
0.015441 0.015441 0.015441
0.016605 0.016605 0.016605
0.020527 0.020527 0.020527
0.024448 0.024448 0.024448
0.028370 0.028370 0.028370
0.036213 0.036213 0.036213
0.041483 0.041483 0.041483
0.046323 0.046323 0.046323
0.051899 0.051899 0.051899
0.059927 0.059927 0.059927
0.064767 0.064767 0.064767
0.073529 0.073529 0.073529
0.079350 0.079350 0.079350
0.087132 0.087132 0.087132
0.095895 0.095895 0.095895
0.104657 0.104657 0.104657
0.113419 0.113419 0.113419
0.122181 0.122181 0.122181
0.130944 0.130944 0.130944
0.139706 0.139706 0.139706
0.148468 0.148468 0.148468
0.161152 0.161152 0.161152
0.169914 0.169914 0.169914
0.182598 0.182598 0.182598
0.193566 0.193566 0.193566
0.207169 0.207169 0.207169
0.220650 0.220650 0.220650
0.234375 0.234375 0.234375
0.251900 0.251900 0.251900
0.269424 0.269424 0.269424
0.286948 0.286948 0.286948
0.305392 0.305392 0.305392
0.325919 0.325919 0.325919
0.343444 0.343444 0.343444
0.360968 0.360968 0.360968
0.377574 0.377574 0.377574
0.392095 0.392095 0.392095
0.409620 0.409620 0.409620
0.427145 0.427145 0.427145
0.444669 0.444669 0.444669
0.462194 0.462194 0.462194
0.478799 0.478799 0.478799
0.496323 0.496323 0.496323
0.510846 0.510846 0.510846
0.527451 0.527451 0.527451
0.544975 0.544975 0.544975
0.558578 0.558578 0.558578
0.569363 0.569363 0.569363
0.585785 0.585785 0.585785
0.598652 0.598652 0.598652
0.611335 0.611335 0.611335
0.624020 0.624020 0.624020
0.639706 0.639706 0.639706
0.649387 0.649387 0.649387
0.662072 0.662072 0.662072
0.677083 0.677083 0.677083
0.687439 0.687439 0.687439
0.699203 0.699203 0.699203
0.708885 0.708885 0.708885
0.723652 0.723652 0.723652
0.733333 0.733333 0.733333
0.003922 0.003922 0.003922
0.007843 0.007843 0.007843
0.009681 0.009681 0.009681
0.014522 0.014522 0.014522
0.019363 0.019363 0.019363
0.020282 0.020282 0.020282
0.025122 0.025122 0.025122
0.029289 0.029289 0.029289
0.036643 0.036643 0.036643
0.041483 0.041483 0.041483
0.048897 0.048897 0.048897
0.052818 0.052818 0.052818
0.059926 0.059926 0.059926
0.068505 0.068505 0.068505
0.073529 0.073529 0.073529
0.080453 0.080453 0.080453
0.087132 0.087132 0.087132
0.095894 0.095894 0.095894
0.102819 0.102819 0.102819
0.111642 0.111642 0.111642
0.118260 0.118260 0.118260
0.127023 0.127023 0.127023
0.137868 0.137868 0.137868
0.148468 0.148468 0.148468
0.157230 0.157230 0.157230
0.165992 0.165992 0.165992
0.178677 0.178677 0.178677
0.186887 0.186887 0.186887
0.200123 0.200123 0.200123
0.212806 0.212806 0.212806
0.229412 0.229412 0.229412
0.243137 0.243137 0.243137
0.260662 0.260662 0.260662
0.278186 0.278186 0.278186
0.295711 0.295711 0.295711
0.313236 0.313236 0.313236
0.330760 0.330760 0.330760
0.350368 0.350368 0.350368
0.365809 0.365809 0.365809
0.383333 0.383333 0.383333
0.399019 0.399019 0.399019
0.416544 0.416544 0.416544
0.431985 0.431985 0.431985
0.449510 0.449510 0.449510
0.467034 0.467034 0.467034
0.482414 0.482414 0.482414
0.500245 0.500245 0.500245
0.515687 0.515687 0.515687
0.531373 0.531373 0.531373
0.546813 0.546813 0.546813
0.562500 0.562500 0.562500
0.576103 0.576103 0.576103
0.590808 0.590808 0.590808
0.603493 0.603493 0.603493
0.616912 0.616912 0.616912
0.630515 0.630515 0.630515
0.640196 0.640196 0.640196
0.654228 0.654228 0.654228
0.665074 0.665074 0.665074
0.675674 0.675674 0.675674
0.690441 0.690441 0.690441
0.700367 0.700367 0.700367
0.711888 0.711888 0.711888
0.722487 0.722487 0.722487
0.733333 0.733333 0.733333
0.007843 0.007843 0.007843
0.008762 0.008762 0.008762
0.013603 0.013603 0.013603
0.018444 0.018444 0.018444
0.023284 0.023284 0.023284
0.024203 0.024203 0.024203
0.029044 0.029044 0.029044
0.033885 0.033885 0.033885
0.042647 0.042647 0.042647
0.049816 0.049816 0.049816
0.052328 0.052328 0.052328
0.057169 0.057169 0.057169
0.065932 0.065932 0.065932
0.070772 0.070772 0.070772
0.078370 0.078370 0.078370
0.084375 0.084375 0.084375
0.093137 0.093137 0.093137
0.100736 0.100736 0.100736
0.109497 0.109497 0.109497
0.115502 0.115502 0.115502
0.124265 0.124265 0.124265
0.133027 0.133027 0.133027
0.144546 0.144546 0.144546
0.153309 0.153309 0.153309
0.162071 0.162071 0.162071
0.171997 0.171997 0.171997
0.183517 0.183517 0.183517
0.196201 0.196201 0.196201
0.204412 0.204412 0.204412
0.217647 0.217647 0.217647
0.231618 0.231618 0.231618
0.250858 0.250858 0.250858
0.265502 0.265502 0.265502
0.283027 0.283027 0.283027
0.301716 0.301716 0.301716
0.319240 0.319240 0.319240
0.336764 0.336764 0.336764
0.354290 0.354290 0.354290
0.371814 0.371814 0.371814
0.388174 0.388174 0.388174
0.402941 0.402941 0.402941
0.420465 0.420465 0.420465
0.436826 0.436826 0.436826
0.454350 0.454350 0.454350
0.469118 0.469118 0.469118
0.486642 0.486642 0.486642
0.504166 0.504166 0.504166
0.517770 0.517770 0.517770
0.537070 0.537070 0.537070
0.548897 0.548897 0.548897
0.563603 0.563603 0.563603
0.580024 0.580024 0.580024
0.589706 0.589706 0.589706
0.603309 0.603309 0.603309
0.616912 0.616912 0.616912
0.629780 0.629780 0.629780
0.643627 0.643627 0.643627
0.653799 0.653799 0.653799
0.667831 0.667831 0.667831
0.677757 0.677757 0.677757
0.690441 0.690441 0.690441
0.703125 0.703125 0.703125
0.714645 0.714645 0.714645
0.724571 0.724571 0.724571
0.737255 0.737255 0.737255
0.011520 0.011520 0.011520
0.012684 0.012684 0.012684
0.019363 0.019363 0.019363
0.023284 0.023284 0.023284
0.027206 0.027206 0.027206
0.028125 0.028125 0.028125
0.032966 0.032966 0.032966
0.041482 0.041482 0.041482
0.046814 0.046814 0.046814
0.054657 0.054657 0.054657
0.056250 0.056250 0.056250
0.061091 0.061091 0.061091
0.070343 0.070343 0.070343
0.074694 0.074694 0.074694
0.086030 0.086030 0.086030
0.091974 0.091974 0.091974
0.097059 0.097059 0.097059
0.105576 0.105576 0.105576
0.114339 0.114339 0.114339
0.123100 0.123100 0.123100
0.131862 0.131862 0.131862
0.140625 0.140625 0.140625
0.149387 0.149387 0.149387
0.158149 0.158149 0.158149
0.167157 0.167157 0.167157
0.179595 0.179595 0.179595
0.185049 0.185049 0.185049
0.201042 0.201042 0.201042
0.213725 0.213725 0.213725
0.226409 0.226409 0.226409
0.243015 0.243015 0.243015
0.256740 0.256740 0.256740
0.274264 0.274264 0.274264
0.291790 0.291790 0.291790
0.309314 0.309314 0.309314
0.326838 0.326838 0.326838
0.344363 0.344363 0.344363
0.358211 0.358211 0.358211
0.375736 0.375736 0.375736
0.393015 0.393015 0.393015
0.406863 0.406863 0.406863
0.424387 0.424387 0.424387
0.441666 0.441666 0.441666
0.455515 0.455515 0.455515
0.473039 0.473039 0.473039
0.490564 0.490564 0.490564
0.508701 0.508701 0.508701
0.521692 0.521692 0.521692
0.535294 0.535294 0.535294
0.554596 0.554596 0.554596
0.566421 0.566421 0.566421
0.579963 0.579963 0.579963
0.596569 0.596569 0.596569
0.609253 0.609253 0.609253
0.618260 0.618260 0.618260
0.630944 0.630944 0.630944
0.647303 0.647303 0.647303
0.656311 0.656311 0.656311
0.667402 0.667402 0.667402
0.681434 0.681434 0.681434
0.694117 0.694117 0.694117
0.703125 0.703125 0.703125
0.713971 0.713971 0.713971
0.724571 0.724571 0.724571
0.737255 0.737255 0.737255
0.016360 0.016360 0.016360
0.020282 0.020282 0.020282
0.025367 0.025367 0.025367
0.026961 0.026961 0.026961
0.031801 0.031801 0.031801
0.035968 0.035968 0.035968
0.039890 0.039890 0.039890
0.046323 0.046323 0.046323
0.054412 0.054412 0.054412
0.059498 0.059498 0.059498
0.064093 0.064093 0.064093
0.067341 0.067341 0.067341
0.077696 0.077696 0.077696
0.082537 0.082537 0.082537
0.091299 0.091299 0.091299
0.096814 0.096814 0.096814
0.104902 0.104902 0.104902
0.110416 0.110416 0.110416
0.119179 0.119179 0.119179
0.127941 0.127941 0.127941
0.136703 0.136703 0.136703
0.145466 0.145466 0.145466
0.154228 0.154228 0.154228
0.162990 0.162990 0.162990
0.171752 0.171752 0.171752
0.187132 0.187132 0.187132
0.192892 0.192892 0.192892
0.205883 0.205883 0.205883
0.220098 0.220098 0.220098
0.231250 0.231250 0.231250
0.247304 0.247304 0.247304
0.261581 0.261581 0.261581
0.279106 0.279106 0.279106
0.296630 0.296630 0.296630
0.314154 0.314154 0.314154
0.331679 0.331679 0.331679
0.347488 0.347488 0.347488
0.366054 0.366054 0.366054
0.380331 0.380331 0.380331
0.397181 0.397181 0.397181
0.411458 0.411458 0.411458
0.428982 0.428982 0.428982
0.445834 0.445834 0.445834
0.463725 0.463725 0.463725
0.477635 0.477635 0.477635
0.493014 0.493014 0.493014
0.512010 0.512010 0.512010
0.525613 0.525613 0.525613
0.539890 0.539890 0.539890
0.556740 0.556740 0.556740
0.570343 0.570343 0.570343
0.583946 0.583946 0.583946
0.596813 0.596813 0.596813
0.609498 0.609498 0.609498
0.622181 0.622181 0.622181
0.631617 0.631617 0.631617
0.647549 0.647549 0.647549
0.656985 0.656985 0.656985
0.671324 0.671324 0.671324
0.681679 0.681679 0.681679
0.694363 0.694363 0.694363
0.704289 0.704289 0.704289
0.715809 0.715809 0.715809
0.727574 0.727574 0.727574
0.737255 0.737255 0.737255
0.021201 0.021201 0.021201
0.024448 0.024448 0.024448
0.029044 0.029044 0.029044
0.032966 0.032966 0.032966
0.036887 0.036887 0.036887
0.041483 0.041483 0.041483
0.046323 0.046323 0.046323
0.053493 0.053493 0.053493
0.056495 0.056495 0.056495
0.063174 0.063174 0.063174
0.068015 0.068015 0.068015
0.074448 0.074448 0.074448
0.080024 0.080024 0.080024
0.088052 0.088052 0.088052
0.095221 0.095221 0.095221
0.103983 0.103983 0.103983
0.110416 0.110416 0.110416
0.117586 0.117586 0.117586
0.124020 0.124020 0.124020
0.132782 0.132782 0.132782
0.141544 0.141544 0.141544
0.150306 0.150306 0.150306
0.159069 0.159069 0.159069
0.167770 0.167770 0.167770
0.181373 0.181373 0.181373
0.189277 0.189277 0.189277
0.201961 0.201961 0.201961
0.212010 0.212010 0.212010
0.225613 0.225613 0.225613
0.239216 0.239216 0.239216
0.252818 0.252818 0.252818
0.270343 0.270343 0.270343
0.287868 0.287868 0.287868
0.303799 0.303799 0.303799
0.321324 0.321324 0.321324
0.336519 0.336519 0.336519
0.354044 0.354044 0.354044
0.368934 0.368934 0.368934
0.385172 0.385172 0.385172
0.401103 0.401103 0.401103
0.418750 0.418750 0.418750
0.433824 0.433824 0.433824
0.449755 0.449755 0.449755
0.464951 0.464951 0.464951
0.482475 0.482475 0.482475
0.497856 0.497856 0.497856
0.515931 0.515931 0.515931
0.529535 0.529535 0.529535
0.543137 0.543137 0.543137
0.558762 0.558762 0.558762
0.574265 0.574265 0.574265
0.587867 0.587867 0.587867
0.597549 0.597549 0.597549
0.611090 0.611090 0.611090
0.624755 0.624755 0.624755
0.634865 0.634865 0.634865
0.649142 0.649142 0.649142
0.660233 0.660233 0.660233
0.670589 0.670589 0.670589
0.684927 0.684927 0.684927
0.694363 0.694363 0.694363
0.707046 0.707046 0.707046
0.717893 0.717893 0.717893
0.728493 0.728493 0.728493
0.738848 0.738848 0.738848
0.029964 0.029964 0.029964
0.033885 0.033885 0.033885
0.037807 0.037807 0.037807
0.041973 0.041973 0.041973
0.045405 0.045405 0.045405
0.049571 0.049571 0.049571
0.052573 0.052573 0.052573
0.059926 0.059926 0.059926
0.064768 0.064768 0.064768
0.069608 0.069608 0.069608
0.077022 0.077022 0.077022
0.080698 0.080698 0.080698
0.088051 0.088051 0.088051
0.094302 0.094302 0.094302
0.101654 0.101654 0.101654
0.107904 0.107904 0.107904
0.116667 0.116667 0.116667
0.124019 0.124019 0.124019
0.132782 0.132782 0.132782
0.139032 0.139032 0.139032
0.147794 0.147794 0.147794
0.156557 0.156557 0.156557
0.167831 0.167831 0.167831
0.176593 0.176593 0.176593
0.185355 0.185355 0.185355
0.194117 0.194117 0.194117
0.204657 0.204657 0.204657
0.219485 0.219485 0.219485
0.232169 0.232169 0.232169
0.244853 0.244853 0.244853
0.261581 0.261581 0.261581
0.276593 0.276593 0.276593
0.292708 0.292708 0.292708
0.310233 0.310233 0.310233
0.327757 0.327757 0.327757
0.342769 0.342769 0.342769
0.361091 0.361091 0.361091
0.376409 0.376409 0.376409
0.391422 0.391422 0.391422
0.407537 0.407537 0.407537
0.422549 0.422549 0.422549
0.438664 0.438664 0.438664
0.452880 0.452880 0.452880
0.473406 0.473406 0.473406
0.487316 0.487316 0.487316
0.502328 0.502328 0.502328
0.519853 0.519853 0.519853
0.535906 0.535906 0.535906
0.547059 0.547059 0.547059
0.560662 0.560662 0.560662
0.573958 0.573958 0.573958
0.586642 0.586642 0.586642
0.603247 0.603247 0.603247
0.613419 0.613419 0.613419
0.626103 0.626103 0.626103
0.637378 0.637378 0.637378
0.648039 0.648039 0.648039
0.662746 0.662746 0.662746
0.672917 0.672917 0.672917
0.684191 0.684191 0.684191
0.694608 0.694608 0.694608
0.707046 0.707046 0.707046
0.717893 0.717893 0.717893
0.728493 0.728493 0.728493
0.741176 0.741176 0.741176
0.038726 0.038726 0.038726
0.042647 0.042647 0.042647
0.044486 0.044486 0.044486
0.049326 0.049326 0.049326
0.050490 0.050490 0.050490
0.058334 0.058334 0.058334
0.062255 0.062255 0.062255
0.066177 0.066177 0.066177
0.070098 0.070098 0.070098
0.077941 0.077941 0.077941
0.079779 0.079779 0.079779
0.088051 0.088051 0.088051
0.093383 0.093383 0.093383
0.101654 0.101654 0.101654
0.106985 0.106985 0.106985
0.115258 0.115258 0.115258
0.124019 0.124019 0.124019
0.128922 0.128922 0.128922
0.137622 0.137622 0.137622
0.146385 0.146385 0.146385
0.155147 0.155147 0.155147
0.163909 0.163909 0.163909
0.172672 0.172672 0.172672
0.181434 0.181434 0.181434
0.194117 0.194117 0.194117
0.202880 0.202880 0.202880
0.215564 0.215564 0.215564
0.228248 0.228248 0.228248
0.240931 0.240931 0.240931
0.253615 0.253615 0.253615
0.270343 0.270343 0.270343
0.283945 0.283945 0.283945
0.301470 0.301470 0.301470
0.318995 0.318995 0.318995
0.332720 0.332720 0.332720
0.350123 0.350123 0.350123
0.364215 0.364215 0.364215
0.381250 0.381250 0.381250
0.395220 0.395220 0.395220
0.412378 0.412378 0.412378
0.426471 0.426471 0.426471
0.445037 0.445037 0.445037
0.461029 0.461029 0.461029
0.478248 0.478248 0.478248
0.492157 0.492157 0.492157
0.506250 0.506250 0.506250
0.524142 0.524142 0.524142
0.540748 0.540748 0.540748
0.553432 0.553432 0.553432
0.564583 0.564583 0.564583
0.578186 0.578186 0.578186
0.591789 0.591789 0.591789
0.601471 0.601471 0.601471
0.615074 0.615074 0.615074
0.628677 0.628677 0.628677
0.638787 0.638787 0.638787
0.651470 0.651470 0.651470
0.664154 0.664154 0.664154
0.675245 0.675245 0.675245
0.685601 0.685601 0.685601
0.698284 0.698284 0.698284
0.710478 0.710478 0.710478
0.719731 0.719731 0.719731
0.731495 0.731495 0.731495
0.741176 0.741176 0.741176
0.047488 0.047488 0.047488
0.048407 0.048407 0.048407
0.053247 0.053247 0.053247
0.055331 0.055331 0.055331
0.059253 0.059253 0.059253
0.063848 0.063848 0.063848
0.068689 0.068689 0.068689
0.073529 0.073529 0.073529
0.081863 0.081863 0.081863
0.083211 0.083211 0.083211
0.088052 0.088052 0.088052
0.094547 0.094547 0.094547
0.101654 0.101654 0.101654
0.110233 0.110233 0.110233
0.115257 0.115257 0.115257
0.123591 0.123591 0.123591
0.128860 0.128860 0.128860
0.137622 0.137622 0.137622
0.145956 0.145956 0.145956
0.151226 0.151226 0.151226
0.159988 0.159988 0.159988
0.168750 0.168750 0.168750
0.181005 0.181005 0.181005
0.191299 0.191299 0.191299
0.198958 0.198958 0.198958
0.207721 0.207721 0.207721
0.220772 0.220772 0.220772
0.233089 0.233089 0.233089
0.247978 0.247978 0.247978
0.261581 0.261581 0.261581
0.278983 0.278983 0.278983
0.292708 0.292708 0.292708
0.308272 0.308272 0.308272
0.323836 0.323836 0.323836
0.341360 0.341360 0.341360
0.354963 0.354963 0.354963
0.370772 0.370772 0.370772
0.386090 0.386090 0.386090
0.403187 0.403187 0.403187
0.416666 0.416666 0.416666
0.434314 0.434314 0.434314
0.448345 0.448345 0.448345
0.462562 0.462562 0.462562
0.479473 0.479473 0.479473
0.496569 0.496569 0.496569
0.510600 0.510600 0.510600
0.527696 0.527696 0.527696
0.541666 0.541666 0.541666
0.554902 0.554902 0.554902
0.568505 0.568505 0.568505
0.579719 0.579719 0.579719
0.595710 0.595710 0.595710
0.605086 0.605086 0.605086
0.618995 0.618995 0.618995
0.632598 0.632598 0.632598
0.642708 0.642708 0.642708
0.655392 0.655392 0.655392
0.664583 0.664583 0.664583
0.676838 0.676838 0.676838
0.686029 0.686029 0.686029
0.698529 0.698529 0.698529
0.710968 0.710968 0.710968
0.721814 0.721814 0.721814
0.732414 0.732414 0.732414
0.741605 0.741605 0.741605
0.056250 0.056250 0.056250
0.057169 0.057169 0.057169
0.062010 0.062010 0.062010
0.064093 0.064093 0.064093
0.068015 0.068015 0.068015
0.072610 0.072610 0.072610
0.077451 0.077451 0.077451
0.082292 0.082292 0.082292
0.087132 0.087132 0.087132
0.091544 0.091544 0.091544
0.096814 0.096814 0.096814
0.101654 0.101654 0.101654
0.110416 0.110416 0.110416
0.115257 0.115257 0.115257
0.122672 0.122672 0.122672
0.128860 0.128860 0.128860
0.137622 0.137622 0.137622
0.145037 0.145037 0.145037
0.151226 0.151226 0.151226
0.159988 0.159988 0.159988
0.168750 0.168750 0.168750
0.177512 0.177512 0.177512
0.186275 0.186275 0.186275
0.195037 0.195037 0.195037
0.206250 0.206250 0.206250
0.216483 0.216483 0.216483
0.229167 0.229167 0.229167
0.241851 0.241851 0.241851
0.256740 0.256740 0.256740
0.270343 0.270343 0.270343
0.283946 0.283946 0.283946
0.301470 0.301470 0.301470
0.315074 0.315074 0.315074
0.332598 0.332598 0.332598
0.348775 0.348775 0.348775
0.362377 0.362377 0.362377
0.377329 0.377329 0.377329
0.393505 0.393505 0.393505
0.404902 0.404902 0.404902
0.422059 0.422059 0.422059
0.438113 0.438113 0.438113
0.455760 0.455760 0.455760
0.467402 0.467402 0.467402
0.484314 0.484314 0.484314
0.500490 0.500490 0.500490
0.515441 0.515441 0.515441
0.531617 0.531617 0.531617
0.546507 0.546507 0.546507
0.559191 0.559191 0.559191
0.572426 0.572426 0.572426
0.586029 0.586029 0.586029
0.599632 0.599632 0.599632
0.609926 0.609926 0.609926
0.621262 0.621262 0.621262
0.633946 0.633946 0.633946
0.646201 0.646201 0.646201
0.656740 0.656740 0.656740
0.668076 0.668076 0.668076
0.678187 0.678187 0.678187
0.689522 0.689522 0.689522
0.702206 0.702206 0.702206
0.712316 0.712316 0.712316
0.723652 0.723652 0.723652
0.732414 0.732414 0.732414
0.745098 0.745098 0.745098
0.065012 0.065012 0.065012
0.068934 0.068934 0.068934
0.070772 0.070772 0.070772
0.072855 0.072855 0.072855
0.076777 0.076777 0.076777
0.080698 0.080698 0.080698
0.086213 0.086213 0.086213
0.091054 0.091054 0.091054
0.095894 0.095894 0.095894
0.100306 0.100306 0.100306
0.103309 0.103309 0.103309
0.110416 0.110416 0.110416
0.115992 0.115992 0.115992
0.124020 0.124020 0.124020
0.128860 0.128860 0.128860
0.137622 0.137622 0.137622
0.144118 0.144118 0.144118
0.151225 0.151225 0.151225
0.159988 0.159988 0.159988
0.166483 0.166483 0.166483
0.175245 0.175245 0.175245
0.184008 0.184008 0.184008
0.195037 0.195037 0.195037
0.203799 0.203799 0.203799
0.212561 0.212561 0.212561
0.225245 0.225245 0.225245
0.237929 0.237929 0.237929
0.250613 0.250613 0.250613
0.263236 0.263236 0.263236
0.279105 0.279105 0.279105
0.292709 0.292709 0.292709
0.309191 0.309191 0.309191
0.323836 0.323836 0.323836
0.338480 0.338480 0.338480
0.354963 0.354963 0.354963
0.368567 0.368567 0.368567
0.384375 0.384375 0.384375
0.397059 0.397059 0.397059
0.413297 0.413297 0.413297
0.430269 0.430269 0.430269
0.444424 0.444424 0.444424
0.459681 0.459681 0.459681
0.475551 0.475551 0.475551
0.492769 0.492769 0.492769
0.504412 0.504412 0.504412
0.520282 0.520282 0.520282
0.535539 0.535539 0.535539
0.551349 0.551349 0.551349
0.564031 0.564031 0.564031
0.576716 0.576716 0.576716
0.587132 0.587132 0.587132
0.598162 0.598162 0.598162
0.612500 0.612500 0.612500
0.622917 0.622917 0.622917
0.636520 0.636520 0.636520
0.646630 0.646630 0.646630
0.659314 0.659314 0.659314
0.669486 0.669486 0.669486
0.680760 0.680760 0.680760
0.691790 0.691790 0.691790
0.702206 0.702206 0.702206
0.714890 0.714890 0.714890
0.723652 0.723652 0.723652
0.734682 0.734682 0.734682
0.745098 0.745098 0.745098
0.073775 0.073775 0.073775
0.077696 0.077696 0.077696
0.079535 0.079535 0.079535
0.081618 0.081618 0.081618
0.085540 0.085540 0.085540
0.092647 0.092647 0.092647
0.093383 0.093383 0.093383
0.097304 0.097304 0.097304
0.101226 0.101226 0.101226
0.109069 0.109069 0.109069
0.112990 0.112990 0.112990
0.119179 0.119179 0.119179
0.124019 0.124019 0.124019
0.132598 0.132598 0.132598
0.137622 0.137622 0.137622
0.144363 0.144363 0.144363
0.151225 0.151225 0.151225
0.159987 0.159987 0.159987
0.164828 0.164828 0.164828
0.173591 0.173591 0.173591
0.182353 0.182353 0.182353
0.191115 0.191115 0.191115
0.197304 0.197304 0.197304
0.212561 0.212561 0.212561
0.221323 0.221323 0.221323
0.234007 0.234007 0.234007
0.246691 0.246691 0.246691
0.259375 0.259375 0.259375
0.272059 0.272059 0.272059
0.287867 0.287867 0.287867
0.301471 0.301471 0.301471
0.317954 0.317954 0.317954
0.332598 0.332598 0.332598
0.346201 0.346201 0.346201
0.359926 0.359926 0.359926
0.376531 0.376531 0.376531
0.387745 0.387745 0.387745
0.404534 0.404534 0.404534
0.418873 0.418873 0.418873
0.432476 0.432476 0.432476
0.449265 0.449265 0.449265
0.463603 0.463603 0.463603
0.481128 0.481128 0.481128
0.497611 0.497611 0.497611
0.508333 0.508333 0.508333
0.525123 0.525123 0.525123
0.539583 0.539583 0.539583
0.549143 0.549143 0.549143
0.565686 0.565686 0.565686
0.576348 0.576348 0.576348
0.589951 0.589951 0.589951
0.603554 0.603554 0.603554
0.613236 0.613236 0.613236
0.628370 0.628370 0.628370
0.637868 0.637868 0.637868
0.649816 0.649816 0.649816
0.662501 0.662501 0.662501
0.671997 0.671997 0.671997
0.683946 0.683946 0.683946
0.693444 0.693444 0.693444
0.702451 0.702451 0.702451
0.714890 0.714890 0.714890
0.725736 0.725736 0.725736
0.736336 0.736336 0.736336
0.748285 0.748285 0.748285
0.082537 0.082537 0.082537
0.086459 0.086459 0.086459
0.090380 0.090380 0.090380
0.093137 0.093137 0.093137
0.094302 0.094302 0.094302
0.098223 0.098223 0.098223
0.102145 0.102145 0.102145
0.106066 0.106066 0.106066
0.109988 0.109988 0.109988
0.114338 0.114338 0.114338
0.119179 0.119179 0.119179
0.125674 0.125674 0.125674
0.132782 0.132782 0.132782
0.137623 0.137623 0.137623
0.146201 0.146201 0.146201
0.151226 0.151226 0.151226
0.157047 0.157047 0.157047
0.164828 0.164828 0.164828
0.173591 0.173591 0.173591
0.182353 0.182353 0.182353
0.190931 0.190931 0.190931
0.199877 0.199877 0.199877
0.208640 0.208640 0.208640
0.217401 0.217401 0.217401
0.230085 0.230085 0.230085
0.242218 0.242218 0.242218
0.255637 0.255637 0.255637
0.269240 0.269240 0.269240
0.280821 0.280821 0.280821
0.293504 0.293504 0.293504
0.310110 0.310110 0.310110
0.323836 0.323836 0.323836
0.337438 0.337438 0.337438
0.354780 0.354780 0.354780
0.364766 0.364766 0.364766
0.381372 0.381372 0.381372
0.394057 0.394057 0.394057
0.409375 0.409375 0.409375
0.426716 0.426716 0.426716
