Black-and-White/Polaroid/Polaroid 667 65x.cube
TITLE "Polaroid 667"
LUT_3D_SIZE 9
DOMAIN_MIN 0.000000 0.000000 0.000000
DOMAIN_MAX 1.000000 1.000000 1.000000
0.000000 0.000000 0.000000
0.019608 0.019608 0.019608
0.066667 0.066667 0.066667
0.135784 0.135784 0.135784
0.235295 0.235295 0.235295
0.383333 0.383333 0.383333
0.519608 0.519608 0.519608
0.635784 0.635784 0.635784
0.729412 0.729412 0.729412
0.038726 0.038726 0.038726
0.070098 0.070098 0.070098
0.124019 0.124019 0.124019
0.194117 0.194117 0.194117
0.301470 0.301470 0.301470
0.426471 0.426471 0.426471
0.553432 0.553432 0.553432
0.651470 0.651470 0.651470
0.741176 0.741176 0.741176
0.112745 0.112745 0.112745
0.136274 0.136274 0.136274
0.182353 0.182353 0.182353
0.256373 0.256373 0.256373
0.359804 0.359804 0.359804
0.469608 0.469608 0.469608
0.578432 0.578432 0.578432
0.667647 0.667647 0.667647
0.752941 0.752941 0.752941
0.202451 0.202451 0.202451
0.220588 0.220588 0.220588
0.268137 0.268137 0.268137
0.340686 0.340686 0.340686
0.424020 0.424020 0.424020
0.520588 0.520588 0.520588
0.609804 0.609804 0.609804
0.690686 0.690686 0.690686
0.768627 0.768627 0.768627
0.329411 0.329411 0.329411
0.345098 0.345098 0.345098
0.376470 0.376470 0.376470
0.429902 0.429902 0.429902
0.501961 0.501961 0.501961
0.579902 0.579902 0.579902
0.650000 0.650000 0.650000
0.718137 0.718137 0.718137
0.786274 0.786274 0.786274
0.453922 0.453922 0.453922
0.467647 0.467647 0.467647
0.489216 0.489216 0.489216
0.533334 0.533334 0.533334
0.583823 0.583823 0.583823
0.636765 0.636765 0.636765
0.692647 0.692647 0.692647
0.749510 0.749510 0.749510
0.809314 0.809314 0.809314
0.570588 0.570588 0.570588
0.578432 0.578432 0.578432
0.596079 0.596079 0.596079
0.620588 0.620588 0.620588
0.655882 0.655882 0.655882
0.695588 0.695588 0.695588
0.738235 0.738235 0.738235
0.785294 0.785294 0.785294
0.835294 0.835294 0.835294
0.671078 0.671078 0.671078
0.675000 0.675000 0.675000
0.686765 0.686765 0.686765
0.702451 0.702451 0.702451
0.725980 0.725980 0.725980
0.753431 0.753431 0.753431
0.784804 0.784804 0.784804
0.820588 0.820588 0.820588
0.867157 0.867157 0.867157
0.768627 0.768627 0.768627
0.772549 0.772549 0.772549
0.776471 0.776471 0.776471
0.786765 0.786765 0.786765
0.800000 0.800000 0.800000
0.819608 0.819608 0.819608
0.840196 0.840196 0.840196
0.867157 0.867157 0.867157
0.909804 0.909804 0.909804
0.003922 0.003922 0.003922
0.046569 0.046569 0.046569
0.104411 0.104411 0.104411
0.174510 0.174510 0.174510
0.282353 0.282353 0.282353
0.418137 0.418137 0.418137
0.545588 0.545588 0.545588
0.651470 0.651470 0.651470
0.741176 0.741176 0.741176
0.065687 0.065687 0.065687
0.100981 0.100981 0.100981
0.152451 0.152451 0.152451
0.225490 0.225490 0.225490
0.336764 0.336764 0.336764
0.453922 0.453922 0.453922
0.569117 0.569117 0.569117
0.663725 0.663725 0.663725
0.749020 0.749020 0.749020
0.136274 0.136274 0.136274
0.159313 0.159313 0.159313
0.205882 0.205882 0.205882
0.283824 0.283824 0.283824
0.381373 0.381373 0.381373
0.490687 0.490687 0.490687
0.592157 0.592157 0.592157
0.678921 0.678921 0.678921
0.759804 0.759804 0.759804
0.222059 0.222059 0.222059
0.243628 0.243628 0.243628
0.291177 0.291177 0.291177
0.357843 0.357843 0.357843
0.439706 0.439706 0.439706
0.535784 0.535784 0.535784
0.620588 0.620588 0.620588
0.698039 0.698039 0.698039
0.772549 0.772549 0.772549
0.346569 0.346569 0.346569
0.360784 0.360784 0.360784
0.393137 0.393137 0.393137
0.443628 0.443628 0.443628
0.513726 0.513726 0.513726
0.587745 0.587745 0.587745
0.655883 0.655883 0.655883
0.723530 0.723530 0.723530
0.790196 0.790196 0.790196
0.465686 0.465686 0.465686
0.477451 0.477451 0.477451
0.500980 0.500980 0.500980
0.541176 0.541176 0.541176
0.591666 0.591666 0.591666
0.642157 0.642157 0.642157
0.696569 0.696569 0.696569
0.753431 0.753431 0.753431
0.811765 0.811765 0.811765
0.580882 0.580882 0.580882
0.586275 0.586275 0.586275
0.601961 0.601961 0.601961
0.627941 0.627941 0.627941
0.661765 0.661765 0.661765
0.699019 0.699019 0.699019
0.742156 0.742156 0.742156
0.788235 0.788235 0.788235
0.839216 0.839216 0.839216
0.675490 0.675490 0.675490
0.679412 0.679412 0.679412
0.690686 0.690686 0.690686
0.706372 0.706372 0.706372
0.729902 0.729902 0.729902
0.757353 0.757353 0.757353
0.788725 0.788725 0.788725
0.824019 0.824019 0.824019
0.870588 0.870588 0.870588
0.772549 0.772549 0.772549
0.772549 0.772549 0.772549
0.780392 0.780392 0.780392
0.788235 0.788235 0.788235
0.803922 0.803922 0.803922
0.819608 0.819608 0.819608
0.843137 0.843137 0.843137
0.870588 0.870588 0.870588
0.913725 0.913725 0.913725
0.011765 0.011765 0.011765
0.073529 0.073529 0.073529
0.131372 0.131372 0.131372
0.202451 0.202451 0.202451
0.317647 0.317647 0.317647
0.442157 0.442157 0.442157
0.562745 0.562745 0.562745
0.662255 0.662255 0.662255
0.749020 0.749020 0.749020
0.089706 0.089706 0.089706
0.128432 0.128432 0.128432
0.179412 0.179412 0.179412
0.259804 0.259804 0.259804
0.365686 0.365686 0.365686
0.478921 0.478921 0.478921
0.585294 0.585294 0.585294
0.675000 0.675000 0.675000
0.756863 0.756863 0.756863
0.162745 0.162745 0.162745
0.186274 0.186274 0.186274
0.237255 0.237255 0.237255
0.318138 0.318138 0.318138
0.406863 0.406863 0.406863
0.511765 0.511765 0.511765
0.605883 0.605883 0.605883
0.687255 0.687255 0.687255
0.764706 0.764706 0.764706
0.256373 0.256373 0.256373
0.278431 0.278431 0.278431
0.323039 0.323039 0.323039
0.385294 0.385294 0.385294
0.465196 0.465196 0.465196
0.553432 0.553432 0.553432
0.633334 0.633334 0.633334
0.706372 0.706372 0.706372
0.778922 0.778922 0.778922
0.375490 0.375490 0.375490
0.388235 0.388235 0.388235
0.418627 0.418627 0.418627
0.469118 0.469118 0.469118
0.536274 0.536274 0.536274
0.603431 0.603431 0.603431
0.667647 0.667647 0.667647
0.731863 0.731863 0.731863
0.796078 0.796078 0.796078
0.489216 0.489216 0.489216
0.499020 0.499020 0.499020
0.522059 0.522059 0.522059
0.559804 0.559804 0.559804
0.604412 0.604412 0.604412
0.655392 0.655392 0.655392
0.706863 0.706863 0.706863
0.761274 0.761274 0.761274
0.817157 0.817157 0.817157
0.596078 0.596078 0.596078
0.600980 0.600980 0.600980
0.615686 0.615686 0.615686
0.640196 0.640196 0.640196
0.671569 0.671569 0.671569
0.708333 0.708333 0.708333
0.750000 0.750000 0.750000
0.793137 0.793137 0.793137
0.843137 0.843137 0.843137
0.686765 0.686765 0.686765
0.690686 0.690686 0.690686
0.699019 0.699019 0.699019
0.716667 0.716667 0.716667
0.737745 0.737745 0.737745
0.762745 0.762745 0.762745
0.793137 0.793137 0.793137
0.827941 0.827941 0.827941
0.874510 0.874510 0.874510
0.780392 0.780392 0.780392
0.780392 0.780392 0.780392
0.787255 0.787255 0.787255
0.796078 0.796078 0.796078
0.807843 0.807843 0.807843
0.826471 0.826471 0.826471
0.847059 0.847059 0.847059
0.874510 0.874510 0.874510
0.917647 0.917647 0.917647
0.031373 0.031373 0.031373
0.101471 0.101471 0.101471
0.159804 0.159804 0.159804
0.240196 0.240196 0.240196
0.352942 0.352942 0.352942
0.469608 0.469608 0.469608
0.581373 0.581373 0.581373
0.675000 0.675000 0.675000
0.759314 0.759314 0.759314
0.121079 0.121079 0.121079
0.159804 0.159804 0.159804
0.214215 0.214215 0.214215
0.302451 0.302451 0.302451
0.396569 0.396569 0.396569
0.504902 0.504902 0.504902
0.603432 0.603432 0.603432
0.686765 0.686765 0.686765
0.764706 0.764706 0.764706
0.197549 0.197549 0.197549
0.222058 0.222058 0.222058
0.278922 0.278922 0.278922
0.354412 0.354412 0.354412
0.438235 0.438235 0.438235
0.537255 0.537255 0.537255
0.623039 0.623039 0.623039
0.700980 0.700980 0.700980
0.775000 0.775000 0.775000
0.299020 0.299020 0.299020
0.321079 0.321079 0.321079
0.361765 0.361765 0.361765
0.416667 0.416667 0.416667
0.494608 0.494608 0.494608
0.576471 0.576471 0.576471
0.648039 0.648039 0.648039
0.718137 0.718137 0.718137
0.786765 0.786765 0.786765
0.408334 0.408334 0.408334
0.423039 0.423039 0.423039
0.451471 0.451471 0.451471
0.498530 0.498530 0.498530
0.560785 0.560785 0.560785
0.621568 0.621568 0.621568
0.681372 0.681372 0.681372
0.741666 0.741666 0.741666
0.803922 0.803922 0.803922
0.520588 0.520588 0.520588
0.528431 0.528431 0.528431
0.549020 0.549020 0.549020
0.583333 0.583333 0.583333
0.623529 0.623529 0.623529
0.670588 0.670588 0.670588
0.719118 0.719118 0.719118
0.770098 0.770098 0.770098
0.825000 0.825000 0.825000
0.616667 0.616667 0.616667
0.621569 0.621569 0.621569
0.635294 0.635294 0.635294
0.658334 0.658334 0.658334
0.687255 0.687255 0.687255
0.721078 0.721078 0.721078
0.758824 0.758824 0.758824
0.800981 0.800981 0.800981
0.849510 0.849510 0.849510
0.702451 0.702451 0.702451
0.705882 0.705882 0.705882
0.714216 0.714216 0.714216
0.728431 0.728431 0.728431
0.748039 0.748039 0.748039
0.773039 0.773039 0.773039
0.800981 0.800981 0.800981
0.835784 0.835784 0.835784
0.878921 0.878921 0.878921
0.788235 0.788235 0.788235
0.792157 0.792157 0.792157
0.796078 0.796078 0.796078
0.803922 0.803922 0.803922
0.817647 0.817647 0.817647
0.832843 0.832843 0.832843
0.854902 0.854902 0.854902
0.880882 0.880882 0.880882
0.925490 0.925490 0.925490
0.062745 0.062745 0.062745
0.138725 0.138725 0.138725
0.199020 0.199020 0.199020
0.286765 0.286765 0.286765
0.388235 0.388235 0.388235
0.500980 0.500980 0.500980
0.601961 0.601961 0.601961
0.687255 0.687255 0.687255
0.768627 0.768627 0.768627
0.162255 0.162255 0.162255
0.201471 0.201471 0.201471
0.263235 0.263235 0.263235
0.347059 0.347059 0.347059
0.432843 0.432843 0.432843
0.534314 0.534314 0.534314
0.622549 0.622549 0.622549
0.700490 0.700490 0.700490
0.776471 0.776471 0.776471
0.248039 0.248039 0.248039
0.274510 0.274510 0.274510
0.330392 0.330392 0.330392
0.395588 0.395588 0.395588
0.475490 0.475490 0.475490
0.564215 0.564215 0.564215
0.642157 0.642157 0.642157
0.714216 0.714216 0.714216
0.784314 0.784314 0.784314
0.353432 0.353432 0.353432
0.369118 0.369118 0.369118
0.405392 0.405392 0.405392
0.459314 0.459314 0.459314
0.529411 0.529411 0.529411
0.600000 0.600000 0.600000
0.666176 0.666176 0.666176
0.731863 0.731863 0.731863
0.796078 0.796078 0.796078
0.454902 0.454902 0.454902
0.466176 0.466176 0.466176
0.494117 0.494117 0.494117
0.535784 0.535784 0.535784
0.588236 0.588236 0.588236
0.642647 0.642647 0.642647
0.699019 0.699019 0.699019
0.754902 0.754902 0.754902
0.811765 0.811765 0.811765
0.555882 0.555882 0.555882
0.563725 0.563725 0.563725
0.580882 0.580882 0.580882
0.611274 0.611274 0.611274
0.646568 0.646568 0.646568
0.689216 0.689216 0.689216
0.734314 0.734314 0.734314
0.780882 0.780882 0.780882
0.832843 0.832843 0.832843
0.640196 0.640196 0.640196
0.646078 0.646078 0.646078
0.657843 0.657843 0.657843
0.677941 0.677941 0.677941
0.704902 0.704902 0.704902
0.735784 0.735784 0.735784
0.771568 0.771568 0.771568
0.812255 0.812255 0.812255
0.856863 0.856863 0.856863
0.718137 0.718137 0.718137
0.722059 0.722059 0.722059
0.729902 0.729902 0.729902
0.743627 0.743627 0.743627
0.761274 0.761274 0.761274
0.784804 0.784804 0.784804
0.812255 0.812255 0.812255
0.843627 0.843627 0.843627
0.886765 0.886765 0.886765
0.800000 0.800000 0.800000
0.803922 0.803922 0.803922
0.807843 0.807843 0.807843
0.815686 0.815686 0.815686
0.827451 0.827451 0.827451
0.843137 0.843137 0.843137
0.862745 0.862745 0.862745
0.886765 0.886765 0.886765
0.933333 0.933333 0.933333
0.107353 0.107353 0.107353
0.189216 0.189216 0.189216
0.255392 0.255392 0.255392
0.345098 0.345098 0.345098
0.431372 0.431372 0.431372
0.536274 0.536274 0.536274
0.624510 0.624510 0.624510
0.703922 0.703922 0.703922
0.780392 0.780392 0.780392
0.216667 0.216667 0.216667
0.267157 0.267157 0.267157
0.329412 0.329412 0.329412
0.398039 0.398039 0.398039
0.479902 0.479902 0.479902
0.567647 0.567647 0.567647
0.645588 0.645588 0.645588
0.717647 0.717647 0.717647
0.787745 0.787745 0.787745
0.318137 0.318137 0.318137
0.341666 0.341666 0.341666
0.387745 0.387745 0.387745
0.446079 0.446079 0.446079
0.520098 0.520098 0.520098
0.595098 0.595098 0.595098
0.663725 0.663725 0.663725
0.729902 0.729902 0.729902
0.796078 0.796078 0.796078
0.407843 0.407843 0.407843
0.423529 0.423529 0.423529
0.457353 0.457353 0.457353
0.506863 0.506863 0.506863
0.568137 0.568137 0.568137
0.628922 0.628922 0.628922
0.687745 0.687745 0.687745
0.746569 0.746569 0.746569
0.807843 0.807843 0.807843
0.505392 0.505392 0.505392
0.515196 0.515196 0.515196
0.538725 0.538725 0.538725
0.574510 0.574510 0.574510
0.619117 0.619117 0.619117
0.668137 0.668137 0.668137
0.716667 0.716667 0.716667
0.769117 0.769117 0.769117
0.823529 0.823529 0.823529
0.591176 0.591176 0.591176
0.599020 0.599020 0.599020
0.614706 0.614706 0.614706
0.639216 0.639216 0.639216
0.672059 0.672059 0.672059
0.708824 0.708824 0.708824
0.750490 0.750490 0.750490
0.793627 0.793627 0.793627
0.843137 0.843137 0.843137
0.667647 0.667647 0.667647
0.671569 0.671569 0.671569
0.683334 0.683334 0.683334
0.700490 0.700490 0.700490
0.724510 0.724510 0.724510
0.753922 0.753922 0.753922
0.785294 0.785294 0.785294
0.820588 0.820588 0.820588
0.866667 0.866667 0.866667
0.737745 0.737745 0.737745
0.741666 0.741666 0.741666
0.749510 0.749510 0.749510
0.761274 0.761274 0.761274
0.776961 0.776961 0.776961
0.797549 0.797549 0.797549
0.824019 0.824019 0.824019
0.852941 0.852941 0.852941
0.894608 0.894608 0.894608
0.815686 0.815686 0.815686
0.815686 0.815686 0.815686
0.821078 0.821078 0.821078
0.827451 0.827451 0.827451
0.839216 0.839216 0.839216
0.854902 0.854902 0.854902
0.871568 0.871568 0.871568
0.898039 0.898039 0.898039
0.942647 0.942647 0.942647
0.173530 0.173530 0.173530
0.260294 0.260294 0.260294
0.333333 0.333333 0.333333
0.403431 0.403431 0.403431
0.486274 0.486274 0.486274
0.575000 0.575000 0.575000
0.651960 0.651960 0.651960
0.722059 0.722059 0.722059
0.792157 0.792157 0.792157
0.301961 0.301961 0.301961
0.345098 0.345098 0.345098
0.394607 0.394607 0.394607
0.456863 0.456863 0.456863
0.528431 0.528431 0.528431
0.602451 0.602451 0.602451
0.671078 0.671078 0.671078
0.734314 0.734314 0.734314
0.800000 0.800000 0.800000
0.388235 0.388235 0.388235
0.407843 0.407843 0.407843
0.450000 0.450000 0.450000
0.503431 0.503431 0.503431
0.565686 0.565686 0.565686
0.627941 0.627941 0.627941
0.687255 0.687255 0.687255
0.746569 0.746569 0.746569
0.807843 0.807843 0.807843
0.474020 0.474020 0.474020
0.485785 0.485785 0.485785
0.516177 0.516177 0.516177
0.556372 0.556372 0.556372
0.607353 0.607353 0.607353
0.657353 0.657353 0.657353
0.710784 0.710784 0.710784
0.763725 0.763725 0.763725
0.819608 0.819608 0.819608
0.556863 0.556863 0.556863
0.564706 0.564706 0.564706
0.585294 0.585294 0.585294
0.614706 0.614706 0.614706
0.652941 0.652941 0.652941
0.692647 0.692647 0.692647
0.738235 0.738235 0.738235
0.784804 0.784804 0.784804
0.835294 0.835294 0.835294
0.629902 0.629902 0.629902
0.636765 0.636765 0.636765
0.649510 0.649510 0.649510
0.670589 0.670589 0.670589
0.700000 0.700000 0.700000
0.731863 0.731863 0.731863
0.769607 0.769607 0.769607
0.808333 0.808333 0.808333
0.852451 0.852451 0.852451
0.696079 0.696079 0.696079
0.700000 0.700000 0.700000
0.710784 0.710784 0.710784
0.726471 0.726471 0.726471
0.746079 0.746079 0.746079
0.773529 0.773529 0.773529
0.800981 0.800981 0.800981
0.835784 0.835784 0.835784
0.875490 0.875490 0.875490
0.761274 0.761274 0.761274
0.765196 0.765196 0.765196
0.769607 0.769607 0.769607
0.780882 0.780882 0.780882
0.796568 0.796568 0.796568
0.813235 0.813235 0.813235
0.836275 0.836275 0.836275
0.863725 0.863725 0.863725
0.906372 0.906372 0.906372
0.831373 0.831373 0.831373
0.832353 0.832353 0.832353
0.836274 0.836274 0.836274
0.843137 0.843137 0.843137
0.854902 0.854902 0.854902
0.866667 0.866667 0.866667
0.883333 0.883333 0.883333
0.909804 0.909804 0.909804
0.956863 0.956863 0.956863
0.263235 0.263235 0.263235
0.352941 0.352941 0.352941
0.404902 0.404902 0.404902
0.469608 0.469608 0.469608
0.539706 0.539706 0.539706
0.613235 0.613235 0.613235
0.679412 0.679412 0.679412
0.741666 0.741666 0.741666
0.803922 0.803922 0.803922
0.388235 0.388235 0.388235
0.420098 0.420098 0.420098
0.466667 0.466667 0.466667
0.521569 0.521569 0.521569
0.578922 0.578922 0.578922
0.640196 0.640196 0.640196
0.695588 0.695588 0.695588
0.753431 0.753431 0.753431
0.811765 0.811765 0.811765
0.466177 0.466177 0.466177
0.482353 0.482353 0.482353
0.517157 0.517157 0.517157
0.559804 0.559804 0.559804
0.610294 0.610294 0.610294
0.660785 0.660785 0.660785
0.716667 0.716667 0.716667
0.765196 0.765196 0.765196
0.820098 0.820098 0.820098
0.540196 0.540196 0.540196
0.551961 0.551961 0.551961
0.575490 0.575490 0.575490
0.606863 0.606863 0.606863
0.645588 0.645588 0.645588
0.690197 0.690197 0.690197
0.734804 0.734804 0.734804
0.780882 0.780882 0.780882
0.831863 0.831863 0.831863
0.610294 0.610294 0.610294
0.617647 0.617647 0.617647
0.634314 0.634314 0.634314
0.657353 0.657353 0.657353
0.688236 0.688236 0.688236
0.723530 0.723530 0.723530
0.762745 0.762745 0.762745
0.801961 0.801961 0.801961
0.847059 0.847059 0.847059
0.672549 0.672549 0.672549
0.676471 0.676471 0.676471
0.687745 0.687745 0.687745
0.708333 0.708333 0.708333
0.731372 0.731372 0.731372
0.758333 0.758333 0.758333
0.789706 0.789706 0.789706
0.824019 0.824019 0.824019
0.866667 0.866667 0.866667
0.730392 0.730392 0.730392
0.734313 0.734313 0.734313
0.742157 0.742157 0.742157
0.754412 0.754412 0.754412
0.774510 0.774510 0.774510
0.793627 0.793627 0.793627
0.820588 0.820588 0.820588
0.851470 0.851470 0.851470
0.890196 0.890196 0.890196
0.788725 0.788725 0.788725
0.788725 0.788725 0.788725
0.795588 0.795588 0.795588
0.804412 0.804412 0.804412
0.816176 0.816176 0.816176
0.831863 0.831863 0.831863
0.852451 0.852451 0.852451
0.878921 0.878921 0.878921
0.918137 0.918137 0.918137
0.850980 0.850980 0.850980
0.851470 0.851470 0.851470
0.855392 0.855392 0.855392
0.862745 0.862745 0.862745
0.871078 0.871078 0.871078
0.882843 0.882843 0.882843
0.899020 0.899020 0.899020
0.925490 0.925490 0.925490
0.972549 0.972549 0.972549
0.372549 0.372549 0.372549
0.442647 0.442647 0.442647
0.489216 0.489216 0.489216
0.539706 0.539706 0.539706
0.598039 0.598039 0.598039
0.652451 0.652451 0.652451
0.706863 0.706863 0.706863
0.764706 0.764706 0.764706
0.819608 0.819608 0.819608
0.477941 0.477941 0.477941
0.508824 0.508824 0.508824
0.544608 0.544608 0.544608
0.582843 0.582843 0.582843
0.629412 0.629412 0.629412
0.681863 0.681863 0.681863
0.726471 0.726471 0.726471
0.776961 0.776961 0.776961
0.827451 0.827451 0.827451
0.548039 0.548039 0.548039
0.559804 0.559804 0.559804
0.587255 0.587255 0.587255
0.618137 0.618137 0.618137
0.656863 0.656863 0.656863
0.699510 0.699510 0.699510
0.742156 0.742156 0.742156
0.788725 0.788725 0.788725
0.835294 0.835294 0.835294
0.607843 0.607843 0.607843
0.619118 0.619118 0.619118
0.633824 0.633824 0.633824
0.657353 0.657353 0.657353
0.692647 0.692647 0.692647
0.727941 0.727941 0.727941
0.764706 0.764706 0.764706
0.806373 0.806373 0.806373
0.849510 0.849510 0.849510
0.664706 0.664706 0.664706
0.670588 0.670588 0.670588
0.682353 0.682353 0.682353
0.700000 0.700000 0.700000
0.727451 0.727451 0.727451
0.756863 0.756863 0.756863
0.790196 0.790196 0.790196
0.825490 0.825490 0.825490
0.862745 0.862745 0.862745
0.719118 0.719118 0.719118
0.723039 0.723039 0.723039
0.730882 0.730882 0.730882
0.746569 0.746569 0.746569
0.766666 0.766666 0.766666
0.789706 0.789706 0.789706
0.815686 0.815686 0.815686
0.843627 0.843627 0.843627
0.882353 0.882353 0.882353
0.769607 0.769607 0.769607
0.773529 0.773529 0.773529
0.777451 0.777451 0.777451
0.789215 0.789215 0.789215
0.805883 0.805883 0.805883
0.820588 0.820588 0.820588
0.844118 0.844118 0.844118
0.871569 0.871569 0.871569
0.906862 0.906862 0.906862
0.820098 0.820098 0.820098
0.823529 0.823529 0.823529
0.830392 0.830392 0.830392
0.835294 0.835294 0.835294
0.843627 0.843627 0.843627
0.859314 0.859314 0.859314
0.875000 0.875000 0.875000
0.902451 0.902451 0.902451
0.941176 0.941176 0.941176
0.882353 0.882353 0.882353
0.882353 0.882353 0.882353
0.886275 0.886275 0.886275
0.892647 0.892647 0.892647
0.901961 0.901961 0.901961
0.913725 0.913725 0.913725
0.929412 0.929412 0.929412
0.953431 0.953431 0.953431
1.000000 1.000000 1.000000
