Black-and-White/Polaroid/Polaroid 672 65x.cube
TITLE "Polaroid 672"
LUT_3D_SIZE 5
DOMAIN_MIN 0.000000 0.000000 0.000000
DOMAIN_MAX 1.000000 1.000000 1.000000
0.000000 0.000000 0.000000
0.019608 0.019608 0.019608
0.107843 0.107843 0.107843
0.288236 0.288236 0.288236
0.549020 0.549020 0.549020
0.065687 0.065687 0.065687
0.104902 0.104902 0.104902
0.200981 0.200981 0.200981
0.368628 0.368628 0.368628
0.592157 0.592157 0.592157
0.217647 0.217647 0.217647
0.245098 0.245098 0.245098
0.329411 0.329411 0.329411
0.474510 0.474510 0.474510
0.650980 0.650980 0.650980
0.437255 0.437255 0.437255
0.459804 0.459804 0.459804
0.519608 0.519608 0.519608
0.612745 0.612745 0.612745
0.737255 0.737255 0.737255
0.694118 0.694118 0.694118
0.704902 0.704902 0.704902
0.729412 0.729412 0.729412
0.776471 0.776471 0.776471
0.862745 0.862745 0.862745
0.007843 0.007843 0.007843
0.065687 0.065687 0.065687
0.165686 0.165686 0.165686
0.341176 0.341176 0.341176
0.583333 0.583333 0.583333
0.107843 0.107843 0.107843
0.148039 0.148039 0.148039
0.244118 0.244118 0.244118
0.407843 0.407843 0.407843
0.615686 0.615686 0.615686
0.254902 0.254902 0.254902
0.283334 0.283334 0.283334
0.364706 0.364706 0.364706
0.504902 0.504902 0.504902
0.668627 0.668627 0.668627
0.468628 0.468628 0.468628
0.488236 0.488236 0.488236
0.545098 0.545098 0.545098
0.629412 0.629412 0.629412
0.750000 0.750000 0.750000
0.709804 0.709804 0.709804
0.717647 0.717647 0.717647
0.741176 0.741176 0.741176
0.787255 0.787255 0.787255
0.874510 0.874510 0.874510
0.043137 0.043137 0.043137
0.120588 0.120588 0.120588
0.227451 0.227451 0.227451
0.398039 0.398039 0.398039
0.615686 0.615686 0.615686
0.175490 0.175490 0.175490
0.216667 0.216667 0.216667
0.309804 0.309804 0.309804
0.465686 0.465686 0.465686
0.647059 0.647059 0.647059
0.327451 0.327451 0.327451
0.355882 0.355882 0.355882
0.435295 0.435295 0.435295
0.555882 0.555882 0.555882
0.700000 0.700000 0.700000
0.531373 0.531373 0.531373
0.548039 0.548039 0.548039
0.595098 0.595098 0.595098
0.665686 0.665686 0.665686
0.774510 0.774510 0.774510
0.743137 0.743137 0.743137
0.749020 0.749020 0.749020
0.770588 0.770588 0.770588
0.811765 0.811765 0.811765
0.896079 0.896079 0.896079
0.134314 0.134314 0.134314
0.220588 0.220588 0.220588
0.320588 0.320588 0.320588
0.480392 0.480392 0.480392
0.658824 0.658824 0.658824
0.282353 0.282353 0.282353
0.323529 0.323529 0.323529
0.410784 0.410784 0.410784
0.543137 0.543137 0.543137
0.691176 0.691176 0.691176
0.438235 0.438235 0.438235
0.461765 0.461765 0.461765
0.528431 0.528431 0.528431
0.618627 0.618627 0.618627
0.739215 0.739215 0.739215
0.605883 0.605883 0.605883
0.620588 0.620588 0.620588
0.656863 0.656863 0.656863
0.715687 0.715687 0.715687
0.808823 0.808823 0.808823
0.788235 0.788235 0.788235
0.795098 0.795098 0.795098
0.812745 0.812745 0.812745
0.848039 0.848039 0.848039
0.929412 0.929412 0.929412
0.286275 0.286275 0.286275
0.364706 0.364706 0.364706
0.456863 0.456863 0.456863
0.577451 0.577451 0.577451
0.713726 0.713726 0.713726
0.442157 0.442157 0.442157
0.476470 0.476470 0.476470
0.543137 0.543137 0.543137
0.632353 0.632353 0.632353
0.748040 0.748040 0.748040
0.578431 0.578431 0.578431
0.594118 0.594118 0.594118
0.637255 0.637255 0.637255
0.699019 0.699019 0.699019
0.794118 0.794118 0.794118
0.706863 0.706863 0.706863
0.714706 0.714706 0.714706
0.742156 0.742156 0.742156
0.786275 0.786275 0.786275
0.863726 0.863726 0.863726
0.866667 0.866667 0.866667
0.870588 0.870588 0.870588
0.890196 0.890196 0.890196
0.921569 0.921569 0.921569
1.000000 1.000000 1.000000
