Black-and-White/Polaroid/Polaroid 667 65x.cube
TITLE "Polaroid 667"
LUT_3D_SIZE 5
DOMAIN_MIN 0.000000 0.000000 0.000000
DOMAIN_MAX 1.000000 1.000000 1.000000
0.000000 0.000000 0.000000
0.066667 0.066667 0.066667
0.235295 0.235295 0.235295
0.519608 0.519608 0.519608
0.729412 0.729412 0.729412
0.112745 0.112745 0.112745
0.182353 0.182353 0.182353
0.359804 0.359804 0.359804
0.578432 0.578432 0.578432
0.752941 0.752941 0.752941
0.329411 0.329411 0.329411
0.376470 0.376470 0.376470
0.501961 0.501961 0.501961
0.650000 0.650000 0.650000
0.786274 0.786274 0.786274
0.570588 0.570588 0.570588
0.596079 0.596079 0.596079
0.655882 0.655882 0.655882
0.738235 0.738235 0.738235
0.835294 0.835294 0.835294
0.768627 0.768627 0.768627
0.776471 0.776471 0.776471
0.800000 0.800000 0.800000
0.840196 0.840196 0.840196
0.909804 0.909804 0.909804
0.011765 0.011765 0.011765
0.131372 0.131372 0.131372
0.317647 0.317647 0.317647
0.562745 0.562745 0.562745
0.749020 0.749020 0.749020
0.162745 0.162745 0.162745
0.237255 0.237255 0.237255
0.406863 0.406863 0.406863
0.605883 0.605883 0.605883
0.764706 0.764706 0.764706
0.375490 0.375490 0.375490
0.418627 0.418627 0.418627
0.536274 0.536274 0.536274
0.667647 0.667647 0.667647
0.796078 0.796078 0.796078
0.596078 0.596078 0.596078
0.615686 0.615686 0.615686
0.671569 0.671569 0.671569
0.750000 0.750000 0.750000
0.843137 0.843137 0.843137
0.780392 0.780392 0.780392
0.787255 0.787255 0.787255
0.807843 0.807843 0.807843
0.847059 0.847059 0.847059
0.917647 0.917647 0.917647
0.062745 0.062745 0.062745
0.199020 0.199020 0.199020
0.388235 0.388235 0.388235
0.601961 0.601961 0.601961
0.768627 0.768627 0.768627
0.248039 0.248039 0.248039
0.330392 0.330392 0.330392
0.475490 0.475490 0.475490
0.642157 0.642157 0.642157
0.784314 0.784314 0.784314
0.454902 0.454902 0.454902
0.494117 0.494117 0.494117
0.588236 0.588236 0.588236
0.699019 0.699019 0.699019
0.811765 0.811765 0.811765
0.640196 0.640196 0.640196
0.657843 0.657843 0.657843
0.704902 0.704902 0.704902
0.771568 0.771568 0.771568
0.856863 0.856863 0.856863
0.800000 0.800000 0.800000
0.807843 0.807843 0.807843
0.827451 0.827451 0.827451
0.862745 0.862745 0.862745
0.933333 0.933333 0.933333
0.173530 0.173530 0.173530
0.333333 0.333333 0.333333
0.486274 0.486274 0.486274
0.651960 0.651960 0.651960
0.792157 0.792157 0.792157
0.388235 0.388235 0.388235
0.450000 0.450000 0.450000
0.565686 0.565686 0.565686
0.687255 0.687255 0.687255
0.807843 0.807843 0.807843
0.556863 0.556863 0.556863
0.585294 0.585294 0.585294
0.652941 0.652941 0.652941
0.738235 0.738235 0.738235
0.835294 0.835294 0.835294
0.696079 0.696079 0.696079
0.710784 0.710784 0.710784
0.746079 0.746079 0.746079
0.800981 0.800981 0.800981
0.875490 0.875490 0.875490
0.831373 0.831373 0.831373
0.836274 0.836274 0.836274
0.854902 0.854902 0.854902
0.883333 0.883333 0.883333
0.956863 0.956863 0.956863
0.372549 0.372549 0.372549
0.489216 0.489216 0.489216
0.598039 0.598039 0.598039
0.706863 0.706863 0.706863
0.819608 0.819608 0.819608
0.548039 0.548039 0.548039
0.587255 0.587255 0.587255
0.656863 0.656863 0.656863
0.742156 0.742156 0.742156
0.835294 0.835294 0.835294
0.664706 0.664706 0.664706
0.682353 0.682353 0.682353
0.727451 0.727451 0.727451
0.790196 0.790196 0.790196
0.862745 0.862745 0.862745
0.769607 0.769607 0.769607
0.777451 0.777451 0.777451
0.805883 0.805883 0.805883
0.844118 0.844118 0.844118
0.906862 0.906862 0.906862
0.882353 0.882353 0.882353
0.886275 0.886275 0.886275
0.901961 0.901961 0.901961
0.929412 0.929412 0.929412
1.000000 1.000000 1.000000
