Black-and-White/Polaroid/Polaroid 665 Negative 1 - 65x.cube
TITLE "Polaroid 665 Negative 1 -"
LUT_3D_SIZE 5
DOMAIN_MIN 0.000000 0.000000 0.000000
DOMAIN_MAX 1.000000 1.000000 1.000000
0.000000 0.000000 0.000000
0.066667 0.066667 0.066667
0.217647 0.217647 0.217647
0.385294 0.385294 0.385294
0.584314 0.584314 0.584314
0.161765 0.161765 0.161765
0.167647 0.167647 0.167647
0.299020 0.299020 0.299020
0.433333 0.433333 0.433333
0.613725 0.613725 0.613725
0.400000 0.400000 0.400000
0.382353 0.382353 0.382353
0.413725 0.413725 0.413725
0.529411 0.529411 0.529411
0.692157 0.692157 0.692157
0.634314 0.634314 0.634314
0.622549 0.622549 0.622549
0.620588 0.620588 0.620588
0.657843 0.657843 0.657843
0.778432 0.778432 0.778432
0.882353 0.882353 0.882353
0.879412 0.879412 0.879412
0.870588 0.870588 0.870588
0.893138 0.893138 0.893138
0.929412 0.929412 0.929412
0.170588 0.170588 0.170588
0.209804 0.209804 0.209804
0.310785 0.310785 0.310785
0.442157 0.442157 0.442157
0.610784 0.610784 0.610784
0.256863 0.256863 0.256863
0.272549 0.272549 0.272549
0.365686 0.365686 0.365686
0.477451 0.477451 0.477451
0.640196 0.640196 0.640196
0.475490 0.475490 0.475490
0.455882 0.455882 0.455882
0.463726 0.463726 0.463726
0.566666 0.566666 0.566666
0.709804 0.709804 0.709804
0.669608 0.669608 0.669608
0.662745 0.662745 0.662745
0.649020 0.649020 0.649020
0.681372 0.681372 0.681372
0.793137 0.793137 0.793137
0.890196 0.890196 0.890196
0.887255 0.887255 0.887255
0.879412 0.879412 0.879412
0.894118 0.894118 0.894118
0.929412 0.929412 0.929412
0.417647 0.417647 0.417647
0.443137 0.443137 0.443137
0.478432 0.478432 0.478432
0.546079 0.546079 0.546079
0.690196 0.690196 0.690196
0.453922 0.453922 0.453922
0.477451 0.477451 0.477451
0.508824 0.508824 0.508824
0.579412 0.579412 0.579412
0.706863 0.706863 0.706863
0.545098 0.545098 0.545098
0.554902 0.554902 0.554902
0.568628 0.568628 0.568628
0.643138 0.643138 0.643138
0.749019 0.749019 0.749019
0.747059 0.747059 0.747059
0.746078 0.746078 0.746078
0.724510 0.724510 0.724510
0.733333 0.733333 0.733333
0.828432 0.828432 0.828432
0.917647 0.917647 0.917647
0.913725 0.913725 0.913725
0.909804 0.909804 0.909804
0.907843 0.907843 0.907843
0.941176 0.941176 0.941176
0.672549 0.672549 0.672549
0.681372 0.681372 0.681372
0.705882 0.705882 0.705882
0.723530 0.723530 0.723530
0.777451 0.777451 0.777451
0.687255 0.687255 0.687255
0.694118 0.694118 0.694118
0.720588 0.720588 0.720588
0.737255 0.737255 0.737255
0.792157 0.792157 0.792157
0.698039 0.698039 0.698039
0.712745 0.712745 0.712745
0.742156 0.742156 0.742156
0.763725 0.763725 0.763725
0.825490 0.825490 0.825490
0.786275 0.786275 0.786275
0.790196 0.790196 0.790196
0.796079 0.796079 0.796079
0.812745 0.812745 0.812745
0.872549 0.872549 0.872549
0.952941 0.952941 0.952941
0.954902 0.954902 0.954902
0.952941 0.952941 0.952941
0.945098 0.945098 0.945098
0.960784 0.960784 0.960784
0.901961 0.901961 0.901961
0.902941 0.902941 0.902941
0.913725 0.913725 0.913725
0.922549 0.922549 0.922549
0.933333 0.933333 0.933333
0.905882 0.905882 0.905882
0.905882 0.905882 0.905882
0.913725 0.913725 0.913725
0.928432 0.928432 0.928432
0.936274 0.936274 0.936274
0.913725 0.913725 0.913725
0.915686 0.915686 0.915686
0.923530 0.923530 0.923530
0.937255 0.937255 0.937255
0.947059 0.947059 0.947059
0.930392 0.930392 0.930392
0.932353 0.932353 0.932353
0.933333 0.933333 0.933333
0.950000 0.950000 0.950000
0.965686 0.965686 0.965686
0.984314 0.984314 0.984314
0.984314 0.984314 0.984314
0.986274 0.986274 0.986274
0.989216 0.989216 0.989216
1.000000 1.000000 1.000000
