Black-and-White/Polaroid/Polaroid 665 1 -- 65x.cube
TITLE "Polaroid 665 1 --"
LUT_3D_SIZE 5
DOMAIN_MIN 0.000000 0.000000 0.000000
DOMAIN_MAX 1.000000 1.000000 1.000000
0.000000 0.000000 0.000000
0.065687 0.065687 0.065687
0.215686 0.215686 0.215686
0.350000 0.350000 0.350000
0.533333 0.533333 0.533333
0.168627 0.168627 0.168627
0.175490 0.175490 0.175490
0.295098 0.295098 0.295098
0.394117 0.394117 0.394117
0.558824 0.558824 0.558824
0.352941 0.352941 0.352941
0.367647 0.367647 0.367647
0.366667 0.366667 0.366667
0.461765 0.461765 0.461765
0.652942 0.652942 0.652942
0.546078 0.546078 0.546078
0.552941 0.552941 0.552941
0.569608 0.569608 0.569608
0.584314 0.584314 0.584314
0.730392 0.730392 0.730392
0.847059 0.847059 0.847059
0.848039 0.848039 0.848039
0.862745 0.862745 0.862745
0.877451 0.877451 0.877451
0.905882 0.905882 0.905882
0.182353 0.182353 0.182353
0.201961 0.201961 0.201961
0.306863 0.306863 0.306863
0.396078 0.396078 0.396078
0.548039 0.548039 0.548039
0.232353 0.232353 0.232353
0.283334 0.283334 0.283334
0.357843 0.357843 0.357843
0.434314 0.434314 0.434314
0.587255 0.587255 0.587255
0.405882 0.405882 0.405882
0.417647 0.417647 0.417647
0.421569 0.421569 0.421569
0.513726 0.513726 0.513726
0.676470 0.676470 0.676470
0.584314 0.584314 0.584314
0.593137 0.593137 0.593137
0.606863 0.606863 0.606863
0.619608 0.619608 0.619608
0.752941 0.752941 0.752941
0.851961 0.851961 0.851961
0.854902 0.854902 0.854902
0.867647 0.867647 0.867647
0.882353 0.882353 0.882353
0.912745 0.912745 0.912745
0.388235 0.388235 0.388235
0.398039 0.398039 0.398039
0.419608 0.419608 0.419608
0.522549 0.522549 0.522549
0.664706 0.664706 0.664706
0.442157 0.442157 0.442157
0.457843 0.457843 0.457843
0.462745 0.462745 0.462745
0.559804 0.559804 0.559804
0.684314 0.684314 0.684314
0.452941 0.452941 0.452941
0.485294 0.485294 0.485294
0.549019 0.549019 0.549019
0.615687 0.615687 0.615687
0.727451 0.727451 0.727451
0.645098 0.645098 0.645098
0.667647 0.667647 0.667647
0.692157 0.692157 0.692157
0.702941 0.702941 0.702941
0.808823 0.808823 0.808823
0.870588 0.870588 0.870588
0.874510 0.874510 0.874510
0.886275 0.886275 0.886275
0.902941 0.902941 0.902941
0.925490 0.925490 0.925490
0.651960 0.651960 0.651960
0.651960 0.651960 0.651960
0.654902 0.654902 0.654902
0.660785 0.660785 0.660785
0.765686 0.765686 0.765686
0.679412 0.679412 0.679412
0.680392 0.680392 0.680392
0.685294 0.685294 0.685294
0.687255 0.687255 0.687255
0.785294 0.785294 0.785294
0.697059 0.697059 0.697059
0.712745 0.712745 0.712745
0.728431 0.728431 0.728431
0.737255 0.737255 0.737255
0.828431 0.828431 0.828431
0.700980 0.700980 0.700980
0.716667 0.716667 0.716667
0.750000 0.750000 0.750000
0.809804 0.809804 0.809804
0.868628 0.868628 0.868628
0.882353 0.882353 0.882353
0.888236 0.888236 0.888236
0.910784 0.910784 0.910784
0.934313 0.934313 0.934313
0.956863 0.956863 0.956863
0.894118 0.894118 0.894118
0.891177 0.891177 0.891177
0.896079 0.896079 0.896079
0.898039 0.898039 0.898039
0.909804 0.909804 0.909804
0.900980 0.900980 0.900980
0.898039 0.898039 0.898039
0.900980 0.900980 0.900980
0.905883 0.905883 0.905883
0.912745 0.912745 0.912745
0.915686 0.915686 0.915686
0.916666 0.916666 0.916666
0.917647 0.917647 0.917647
0.921569 0.921569 0.921569
0.929412 0.929412 0.929412
0.922549 0.922549 0.922549
0.928432 0.928432 0.928432
0.939215 0.939215 0.939215
0.950000 0.950000 0.950000
0.957843 0.957843 0.957843
0.941176 0.941176 0.941176
0.945098 0.945098 0.945098
0.954902 0.954902 0.954902
0.969607 0.969607 0.969607
1.000000 1.000000 1.000000
