Black-and-White/Ilford/Ilford XP2 65x.cube
TITLE "Ilford XP2"
LUT_3D_SIZE 9
DOMAIN_MIN 0.000000 0.000000 0.000000
DOMAIN_MAX 1.000000 1.000000 1.000000
0.000000 0.000000 0.000000
0.000000 0.000000 0.000000
0.003922 0.003922 0.003922
0.007843 0.007843 0.007843
0.019608 0.019608 0.019608
0.044608 0.044608 0.044608
0.087255 0.087255 0.087255
0.149020 0.149020 0.149020
0.227451 0.227451 0.227451
0.023039 0.023039 0.023039
0.027451 0.027451 0.027451
0.039216 0.039216 0.039216
0.056863 0.056863 0.056863
0.079902 0.079902 0.079902
0.114706 0.114706 0.114706
0.160294 0.160294 0.160294
0.211764 0.211764 0.211764
0.289706 0.289706 0.289706
0.081372 0.081372 0.081372
0.089216 0.089216 0.089216
0.100981 0.100981 0.100981
0.119118 0.119118 0.119118
0.144118 0.144118 0.144118
0.175490 0.175490 0.175490
0.215687 0.215687 0.215687
0.269608 0.269608 0.269608
0.336275 0.336275 0.336275
0.159314 0.159314 0.159314
0.163235 0.163235 0.163235
0.171078 0.171078 0.171078
0.186765 0.186765 0.186765
0.210294 0.210294 0.210294
0.239215 0.239215 0.239215
0.277942 0.277942 0.277942
0.324510 0.324510 0.324510
0.382843 0.382843 0.382843
0.245098 0.245098 0.245098
0.247058 0.247058 0.247058
0.256863 0.256863 0.256863
0.271079 0.271079 0.271079
0.290196 0.290196 0.290196
0.317647 0.317647 0.317647
0.348039 0.348039 0.348039
0.386765 0.386765 0.386765
0.445098 0.445098 0.445098
0.342647 0.342647 0.342647
0.344117 0.344117 0.344117
0.350490 0.350490 0.350490
0.362255 0.362255 0.362255
0.377941 0.377941 0.377941
0.399019 0.399019 0.399019
0.428922 0.428922 0.428922
0.464706 0.464706 0.464706
0.519118 0.519118 0.519118
0.445098 0.445098 0.445098
0.445098 0.445098 0.445098
0.452941 0.452941 0.452941
0.460785 0.460785 0.460785
0.476471 0.476471 0.476471
0.496079 0.496079 0.496079
0.519608 0.519608 0.519608
0.554412 0.554412 0.554412
0.600980 0.600980 0.600980
0.569117 0.569117 0.569117
0.569608 0.569608 0.569608
0.573529 0.573529 0.573529
0.581372 0.581372 0.581372
0.593137 0.593137 0.593137
0.609804 0.609804 0.609804
0.628922 0.628922 0.628922
0.655392 0.655392 0.655392
0.694608 0.694608 0.694608
0.713726 0.713726 0.713726
0.717647 0.717647 0.717647
0.717647 0.717647 0.717647
0.724020 0.724020 0.724020
0.729412 0.729412 0.729412
0.741176 0.741176 0.741176
0.753922 0.753922 0.753922
0.772549 0.772549 0.772549
0.803922 0.803922 0.803922
0.011765 0.011765 0.011765
0.023039 0.023039 0.023039
0.034804 0.034804 0.034804
0.050490 0.050490 0.050490
0.074020 0.074020 0.074020
0.109314 0.109314 0.109314
0.153431 0.153431 0.153431
0.208333 0.208333 0.208333
0.285785 0.285785 0.285785
0.065687 0.065687 0.065687
0.074020 0.074020 0.074020
0.089706 0.089706 0.089706
0.108824 0.108824 0.108824
0.132843 0.132843 0.132843
0.165686 0.165686 0.165686
0.207353 0.207353 0.207353
0.258824 0.258824 0.258824
0.328922 0.328922 0.328922
0.120589 0.120589 0.120589
0.127941 0.127941 0.127941
0.140196 0.140196 0.140196
0.156373 0.156373 0.156373
0.179412 0.179412 0.179412
0.210785 0.210785 0.210785
0.250980 0.250980 0.250980
0.301471 0.301471 0.301471
0.363725 0.363725 0.363725
0.186765 0.186765 0.186765
0.190686 0.190686 0.190686
0.201961 0.201961 0.201961
0.216667 0.216667 0.216667
0.237745 0.237745 0.237745
0.268627 0.268627 0.268627
0.304412 0.304412 0.304412
0.348039 0.348039 0.348039
0.406373 0.406373 0.406373
0.268137 0.268137 0.268137
0.272059 0.272059 0.272059
0.279902 0.279902 0.279902
0.294118 0.294118 0.294118
0.313725 0.313725 0.313725
0.338725 0.338725 0.338725
0.367647 0.367647 0.367647
0.406373 0.406373 0.406373
0.464216 0.464216 0.464216
0.359804 0.359804 0.359804
0.362255 0.362255 0.362255
0.369608 0.369608 0.369608
0.379412 0.379412 0.379412
0.395588 0.395588 0.395588
0.416667 0.416667 0.416667
0.445588 0.445588 0.445588
0.483333 0.483333 0.483333
0.534804 0.534804 0.534804
0.460785 0.460785 0.460785
0.463235 0.463235 0.463235
0.468628 0.468628 0.468628
0.478921 0.478921 0.478921
0.492157 0.492157 0.492157
0.511765 0.511765 0.511765
0.535294 0.535294 0.535294
0.569117 0.569117 0.569117
0.612745 0.612745 0.612745
0.580882 0.580882 0.580882
0.581372 0.581372 0.581372
0.585294 0.585294 0.585294
0.593137 0.593137 0.593137
0.604902 0.604902 0.604902
0.619608 0.619608 0.619608
0.636765 0.636765 0.636765
0.663725 0.663725 0.663725
0.702451 0.702451 0.702451
0.721569 0.721569 0.721569
0.725490 0.725490 0.725490
0.725490 0.725490 0.725490
0.732843 0.732843 0.732843
0.739216 0.739216 0.739216
0.749020 0.749020 0.749020
0.760784 0.760784 0.760784
0.780392 0.780392 0.780392
0.807843 0.807843 0.807843
0.042157 0.042157 0.042157
0.061765 0.061765 0.061765
0.077451 0.077451 0.077451
0.096569 0.096569 0.096569
0.123529 0.123529 0.123529
0.155883 0.155883 0.155883
0.199020 0.199020 0.199020
0.251470 0.251470 0.251470
0.324510 0.324510 0.324510
0.112255 0.112255 0.112255
0.124019 0.124019 0.124019
0.136274 0.136274 0.136274
0.155392 0.155392 0.155392
0.178922 0.178922 0.178922
0.210294 0.210294 0.210294
0.250980 0.250980 0.250980
0.301471 0.301471 0.301471
0.364216 0.364216 0.364216
0.166666 0.166666 0.166666
0.171568 0.171568 0.171568
0.183334 0.183334 0.183334
0.201471 0.201471 0.201471
0.224510 0.224510 0.224510
0.255392 0.255392 0.255392
0.293137 0.293137 0.293137
0.336765 0.336765 0.336765
0.395098 0.395098 0.395098
0.229902 0.229902 0.229902
0.236765 0.236765 0.236765
0.244608 0.244608 0.244608
0.260294 0.260294 0.260294
0.282843 0.282843 0.282843
0.309804 0.309804 0.309804
0.342647 0.342647 0.342647
0.383333 0.383333 0.383333
0.438236 0.438236 0.438236
0.310785 0.310785 0.310785
0.313725 0.313725 0.313725
0.321569 0.321569 0.321569
0.333824 0.333824 0.333824
0.350000 0.350000 0.350000
0.373530 0.373530 0.373530
0.402941 0.402941 0.402941
0.441667 0.441667 0.441667
0.496078 0.496078 0.496078
0.393627 0.393627 0.393627
0.396568 0.396568 0.396568
0.402941 0.402941 0.402941
0.412255 0.412255 0.412255
0.427941 0.427941 0.427941
0.450000 0.450000 0.450000
0.477451 0.477451 0.477451
0.514216 0.514216 0.514216
0.562255 0.562255 0.562255
0.492157 0.492157 0.492157
0.494118 0.494118 0.494118
0.500000 0.500000 0.500000
0.509804 0.509804 0.509804
0.522549 0.522549 0.522549
0.541176 0.541176 0.541176
0.564706 0.564706 0.564706
0.594118 0.594118 0.594118
0.639216 0.639216 0.639216
0.604902 0.604902 0.604902
0.607843 0.607843 0.607843
0.611765 0.611765 0.611765
0.619118 0.619118 0.619118
0.628431 0.628431 0.628431
0.642647 0.642647 0.642647
0.660295 0.660295 0.660295
0.685785 0.685785 0.685785
0.722059 0.722059 0.722059
0.741176 0.741176 0.741176
0.741176 0.741176 0.741176
0.745098 0.745098 0.745098
0.749020 0.749020 0.749020
0.756863 0.756863 0.756863
0.764706 0.764706 0.764706
0.777451 0.777451 0.777451
0.795098 0.795098 0.795098
0.823529 0.823529 0.823529
0.090196 0.090196 0.090196
0.112255 0.112255 0.112255
0.131863 0.131863 0.131863
0.151471 0.151471 0.151471
0.175000 0.175000 0.175000
0.206373 0.206373 0.206373
0.249510 0.249510 0.249510
0.300980 0.300980 0.300980
0.367157 0.367157 0.367157
0.166666 0.166666 0.166666
0.178431 0.178431 0.178431
0.189706 0.189706 0.189706
0.209804 0.209804 0.209804
0.231863 0.231863 0.231863
0.263726 0.263726 0.263726
0.301470 0.301470 0.301470
0.347059 0.347059 0.347059
0.406373 0.406373 0.406373
0.221078 0.221078 0.221078
0.228922 0.228922 0.228922
0.240686 0.240686 0.240686
0.256373 0.256373 0.256373
0.278922 0.278922 0.278922
0.307353 0.307353 0.307353
0.340686 0.340686 0.340686
0.381863 0.381863 0.381863
0.438236 0.438236 0.438236
0.287255 0.287255 0.287255
0.291177 0.291177 0.291177
0.299020 0.299020 0.299020
0.314706 0.314706 0.314706
0.333824 0.333824 0.333824
0.357843 0.357843 0.357843
0.387745 0.387745 0.387745
0.426470 0.426470 0.426470
0.480882 0.480882 0.480882
0.358823 0.358823 0.358823
0.361275 0.361275 0.361275
0.369118 0.369118 0.369118
0.380883 0.380883 0.380883
0.396569 0.396569 0.396569
0.420098 0.420098 0.420098
0.447549 0.447549 0.447549
0.486765 0.486765 0.486765
0.537745 0.537745 0.537745
0.442157 0.442157 0.442157
0.443137 0.443137 0.443137
0.450980 0.450980 0.450980
0.460294 0.460294 0.460294
0.475980 0.475980 0.475980
0.497059 0.497059 0.497059
0.521569 0.521569 0.521569
0.555882 0.555882 0.555882
0.601471 0.601471 0.601471
0.536764 0.536764 0.536764
0.539216 0.539216 0.539216
0.544608 0.544608 0.544608
0.552451 0.552451 0.552451
0.565196 0.565196 0.565196
0.582843 0.582843 0.582843
0.603432 0.603432 0.603432
0.631373 0.631373 0.631373
0.671569 0.671569 0.671569
0.642157 0.642157 0.642157
0.643627 0.643627 0.643627
0.646569 0.646569 0.646569
0.653921 0.653921 0.653921
0.662255 0.662255 0.662255
0.675490 0.675490 0.675490
0.691667 0.691667 0.691667
0.714706 0.714706 0.714706
0.746078 0.746078 0.746078
0.764706 0.764706 0.764706
0.767157 0.767157 0.767157
0.768627 0.768627 0.768627
0.772549 0.772549 0.772549
0.778922 0.778922 0.778922
0.788235 0.788235 0.788235
0.800000 0.800000 0.800000
0.815686 0.815686 0.815686
0.841667 0.841667 0.841667
0.154902 0.154902 0.154902
0.177941 0.177941 0.177941
0.194117 0.194117 0.194117
0.212255 0.212255 0.212255
0.237255 0.237255 0.237255
0.268628 0.268628 0.268628
0.307843 0.307843 0.307843
0.354902 0.354902 0.354902
0.413725 0.413725 0.413725
0.231372 0.231372 0.231372
0.240686 0.240686 0.240686
0.256373 0.256373 0.256373
0.271079 0.271079 0.271079
0.295588 0.295588 0.295588
0.323530 0.323530 0.323530
0.357353 0.357353 0.357353
0.398529 0.398529 0.398529
0.456373 0.456373 0.456373
0.287255 0.287255 0.287255
0.295098 0.295098 0.295098
0.306863 0.306863 0.306863
0.322549 0.322549 0.322549
0.341176 0.341176 0.341176
0.365686 0.365686 0.365686
0.397059 0.397059 0.397059
0.436275 0.436275 0.436275
0.491177 0.491177 0.491177
0.349510 0.349510 0.349510
0.353432 0.353432 0.353432
0.361275 0.361275 0.361275
0.375000 0.375000 0.375000
0.392647 0.392647 0.392647
0.416177 0.416177 0.416177
0.446078 0.446078 0.446078
0.483333 0.483333 0.483333
0.535294 0.535294 0.535294
0.419608 0.419608 0.419608
0.423530 0.423530 0.423530
0.431373 0.431373 0.431373
0.441667 0.441667 0.441667
0.458823 0.458823 0.458823
0.479902 0.479902 0.479902
0.506863 0.506863 0.506863
0.541177 0.541177 0.541177
0.588236 0.588236 0.588236
0.501470 0.501470 0.501470
0.505392 0.505392 0.505392
0.509314 0.509314 0.509314
0.521078 0.521078 0.521078
0.532843 0.532843 0.532843
0.552451 0.552451 0.552451
0.575980 0.575980 0.575980
0.605883 0.605883 0.605883
0.646568 0.646568 0.646568
0.590196 0.590196 0.590196
0.591176 0.591176 0.591176
0.595098 0.595098 0.595098
0.602941 0.602941 0.602941
0.614706 0.614706 0.614706
0.630392 0.630392 0.630392
0.649020 0.649020 0.649020
0.673529 0.673529 0.673529
0.708823 0.708823 0.708823
0.683333 0.683333 0.683333
0.684804 0.684804 0.684804
0.688726 0.688726 0.688726
0.692647 0.692647 0.692647
0.700490 0.700490 0.700490
0.712255 0.712255 0.712255
0.727941 0.727941 0.727941
0.747549 0.747549 0.747549
0.776961 0.776961 0.776961
0.794118 0.794118 0.794118
0.796078 0.796078 0.796078
0.798039 0.798039 0.798039
0.801961 0.801961 0.801961
0.807843 0.807843 0.807843
0.815686 0.815686 0.815686
0.825490 0.825490 0.825490
0.839216 0.839216 0.839216
0.862745 0.862745 0.862745
0.232843 0.232843 0.232843
0.255883 0.255883 0.255883
0.272059 0.272059 0.272059
0.291667 0.291667 0.291667
0.313235 0.313235 0.313235
0.340196 0.340196 0.340196
0.374020 0.374020 0.374020
0.413726 0.413726 0.413726
0.472059 0.472059 0.472059
0.310785 0.310785 0.310785
0.322549 0.322549 0.322549
0.334314 0.334314 0.334314
0.350000 0.350000 0.350000
0.369608 0.369608 0.369608
0.393137 0.393137 0.393137
0.424510 0.424510 0.424510
0.464216 0.464216 0.464216
0.518628 0.518628 0.518628
0.365196 0.365196 0.365196
0.369117 0.369117 0.369117
0.380883 0.380883 0.380883
0.392157 0.392157 0.392157
0.412255 0.412255 0.412255
0.435785 0.435785 0.435785
0.465196 0.465196 0.465196
0.502941 0.502941 0.502941
0.551961 0.551961 0.551961
0.423529 0.423529 0.423529
0.427451 0.427451 0.427451
0.435294 0.435294 0.435294
0.447059 0.447059 0.447059
0.464706 0.464706 0.464706
0.486275 0.486275 0.486275
0.513726 0.513726 0.513726
0.549020 0.549020 0.549020
0.593627 0.593627 0.593627
0.493627 0.493627 0.493627
0.495098 0.495098 0.495098
0.501470 0.501470 0.501470
0.513235 0.513235 0.513235
0.528921 0.528921 0.528921
0.548529 0.548529 0.548529
0.572059 0.572059 0.572059
0.600000 0.600000 0.600000
0.640686 0.640686 0.640686
0.567647 0.567647 0.567647
0.571569 0.571569 0.571569
0.575490 0.575490 0.575490
0.583333 0.583333 0.583333
0.595588 0.595588 0.595588
0.610784 0.610784 0.610784
0.633824 0.633824 0.633824
0.657843 0.657843 0.657843
0.693137 0.693137 0.693137
0.645588 0.645588 0.645588
0.648039 0.648039 0.648039
0.652941 0.652941 0.652941
0.657353 0.657353 0.657353
0.669118 0.669118 0.669118
0.680882 0.680882 0.680882
0.696569 0.696569 0.696569
0.719118 0.719118 0.719118
0.747549 0.747549 0.747549
0.727451 0.727451 0.727451
0.727451 0.727451 0.727451
0.731373 0.731373 0.731373
0.736274 0.736274 0.736274
0.743137 0.743137 0.743137
0.754902 0.754902 0.754902
0.766667 0.766667 0.766667
0.782353 0.782353 0.782353
0.809804 0.809804 0.809804
0.827451 0.827451 0.827451
0.827451 0.827451 0.827451
0.828922 0.828922 0.828922
0.832843 0.832843 0.832843
0.837255 0.837255 0.837255
0.844608 0.844608 0.844608
0.854902 0.854902 0.854902
0.866667 0.866667 0.866667
0.887745 0.887745 0.887745
0.326470 0.326470 0.326470
0.346079 0.346079 0.346079
0.358824 0.358824 0.358824
0.374510 0.374510 0.374510
0.395098 0.395098 0.395098
0.420588 0.420588 0.420588
0.449020 0.449020 0.449020
0.491176 0.491176 0.491176
0.542156 0.542156 0.542156
0.396568 0.396568 0.396568
0.404412 0.404412 0.404412
0.416176 0.416176 0.416176
0.431863 0.431863 0.431863
0.451470 0.451470 0.451470
0.475000 0.475000 0.475000
0.502451 0.502451 0.502451
0.537745 0.537745 0.537745
0.584804 0.584804 0.584804
0.447059 0.447059 0.447059
0.452941 0.452941 0.452941
0.462745 0.462745 0.462745
0.475000 0.475000 0.475000
0.494118 0.494118 0.494118
0.517647 0.517647 0.517647
0.541176 0.541176 0.541176
0.574020 0.574020 0.574020
0.615686 0.615686 0.615686
0.505392 0.505392 0.505392
0.509314 0.509314 0.509314
0.517157 0.517157 0.517157
0.528921 0.528921 0.528921
0.544608 0.544608 0.544608
0.564215 0.564215 0.564215
0.587745 0.587745 0.587745
0.615196 0.615196 0.615196
0.654412 0.654412 0.654412
0.571568 0.571568 0.571568
0.571568 0.571568 0.571568
0.579412 0.579412 0.579412
0.587255 0.587255 0.587255
0.602941 0.602941 0.602941
0.618627 0.618627 0.618627
0.638235 0.638235 0.638235
0.662255 0.662255 0.662255
0.697059 0.697059 0.697059
0.637745 0.637745 0.637745
0.637745 0.637745 0.637745
0.647059 0.647059 0.647059
0.650981 0.650981 0.650981
0.661275 0.661275 0.661275
0.676961 0.676961 0.676961
0.692647 0.692647 0.692647
0.712255 0.712255 0.712255
0.742647 0.742647 0.742647
0.703922 0.703922 0.703922
0.707843 0.707843 0.707843
0.711765 0.711765 0.711765
0.715687 0.715687 0.715687
0.723530 0.723530 0.723530
0.735294 0.735294 0.735294
0.750000 0.750000 0.750000
0.766667 0.766667 0.766667
0.793137 0.793137 0.793137
0.776961 0.776961 0.776961
0.777942 0.777942 0.777942
0.779902 0.779902 0.779902
0.784804 0.784804 0.784804
0.789706 0.789706 0.789706
0.797549 0.797549 0.797549
0.809314 0.809314 0.809314
0.824019 0.824019 0.824019
0.847549 0.847549 0.847549
0.862745 0.862745 0.862745
0.863726 0.863726 0.863726
0.865687 0.865687 0.865687
0.867647 0.867647 0.867647
0.871568 0.871568 0.871568
0.878431 0.878431 0.878431
0.886275 0.886275 0.886275
0.898039 0.898039 0.898039
0.914706 0.914706 0.914706
0.420098 0.420098 0.420098
0.436274 0.436274 0.436274
0.451470 0.451470 0.451470
0.465686 0.465686 0.465686
0.484804 0.484804 0.484804
0.507843 0.507843 0.507843
0.534804 0.534804 0.534804
0.569607 0.569607 0.569607
0.612255 0.612255 0.612255
0.490196 0.490196 0.490196
0.498039 0.498039 0.498039
0.509804 0.509804 0.509804
0.520588 0.520588 0.520588
0.538235 0.538235 0.538235
0.560784 0.560784 0.560784
0.581863 0.581863 0.581863
0.612745 0.612745 0.612745
0.651470 0.651470 0.651470
0.540686 0.540686 0.540686
0.544608 0.544608 0.544608
0.552941 0.552941 0.552941
0.564216 0.564216 0.564216
0.578922 0.578922 0.578922
0.599510 0.599510 0.599510
0.623039 0.623039 0.623039
0.648039 0.648039 0.648039
0.682843 0.682843 0.682843
0.595098 0.595098 0.595098
0.597059 0.597059 0.597059
0.602941 0.602941 0.602941
0.614706 0.614706 0.614706
0.626470 0.626470 0.626470
0.641177 0.641177 0.641177
0.660295 0.660295 0.660295
0.685294 0.685294 0.685294
0.716667 0.716667 0.716667
0.653431 0.653431 0.653431
0.653431 0.653431 0.653431
0.657353 0.657353 0.657353
0.665686 0.665686 0.665686
0.676961 0.676961 0.676961
0.692647 0.692647 0.692647
0.708333 0.708333 0.708333
0.727941 0.727941 0.727941
0.755392 0.755392 0.755392
0.710784 0.710784 0.710784
0.711765 0.711765 0.711765
0.715687 0.715687 0.715687
0.722549 0.722549 0.722549
0.731373 0.731373 0.731373
0.743137 0.743137 0.743137
0.754902 0.754902 0.754902
0.773039 0.773039 0.773039
0.796568 0.796568 0.796568
0.769117 0.769117 0.769117
0.770098 0.770098 0.770098
0.775490 0.775490 0.775490
0.777942 0.777942 0.777942
0.786274 0.786274 0.786274
0.793627 0.793627 0.793627
0.805393 0.805393 0.805393
0.820098 0.820098 0.820098
0.840196 0.840196 0.840196
0.828431 0.828431 0.828431
0.828431 0.828431 0.828431
0.832353 0.832353 0.832353
0.836274 0.836274 0.836274
0.840196 0.840196 0.840196
0.848039 0.848039 0.848039
0.855882 0.855882 0.855882
0.867647 0.867647 0.867647
0.886765 0.886765 0.886765
0.902451 0.902451 0.902451
0.902451 0.902451 0.902451
0.905882 0.905882 0.905882
0.906372 0.906372 0.906372
0.910294 0.910294 0.910294
0.915196 0.915196 0.915196
0.922059 0.922059 0.922059
0.929902 0.929902 0.929902
0.945588 0.945588 0.945588
0.525490 0.525490 0.525490
0.541176 0.541176 0.541176
0.552941 0.552941 0.552941
0.564706 0.564706 0.564706
0.580392 0.580392 0.580392
0.600000 0.600000 0.600000
0.623529 0.623529 0.623529
0.650980 0.650980 0.650980
0.686275 0.686275 0.686275
0.591667 0.591667 0.591667
0.596078 0.596078 0.596078
0.607353 0.607353 0.607353
0.619118 0.619118 0.619118
0.631373 0.631373 0.631373
0.650490 0.650490 0.650490
0.670098 0.670098 0.670098
0.693628 0.693628 0.693628
0.721569 0.721569 0.721569
0.635294 0.635294 0.635294
0.639216 0.639216 0.639216
0.647059 0.647059 0.647059
0.657844 0.657844 0.657844
0.668627 0.668627 0.668627
0.683824 0.683824 0.683824
0.704902 0.704902 0.704902
0.722059 0.722059 0.722059
0.751961 0.751961 0.751961
0.684804 0.684804 0.684804
0.688726 0.688726 0.688726
0.692647 0.692647 0.692647
0.700490 0.700490 0.700490
0.712255 0.712255 0.712255
0.723039 0.723039 0.723039
0.738235 0.738235 0.738235
0.759314 0.759314 0.759314
0.782843 0.782843 0.782843
0.735294 0.735294 0.735294
0.737255 0.737255 0.737255
0.741176 0.741176 0.741176
0.747059 0.747059 0.747059
0.756863 0.756863 0.756863
0.766176 0.766176 0.766176
0.782353 0.782353 0.782353
0.798039 0.798039 0.798039
0.817647 0.817647 0.817647
0.785784 0.785784 0.785784
0.785784 0.785784 0.785784
0.789706 0.789706 0.789706
0.796078 0.796078 0.796078
0.801471 0.801471 0.801471
0.813235 0.813235 0.813235
0.823529 0.823529 0.823529
0.836765 0.836765 0.836765
0.854902 0.854902 0.854902
0.836274 0.836274 0.836274
0.839216 0.839216 0.839216
0.840196 0.840196 0.840196
0.844117 0.844117 0.844117
0.852941 0.852941 0.852941
0.858824 0.858824 0.858824
0.867647 0.867647 0.867647
0.879412 0.879412 0.879412
0.895098 0.895098 0.895098
0.890686 0.890686 0.890686
0.890686 0.890686 0.890686
0.894118 0.894118 0.894118
0.894608 0.894608 0.894608
0.901961 0.901961 0.901961
0.906372 0.906372 0.906372
0.914215 0.914215 0.914215
0.922059 0.922059 0.922059
0.937255 0.937255 0.937255
0.952941 0.952941 0.952941
0.952941 0.952941 0.952941
0.952941 0.952941 0.952941
0.956863 0.956863 0.956863
0.960784 0.960784 0.960784
0.964706 0.964706 0.964706
0.972549 0.972549 0.972549
0.980882 0.980882 0.980882
1.000000 1.000000 1.000000
