Black-and-White/Ilford/Ilford Delta 100 65x.cube
TITLE "Ilford Delta 100"
LUT_3D_SIZE 9
DOMAIN_MIN 0.000000 0.000000 0.000000
DOMAIN_MAX 1.000000 1.000000 1.000000
0.000000 0.000000 0.000000
0.000000 0.000000 0.000000
0.000000 0.000000 0.000000
0.003922 0.003922 0.003922
0.011765 0.011765 0.011765
0.023529 0.023529 0.023529
0.051960 0.051960 0.051960
0.090686 0.090686 0.090686
0.156863 0.156863 0.156863
0.046569 0.046569 0.046569
0.054412 0.054412 0.054412
0.065197 0.065197 0.065197
0.077941 0.077941 0.077941
0.093628 0.093628 0.093628
0.118627 0.118627 0.118627
0.159804 0.159804 0.159804
0.211275 0.211275 0.211275
0.293628 0.293628 0.293628
0.136274 0.136274 0.136274
0.143137 0.143137 0.143137
0.154902 0.154902 0.154902
0.170588 0.170588 0.170588
0.194117 0.194117 0.194117
0.224020 0.224020 0.224020
0.269608 0.269608 0.269608
0.324020 0.324020 0.324020
0.390196 0.390196 0.390196
0.275490 0.275490 0.275490
0.282844 0.282844 0.282844
0.291177 0.291177 0.291177
0.306863 0.306863 0.306863
0.330392 0.330392 0.330392
0.357843 0.357843 0.357843
0.387745 0.387745 0.387745
0.428431 0.428431 0.428431
0.471569 0.471569 0.471569
0.427451 0.427451 0.427451
0.431373 0.431373 0.431373
0.435294 0.435294 0.435294
0.445098 0.445098 0.445098
0.458823 0.458823 0.458823
0.474510 0.474510 0.474510
0.493137 0.493137 0.493137
0.521568 0.521568 0.521568
0.554902 0.554902 0.554902
0.548039 0.548039 0.548039
0.548039 0.548039 0.548039
0.551961 0.551961 0.551961
0.558333 0.558333 0.558333
0.568137 0.568137 0.568137
0.579412 0.579412 0.579412
0.593627 0.593627 0.593627
0.609804 0.609804 0.609804
0.636765 0.636765 0.636765
0.652941 0.652941 0.652941
0.655882 0.655882 0.655882
0.656863 0.656863 0.656863
0.660785 0.660785 0.660785
0.667647 0.667647 0.667647
0.675490 0.675490 0.675490
0.687255 0.687255 0.687255
0.699510 0.699510 0.699510
0.722549 0.722549 0.722549
0.761274 0.761274 0.761274
0.761274 0.761274 0.761274
0.761764 0.761764 0.761764
0.765686 0.765686 0.765686
0.769607 0.769607 0.769607
0.776961 0.776961 0.776961
0.784804 0.784804 0.784804
0.793137 0.793137 0.793137
0.808823 0.808823 0.808823
0.882353 0.882353 0.882353
0.882353 0.882353 0.882353
0.882353 0.882353 0.882353
0.886275 0.886275 0.886275
0.886275 0.886275 0.886275
0.890196 0.890196 0.890196
0.898039 0.898039 0.898039
0.905882 0.905882 0.905882
0.913725 0.913725 0.913725
0.007843 0.007843 0.007843
0.015686 0.015686 0.015686
0.023529 0.023529 0.023529
0.031373 0.031373 0.031373
0.047059 0.047059 0.047059
0.070098 0.070098 0.070098
0.101471 0.101471 0.101471
0.149020 0.149020 0.149020
0.230883 0.230883 0.230883
0.089216 0.089216 0.089216
0.097059 0.097059 0.097059
0.105392 0.105392 0.105392
0.120588 0.120588 0.120588
0.140196 0.140196 0.140196
0.171569 0.171569 0.171569
0.211765 0.211765 0.211765
0.270098 0.270098 0.270098
0.348040 0.348040 0.348040
0.175000 0.175000 0.175000
0.182353 0.182353 0.182353
0.194117 0.194117 0.194117
0.212745 0.212745 0.212745
0.236765 0.236765 0.236765
0.270588 0.270588 0.270588
0.311765 0.311765 0.311765
0.359804 0.359804 0.359804
0.418627 0.418627 0.418627
0.310294 0.310294 0.310294
0.314216 0.314216 0.314216
0.325490 0.325490 0.325490
0.338235 0.338235 0.338235
0.357843 0.357843 0.357843
0.383824 0.383824 0.383824
0.412745 0.412745 0.412745
0.446078 0.446078 0.446078
0.488726 0.488726 0.488726
0.446568 0.446568 0.446568
0.447059 0.447059 0.447059
0.452451 0.452451 0.452451
0.462746 0.462746 0.462746
0.474510 0.474510 0.474510
0.490196 0.490196 0.490196
0.509804 0.509804 0.509804
0.533334 0.533334 0.533334
0.566666 0.566666 0.566666
0.558333 0.558333 0.558333
0.559804 0.559804 0.559804
0.563725 0.563725 0.563725
0.569608 0.569608 0.569608
0.577451 0.577451 0.577451
0.589216 0.589216 0.589216
0.602451 0.602451 0.602451
0.621078 0.621078 0.621078
0.646078 0.646078 0.646078
0.660785 0.660785 0.660785
0.663235 0.663235 0.663235
0.664706 0.664706 0.664706
0.668628 0.668628 0.668628
0.675490 0.675490 0.675490
0.683334 0.683334 0.683334
0.694608 0.694608 0.694608
0.707353 0.707353 0.707353
0.727451 0.727451 0.727451
0.765686 0.765686 0.765686
0.765686 0.765686 0.765686
0.768627 0.768627 0.768627
0.769607 0.769607 0.769607
0.773529 0.773529 0.773529
0.780882 0.780882 0.780882
0.788725 0.788725 0.788725
0.800000 0.800000 0.800000
0.816176 0.816176 0.816176
0.886275 0.886275 0.886275
0.886275 0.886275 0.886275
0.886275 0.886275 0.886275
0.890196 0.890196 0.890196
0.890196 0.890196 0.890196
0.894118 0.894118 0.894118
0.901961 0.901961 0.901961
0.906372 0.906372 0.906372
0.917647 0.917647 0.917647
0.030392 0.030392 0.030392
0.042157 0.042157 0.042157
0.053921 0.053921 0.053921
0.065687 0.065687 0.065687
0.085294 0.085294 0.085294
0.108823 0.108823 0.108823
0.145098 0.145098 0.145098
0.199510 0.199510 0.199510
0.285295 0.285295 0.285295
0.127941 0.127941 0.127941
0.135784 0.135784 0.135784
0.147549 0.147549 0.147549
0.166176 0.166176 0.166176
0.188725 0.188725 0.188725
0.222059 0.222059 0.222059
0.266177 0.266177 0.266177
0.321079 0.321079 0.321079
0.390686 0.390686 0.390686
0.225490 0.225490 0.225490
0.233333 0.233333 0.233333
0.248039 0.248039 0.248039
0.264706 0.264706 0.264706
0.290196 0.290196 0.290196
0.321079 0.321079 0.321079
0.358823 0.358823 0.358823
0.399510 0.399510 0.399510
0.450000 0.450000 0.450000
0.356863 0.356863 0.356863
0.360784 0.360784 0.360784
0.368627 0.368627 0.368627
0.381373 0.381373 0.381373
0.399510 0.399510 0.399510
0.420588 0.420588 0.420588
0.446568 0.446568 0.446568
0.477451 0.477451 0.477451
0.516177 0.516177 0.516177
0.474510 0.474510 0.474510
0.477941 0.477941 0.477941
0.482353 0.482353 0.482353
0.490197 0.490197 0.490197
0.501961 0.501961 0.501961
0.517157 0.517157 0.517157
0.534314 0.534314 0.534314
0.556863 0.556863 0.556863
0.586275 0.586275 0.586275
0.579412 0.579412 0.579412
0.579412 0.579412 0.579412
0.583333 0.583333 0.583333
0.588726 0.588726 0.588726
0.596569 0.596569 0.596569
0.606863 0.606863 0.606863
0.621078 0.621078 0.621078
0.638235 0.638235 0.638235
0.663235 0.663235 0.663235
0.676471 0.676471 0.676471
0.676471 0.676471 0.676471
0.679412 0.679412 0.679412
0.683334 0.683334 0.683334
0.690196 0.690196 0.690196
0.698039 0.698039 0.698039
0.707843 0.707843 0.707843
0.721569 0.721569 0.721569
0.742156 0.742156 0.742156
0.776961 0.776961 0.776961
0.777451 0.777451 0.777451
0.779902 0.779902 0.779902
0.781372 0.781372 0.781372
0.785294 0.785294 0.785294
0.792647 0.792647 0.792647
0.799510 0.799510 0.799510
0.808823 0.808823 0.808823
0.824509 0.824509 0.824509
0.894118 0.894118 0.894118
0.894118 0.894118 0.894118
0.894118 0.894118 0.894118
0.898039 0.898039 0.898039
0.898039 0.898039 0.898039
0.901961 0.901961 0.901961
0.908823 0.908823 0.908823
0.913725 0.913725 0.913725
0.925490 0.925490 0.925490
0.065196 0.065196 0.065196
0.080882 0.080882 0.080882
0.092647 0.092647 0.092647
0.108333 0.108333 0.108333
0.129902 0.129902 0.129902
0.159314 0.159314 0.159314
0.203432 0.203432 0.203432
0.261765 0.261765 0.261765
0.347549 0.347549 0.347549
0.181863 0.181863 0.181863
0.193627 0.193627 0.193627
0.205882 0.205882 0.205882
0.227941 0.227941 0.227941
0.252451 0.252451 0.252451
0.287745 0.287745 0.287745
0.328431 0.328431 0.328431
0.376471 0.376471 0.376471
0.433333 0.433333 0.433333
0.291667 0.291667 0.291667
0.298530 0.298530 0.298530
0.311275 0.311275 0.311275
0.329412 0.329412 0.329412
0.350490 0.350490 0.350490
0.377941 0.377941 0.377941
0.407843 0.407843 0.407843
0.444608 0.444608 0.444608
0.487745 0.487745 0.487745
0.407353 0.407353 0.407353
0.408824 0.408824 0.408824
0.416667 0.416667 0.416667
0.428431 0.428431 0.428431
0.444118 0.444118 0.444118
0.462745 0.462745 0.462745
0.483333 0.483333 0.483333
0.510784 0.510784 0.510784
0.547549 0.547549 0.547549
0.509804 0.509804 0.509804
0.510294 0.510294 0.510294
0.517648 0.517648 0.517648
0.522059 0.522059 0.522059
0.533824 0.533824 0.533824
0.548529 0.548529 0.548529
0.564705 0.564705 0.564705
0.584804 0.584804 0.584804
0.613725 0.613725 0.613725
0.605392 0.605392 0.605392
0.606863 0.606863 0.606863
0.609314 0.609314 0.609314
0.615686 0.615686 0.615686
0.623039 0.623039 0.623039
0.632843 0.632843 0.632843
0.645588 0.645588 0.645588
0.662745 0.662745 0.662745
0.686275 0.686275 0.686275
0.697549 0.697549 0.697549
0.699019 0.699019 0.699019
0.701470 0.701470 0.701470
0.705392 0.705392 0.705392
0.710784 0.710784 0.710784
0.718628 0.718628 0.718628
0.727451 0.727451 0.727451
0.740686 0.740686 0.740686
0.760294 0.760294 0.760294
0.792647 0.792647 0.792647
0.793137 0.793137 0.793137
0.795098 0.795098 0.795098
0.797058 0.797058 0.797058
0.800980 0.800980 0.800980
0.806863 0.806863 0.806863
0.814706 0.814706 0.814706
0.824019 0.824019 0.824019
0.839706 0.839706 0.839706
0.905882 0.905882 0.905882
0.905882 0.905882 0.905882
0.905882 0.905882 0.905882
0.908333 0.908333 0.908333
0.909804 0.909804 0.909804
0.913725 0.913725 0.913725
0.917647 0.917647 0.917647
0.925490 0.925490 0.925490
0.935784 0.935784 0.935784
0.115686 0.115686 0.115686
0.135294 0.135294 0.135294
0.150981 0.150981 0.150981
0.170588 0.170588 0.170588
0.198039 0.198039 0.198039
0.234804 0.234804 0.234804
0.281373 0.281373 0.281373
0.339706 0.339706 0.339706
0.405883 0.405883 0.405883
0.258333 0.258333 0.258333
0.270098 0.270098 0.270098
0.287255 0.287255 0.287255
0.306863 0.306863 0.306863
0.330392 0.330392 0.330392
0.360294 0.360294 0.360294
0.394608 0.394608 0.394608
0.433334 0.433334 0.433334
0.479902 0.479902 0.479902
0.365686 0.365686 0.365686
0.369608 0.369608 0.369608
0.381373 0.381373 0.381373
0.395588 0.395588 0.395588
0.412745 0.412745 0.412745
0.436275 0.436275 0.436275
0.459804 0.459804 0.459804
0.491177 0.491177 0.491177
0.528431 0.528431 0.528431
0.459804 0.459804 0.459804
0.463236 0.463236 0.463236
0.471079 0.471079 0.471079
0.478922 0.478922 0.478922
0.491177 0.491177 0.491177
0.509804 0.509804 0.509804
0.528922 0.528922 0.528922
0.551961 0.551961 0.551961
0.582843 0.582843 0.582843
0.552941 0.552941 0.552941
0.552941 0.552941 0.552941
0.556863 0.556863 0.556863
0.564705 0.564705 0.564705
0.572549 0.572549 0.572549
0.584313 0.584313 0.584313
0.600000 0.600000 0.600000
0.619607 0.619607 0.619607
0.647058 0.647058 0.647058
0.638725 0.638725 0.638725
0.638725 0.638725 0.638725
0.642647 0.642647 0.642647
0.646568 0.646568 0.646568
0.654412 0.654412 0.654412
0.664216 0.664216 0.664216
0.675980 0.675980 0.675980
0.691667 0.691667 0.691667
0.711275 0.711275 0.711275
0.723530 0.723530 0.723530
0.724510 0.724510 0.724510
0.726471 0.726471 0.726471
0.730392 0.730392 0.730392
0.735294 0.735294 0.735294
0.742156 0.742156 0.742156
0.751961 0.751961 0.751961
0.763725 0.763725 0.763725
0.781373 0.781373 0.781373
0.812255 0.812255 0.812255
0.812745 0.812745 0.812745
0.814216 0.814216 0.814216
0.816666 0.816666 0.816666
0.820588 0.820588 0.820588
0.825980 0.825980 0.825980
0.832353 0.832353 0.832353
0.841667 0.841667 0.841667
0.855392 0.855392 0.855392
0.917647 0.917647 0.917647
0.917647 0.917647 0.917647
0.917647 0.917647 0.917647
0.921569 0.921569 0.921569
0.921569 0.921569 0.921569
0.925490 0.925490 0.925490
0.929412 0.929412 0.929412
0.937255 0.937255 0.937255
0.945098 0.945098 0.945098
0.199020 0.199020 0.199020
0.224510 0.224510 0.224510
0.246078 0.246078 0.246078
0.269608 0.269608 0.269608
0.297059 0.297059 0.297059
0.332353 0.332353 0.332353
0.371078 0.371078 0.371078
0.413726 0.413726 0.413726
0.468137 0.468137 0.468137
0.353922 0.353922 0.353922
0.365196 0.365196 0.365196
0.377451 0.377451 0.377451
0.393137 0.393137 0.393137
0.412745 0.412745 0.412745
0.436275 0.436275 0.436275
0.461275 0.461275 0.461275
0.492157 0.492157 0.492157
0.530882 0.530882 0.530882
0.439706 0.439706 0.439706
0.443628 0.443628 0.443628
0.451470 0.451470 0.451470
0.463236 0.463236 0.463236
0.478921 0.478921 0.478921
0.497059 0.497059 0.497059
0.518137 0.518137 0.518137
0.541667 0.541667 0.541667
0.575491 0.575491 0.575491
0.517647 0.517647 0.517647
0.521569 0.521569 0.521569
0.525490 0.525490 0.525490
0.533333 0.533333 0.533333
0.545098 0.545098 0.545098
0.559314 0.559314 0.559314
0.576471 0.576471 0.576471
0.596078 0.596078 0.596078
0.625000 0.625000 0.625000
0.595588 0.595588 0.595588
0.598039 0.598039 0.598039
0.601961 0.601961 0.601961
0.607353 0.607353 0.607353
0.615687 0.615687 0.615687
0.626961 0.626961 0.626961
0.641176 0.641176 0.641176
0.658333 0.658333 0.658333
0.681863 0.681863 0.681863
0.673529 0.673529 0.673529
0.675980 0.675980 0.675980
0.677451 0.677451 0.677451
0.682353 0.682353 0.682353
0.689216 0.689216 0.689216
0.697059 0.697059 0.697059
0.708823 0.708823 0.708823
0.723039 0.723039 0.723039
0.742647 0.742647 0.742647
0.751471 0.751471 0.751471
0.753922 0.753922 0.753922
0.755392 0.755392 0.755392
0.758824 0.758824 0.758824
0.763235 0.763235 0.763235
0.770588 0.770588 0.770588
0.778922 0.778922 0.778922
0.789706 0.789706 0.789706
0.806373 0.806373 0.806373
0.833334 0.833334 0.833334
0.835784 0.835784 0.835784
0.836274 0.836274 0.836274
0.839706 0.839706 0.839706
0.841667 0.841667 0.841667
0.847549 0.847549 0.847549
0.852941 0.852941 0.852941
0.863235 0.863235 0.863235
0.875000 0.875000 0.875000
0.933333 0.933333 0.933333
0.933333 0.933333 0.933333
0.933333 0.933333 0.933333
0.934804 0.934804 0.934804
0.937255 0.937255 0.937255
0.941176 0.941176 0.941176
0.945098 0.945098 0.945098
0.949020 0.949020 0.949020
0.958333 0.958333 0.958333
0.322549 0.322549 0.322549
0.345588 0.345588 0.345588
0.362745 0.362745 0.362745
0.379902 0.379902 0.379902
0.402941 0.402941 0.402941
0.425980 0.425980 0.425980
0.452941 0.452941 0.452941
0.487745 0.487745 0.487745
0.526471 0.526471 0.526471
0.443627 0.443627 0.443627
0.451470 0.451470 0.451470
0.459314 0.459314 0.459314
0.475000 0.475000 0.475000
0.485294 0.485294 0.485294
0.506372 0.506372 0.506372
0.525980 0.525980 0.525980
0.550490 0.550490 0.550490
0.584804 0.584804 0.584804
0.509804 0.509804 0.509804
0.513726 0.513726 0.513726
0.521569 0.521569 0.521569
0.529412 0.529412 0.529412
0.541176 0.541176 0.541176
0.556863 0.556863 0.556863
0.573530 0.573530 0.573530
0.596078 0.596078 0.596078
0.624510 0.624510 0.624510
0.575981 0.575981 0.575981
0.575981 0.575981 0.575981
0.583333 0.583333 0.583333
0.587745 0.587745 0.587745
0.599510 0.599510 0.599510
0.611274 0.611274 0.611274
0.626961 0.626961 0.626961
0.644118 0.644118 0.644118
0.669118 0.669118 0.669118
0.645098 0.645098 0.645098
0.646078 0.646078 0.646078
0.650000 0.650000 0.650000
0.653922 0.653922 0.653922
0.661765 0.661765 0.661765
0.672549 0.672549 0.672549
0.685294 0.685294 0.685294
0.700490 0.700490 0.700490
0.720588 0.720588 0.720588
0.715196 0.715196 0.715196
0.715196 0.715196 0.715196
0.718138 0.718138 0.718138
0.723039 0.723039 0.723039
0.727941 0.727941 0.727941
0.735784 0.735784 0.735784
0.746569 0.746569 0.746569
0.758824 0.758824 0.758824
0.777451 0.777451 0.777451
0.785294 0.785294 0.785294
0.786275 0.786275 0.786275
0.789215 0.789215 0.789215
0.790196 0.790196 0.790196
0.797058 0.797058 0.797058
0.801961 0.801961 0.801961
0.809804 0.809804 0.809804
0.820588 0.820588 0.820588
0.836274 0.836274 0.836274
0.859804 0.859804 0.859804
0.860295 0.860295 0.860295
0.863235 0.863235 0.863235
0.864216 0.864216 0.864216
0.867647 0.867647 0.867647
0.872059 0.872059 0.872059
0.878921 0.878921 0.878921
0.886765 0.886765 0.886765
0.898529 0.898529 0.898529
0.949020 0.949020 0.949020
0.949020 0.949020 0.949020
0.949020 0.949020 0.949020
0.952941 0.952941 0.952941
0.952941 0.952941 0.952941
0.956863 0.956863 0.956863
0.960784 0.960784 0.960784
0.964706 0.964706 0.964706
0.972549 0.972549 0.972549
0.432353 0.432353 0.432353
0.448039 0.448039 0.448039
0.459804 0.459804 0.459804
0.475000 0.475000 0.475000
0.490686 0.490686 0.490686
0.507843 0.507843 0.507843
0.529902 0.529902 0.529902
0.557353 0.557353 0.557353
0.588725 0.588725 0.588725
0.521569 0.521569 0.521569
0.529412 0.529412 0.529412
0.537255 0.537255 0.537255
0.545588 0.545588 0.545588
0.560784 0.560784 0.560784
0.570588 0.570588 0.570588
0.592157 0.592157 0.592157
0.611765 0.611765 0.611765
0.639706 0.639706 0.639706
0.576961 0.576961 0.576961
0.579902 0.579902 0.579902
0.587745 0.587745 0.587745
0.595588 0.595588 0.595588
0.604412 0.604412 0.604412
0.619118 0.619118 0.619118
0.634314 0.634314 0.634314
0.650490 0.650490 0.650490
0.675000 0.675000 0.675000
0.634314 0.634314 0.634314
0.635784 0.635784 0.635784
0.642157 0.642157 0.642157
0.646078 0.646078 0.646078
0.657353 0.657353 0.657353
0.664706 0.664706 0.664706
0.680882 0.680882 0.680882
0.695098 0.695098 0.695098
0.716667 0.716667 0.716667
0.696569 0.696569 0.696569
0.696569 0.696569 0.696569
0.700490 0.700490 0.700490
0.704412 0.704412 0.704412
0.712255 0.712255 0.712255
0.719608 0.719608 0.719608
0.731863 0.731863 0.731863
0.747059 0.747059 0.747059
0.765196 0.765196 0.765196
0.758824 0.758824 0.758824
0.758824 0.758824 0.758824
0.762745 0.762745 0.762745
0.766667 0.766667 0.766667
0.770588 0.770588 0.770588
0.778432 0.778432 0.778432
0.788725 0.788725 0.788725
0.798039 0.798039 0.798039
0.813726 0.813726 0.813726
0.824510 0.824510 0.824510
0.824510 0.824510 0.824510
0.825000 0.825000 0.825000
0.828922 0.828922 0.828922
0.832844 0.832844 0.832844
0.839706 0.839706 0.839706
0.844608 0.844608 0.844608
0.855883 0.855883 0.855883
0.867647 0.867647 0.867647
0.890686 0.890686 0.890686
0.890686 0.890686 0.890686
0.891176 0.891176 0.891176
0.894608 0.894608 0.894608
0.898529 0.898529 0.898529
0.902451 0.902451 0.902451
0.906372 0.906372 0.906372
0.914215 0.914215 0.914215
0.925980 0.925980 0.925980
0.965196 0.965196 0.965196
0.968627 0.968627 0.968627
0.968627 0.968627 0.968627
0.968627 0.968627 0.968627
0.970588 0.970588 0.970588
0.972549 0.972549 0.972549
0.976471 0.976471 0.976471
0.980392 0.980392 0.980392
0.984314 0.984314 0.984314
0.529412 0.529412 0.529412
0.541176 0.541176 0.541176
0.549020 0.549020 0.549020
0.560784 0.560784 0.560784
0.572549 0.572549 0.572549
0.588235 0.588235 0.588235
0.603922 0.603922 0.603922
0.627451 0.627451 0.627451
0.654902 0.654902 0.654902
0.599510 0.599510 0.599510
0.603922 0.603922 0.603922
0.611275 0.611275 0.611275
0.619608 0.619608 0.619608
0.630883 0.630883 0.630883
0.640686 0.640686 0.640686
0.658334 0.658334 0.658334
0.677941 0.677941 0.677941
0.698039 0.698039 0.698039
0.647059 0.647059 0.647059
0.650000 0.650000 0.650000
0.657843 0.657843 0.657843
0.662745 0.662745 0.662745
0.673530 0.673530 0.673530
0.685294 0.685294 0.685294
0.697059 0.697059 0.697059
0.712746 0.712746 0.712746
0.733333 0.733333 0.733333
0.698039 0.698039 0.698039
0.700490 0.700490 0.700490
0.704412 0.704412 0.704412
0.712255 0.712255 0.712255
0.720098 0.720098 0.720098
0.727941 0.727941 0.727941
0.739706 0.739706 0.739706
0.752941 0.752941 0.752941
0.771078 0.771078 0.771078
0.754902 0.754902 0.754902
0.754902 0.754902 0.754902
0.758823 0.758823 0.758823
0.762745 0.762745 0.762745
0.770588 0.770588 0.770588
0.778431 0.778431 0.778431
0.785294 0.785294 0.785294
0.796568 0.796568 0.796568
0.815686 0.815686 0.815686
0.811765 0.811765 0.811765
0.813235 0.813235 0.813235
0.813235 0.813235 0.813235
0.817157 0.817157 0.817157
0.823529 0.823529 0.823529
0.828922 0.828922 0.828922
0.836765 0.836765 0.836765
0.848529 0.848529 0.848529
0.860294 0.860294 0.860294
0.867647 0.867647 0.867647
0.870588 0.870588 0.870588
0.871568 0.871568 0.871568
0.875490 0.875490 0.875490
0.879412 0.879412 0.879412
0.883333 0.883333 0.883333
0.891177 0.891177 0.891177
0.899020 0.899020 0.899020
0.910784 0.910784 0.910784
0.929412 0.929412 0.929412
0.929902 0.929902 0.929902
0.929902 0.929902 0.929902
0.933333 0.933333 0.933333
0.933823 0.933823 0.933823
0.937745 0.937745 0.937745
0.941666 0.941666 0.941666
0.949510 0.949510 0.949510
0.957353 0.957353 0.957353
0.988235 0.988235 0.988235
0.988235 0.988235 0.988235
0.988235 0.988235 0.988235
0.988235 0.988235 0.988235
0.992157 0.992157 0.992157
0.992157 0.992157 0.992157
0.996078 0.996078 0.996078
1.000000 1.000000 1.000000
1.000000 1.000000 1.000000
