Black-and-White/Ilford/Ilford Pan F Plus 50 65x.cube
TITLE "Ilford Pan F Plus 50"
LUT_3D_SIZE 9
DOMAIN_MIN 0.000000 0.000000 0.000000
DOMAIN_MAX 1.000000 1.000000 1.000000
0.000000 0.000000 0.000000
0.000000 0.000000 0.000000
0.003922 0.003922 0.003922
0.010294 0.010294 0.010294
0.023529 0.023529 0.023529
0.050980 0.050980 0.050980
0.099020 0.099020 0.099020
0.165196 0.165196 0.165196
0.266667 0.266667 0.266667
0.054412 0.054412 0.054412
0.065687 0.065687 0.065687
0.081373 0.081373 0.081373
0.100981 0.100981 0.100981
0.128432 0.128432 0.128432
0.167647 0.167647 0.167647
0.215686 0.215686 0.215686
0.286274 0.286274 0.286274
0.379902 0.379902 0.379902
0.154902 0.154902 0.154902
0.163235 0.163235 0.163235
0.174510 0.174510 0.174510
0.193627 0.193627 0.193627
0.220588 0.220588 0.220588
0.264706 0.264706 0.264706
0.313725 0.313725 0.313725
0.375980 0.375980 0.375980
0.450000 0.450000 0.450000
0.283334 0.283334 0.283334
0.290687 0.290687 0.290687
0.302941 0.302941 0.302941
0.321079 0.321079 0.321079
0.345588 0.345588 0.345588
0.381373 0.381373 0.381373
0.420588 0.420588 0.420588
0.465686 0.465686 0.465686
0.527941 0.527941 0.527941
0.433334 0.433334 0.433334
0.435295 0.435295 0.435295
0.443138 0.443138 0.443138
0.454902 0.454902 0.454902
0.474510 0.474510 0.474510
0.498039 0.498039 0.498039
0.529411 0.529411 0.529411
0.568628 0.568628 0.568628
0.617647 0.617647 0.617647
0.571569 0.571569 0.571569
0.575490 0.575490 0.575490
0.579412 0.579412 0.579412
0.592156 0.592156 0.592156
0.602941 0.602941 0.602941
0.618627 0.618627 0.618627
0.642157 0.642157 0.642157
0.669608 0.669608 0.669608
0.703431 0.703431 0.703431
0.699019 0.699019 0.699019
0.700000 0.700000 0.700000
0.702941 0.702941 0.702941
0.707843 0.707843 0.707843
0.715687 0.715687 0.715687
0.727941 0.727941 0.727941
0.739216 0.739216 0.739216
0.757843 0.757843 0.757843
0.781373 0.781373 0.781373
0.800490 0.800490 0.800490
0.800980 0.800980 0.800980
0.804412 0.804412 0.804412
0.804902 0.804902 0.804902
0.812255 0.812255 0.812255
0.816176 0.816176 0.816176
0.824019 0.824019 0.824019
0.835784 0.835784 0.835784
0.851470 0.851470 0.851470
0.894118 0.894118 0.894118
0.894118 0.894118 0.894118
0.898039 0.898039 0.898039
0.898039 0.898039 0.898039
0.901961 0.901961 0.901961
0.903431 0.903431 0.903431
0.909804 0.909804 0.909804
0.913725 0.913725 0.913725
0.925490 0.925490 0.925490
0.003922 0.003922 0.003922
0.011765 0.011765 0.011765
0.019608 0.019608 0.019608
0.034804 0.034804 0.034804
0.056863 0.056863 0.056863
0.091667 0.091667 0.091667
0.142156 0.142156 0.142156
0.211765 0.211765 0.211765
0.317647 0.317647 0.317647
0.085785 0.085785 0.085785
0.097059 0.097059 0.097059
0.112745 0.112745 0.112745
0.135294 0.135294 0.135294
0.162255 0.162255 0.162255
0.200490 0.200490 0.200490
0.251470 0.251470 0.251470
0.325000 0.325000 0.325000
0.411275 0.411275 0.411275
0.179412 0.179412 0.179412
0.186764 0.186764 0.186764
0.201961 0.201961 0.201961
0.221568 0.221568 0.221568
0.249509 0.249509 0.249509
0.292157 0.292157 0.292157
0.341176 0.341176 0.341176
0.399510 0.399510 0.399510
0.469608 0.469608 0.469608
0.306863 0.306863 0.306863
0.310785 0.310785 0.310785
0.322549 0.322549 0.322549
0.342157 0.342157 0.342157
0.365686 0.365686 0.365686
0.397059 0.397059 0.397059
0.434804 0.434804 0.434804
0.481372 0.481372 0.481372
0.542157 0.542157 0.542157
0.447059 0.447059 0.447059
0.450490 0.450490 0.450490
0.458333 0.458333 0.458333
0.470098 0.470098 0.470098
0.486274 0.486274 0.486274
0.509804 0.509804 0.509804
0.540196 0.540196 0.540196
0.578431 0.578431 0.578431
0.625490 0.625490 0.625490
0.583333 0.583333 0.583333
0.583333 0.583333 0.583333
0.590686 0.590686 0.590686
0.599020 0.599020 0.599020
0.611274 0.611274 0.611274
0.629902 0.629902 0.629902
0.650000 0.650000 0.650000
0.676471 0.676471 0.676471
0.711275 0.711275 0.711275
0.703922 0.703922 0.703922
0.706372 0.706372 0.706372
0.707843 0.707843 0.707843
0.714706 0.714706 0.714706
0.722549 0.722549 0.722549
0.731863 0.731863 0.731863
0.746079 0.746079 0.746079
0.762255 0.762255 0.762255
0.785294 0.785294 0.785294
0.804412 0.804412 0.804412
0.804412 0.804412 0.804412
0.807353 0.807353 0.807353
0.808823 0.808823 0.808823
0.812745 0.812745 0.812745
0.820098 0.820098 0.820098
0.827941 0.827941 0.827941
0.839216 0.839216 0.839216
0.854412 0.854412 0.854412
0.898039 0.898039 0.898039
0.898039 0.898039 0.898039
0.898039 0.898039 0.898039
0.901471 0.901471 0.901471
0.901961 0.901961 0.901961
0.905882 0.905882 0.905882
0.909804 0.909804 0.909804
0.917647 0.917647 0.917647
0.925490 0.925490 0.925490
0.014706 0.014706 0.014706
0.027451 0.027451 0.027451
0.042157 0.042157 0.042157
0.057843 0.057843 0.057843
0.085294 0.085294 0.085294
0.124510 0.124510 0.124510
0.175490 0.175490 0.175490
0.246569 0.246569 0.246569
0.351961 0.351961 0.351961
0.116667 0.116667 0.116667
0.128432 0.128432 0.128432
0.143627 0.143627 0.143627
0.164216 0.164216 0.164216
0.193627 0.193627 0.193627
0.232353 0.232353 0.232353
0.286765 0.286765 0.286765
0.355882 0.355882 0.355882
0.434804 0.434804 0.434804
0.209804 0.209804 0.209804
0.217647 0.217647 0.217647
0.233333 0.233333 0.233333
0.255393 0.255393 0.255393
0.284314 0.284314 0.284314
0.325000 0.325000 0.325000
0.371569 0.371569 0.371569
0.425980 0.425980 0.425980
0.493138 0.493138 0.493138
0.338235 0.338235 0.338235
0.342647 0.342647 0.342647
0.353922 0.353922 0.353922
0.372549 0.372549 0.372549
0.393627 0.393627 0.393627
0.424510 0.424510 0.424510
0.459804 0.459804 0.459804
0.503431 0.503431 0.503431
0.562255 0.562255 0.562255
0.470588 0.470588 0.470588
0.473529 0.473529 0.473529
0.479412 0.479412 0.479412
0.490687 0.490687 0.490687
0.509804 0.509804 0.509804
0.531863 0.531863 0.531863
0.560785 0.560785 0.560785
0.596078 0.596078 0.596078
0.644118 0.644118 0.644118
0.599020 0.599020 0.599020
0.602941 0.602941 0.602941
0.606863 0.606863 0.606863
0.615686 0.615686 0.615686
0.627941 0.627941 0.627941
0.643628 0.643628 0.643628
0.665196 0.665196 0.665196
0.689216 0.689216 0.689216
0.723039 0.723039 0.723039
0.715687 0.715687 0.715687
0.715687 0.715687 0.715687
0.719608 0.719608 0.719608
0.725490 0.725490 0.725490
0.732353 0.732353 0.732353
0.742156 0.742156 0.742156
0.754902 0.754902 0.754902
0.770098 0.770098 0.770098
0.793137 0.793137 0.793137
0.812255 0.812255 0.812255
0.812255 0.812255 0.812255
0.812255 0.812255 0.812255
0.816176 0.816176 0.816176
0.820098 0.820098 0.820098
0.825490 0.825490 0.825490
0.832844 0.832844 0.832844
0.843627 0.843627 0.843627
0.859314 0.859314 0.859314
0.901961 0.901961 0.901961
0.901961 0.901961 0.901961
0.901961 0.901961 0.901961
0.905882 0.905882 0.905882
0.905882 0.905882 0.905882
0.909804 0.909804 0.909804
0.913725 0.913725 0.913725
0.921569 0.921569 0.921569
0.929412 0.929412 0.929412
0.035294 0.035294 0.035294
0.054412 0.054412 0.054412
0.069608 0.069608 0.069608
0.092647 0.092647 0.092647
0.120098 0.120098 0.120098
0.159314 0.159314 0.159314
0.212745 0.212745 0.212745
0.287255 0.287255 0.287255
0.386765 0.386765 0.386765
0.154902 0.154902 0.154902
0.166666 0.166666 0.166666
0.182353 0.182353 0.182353
0.201961 0.201961 0.201961
0.232353 0.232353 0.232353
0.275000 0.275000 0.275000
0.328431 0.328431 0.328431
0.390686 0.390686 0.390686
0.465196 0.465196 0.465196
0.252451 0.252451 0.252451
0.260294 0.260294 0.260294
0.275980 0.275980 0.275980
0.298530 0.298530 0.298530
0.326961 0.326961 0.326961
0.363725 0.363725 0.363725
0.405392 0.405392 0.405392
0.456373 0.456373 0.456373
0.520588 0.520588 0.520588
0.375980 0.375980 0.375980
0.381373 0.381373 0.381373
0.391666 0.391666 0.391666
0.404902 0.404902 0.404902
0.428431 0.428431 0.428431
0.455883 0.455883 0.455883
0.488235 0.488235 0.488235
0.530882 0.530882 0.530882
0.586765 0.586765 0.586765
0.498530 0.498530 0.498530
0.501961 0.501961 0.501961
0.509804 0.509804 0.509804
0.520098 0.520098 0.520098
0.537254 0.537254 0.537254
0.558823 0.558823 0.558823
0.585784 0.585784 0.585784
0.620098 0.620098 0.620098
0.664706 0.664706 0.664706
0.623529 0.623529 0.623529
0.626470 0.626470 0.626470
0.630392 0.630392 0.630392
0.638235 0.638235 0.638235
0.650000 0.650000 0.650000
0.665686 0.665686 0.665686
0.683824 0.683824 0.683824
0.707353 0.707353 0.707353
0.738725 0.738725 0.738725
0.731373 0.731373 0.731373
0.732843 0.732843 0.732843
0.735294 0.735294 0.735294
0.740686 0.740686 0.740686
0.747059 0.747059 0.747059
0.756373 0.756373 0.756373
0.768137 0.768137 0.768137
0.781863 0.781863 0.781863
0.804902 0.804902 0.804902
0.820098 0.820098 0.820098
0.820098 0.820098 0.820098
0.824019 0.824019 0.824019
0.824510 0.824510 0.824510
0.828431 0.828431 0.828431
0.835784 0.835784 0.835784
0.842157 0.842157 0.842157
0.851470 0.851470 0.851470
0.867157 0.867157 0.867157
0.908333 0.908333 0.908333
0.909804 0.909804 0.909804
0.909804 0.909804 0.909804
0.909804 0.909804 0.909804
0.913725 0.913725 0.913725
0.917647 0.917647 0.917647
0.921569 0.921569 0.921569
0.925490 0.925490 0.925490
0.937255 0.937255 0.937255
0.070588 0.070588 0.070588
0.093628 0.093628 0.093628
0.112745 0.112745 0.112745
0.135294 0.135294 0.135294
0.166666 0.166666 0.166666
0.205882 0.205882 0.205882
0.261765 0.261765 0.261765
0.339706 0.339706 0.339706
0.425490 0.425490 0.425490
0.197549 0.197549 0.197549
0.210785 0.210785 0.210785
0.227941 0.227941 0.227941
0.252451 0.252451 0.252451
0.283824 0.283824 0.283824
0.326961 0.326961 0.326961
0.375000 0.375000 0.375000
0.429902 0.429902 0.429902
0.499510 0.499510 0.499510
0.305882 0.305882 0.305882
0.313725 0.313725 0.313725
0.329412 0.329412 0.329412
0.348529 0.348529 0.348529
0.375490 0.375490 0.375490
0.408334 0.408334 0.408334
0.446078 0.446078 0.446078
0.491667 0.491667 0.491667
0.553922 0.553922 0.553922
0.420098 0.420098 0.420098
0.424020 0.424020 0.424020
0.432353 0.432353 0.432353
0.447549 0.447549 0.447549
0.467157 0.467157 0.467157
0.494118 0.494118 0.494118
0.525981 0.525981 0.525981
0.565686 0.565686 0.565686
0.618137 0.618137 0.618137
0.537254 0.537254 0.537254
0.539215 0.539215 0.539215
0.545098 0.545098 0.545098
0.556863 0.556863 0.556863
0.572549 0.572549 0.572549
0.593627 0.593627 0.593627
0.618627 0.618627 0.618627
0.649510 0.649510 0.649510
0.688236 0.688236 0.688236
0.650490 0.650490 0.650490
0.653922 0.653922 0.653922
0.657843 0.657843 0.657843
0.665686 0.665686 0.665686
0.677451 0.677451 0.677451
0.689216 0.689216 0.689216
0.705392 0.705392 0.705392
0.727451 0.727451 0.727451
0.754902 0.754902 0.754902
0.750000 0.750000 0.750000
0.750981 0.750981 0.750981
0.753922 0.753922 0.753922
0.757843 0.757843 0.757843
0.763725 0.763725 0.763725
0.773529 0.773529 0.773529
0.783333 0.783333 0.783333
0.797058 0.797058 0.797058
0.816667 0.816667 0.816667
0.831863 0.831863 0.831863
0.831863 0.831863 0.831863
0.833824 0.833824 0.833824
0.835784 0.835784 0.835784
0.839706 0.839706 0.839706
0.845098 0.845098 0.845098
0.851470 0.851470 0.851470
0.861275 0.861275 0.861275
0.875000 0.875000 0.875000
0.915686 0.915686 0.915686
0.917647 0.917647 0.917647
0.917647 0.917647 0.917647
0.917647 0.917647 0.917647
0.921569 0.921569 0.921569
0.923530 0.923530 0.923530
0.929412 0.929412 0.929412
0.933333 0.933333 0.933333
0.945098 0.945098 0.945098
0.123039 0.123039 0.123039
0.150000 0.150000 0.150000
0.170098 0.170098 0.170098
0.193627 0.193627 0.193627
0.223039 0.223039 0.223039
0.269608 0.269608 0.269608
0.327941 0.327941 0.327941
0.392647 0.392647 0.392647
0.470588 0.470588 0.470588
0.263235 0.263235 0.263235
0.278921 0.278921 0.278921
0.295098 0.295098 0.295098
0.322059 0.322059 0.322059
0.350000 0.350000 0.350000
0.386765 0.386765 0.386765
0.428432 0.428432 0.428432
0.476471 0.476471 0.476471
0.542157 0.542157 0.542157
0.369117 0.369117 0.369117
0.375980 0.375980 0.375980
0.388726 0.388726 0.388726
0.406863 0.406863 0.406863
0.429902 0.429902 0.429902
0.459314 0.459314 0.459314
0.494118 0.494118 0.494118
0.536765 0.536765 0.536765
0.593627 0.593627 0.593627
0.470588 0.470588 0.470588
0.474510 0.474510 0.474510
0.482353 0.482353 0.482353
0.495098 0.495098 0.495098
0.514706 0.514706 0.514706
0.539706 0.539706 0.539706
0.568627 0.568627 0.568627
0.604412 0.604412 0.604412
0.652451 0.652451 0.652451
0.579902 0.579902 0.579902
0.581863 0.581863 0.581863
0.587745 0.587745 0.587745
0.597549 0.597549 0.597549
0.611764 0.611764 0.611764
0.630882 0.630882 0.630882
0.653921 0.653921 0.653921
0.680882 0.680882 0.680882
0.715687 0.715687 0.715687
0.681372 0.681372 0.681372
0.685294 0.685294 0.685294
0.689216 0.689216 0.689216
0.694118 0.694118 0.694118
0.704902 0.704902 0.704902
0.716667 0.716667 0.716667
0.731863 0.731863 0.731863
0.750490 0.750490 0.750490
0.774020 0.774020 0.774020
0.769607 0.769607 0.769607
0.770588 0.770588 0.770588
0.773529 0.773529 0.773529
0.777451 0.777451 0.777451
0.782843 0.782843 0.782843
0.790686 0.790686 0.790686
0.800980 0.800980 0.800980
0.812745 0.812745 0.812745
0.832353 0.832353 0.832353
0.843627 0.843627 0.843627
0.845098 0.845098 0.845098
0.847549 0.847549 0.847549
0.849020 0.849020 0.849020
0.851470 0.851470 0.851470
0.856863 0.856863 0.856863
0.863235 0.863235 0.863235
0.871078 0.871078 0.871078
0.886765 0.886765 0.886765
0.925490 0.925490 0.925490
0.925490 0.925490 0.925490
0.925490 0.925490 0.925490
0.926961 0.926961 0.926961
0.929412 0.929412 0.929412
0.933333 0.933333 0.933333
0.937255 0.937255 0.937255
0.941176 0.941176 0.941176
0.952941 0.952941 0.952941
0.197059 0.197059 0.197059
0.224019 0.224019 0.224019
0.245098 0.245098 0.245098
0.271568 0.271568 0.271568
0.306862 0.306862 0.306862
0.347549 0.347549 0.347549
0.397058 0.397058 0.397058
0.452451 0.452451 0.452451
0.522549 0.522549 0.522549
0.345098 0.345098 0.345098
0.356863 0.356863 0.356863
0.372059 0.372059 0.372059
0.392647 0.392647 0.392647
0.418628 0.418628 0.418628
0.445588 0.445588 0.445588
0.483824 0.483824 0.483824
0.529902 0.529902 0.529902
0.588725 0.588725 0.588725
0.435294 0.435294 0.435294
0.439216 0.439216 0.439216
0.450980 0.450980 0.450980
0.466667 0.466667 0.466667
0.487255 0.487255 0.487255
0.513726 0.513726 0.513726
0.545098 0.545098 0.545098
0.584804 0.584804 0.584804
0.636275 0.636275 0.636275
0.525000 0.525000 0.525000
0.528921 0.528921 0.528921
0.536764 0.536764 0.536764
0.550000 0.550000 0.550000
0.568137 0.568137 0.568137
0.588236 0.588236 0.588236
0.615196 0.615196 0.615196
0.646568 0.646568 0.646568
0.688726 0.688726 0.688726
0.626470 0.626470 0.626470
0.627451 0.627451 0.627451
0.634314 0.634314 0.634314
0.642157 0.642157 0.642157
0.654902 0.654902 0.654902
0.670589 0.670589 0.670589
0.689216 0.689216 0.689216
0.712745 0.712745 0.712745
0.743137 0.743137 0.743137
0.716177 0.716177 0.716177
0.716177 0.716177 0.716177
0.720098 0.720098 0.720098
0.726961 0.726961 0.726961
0.734804 0.734804 0.734804
0.744117 0.744117 0.744117
0.758333 0.758333 0.758333
0.774510 0.774510 0.774510
0.797549 0.797549 0.797549
0.793137 0.793137 0.793137
0.793137 0.793137 0.793137
0.794118 0.794118 0.794118
0.798039 0.798039 0.798039
0.804902 0.804902 0.804902
0.809804 0.809804 0.809804
0.820588 0.820588 0.820588
0.832353 0.832353 0.832353
0.848039 0.848039 0.848039
0.859314 0.859314 0.859314
0.859314 0.859314 0.859314
0.862255 0.862255 0.862255
0.863235 0.863235 0.863235
0.867157 0.867157 0.867157
0.871078 0.871078 0.871078
0.875981 0.875981 0.875981
0.886765 0.886765 0.886765
0.898529 0.898529 0.898529
0.934313 0.934313 0.934313
0.937255 0.937255 0.937255
0.937255 0.937255 0.937255
0.937255 0.937255 0.937255
0.941176 0.941176 0.941176
0.942157 0.942157 0.942157
0.946079 0.946079 0.946079
0.952941 0.952941 0.952941
0.960784 0.960784 0.960784
0.291176 0.291176 0.291176
0.321569 0.321569 0.321569
0.341666 0.341666 0.341666
0.365196 0.365196 0.365196
0.393137 0.393137 0.393137
0.427941 0.427941 0.427941
0.467157 0.467157 0.467157
0.514706 0.514706 0.514706
0.576961 0.576961 0.576961
0.424019 0.424019 0.424019
0.435294 0.435294 0.435294
0.447549 0.447549 0.447549
0.466667 0.466667 0.466667
0.486275 0.486275 0.486275
0.511765 0.511765 0.511765
0.549020 0.549020 0.549020
0.588235 0.588235 0.588235
0.639216 0.639216 0.639216
0.504412 0.504412 0.504412
0.509314 0.509314 0.509314
0.520098 0.520098 0.520098
0.532843 0.532843 0.532843
0.552451 0.552451 0.552451
0.575981 0.575981 0.575981
0.603921 0.603921 0.603921
0.638726 0.638726 0.638726
0.681373 0.681373 0.681373
0.587255 0.587255 0.587255
0.591176 0.591176 0.591176
0.599019 0.599019 0.599019
0.610784 0.610784 0.610784
0.626470 0.626470 0.626470
0.643138 0.643138 0.643138
0.665686 0.665686 0.665686
0.693137 0.693137 0.693137
0.725980 0.725980 0.725980
0.674509 0.674509 0.674509
0.676961 0.676961 0.676961
0.680882 0.680882 0.680882
0.688726 0.688726 0.688726
0.700490 0.700490 0.700490
0.712255 0.712255 0.712255
0.728431 0.728431 0.728431
0.747549 0.747549 0.747549
0.774510 0.774510 0.774510
0.750981 0.750981 0.750981
0.754412 0.754412 0.754412
0.754902 0.754902 0.754902
0.762255 0.762255 0.762255
0.766667 0.766667 0.766667
0.777941 0.777941 0.777941
0.788725 0.788725 0.788725
0.801471 0.801471 0.801471
0.821078 0.821078 0.821078
0.816666 0.816666 0.816666
0.817157 0.817157 0.817157
0.820588 0.820588 0.820588
0.824019 0.824019 0.824019
0.828432 0.828432 0.828432
0.832844 0.832844 0.832844
0.840196 0.840196 0.840196
0.851961 0.851961 0.851961
0.867157 0.867157 0.867157
0.878921 0.878921 0.878921
0.878921 0.878921 0.878921
0.878921 0.878921 0.878921
0.882843 0.882843 0.882843
0.882843 0.882843 0.882843
0.886765 0.886765 0.886765
0.894608 0.894608 0.894608
0.902451 0.902451 0.902451
0.910294 0.910294 0.910294
0.949020 0.949020 0.949020
0.949020 0.949020 0.949020
0.949020 0.949020 0.949020
0.949510 0.949510 0.949510
0.952941 0.952941 0.952941
0.956863 0.956863 0.956863
0.960784 0.960784 0.960784
0.964706 0.964706 0.964706
0.976471 0.976471 0.976471
0.400000 0.400000 0.400000
0.423529 0.423529 0.423529
0.438236 0.438236 0.438236
0.457353 0.457353 0.457353
0.480392 0.480392 0.480392
0.509804 0.509804 0.509804
0.542156 0.542156 0.542156
0.584804 0.584804 0.584804
0.639216 0.639216 0.639216
0.509314 0.509314 0.509314
0.517157 0.517157 0.517157
0.528922 0.528922 0.528922
0.544608 0.544608 0.544608
0.562745 0.562745 0.562745
0.591667 0.591667 0.591667
0.619118 0.619118 0.619118
0.647549 0.647549 0.647549
0.690196 0.690196 0.690196
0.583333 0.583333 0.583333
0.587255 0.587255 0.587255
0.595098 0.595098 0.595098
0.609314 0.609314 0.609314
0.626470 0.626470 0.626470
0.646079 0.646079 0.646079
0.669608 0.669608 0.669608
0.697059 0.697059 0.697059
0.728431 0.728431 0.728431
0.657353 0.657353 0.657353
0.657353 0.657353 0.657353
0.665196 0.665196 0.665196
0.673039 0.673039 0.673039
0.684314 0.684314 0.684314
0.699510 0.699510 0.699510
0.720098 0.720098 0.720098
0.737745 0.737745 0.737745
0.767157 0.767157 0.767157
0.727451 0.727451 0.727451
0.731372 0.731372 0.731372
0.735294 0.735294 0.735294
0.739216 0.739216 0.739216
0.747059 0.747059 0.747059
0.758823 0.758823 0.758823
0.772549 0.772549 0.772549
0.790196 0.790196 0.790196
0.809804 0.809804 0.809804
0.789706 0.789706 0.789706
0.793627 0.793627 0.793627
0.793627 0.793627 0.793627
0.797549 0.797549 0.797549
0.805392 0.805392 0.805392
0.813235 0.813235 0.813235
0.821078 0.821078 0.821078
0.832843 0.832843 0.832843
0.848529 0.848529 0.848529
0.848039 0.848039 0.848039
0.848039 0.848039 0.848039
0.848039 0.848039 0.848039
0.851961 0.851961 0.851961
0.855883 0.855883 0.855883
0.862745 0.862745 0.862745
0.867647 0.867647 0.867647
0.878431 0.878431 0.878431
0.890196 0.890196 0.890196
0.901961 0.901961 0.901961
0.902451 0.902451 0.902451
0.902451 0.902451 0.902451
0.905882 0.905882 0.905882
0.906372 0.906372 0.906372
0.910294 0.910294 0.910294
0.914215 0.914215 0.914215
0.922059 0.922059 0.922059
0.933823 0.933823 0.933823
0.968627 0.968627 0.968627
0.968627 0.968627 0.968627
0.968627 0.968627 0.968627
0.972549 0.972549 0.972549
0.972549 0.972549 0.972549
0.976471 0.976471 0.976471
0.980392 0.980392 0.980392
0.988235 0.988235 0.988235
1.000000 1.000000 1.000000
