Black-and-White/Ilford/Ilford XP2 65x.cube
TITLE "Ilford XP2"
LUT_3D_SIZE 5
DOMAIN_MIN 0.000000 0.000000 0.000000
DOMAIN_MAX 1.000000 1.000000 1.000000
0.000000 0.000000 0.000000
0.003922 0.003922 0.003922
0.019608 0.019608 0.019608
0.087255 0.087255 0.087255
0.227451 0.227451 0.227451
0.081372 0.081372 0.081372
0.100981 0.100981 0.100981
0.144118 0.144118 0.144118
0.215687 0.215687 0.215687
0.336275 0.336275 0.336275
0.245098 0.245098 0.245098
0.256863 0.256863 0.256863
0.290196 0.290196 0.290196
0.348039 0.348039 0.348039
0.445098 0.445098 0.445098
0.445098 0.445098 0.445098
0.452941 0.452941 0.452941
0.476471 0.476471 0.476471
0.519608 0.519608 0.519608
0.600980 0.600980 0.600980
0.713726 0.713726 0.713726
0.717647 0.717647 0.717647
0.729412 0.729412 0.729412
0.753922 0.753922 0.753922
0.803922 0.803922 0.803922
0.042157 0.042157 0.042157
0.077451 0.077451 0.077451
0.123529 0.123529 0.123529
0.199020 0.199020 0.199020
0.324510 0.324510 0.324510
0.166666 0.166666 0.166666
0.183334 0.183334 0.183334
0.224510 0.224510 0.224510
0.293137 0.293137 0.293137
0.395098 0.395098 0.395098
0.310785 0.310785 0.310785
0.321569 0.321569 0.321569
0.350000 0.350000 0.350000
0.402941 0.402941 0.402941
0.496078 0.496078 0.496078
0.492157 0.492157 0.492157
0.500000 0.500000 0.500000
0.522549 0.522549 0.522549
0.564706 0.564706 0.564706
0.639216 0.639216 0.639216
0.741176 0.741176 0.741176
0.745098 0.745098 0.745098
0.756863 0.756863 0.756863
0.777451 0.777451 0.777451
0.823529 0.823529 0.823529
0.154902 0.154902 0.154902
0.194117 0.194117 0.194117
0.237255 0.237255 0.237255
0.307843 0.307843 0.307843
0.413725 0.413725 0.413725
0.287255 0.287255 0.287255
0.306863 0.306863 0.306863
0.341176 0.341176 0.341176
0.397059 0.397059 0.397059
0.491177 0.491177 0.491177
0.419608 0.419608 0.419608
0.431373 0.431373 0.431373
0.458823 0.458823 0.458823
0.506863 0.506863 0.506863
0.588236 0.588236 0.588236
0.590196 0.590196 0.590196
0.595098 0.595098 0.595098
0.614706 0.614706 0.614706
0.649020 0.649020 0.649020
0.708823 0.708823 0.708823
0.794118 0.794118 0.794118
0.798039 0.798039 0.798039
0.807843 0.807843 0.807843
0.825490 0.825490 0.825490
0.862745 0.862745 0.862745
0.326470 0.326470 0.326470
0.358824 0.358824 0.358824
0.395098 0.395098 0.395098
0.449020 0.449020 0.449020
0.542156 0.542156 0.542156
0.447059 0.447059 0.447059
0.462745 0.462745 0.462745
0.494118 0.494118 0.494118
0.541176 0.541176 0.541176
0.615686 0.615686 0.615686
0.571568 0.571568 0.571568
0.579412 0.579412 0.579412
0.602941 0.602941 0.602941
0.638235 0.638235 0.638235
0.697059 0.697059 0.697059
0.703922 0.703922 0.703922
0.711765 0.711765 0.711765
0.723530 0.723530 0.723530
0.750000 0.750000 0.750000
0.793137 0.793137 0.793137
0.862745 0.862745 0.862745
0.865687 0.865687 0.865687
0.871568 0.871568 0.871568
0.886275 0.886275 0.886275
0.914706 0.914706 0.914706
0.525490 0.525490 0.525490
0.552941 0.552941 0.552941
0.580392 0.580392 0.580392
0.623529 0.623529 0.623529
0.686275 0.686275 0.686275
0.635294 0.635294 0.635294
0.647059 0.647059 0.647059
0.668627 0.668627 0.668627
0.704902 0.704902 0.704902
0.751961 0.751961 0.751961
0.735294 0.735294 0.735294
0.741176 0.741176 0.741176
0.756863 0.756863 0.756863
0.782353 0.782353 0.782353
0.817647 0.817647 0.817647
0.836274 0.836274 0.836274
0.840196 0.840196 0.840196
0.852941 0.852941 0.852941
0.867647 0.867647 0.867647
0.895098 0.895098 0.895098
0.952941 0.952941 0.952941
0.952941 0.952941 0.952941
0.960784 0.960784 0.960784
0.972549 0.972549 0.972549
1.000000 1.000000 1.000000
