Black-and-White/Ilford/Ilford Delta 400 65x.cube
TITLE "Ilford Delta 400"
LUT_3D_SIZE 65
DOMAIN_MIN 0.000000 0.000000 0.000000
DOMAIN_MAX 1.000000 1.000000 1.000000
0.000000 0.000000 0.000000
0.000000 0.000000 0.000000
0.000000 0.000000 0.000000
0.000000 0.000000 0.000000
0.000000 0.000000 0.000000
0.000000 0.000000 0.000000
0.000000 0.000000 0.000000
0.003922 0.003922 0.003922
0.003922 0.003922 0.003922
0.003922 0.003922 0.003922
0.003922 0.003922 0.003922
0.007843 0.007843 0.007843
0.007843 0.007843 0.007843
0.008027 0.008027 0.008027
0.011765 0.011765 0.011765
0.011765 0.011765 0.011765
0.014706 0.014706 0.014706
0.015686 0.015686 0.015686
0.019608 0.019608 0.019608
0.019608 0.019608 0.019608
0.023529 0.023529 0.023529
0.027145 0.027145 0.027145
0.028064 0.028064 0.028064
0.032905 0.032905 0.032905
0.037745 0.037745 0.037745
0.039216 0.039216 0.039216
0.043505 0.043505 0.043505
0.048346 0.048346 0.048346
0.053186 0.053186 0.053186
0.058027 0.058027 0.058027
0.062868 0.062868 0.062868
0.067709 0.067709 0.067709
0.074510 0.074510 0.074510
0.081311 0.081311 0.081311
0.086275 0.086275 0.086275
0.094914 0.094914 0.094914
0.099755 0.099755 0.099755
0.108517 0.108517 0.108517
0.117279 0.117279 0.117279
0.126042 0.126042 0.126042
0.130882 0.130882 0.130882
0.139644 0.139644 0.139644
0.148407 0.148407 0.148407
0.157169 0.157169 0.157169
0.165931 0.165931 0.165931
0.174694 0.174694 0.174694
0.183456 0.183456 0.183456
0.192218 0.192218 0.192218
0.201961 0.201961 0.201961
0.213664 0.213664 0.213664
0.222426 0.222426 0.222426
0.231189 0.231189 0.231189
0.239951 0.239951 0.239951
0.250368 0.250368 0.250368
0.261397 0.261397 0.261397
0.270159 0.270159 0.270159
0.282843 0.282843 0.282843
0.293015 0.293015 0.293015
0.306618 0.306618 0.306618
0.320221 0.320221 0.320221
0.333823 0.333823 0.333823
0.347426 0.347426 0.347426
0.364951 0.364951 0.364951
0.378554 0.378554 0.378554
0.396078 0.396078 0.396078
0.000000 0.000000 0.000000
0.000919 0.000919 0.000919
0.003922 0.003922 0.003922
0.003922 0.003922 0.003922
0.007598 0.007598 0.007598
0.004841 0.004841 0.004841
0.007843 0.007843 0.007843
0.010356 0.010356 0.010356
0.008762 0.008762 0.008762
0.011765 0.011765 0.011765
0.012684 0.012684 0.012684
0.012684 0.012684 0.012684
0.016605 0.016605 0.016605
0.020527 0.020527 0.020527
0.020527 0.020527 0.020527
0.022549 0.022549 0.022549
0.024448 0.024448 0.024448
0.028309 0.028309 0.028309
0.029228 0.029228 0.029228
0.034069 0.034069 0.034069
0.036213 0.036213 0.036213
0.040135 0.040135 0.040135
0.044056 0.044056 0.044056
0.047978 0.047978 0.047978
0.051899 0.051899 0.051899
0.055821 0.055821 0.055821
0.060111 0.060111 0.060111
0.064951 0.064951 0.064951
0.069792 0.069792 0.069792
0.074632 0.074632 0.074632
0.079473 0.079473 0.079473
0.084191 0.084191 0.084191
0.093076 0.093076 0.093076
0.097917 0.097917 0.097917
0.106679 0.106679 0.106679
0.111520 0.111520 0.111520
0.120282 0.120282 0.120282
0.125123 0.125123 0.125123
0.133885 0.133885 0.133885
0.142647 0.142647 0.142647
0.146936 0.146936 0.146936
0.156250 0.156250 0.156250
0.165012 0.165012 0.165012
0.173774 0.173774 0.173774
0.182537 0.182537 0.182537
0.191299 0.191299 0.191299
0.200061 0.200061 0.200061
0.208823 0.208823 0.208823
0.217585 0.217585 0.217585
0.226348 0.226348 0.226348
0.235111 0.235111 0.235111
0.243873 0.243873 0.243873
0.252635 0.252635 0.252635
0.261398 0.261398 0.261398
0.274080 0.274080 0.274080
0.282843 0.282843 0.282843
0.295527 0.295527 0.295527
0.305699 0.305699 0.305699
0.319302 0.319302 0.319302
0.332904 0.332904 0.332904
0.346507 0.346507 0.346507
0.360110 0.360110 0.360110
0.375551 0.375551 0.375551
0.391238 0.391238 0.391238
0.404841 0.404841 0.404841
0.003922 0.003922 0.003922
0.003922 0.003922 0.003922
0.005760 0.005760 0.005760
0.005760 0.005760 0.005760
0.007843 0.007843 0.007843
0.009681 0.009681 0.009681
0.011765 0.011765 0.011765
0.011765 0.011765 0.011765
0.013603 0.013603 0.013603
0.017524 0.017524 0.017524
0.017524 0.017524 0.017524
0.019608 0.019608 0.019608
0.021446 0.021446 0.021446
0.025367 0.025367 0.025367
0.024632 0.024632 0.024632
0.029289 0.029289 0.029289
0.034314 0.034314 0.034314
0.033211 0.033211 0.033211
0.036152 0.036152 0.036152
0.041054 0.041054 0.041054
0.045833 0.045833 0.045833
0.050674 0.050674 0.050674
0.052818 0.052818 0.052818
0.056740 0.056740 0.056740
0.061275 0.061275 0.061275
0.066115 0.066115 0.066115
0.068873 0.068873 0.068873
0.073713 0.073713 0.073713
0.078554 0.078554 0.078554
0.083395 0.083395 0.083395
0.088236 0.088236 0.088236
0.093076 0.093076 0.093076
0.099877 0.099877 0.099877
0.106679 0.106679 0.106679
0.111642 0.111642 0.111642
0.120282 0.120282 0.120282
0.127328 0.127328 0.127328
0.133885 0.133885 0.133885
0.142647 0.142647 0.142647
0.149571 0.149571 0.149571
0.156250 0.156250 0.156250
0.165012 0.165012 0.165012
0.173775 0.173775 0.173775
0.182536 0.182536 0.182536
0.191299 0.191299 0.191299
0.197916 0.197916 0.197916
0.206985 0.206985 0.206985
0.213665 0.213665 0.213665
0.221569 0.221569 0.221569
0.233272 0.233272 0.233272
0.242034 0.242034 0.242034
0.250796 0.250796 0.250796
0.261398 0.261398 0.261398
0.270160 0.270160 0.270160
0.278922 0.278922 0.278922
0.289767 0.289767 0.289767
0.299019 0.299019 0.299019
0.313051 0.313051 0.313051
0.326226 0.326226 0.326226
0.339828 0.339828 0.339828
0.355024 0.355024 0.355024
0.367034 0.367034 0.367034
0.382476 0.382476 0.382476
0.398162 0.398162 0.398162
0.411765 0.411765 0.411765
0.006679 0.006679 0.006679
0.007843 0.007843 0.007843
0.007843 0.007843 0.007843
0.010601 0.010601 0.010601
0.010601 0.010601 0.010601
0.011765 0.011765 0.011765
0.014522 0.014522 0.014522
0.015686 0.015686 0.015686
0.018444 0.018444 0.018444
0.022365 0.022365 0.022365
0.020956 0.020956 0.020956
0.023529 0.023529 0.023529
0.026287 0.026287 0.026287
0.030209 0.030209 0.030209
0.034130 0.034130 0.034130
0.033395 0.033395 0.033395
0.038052 0.038052 0.038052
0.043076 0.043076 0.043076
0.045895 0.045895 0.045895
0.044914 0.044914 0.044914
0.049755 0.049755 0.049755
0.053738 0.053738 0.053738
0.055515 0.055515 0.055515
0.060356 0.060356 0.060356
0.065196 0.065196 0.065196
0.069424 0.069424 0.069424
0.077267 0.077267 0.077267
0.081189 0.081189 0.081189
0.085111 0.085111 0.085111
0.089032 0.089032 0.089032
0.096875 0.096875 0.096875
0.099081 0.099081 0.099081
0.106679 0.106679 0.106679
0.112561 0.112561 0.112561
0.120282 0.120282 0.120282
0.128248 0.128248 0.128248
0.133885 0.133885 0.133885
0.139889 0.139889 0.139889
0.148652 0.148652 0.148652
0.156249 0.156249 0.156249
0.162255 0.162255 0.162255
0.171017 0.171017 0.171017
0.178615 0.178615 0.178615
0.187378 0.187378 0.187378
0.196140 0.196140 0.196140
0.204902 0.204902 0.204902
0.210601 0.210601 0.210601
0.219669 0.219669 0.219669
0.228432 0.228432 0.228432
0.237194 0.237194 0.237194
0.245956 0.245956 0.245956
0.254718 0.254718 0.254718
0.266237 0.266237 0.266237
0.275000 0.275000 0.275000
0.283762 0.283762 0.283762
0.293689 0.293689 0.293689
0.306372 0.306372 0.306372
0.316545 0.316545 0.316545
0.330576 0.330576 0.330576
0.343260 0.343260 0.343260
0.359866 0.359866 0.359866
0.370956 0.370956 0.370956
0.387316 0.387316 0.387316
0.402084 0.402084 0.402084
0.415686 0.415686 0.415686
0.007843 0.007843 0.007843
0.008762 0.008762 0.008762
0.011765 0.011765 0.011765
0.011765 0.011765 0.011765
0.015441 0.015441 0.015441
0.015686 0.015686 0.015686
0.019363 0.019363 0.019363
0.019608 0.019608 0.019608
0.023284 0.023284 0.023284
0.027206 0.027206 0.027206
0.027206 0.027206 0.027206
0.031128 0.031128 0.031128
0.030638 0.030638 0.030638
0.031557 0.031557 0.031557
0.038971 0.038971 0.038971
0.042892 0.042892 0.042892
0.042892 0.042892 0.042892
0.046998 0.046998 0.046998
0.050735 0.050735 0.050735
0.054657 0.054657 0.054657
0.058579 0.058579 0.058579
0.058518 0.058518 0.058518
0.066422 0.066422 0.066422
0.070343 0.070343 0.070343
0.074265 0.074265 0.074265
0.078186 0.078186 0.078186
0.078799 0.078799 0.078799
0.083640 0.083640 0.083640
0.092157 0.092157 0.092157
0.096997 0.096997 0.096997
0.101838 0.101838 0.101838
0.106679 0.106679 0.106679
0.111764 0.111764 0.111764
0.120282 0.120282 0.120282
0.125245 0.125245 0.125245
0.130208 0.130208 0.130208
0.140931 0.140931 0.140931
0.147488 0.147488 0.147488
0.152573 0.152573 0.152573
0.164461 0.164461 0.164461
0.169853 0.169853 0.169853
0.178615 0.178615 0.178615
0.183701 0.183701 0.183701
0.192217 0.192217 0.192217
0.200981 0.200981 0.200981
0.209743 0.209743 0.209743
0.218505 0.218505 0.218505
0.223590 0.223590 0.223590
0.232353 0.232353 0.232353
0.241115 0.241115 0.241115
0.249877 0.249877 0.249877
0.258640 0.258640 0.258640
0.271079 0.271079 0.271079
0.279841 0.279841 0.279841
0.287500 0.287500 0.287500
0.301287 0.301287 0.301287
0.310294 0.310294 0.310294
0.320466 0.320466 0.320466
0.334069 0.334069 0.334069
0.347672 0.347672 0.347672
0.364705 0.364705 0.364705
0.374877 0.374877 0.374877
0.392157 0.392157 0.392157
0.406679 0.406679 0.406679
0.419363 0.419363 0.419363
0.012439 0.012439 0.012439
0.016605 0.016605 0.016605
0.016360 0.016360 0.016360
0.016360 0.016360 0.016360
0.023284 0.023284 0.023284
0.020282 0.020282 0.020282
0.025122 0.025122 0.025122
0.024203 0.024203 0.024203
0.030883 0.030883 0.030883
0.027880 0.027880 0.027880
0.032047 0.032047 0.032047
0.037561 0.037561 0.037561
0.035968 0.035968 0.035968
0.039400 0.039400 0.039400
0.043811 0.043811 0.043811
0.049081 0.049081 0.049081
0.047733 0.047733 0.047733
0.051654 0.051654 0.051654
0.055576 0.055576 0.055576
0.059498 0.059498 0.059498
0.065441 0.065441 0.065441
0.070282 0.070282 0.070282
0.071262 0.071262 0.071262
0.075184 0.075184 0.075184
0.080882 0.080882 0.080882
0.085723 0.085723 0.085723
0.087317 0.087317 0.087317
0.092157 0.092157 0.092157
0.096998 0.096998 0.096998
0.105086 0.105086 0.105086
0.106678 0.106678 0.106678
0.114399 0.114399 0.114399
0.120282 0.120282 0.120282
0.128370 0.128370 0.128370
0.130086 0.130086 0.130086
0.138726 0.138726 0.138726
0.145772 0.145772 0.145772
0.152329 0.152329 0.152329
0.161091 0.161091 0.161091
0.169301 0.169301 0.169301
0.174693 0.174693 0.174693
0.183455 0.183455 0.183455
0.191544 0.191544 0.191544
0.197058 0.197058 0.197058
0.205822 0.205822 0.205822
0.214584 0.214584 0.214584
0.220282 0.220282 0.220282
0.231434 0.231434 0.231434
0.240196 0.240196 0.240196
0.245710 0.245710 0.245710
0.254473 0.254473 0.254473
0.263236 0.263236 0.263236
0.275245 0.275245 0.275245
0.284008 0.284008 0.284008
0.293443 0.293443 0.293443
0.302205 0.302205 0.302205
0.314706 0.314706 0.314706
0.328309 0.328309 0.328309
0.341912 0.341912 0.341912
0.355515 0.355515 0.355515
0.365870 0.365870 0.365870
0.382720 0.382720 0.382720
0.396324 0.396324 0.396324
0.407599 0.407599 0.407599
0.423529 0.423529 0.423529
0.019608 0.019608 0.019608
0.021201 0.021201 0.021201
0.021201 0.021201 0.021201
0.023529 0.023529 0.023529
0.025122 0.025122 0.025122
0.027451 0.027451 0.027451
0.029044 0.029044 0.029044
0.029044 0.029044 0.029044
0.032966 0.032966 0.032966
0.036887 0.036887 0.036887
0.036642 0.036642 0.036642
0.040809 0.040809 0.040809
0.046324 0.046324 0.046324
0.048652 0.048652 0.048652
0.049755 0.049755 0.049755
0.052573 0.052573 0.052573
0.056495 0.056495 0.056495
0.060355 0.060355 0.060355
0.064338 0.064338 0.064338
0.066115 0.066115 0.066115
0.068260 0.068260 0.068260
0.072181 0.072181 0.072181
0.076716 0.076716 0.076716
0.081556 0.081556 0.081556
0.086397 0.086397 0.086397
0.091238 0.091238 0.091238
0.095711 0.095711 0.095711
0.099632 0.099632 0.099632
0.103554 0.103554 0.103554
0.110600 0.110600 0.110600
0.113848 0.113848 0.113848
0.120282 0.120282 0.120282
0.127451 0.127451 0.127451
0.133885 0.133885 0.133885
0.141053 0.141053 0.141053
0.145895 0.145895 0.145895
0.152329 0.152329 0.152329
0.158456 0.158456 0.158456
0.165931 0.165931 0.165931
0.174693 0.174693 0.174693
0.181863 0.181863 0.181863
0.188297 0.188297 0.188297
0.197059 0.197059 0.197059
0.204228 0.204228 0.204228
0.213358 0.213358 0.213358
0.219424 0.219424 0.219424
0.228186 0.228186 0.228186
0.235355 0.235355 0.235355
0.244118 0.244118 0.244118
0.252880 0.252880 0.252880
0.261642 0.261642 0.261642
0.270404 0.270404 0.270404
0.279166 0.279166 0.279166
0.289523 0.289523 0.289523
0.298285 0.298285 0.298285
0.309375 0.309375 0.309375
0.318627 0.318627 0.318627
0.332231 0.332231 0.332231
0.345098 0.345098 0.345098
0.357781 0.357781 0.357781
0.374387 0.374387 0.374387
0.387071 0.387071 0.387071
0.400245 0.400245 0.400245
0.412438 0.412438 0.412438
0.427451 0.427451 0.427451
0.026042 0.026042 0.026042
0.026042 0.026042 0.026042
0.029964 0.029964 0.029964
0.029964 0.029964 0.029964
0.029964 0.029964 0.029964
0.033885 0.033885 0.033885
0.035478 0.035478 0.035478
0.037807 0.037807 0.037807
0.042647 0.042647 0.042647
0.039645 0.039645 0.039645
0.045650 0.045650 0.045650
0.049571 0.049571 0.049571
0.049571 0.049571 0.049571
0.051164 0.051164 0.051164
0.057415 0.057415 0.057415
0.061336 0.061336 0.061336
0.061336 0.061336 0.061336
0.065258 0.065258 0.065258
0.067525 0.067525 0.067525
0.073101 0.073101 0.073101
0.077022 0.077022 0.077022
0.080944 0.080944 0.080944
0.084866 0.084866 0.084866
0.088787 0.088787 0.088787
0.092709 0.092709 0.092709
0.096630 0.096630 0.096630
0.104473 0.104473 0.104473
0.108395 0.108395 0.108395
0.112316 0.112316 0.112316
0.116238 0.116238 0.116238
0.124081 0.124081 0.124081
0.126532 0.126532 0.126532
0.133885 0.133885 0.133885
0.140134 0.140134 0.140134
0.147488 0.147488 0.147488
0.152329 0.152329 0.152329
0.158578 0.158578 0.158578
0.165931 0.165931 0.165931
0.174694 0.174694 0.174694
0.182905 0.182905 0.182905
0.188297 0.188297 0.188297
0.194546 0.194546 0.194546
0.203309 0.203309 0.203309
0.210661 0.210661 0.210661
0.216912 0.216912 0.216912
0.225674 0.225674 0.225674
0.234436 0.234436 0.234436
0.241790 0.241790 0.241790
0.250552 0.250552 0.250552
0.256802 0.256802 0.256802
0.265564 0.265564 0.265564
0.274326 0.274326 0.274326
0.285600 0.285600 0.285600
0.294362 0.294362 0.294362
0.303125 0.303125 0.303125
0.316789 0.316789 0.316789
0.328492 0.328492 0.328492
0.336152 0.336152 0.336152
0.349755 0.349755 0.349755
0.362623 0.362623 0.362623
0.379229 0.379229 0.379229
0.391911 0.391911 0.391911
0.404595 0.404595 0.404595
0.417280 0.417280 0.417280
0.431373 0.431373 0.431373
0.031373 0.031373 0.031373
0.034804 0.034804 0.034804
0.033211 0.033211 0.033211
0.038726 0.038726 0.038726
0.038726 0.038726 0.038726
0.042647 0.042647 0.042647
0.042647 0.042647 0.042647
0.046569 0.046569 0.046569
0.046569 0.046569 0.046569
0.050490 0.050490 0.050490
0.054412 0.054412 0.054412
0.054412 0.054412 0.054412
0.058334 0.058334 0.058334
0.062255 0.062255 0.062255
0.066177 0.066177 0.066177
0.068198 0.068198 0.068198
0.070098 0.070098 0.070098
0.074020 0.074020 0.074020
0.077941 0.077941 0.077941
0.081863 0.081863 0.081863
0.085785 0.085785 0.085785
0.089399 0.089399 0.089399
0.093628 0.093628 0.093628
0.097549 0.097549 0.097549
0.101471 0.101471 0.101471
0.105392 0.105392 0.105392
0.109681 0.109681 0.109681
0.114522 0.114522 0.114522
0.119363 0.119363 0.119363
0.125000 0.125000 0.125000
0.129043 0.129043 0.129043
0.136765 0.136765 0.136765
0.139215 0.139215 0.139215
0.147488 0.147488 0.147488
0.152451 0.152451 0.152451
0.161091 0.161091 0.161091
0.168137 0.168137 0.168137
0.174694 0.174694 0.174694
0.179534 0.179534 0.179534
0.188297 0.188297 0.188297
0.195588 0.195588 0.195588
0.201900 0.201900 0.201900
0.207230 0.207230 0.207230
0.215503 0.215503 0.215503
0.224265 0.224265 0.224265
0.233027 0.233027 0.233027
0.238358 0.238358 0.238358
0.246629 0.246629 0.246629
0.255392 0.255392 0.255392
0.264155 0.264155 0.264155
0.272917 0.272917 0.272917
0.281679 0.281679 0.281679
0.290442 0.290442 0.290442
0.299204 0.299204 0.299204
0.308456 0.308456 0.308456
0.320650 0.320650 0.320650
0.333334 0.333334 0.333334
0.346017 0.346017 0.346017
0.358701 0.358701 0.358701
0.370711 0.370711 0.370711
0.380882 0.380882 0.380882
0.394485 0.394485 0.394485
0.408089 0.408089 0.408089
0.421691 0.421691 0.421691
0.435294 0.435294 0.435294
0.039645 0.039645 0.039645
0.043566 0.043566 0.043566
0.043566 0.043566 0.043566
0.043566 0.043566 0.043566
0.047488 0.047488 0.047488
0.048162 0.048162 0.048162
0.051409 0.051409 0.051409
0.051409 0.051409 0.051409
0.055331 0.055331 0.055331
0.059253 0.059253 0.059253
0.059253 0.059253 0.059253
0.065012 0.065012 0.065012
0.066360 0.066360 0.066360
0.067280 0.067280 0.067280
0.071017 0.071017 0.071017
0.074939 0.074939 0.074939
0.081372 0.081372 0.081372
0.078860 0.078860 0.078860
0.083640 0.083640 0.083640
0.088481 0.088481 0.088481
0.090625 0.090625 0.090625
0.094547 0.094547 0.094547
0.099081 0.099081 0.099081
0.103922 0.103922 0.103922
0.106311 0.106311 0.106311
0.110233 0.110233 0.110233
0.118076 0.118076 0.118076
0.121998 0.121998 0.121998
0.125919 0.125919 0.125919
0.132966 0.132966 0.132966
0.137378 0.137378 0.137378
0.142647 0.142647 0.142647
0.147487 0.147487 0.147487
0.155821 0.155821 0.155821
0.161091 0.161091 0.161091
0.165932 0.165932 0.165932
0.172978 0.172978 0.172978
0.179535 0.179535 0.179535
0.184743 0.184743 0.184743
0.193137 0.193137 0.193137
0.200429 0.200429 0.200429
0.206741 0.206741 0.206741
0.215503 0.215503 0.215503
0.220343 0.220343 0.220343
0.229105 0.229105 0.229105
0.235723 0.235723 0.235723
0.246201 0.246201 0.246201
0.251470 0.251470 0.251470
0.260233 0.260233 0.260233
0.268996 0.268996 0.268996
0.277758 0.277758 0.277758
0.286519 0.286519 0.286519
0.295282 0.295282 0.295282
0.304044 0.304044 0.304044
0.316299 0.316299 0.316299
0.325491 0.325491 0.325491
0.338235 0.338235 0.338235
0.351839 0.351839 0.351839
0.365441 0.365441 0.365441
0.372304 0.372304 0.372304
0.388909 0.388909 0.388909
0.402328 0.402328 0.402328
0.415932 0.415932 0.415932
0.426532 0.426532 0.426532
0.439216 0.439216 0.439216
0.048407 0.048407 0.048407
0.052328 0.052328 0.052328
0.052328 0.052328 0.052328
0.055086 0.055086 0.055086
0.056250 0.056250 0.056250
0.056250 0.056250 0.056250
0.060172 0.060172 0.060172
0.060172 0.060172 0.060172
0.064093 0.064093 0.064093
0.063174 0.063174 0.063174
0.068015 0.068015 0.068015
0.070282 0.070282 0.070282
0.071936 0.071936 0.071936
0.075858 0.075858 0.075858
0.079779 0.079779 0.079779
0.081801 0.081801 0.081801
0.086642 0.086642 0.086642
0.087623 0.087623 0.087623
0.091054 0.091054 0.091054
0.095466 0.095466 0.095466
0.099387 0.099387 0.099387
0.103309 0.103309 0.103309
0.107843 0.107843 0.107843
0.111152 0.111152 0.111152
0.115073 0.115073 0.115073
0.118995 0.118995 0.118995
0.123285 0.123285 0.123285
0.130760 0.130760 0.130760
0.134681 0.134681 0.134681
0.138603 0.138603 0.138603
0.146446 0.146446 0.146446
0.150368 0.150368 0.150368
0.154289 0.154289 0.154289
0.161091 0.161091 0.161091
0.166054 0.166054 0.166054
0.174694 0.174694 0.174694
0.179535 0.179535 0.179535
0.185662 0.185662 0.185662
0.193137 0.193137 0.193137
0.201348 0.201348 0.201348
0.206741 0.206741 0.206741
0.213113 0.213113 0.213113
0.222916 0.222916 0.222916
0.227757 0.227757 0.227757
0.233947 0.233947 0.233947
0.242709 0.242709 0.242709
0.251471 0.251471 0.251471
0.258885 0.258885 0.258885
0.268015 0.268015 0.268015
0.273835 0.273835 0.273835
0.282598 0.282598 0.282598
0.291361 0.291361 0.291361
0.300122 0.300122 0.300122
0.308885 0.308885 0.308885
0.321568 0.321568 0.321568
0.330330 0.330330 0.330330
0.342156 0.342156 0.342156
0.355698 0.355698 0.355698
0.368383 0.368383 0.368383
0.382966 0.382966 0.382966
0.392647 0.392647 0.392647
0.406434 0.406434 0.406434
0.419853 0.419853 0.419853
0.430454 0.430454 0.430454
0.443137 0.443137 0.443137
0.057169 0.057169 0.057169
0.061091 0.061091 0.061091
0.061091 0.061091 0.061091
0.061091 0.061091 0.061091
0.065012 0.065012 0.065012
0.065012 0.065012 0.065012
0.068934 0.068934 0.068934
0.068934 0.068934 0.068934
0.072855 0.072855 0.072855
0.072855 0.072855 0.072855
0.076777 0.076777 0.076777
0.079044 0.079044 0.079044
0.080698 0.080698 0.080698
0.084620 0.084620 0.084620
0.088542 0.088542 0.088542
0.090564 0.090564 0.090564
0.092463 0.092463 0.092463
0.096385 0.096385 0.096385
0.100306 0.100306 0.100306
0.104228 0.104228 0.104228
0.108149 0.108149 0.108149
0.113419 0.113419 0.113419
0.115992 0.115992 0.115992
0.119914 0.119914 0.119914
0.123836 0.123836 0.123836
0.127757 0.127757 0.127757
0.132047 0.132047 0.132047
0.136887 0.136887 0.136887
0.141728 0.141728 0.141728
0.148223 0.148223 0.148223
0.151410 0.151410 0.151410
0.159130 0.159130 0.159130
0.163051 0.163051 0.163051
0.169853 0.169853 0.169853
0.174694 0.174694 0.174694
0.182659 0.182659 0.182659
0.188297 0.188297 0.188297
0.194791 0.194791 0.194791
0.198345 0.198345 0.198345
0.206741 0.206741 0.206741
0.213235 0.213235 0.213235
0.220343 0.220343 0.220343
0.225796 0.225796 0.225796
0.233947 0.233947 0.233947
0.240441 0.240441 0.240441
0.249326 0.249326 0.249326
0.256311 0.256311 0.256311
0.262806 0.262806 0.262806
0.271568 0.271568 0.271568
0.278677 0.278677 0.278677
0.287439 0.287439 0.287439
0.296201 0.296201 0.296201
0.306617 0.306617 0.306617
0.317648 0.317648 0.317648
0.326410 0.326410 0.326410
0.340318 0.340318 0.340318
0.351778 0.351778 0.351778
0.359682 0.359682 0.359682
0.373223 0.373223 0.373223
0.385906 0.385906 0.385906
0.396568 0.396568 0.396568
0.411274 0.411274 0.411274
0.423958 0.423958 0.423958
0.434375 0.434375 0.434375
0.447059 0.447059 0.447059
0.065932 0.065932 0.065932
0.069853 0.069853 0.069853
0.069853 0.069853 0.069853
0.069853 0.069853 0.069853
0.073775 0.073775 0.073775
0.073775 0.073775 0.073775
0.077696 0.077696 0.077696
0.077696 0.077696 0.077696
0.077696 0.077696 0.077696
0.081618 0.081618 0.081618
0.085540 0.085540 0.085540
0.085540 0.085540 0.085540
0.089461 0.089461 0.089461
0.093383 0.093383 0.093383
0.094485 0.094485 0.094485
0.096140 0.096140 0.096140
0.101226 0.101226 0.101226
0.105147 0.105147 0.105147
0.109069 0.109069 0.109069
0.112990 0.112990 0.112990
0.115686 0.115686 0.115686
0.120527 0.120527 0.120527
0.124755 0.124755 0.124755
0.128677 0.128677 0.128677
0.131127 0.131127 0.131127
0.135968 0.135968 0.135968
0.140441 0.140441 0.140441
0.142463 0.142463 0.142463
0.147304 0.147304 0.147304
0.155331 0.155331 0.155331
0.156986 0.156986 0.156986
0.165012 0.165012 0.165012
0.169853 0.169853 0.169853
0.175736 0.175736 0.175736
0.179657 0.179657 0.179657
0.188297 0.188297 0.188297
0.195343 0.195343 0.195343
0.198713 0.198713 0.198713
0.206740 0.206740 0.206740
0.214951 0.214951 0.214951
0.220343 0.220343 0.220343
0.225919 0.225919 0.225919
0.233946 0.233946 0.233946
0.242402 0.242402 0.242402
0.247548 0.247548 0.247548
0.253125 0.253125 0.253125
0.262010 0.262010 0.262010
0.269915 0.269915 0.269915
0.278677 0.278677 0.278677
0.284253 0.284253 0.284253
0.293015 0.293015 0.293015
0.301777 0.301777 0.301777
0.313725 0.313725 0.313725
0.322487 0.322487 0.322487
0.331985 0.331985 0.331985
0.343934 0.343934 0.343934
0.356617 0.356617 0.356617
0.369302 0.369302 0.369302
0.377206 0.377206 0.377206
0.390748 0.390748 0.390748
0.400490 0.400490 0.400490
0.416116 0.416116 0.416116
0.428799 0.428799 0.428799
0.438297 0.438297 0.438297
0.450980 0.450980 0.450980
0.074694 0.074694 0.074694
0.075613 0.075613 0.075613
0.078615 0.078615 0.078615
0.078615 0.078615 0.078615
0.078615 0.078615 0.078615
0.082537 0.082537 0.082537
0.082537 0.082537 0.082537
0.086459 0.086459 0.086459
0.086459 0.086459 0.086459
0.090380 0.090380 0.090380
0.090380 0.090380 0.090380
0.094302 0.094302 0.094302
0.097488 0.097488 0.097488
0.098407 0.098407 0.098407
0.102145 0.102145 0.102145
0.106066 0.106066 0.106066
0.109007 0.109007 0.109007
0.109988 0.109988 0.109988
0.114767 0.114767 0.114767
0.117831 0.117831 0.117831
0.121753 0.121753 0.121753
0.125674 0.125674 0.125674
0.129596 0.129596 0.129596
0.133517 0.133517 0.133517
0.137439 0.137439 0.137439
0.141360 0.141360 0.141360
0.145649 0.145649 0.145649
0.150491 0.150491 0.150491
0.155330 0.155330 0.155330
0.163909 0.163909 0.163909
0.165012 0.165012 0.165012
0.169853 0.169853 0.169853
0.178431 0.178431 0.178431
0.180576 0.180576 0.180576
0.188297 0.188297 0.188297
0.193137 0.193137 0.193137
0.201716 0.201716 0.201716
0.206741 0.206741 0.206741
0.215318 0.215318 0.215318
