Black-and-White/Ilford/Ilford HP5 1 - 65x.cube
TITLE "Ilford HP5 1 -"
LUT_3D_SIZE 9
DOMAIN_MIN 0.000000 0.000000 0.000000
DOMAIN_MAX 1.000000 1.000000 1.000000
0.000000 0.000000 0.000000
0.011275 0.011275 0.011275
0.047059 0.047059 0.047059
0.122549 0.122549 0.122549
0.217647 0.217647 0.217647
0.311275 0.311275 0.311275
0.394118 0.394118 0.394118
0.478921 0.478921 0.478921
0.592157 0.592157 0.592157
0.023529 0.023529 0.023529
0.050490 0.050490 0.050490
0.127942 0.127942 0.127942
0.190196 0.190196 0.190196
0.262745 0.262745 0.262745
0.346078 0.346078 0.346078
0.419118 0.419118 0.419118
0.498529 0.498529 0.498529
0.603922 0.603922 0.603922
0.126471 0.126471 0.126471
0.134804 0.134804 0.134804
0.198039 0.198039 0.198039
0.290196 0.290196 0.290196
0.362745 0.362745 0.362745
0.417647 0.417647 0.417647
0.475490 0.475490 0.475490
0.541177 0.541177 0.541177
0.641176 0.641176 0.641176
0.253431 0.253431 0.253431
0.263236 0.263236 0.263236
0.287745 0.287745 0.287745
0.350000 0.350000 0.350000
0.431863 0.431863 0.431863
0.492647 0.492647 0.492647
0.548529 0.548529 0.548529
0.614706 0.614706 0.614706
0.701961 0.701961 0.701961
0.366667 0.366667 0.366667
0.370588 0.370588 0.370588
0.375491 0.375491 0.375491
0.415686 0.415686 0.415686
0.468627 0.468627 0.468627
0.550980 0.550980 0.550980
0.615687 0.615687 0.615687
0.692647 0.692647 0.692647
0.770588 0.770588 0.770588
0.461765 0.461765 0.461765
0.471569 0.471569 0.471569
0.468137 0.468137 0.468137
0.486765 0.486765 0.486765
0.532353 0.532353 0.532353
0.591176 0.591176 0.591176
0.674019 0.674019 0.674019
0.747059 0.747059 0.747059
0.828922 0.828922 0.828922
0.583333 0.583333 0.583333
0.586275 0.586275 0.586275
0.583333 0.583333 0.583333
0.588725 0.588725 0.588725
0.627451 0.627451 0.627451
0.676961 0.676961 0.676961
0.727451 0.727451 0.727451
0.804902 0.804902 0.804902
0.875490 0.875490 0.875490
0.722549 0.722549 0.722549
0.725980 0.725980 0.725980
0.723040 0.723040 0.723040
0.729902 0.729902 0.729902
0.746078 0.746078 0.746078
0.786275 0.786275 0.786275
0.824510 0.824510 0.824510
0.867647 0.867647 0.867647
0.917647 0.917647 0.917647
0.878431 0.878431 0.878431
0.877941 0.877941 0.877941
0.878431 0.878431 0.878431
0.882353 0.882353 0.882353
0.884314 0.884314 0.884314
0.907353 0.907353 0.907353
0.933333 0.933333 0.933333
0.957353 0.957353 0.957353
0.976471 0.976471 0.976471
0.019118 0.019118 0.019118
0.034804 0.034804 0.034804
0.088235 0.088235 0.088235
0.148530 0.148530 0.148530
0.233333 0.233333 0.233333
0.319118 0.319118 0.319118
0.395588 0.395588 0.395588
0.478921 0.478921 0.478921
0.584314 0.584314 0.584314
0.050490 0.050490 0.050490
0.085295 0.085295 0.085295
0.134804 0.134804 0.134804
0.200490 0.200490 0.200490
0.275980 0.275980 0.275980
0.350000 0.350000 0.350000
0.419608 0.419608 0.419608
0.498529 0.498529 0.498529
0.600000 0.600000 0.600000
0.180392 0.180392 0.180392
0.177941 0.177941 0.177941
0.221078 0.221078 0.221078
0.303431 0.303431 0.303431
0.364706 0.364706 0.364706
0.414216 0.414216 0.414216
0.471078 0.471078 0.471078
0.544118 0.544118 0.544118
0.640686 0.640686 0.640686
0.284314 0.284314 0.284314
0.291177 0.291177 0.291177
0.304412 0.304412 0.304412
0.362745 0.362745 0.362745
0.436765 0.436765 0.436765
0.496569 0.496569 0.496569
0.550000 0.550000 0.550000
0.614706 0.614706 0.614706
0.696569 0.696569 0.696569
0.386274 0.386274 0.386274
0.390686 0.390686 0.390686
0.389706 0.389706 0.389706
0.426961 0.426961 0.426961
0.478432 0.478432 0.478432
0.552451 0.552451 0.552451
0.615686 0.615686 0.615686
0.695098 0.695098 0.695098
0.772549 0.772549 0.772549
0.477451 0.477451 0.477451
0.483333 0.483333 0.483333
0.482353 0.482353 0.482353
0.498039 0.498039 0.498039
0.541176 0.541176 0.541176
0.597549 0.597549 0.597549
0.677941 0.677941 0.677941
0.750000 0.750000 0.750000
0.830883 0.830883 0.830883
0.591666 0.591666 0.591666
0.597058 0.597058 0.597058
0.595588 0.595588 0.595588
0.597059 0.597059 0.597059
0.632843 0.632843 0.632843
0.677941 0.677941 0.677941
0.731373 0.731373 0.731373
0.805393 0.805393 0.805393
0.877941 0.877941 0.877941
0.729902 0.729902 0.729902
0.730392 0.730392 0.730392
0.730392 0.730392 0.730392
0.733823 0.733823 0.733823
0.749020 0.749020 0.749020
0.785294 0.785294 0.785294
0.827941 0.827941 0.827941
0.867647 0.867647 0.867647
0.917647 0.917647 0.917647
0.878431 0.878431 0.878431
0.878431 0.878431 0.878431
0.881863 0.881863 0.881863
0.882353 0.882353 0.882353
0.886275 0.886275 0.886275
0.909804 0.909804 0.909804
0.933333 0.933333 0.933333
0.956863 0.956863 0.956863
0.976961 0.976961 0.976961
0.088235 0.088235 0.088235
0.108823 0.108823 0.108823
0.154902 0.154902 0.154902
0.225490 0.225490 0.225490
0.290196 0.290196 0.290196
0.344117 0.344117 0.344117
0.402942 0.402942 0.402942
0.482843 0.482843 0.482843
0.583333 0.583333 0.583333
0.131372 0.131372 0.131372
0.159804 0.159804 0.159804
0.194608 0.194608 0.194608
0.256373 0.256373 0.256373
0.306863 0.306863 0.306863
0.359313 0.359313 0.359313
0.424019 0.424019 0.424019
0.501471 0.501471 0.501471
0.599510 0.599510 0.599510
0.198039 0.198039 0.198039
0.217647 0.217647 0.217647
0.259804 0.259804 0.259804
0.307843 0.307843 0.307843
0.361765 0.361765 0.361765
0.415196 0.415196 0.415196
0.473529 0.473529 0.473529
0.545098 0.545098 0.545098
0.637255 0.637255 0.637255
0.323039 0.323039 0.323039
0.339215 0.339215 0.339215
0.346569 0.346569 0.346569
0.387745 0.387745 0.387745
0.448529 0.448529 0.448529
0.500490 0.500490 0.500490
0.548039 0.548039 0.548039
0.613235 0.613235 0.613235
0.697549 0.697549 0.697549
0.427451 0.427451 0.427451
0.431863 0.431863 0.431863
0.429412 0.429412 0.429412
0.447549 0.447549 0.447549
0.494117 0.494117 0.494117
0.560785 0.560785 0.560785
0.625490 0.625490 0.625490
0.696569 0.696569 0.696569
0.766666 0.766666 0.766666
0.508824 0.508824 0.508824
0.514706 0.514706 0.514706
0.514216 0.514216 0.514216
0.514216 0.514216 0.514216
0.556372 0.556372 0.556372
0.606863 0.606863 0.606863
0.684804 0.684804 0.684804
0.756373 0.756373 0.756373
0.835294 0.835294 0.835294
0.617647 0.617647 0.617647
0.617647 0.617647 0.617647
0.619608 0.619608 0.619608
0.620588 0.620588 0.620588
0.643137 0.643137 0.643137
0.688726 0.688726 0.688726
0.737255 0.737255 0.737255
0.813236 0.813236 0.813236
0.881373 0.881373 0.881373
0.743137 0.743137 0.743137
0.744608 0.744608 0.744608
0.746078 0.746078 0.746078
0.746078 0.746078 0.746078
0.755392 0.755392 0.755392
0.792647 0.792647 0.792647
0.832353 0.832353 0.832353
0.871568 0.871568 0.871568
0.922059 0.922059 0.922059
0.883333 0.883333 0.883333
0.883333 0.883333 0.883333
0.886275 0.886275 0.886275
0.888726 0.888726 0.888726
0.893137 0.893137 0.893137
0.909804 0.909804 0.909804
0.933333 0.933333 0.933333
0.957353 0.957353 0.957353
0.980392 0.980392 0.980392
0.197059 0.197059 0.197059
0.216667 0.216667 0.216667
0.257353 0.257353 0.257353
0.295098 0.295098 0.295098
0.343137 0.343137 0.343137
0.413235 0.413235 0.413235
0.458334 0.458334 0.458334
0.516177 0.516177 0.516177
0.592157 0.592157 0.592157
0.239706 0.239706 0.239706
0.255883 0.255883 0.255883
0.284804 0.284804 0.284804
0.316177 0.316177 0.316177
0.366176 0.366176 0.366176
0.423529 0.423529 0.423529
0.466667 0.466667 0.466667
0.524510 0.524510 0.524510
0.599510 0.599510 0.599510
0.268627 0.268627 0.268627
0.292157 0.292157 0.292157
0.334804 0.334804 0.334804
0.365196 0.365196 0.365196
0.410294 0.410294 0.410294
0.447059 0.447059 0.447059
0.487255 0.487255 0.487255
0.544608 0.544608 0.544608
0.636275 0.636275 0.636275
0.339706 0.339706 0.339706
0.358823 0.358823 0.358823
0.385294 0.385294 0.385294
0.420588 0.420588 0.420588
0.453431 0.453431 0.453431
0.494118 0.494118 0.494118
0.546078 0.546078 0.546078
0.610784 0.610784 0.610784
0.692647 0.692647 0.692647
0.451471 0.451471 0.451471
0.460785 0.460785 0.460785
0.475490 0.475490 0.475490
0.483333 0.483333 0.483333
0.518138 0.518138 0.518138
0.578431 0.578431 0.578431
0.637745 0.637745 0.637745
0.694117 0.694117 0.694117
0.764706 0.764706 0.764706
0.549020 0.549020 0.549020
0.558333 0.558333 0.558333
0.560784 0.560784 0.560784
0.560784 0.560784 0.560784
0.578431 0.578431 0.578431
0.626470 0.626470 0.626470
0.699020 0.699020 0.699020
0.765196 0.765196 0.765196
0.842157 0.842157 0.842157
0.651471 0.651471 0.651471
0.652941 0.652941 0.652941
0.652941 0.652941 0.652941
0.656863 0.656863 0.656863
0.660294 0.660294 0.660294
0.702451 0.702451 0.702451
0.749510 0.749510 0.749510
0.821078 0.821078 0.821078
0.887255 0.887255 0.887255
0.765686 0.765686 0.765686
0.768137 0.768137 0.768137
0.769117 0.769117 0.769117
0.769607 0.769607 0.769607
0.773039 0.773039 0.773039
0.800000 0.800000 0.800000
0.836765 0.836765 0.836765
0.875490 0.875490 0.875490
0.929412 0.929412 0.929412
0.894118 0.894118 0.894118
0.894118 0.894118 0.894118
0.895098 0.895098 0.895098
0.898039 0.898039 0.898039
0.900000 0.900000 0.900000
0.911274 0.911274 0.911274
0.937255 0.937255 0.937255
0.960784 0.960784 0.960784
0.980392 0.980392 0.980392
0.309804 0.309804 0.309804
0.321569 0.321569 0.321569
0.350000 0.350000 0.350000
0.386274 0.386274 0.386274
0.419608 0.419608 0.419608
0.444608 0.444608 0.444608
0.522549 0.522549 0.522549
0.586274 0.586274 0.586274
0.656863 0.656863 0.656863
0.337255 0.337255 0.337255
0.348530 0.348530 0.348530
0.370098 0.370098 0.370098
0.404412 0.404412 0.404412
0.431863 0.431863 0.431863
0.458824 0.458824 0.458824
0.535294 0.535294 0.535294
0.592156 0.592156 0.592156
0.660784 0.660784 0.660784
0.377451 0.377451 0.377451
0.395098 0.395098 0.395098
0.410784 0.410784 0.410784
0.438726 0.438726 0.438726
0.461765 0.461765 0.461765
0.490687 0.490687 0.490687
0.556863 0.556863 0.556863
0.606373 0.606373 0.606373
0.673529 0.673529 0.673529
0.400490 0.400490 0.400490
0.419608 0.419608 0.419608
0.438726 0.438726 0.438726
0.478922 0.478922 0.478922
0.500490 0.500490 0.500490
0.539216 0.539216 0.539216
0.579412 0.579412 0.579412
0.625980 0.625980 0.625980
0.688236 0.688236 0.688236
0.462745 0.462745 0.462745
0.472549 0.472549 0.472549
0.489216 0.489216 0.489216
0.517648 0.517648 0.517648
0.549019 0.549019 0.549019
0.582843 0.582843 0.582843
0.627451 0.627451 0.627451
0.684804 0.684804 0.684804
0.754902 0.754902 0.754902
0.566176 0.566176 0.566176
0.575981 0.575981 0.575981
0.585784 0.585784 0.585784
0.605392 0.605392 0.605392
0.615196 0.615196 0.615196
0.650000 0.650000 0.650000
0.713235 0.713235 0.713235
0.775980 0.775980 0.775980
0.836765 0.836765 0.836765
0.678431 0.678431 0.678431
0.682353 0.682353 0.682353
0.691176 0.691176 0.691176
0.697549 0.697549 0.697549
0.700000 0.700000 0.700000
0.718137 0.718137 0.718137
0.766667 0.766667 0.766667
0.832844 0.832844 0.832844
0.895098 0.895098 0.895098
0.795098 0.795098 0.795098
0.797058 0.797058 0.797058
0.798529 0.798529 0.798529
0.798529 0.798529 0.798529
0.800980 0.800980 0.800980
0.808823 0.808823 0.808823
0.845588 0.845588 0.845588
0.885294 0.885294 0.885294
0.937255 0.937255 0.937255
0.905882 0.905882 0.905882
0.909314 0.909314 0.909314
0.905882 0.905882 0.905882
0.911764 0.911764 0.911764
0.913725 0.913725 0.913725
0.917647 0.917647 0.917647
0.938235 0.938235 0.938235
0.963235 0.963235 0.963235
0.980392 0.980392 0.980392
0.413235 0.413235 0.413235
0.422549 0.422549 0.422549
0.442157 0.442157 0.442157
0.470588 0.470588 0.470588
0.505392 0.505392 0.505392
0.526961 0.526961 0.526961
0.542157 0.542157 0.542157
0.633824 0.633824 0.633824
0.726961 0.726961 0.726961
0.432353 0.432353 0.432353
0.444118 0.444118 0.444118
0.458824 0.458824 0.458824
0.483824 0.483824 0.483824
0.517157 0.517157 0.517157
0.536764 0.536764 0.536764
0.557843 0.557843 0.557843
0.643627 0.643627 0.643627
0.730882 0.730882 0.730882
0.471569 0.471569 0.471569
0.478921 0.478921 0.478921
0.490687 0.490687 0.490687
0.511765 0.511765 0.511765
0.538725 0.538725 0.538725
0.559804 0.559804 0.559804
0.584314 0.584314 0.584314
0.666177 0.666177 0.666177
0.740196 0.740196 0.740196
0.482353 0.482353 0.482353
0.500490 0.500490 0.500490
0.525980 0.525980 0.525980
0.545098 0.545098 0.545098
0.572549 0.572549 0.572549
0.593627 0.593627 0.593627
0.622059 0.622059 0.622059
0.699020 0.699020 0.699020
0.752941 0.752941 0.752941
0.521079 0.521079 0.521079
0.529412 0.529412 0.529412
0.544608 0.544608 0.544608
0.568627 0.568627 0.568627
0.607353 0.607353 0.607353
0.632353 0.632353 0.632353
0.673529 0.673529 0.673529
0.717157 0.717157 0.717157
0.768137 0.768137 0.768137
0.579412 0.579412 0.579412
0.587255 0.587255 0.587255
0.598039 0.598039 0.598039
0.617157 0.617157 0.617157
0.644608 0.644608 0.644608
0.681372 0.681372 0.681372
0.720098 0.720098 0.720098
0.766176 0.766176 0.766176
0.822549 0.822549 0.822549
0.696079 0.696079 0.696079
0.698039 0.698039 0.698039
0.707843 0.707843 0.707843
0.718137 0.718137 0.718137
0.739216 0.739216 0.739216
0.751471 0.751471 0.751471
0.787745 0.787745 0.787745
0.844608 0.844608 0.844608
0.902941 0.902941 0.902941
0.808333 0.808333 0.808333
0.808823 0.808823 0.808823
0.815686 0.815686 0.815686
0.825490 0.825490 0.825490
0.836765 0.836765 0.836765
0.837255 0.837255 0.837255
0.860295 0.860295 0.860295
0.895098 0.895098 0.895098
0.942647 0.942647 0.942647
0.921569 0.921569 0.921569
0.921569 0.921569 0.921569
0.924020 0.924020 0.924020
0.926961 0.926961 0.926961
0.929412 0.929412 0.929412
0.933333 0.933333 0.933333
0.941176 0.941176 0.941176
0.964706 0.964706 0.964706
0.984314 0.984314 0.984314
0.534313 0.534313 0.534313
0.538235 0.538235 0.538235
0.552941 0.552941 0.552941
0.572059 0.572059 0.572059
0.601961 0.601961 0.601961
0.633824 0.633824 0.633824
0.652941 0.652941 0.652941
0.660295 0.660295 0.660295
0.757843 0.757843 0.757843
0.543137 0.543137 0.543137
0.554412 0.554412 0.554412
0.562745 0.562745 0.562745
0.584804 0.584804 0.584804
0.612255 0.612255 0.612255
0.644117 0.644117 0.644117
0.658334 0.658334 0.658334
0.668138 0.668138 0.668138
0.764216 0.764216 0.764216
0.572549 0.572549 0.572549
0.577451 0.577451 0.577451
0.585294 0.585294 0.585294
0.604902 0.604902 0.604902
0.632353 0.632353 0.632353
0.659313 0.659313 0.659313
0.675490 0.675490 0.675490
0.687255 0.687255 0.687255
0.779412 0.779412 0.779412
0.593137 0.593137 0.593137
0.609804 0.609804 0.609804
0.616667 0.616667 0.616667
0.631863 0.631863 0.631863
0.651960 0.651960 0.651960
0.680882 0.680882 0.680882
0.697549 0.697549 0.697549
0.718137 0.718137 0.718137
0.802451 0.802451 0.802451
0.597059 0.597059 0.597059
0.608823 0.608823 0.608823
0.627451 0.627451 0.627451
0.656863 0.656863 0.656863
0.681372 0.681372 0.681372
0.708823 0.708823 0.708823
0.729412 0.729412 0.729412
0.758333 0.758333 0.758333
0.833333 0.833333 0.833333
0.648529 0.648529 0.648529
0.653431 0.653431 0.653431
0.664216 0.664216 0.664216
0.677941 0.677941 0.677941
0.700490 0.700490 0.700490
0.743627 0.743627 0.743627
0.769607 0.769607 0.769607
0.805883 0.805883 0.805883
0.854902 0.854902 0.854902
0.704902 0.704902 0.704902
0.710784 0.710784 0.710784
0.719608 0.719608 0.719608
0.732353 0.732353 0.732353
0.752941 0.752941 0.752941
0.781373 0.781373 0.781373
0.816667 0.816667 0.816667
0.849020 0.849020 0.849020
0.895098 0.895098 0.895098
0.824510 0.824510 0.824510
0.825490 0.825490 0.825490
0.832353 0.832353 0.832353
0.839706 0.839706 0.839706
0.853431 0.853431 0.853431
0.871568 0.871568 0.871568
0.880392 0.880392 0.880392
0.910784 0.910784 0.910784
0.952941 0.952941 0.952941
0.929412 0.929412 0.929412
0.930392 0.930392 0.930392
0.931372 0.931372 0.931372
0.937255 0.937255 0.937255
0.942156 0.942156 0.942156
0.952941 0.952941 0.952941
0.953922 0.953922 0.953922
0.969117 0.969117 0.969117
0.991177 0.991177 0.991177
0.675000 0.675000 0.675000
0.675490 0.675490 0.675490
0.686275 0.686275 0.686275
0.700980 0.700980 0.700980
0.720588 0.720588 0.720588
0.747549 0.747549 0.747549
0.777451 0.777451 0.777451
0.789706 0.789706 0.789706
0.797059 0.797059 0.797059
0.675981 0.675981 0.675981
0.686765 0.686765 0.686765
0.693628 0.693628 0.693628
0.706863 0.706863 0.706863
0.729412 0.729412 0.729412
0.750981 0.750981 0.750981
0.782353 0.782353 0.782353
0.793627 0.793627 0.793627
0.800490 0.800490 0.800490
0.697059 0.697059 0.697059
0.699019 0.699019 0.699019
0.709314 0.709314 0.709314
0.720588 0.720588 0.720588
0.738235 0.738235 0.738235
0.764706 0.764706 0.764706
0.790196 0.790196 0.790196
0.803922 0.803922 0.803922
0.807843 0.807843 0.807843
0.714706 0.714706 0.714706
0.723040 0.723040 0.723040
0.726470 0.726470 0.726470
0.740196 0.740196 0.740196
0.755392 0.755392 0.755392
0.781863 0.781863 0.781863
0.806863 0.806863 0.806863
0.820588 0.820588 0.820588
0.824019 0.824019 0.824019
0.724020 0.724020 0.724020
0.730392 0.730392 0.730392
0.742156 0.742156 0.742156
0.759804 0.759804 0.759804
0.777451 0.777451 0.777451
0.798529 0.798529 0.798529
0.822549 0.822549 0.822549
0.837745 0.837745 0.837745
0.851470 0.851470 0.851470
0.735294 0.735294 0.735294
0.739706 0.739706 0.739706
0.743137 0.743137 0.743137
0.764706 0.764706 0.764706
0.792647 0.792647 0.792647
0.820098 0.820098 0.820098
0.845098 0.845098 0.845098
0.863235 0.863235 0.863235
0.887745 0.887745 0.887745
0.783333 0.783333 0.783333
0.789215 0.789215 0.789215
0.793628 0.793628 0.793628
0.800491 0.800491 0.800491
0.817157 0.817157 0.817157
0.837255 0.837255 0.837255
0.872059 0.872059 0.872059
0.895589 0.895589 0.895589
0.923530 0.923530 0.923530
0.839706 0.839706 0.839706
0.839706 0.839706 0.839706
0.846569 0.846569 0.846569
0.853431 0.853431 0.853431
0.865686 0.865686 0.865686
0.884314 0.884314 0.884314
0.903432 0.903432 0.903432
0.929902 0.929902 0.929902
0.953431 0.953431 0.953431
0.937255 0.937255 0.937255
0.940196 0.940196 0.940196
0.941176 0.941176 0.941176
0.949020 0.949020 0.949020
0.953431 0.953431 0.953431
0.961274 0.961274 0.961274
0.972549 0.972549 0.972549
0.976471 0.976471 0.976471
0.995588 0.995588 0.995588
0.835294 0.835294 0.835294
0.839216 0.839216 0.839216
0.844118 0.844118 0.844118
0.854902 0.854902 0.854902
0.866667 0.866667 0.866667
0.882353 0.882353 0.882353
0.898039 0.898039 0.898039
0.917647 0.917647 0.917647
0.921569 0.921569 0.921569
0.839216 0.839216 0.839216
0.843137 0.843137 0.843137
0.847059 0.847059 0.847059
0.857353 0.857353 0.857353
0.868628 0.868628 0.868628
0.885785 0.885785 0.885785
0.899020 0.899020 0.899020
0.914215 0.914215 0.914215
0.925490 0.925490 0.925490
0.847059 0.847059 0.847059
0.850980 0.850980 0.850980
0.854902 0.854902 0.854902
0.862745 0.862745 0.862745
0.872549 0.872549 0.872549
0.886275 0.886275 0.886275
0.902941 0.902941 0.902941
0.921569 0.921569 0.921569
0.925490 0.925490 0.925490
0.854902 0.854902 0.854902
0.858824 0.858824 0.858824
0.862745 0.862745 0.862745
0.870588 0.870588 0.870588
0.882353 0.882353 0.882353
0.893138 0.893138 0.893138
0.909804 0.909804 0.909804
0.931373 0.931373 0.931373
0.935784 0.935784 0.935784
0.866667 0.866667 0.866667
0.870588 0.870588 0.870588
0.872549 0.872549 0.872549
0.882353 0.882353 0.882353
0.892157 0.892157 0.892157
0.905882 0.905882 0.905882
0.918627 0.918627 0.918627
0.935294 0.935294 0.935294
0.945098 0.945098 0.945098
0.862745 0.862745 0.862745
0.866667 0.866667 0.866667
0.874510 0.874510 0.874510
0.888726 0.888726 0.888726
0.903922 0.903922 0.903922
0.915196 0.915196 0.915196
0.933333 0.933333 0.933333
0.945098 0.945098 0.945098
0.954412 0.954412 0.954412
0.886275 0.886275 0.886275
0.890196 0.890196 0.890196
0.890196 0.890196 0.890196
0.892648 0.892648 0.892648
0.903922 0.903922 0.903922
0.925490 0.925490 0.925490
0.942157 0.942157 0.942157
0.960784 0.960784 0.960784
0.968627 0.968627 0.968627
0.925980 0.925980 0.925980
0.925490 0.925490 0.925490
0.929412 0.929412 0.929412
0.930882 0.930882 0.930882
0.934313 0.934313 0.934313
0.945588 0.945588 0.945588
0.952941 0.952941 0.952941
0.972549 0.972549 0.972549
0.984314 0.984314 0.984314
0.960784 0.960784 0.960784
0.960784 0.960784 0.960784
0.960784 0.960784 0.960784
0.964706 0.964706 0.964706
0.968627 0.968627 0.968627
0.972549 0.972549 0.972549
0.980392 0.980392 0.980392
0.988725 0.988725 0.988725
1.000000 1.000000 1.000000
