Black-and-White/Ilford/Ilford HP5 Plus 400 65x.cube
TITLE "Ilford HP5 Plus 400"
LUT_3D_SIZE 9
DOMAIN_MIN 0.000000 0.000000 0.000000
DOMAIN_MAX 1.000000 1.000000 1.000000
0.000000 0.000000 0.000000
0.000000 0.000000 0.000000
0.006863 0.006863 0.006863
0.015686 0.015686 0.015686
0.041177 0.041177 0.041177
0.091667 0.091667 0.091667
0.174510 0.174510 0.174510
0.279411 0.279411 0.279411
0.423529 0.423529 0.423529
0.015196 0.015196 0.015196
0.023039 0.023039 0.023039
0.038726 0.038726 0.038726
0.062255 0.062255 0.062255
0.099510 0.099510 0.099510
0.165686 0.165686 0.165686
0.243628 0.243628 0.243628
0.345587 0.345587 0.345587
0.470098 0.470098 0.470098
0.061765 0.061765 0.061765
0.073040 0.073040 0.073040
0.089216 0.089216 0.089216
0.120589 0.120589 0.120589
0.167647 0.167647 0.167647
0.227941 0.227941 0.227941
0.301960 0.301960 0.301960
0.403431 0.403431 0.403431
0.508824 0.508824 0.508824
0.143627 0.143627 0.143627
0.151471 0.151471 0.151471
0.171078 0.171078 0.171078
0.200981 0.200981 0.200981
0.241667 0.241667 0.241667
0.298040 0.298040 0.298040
0.373039 0.373039 0.373039
0.457843 0.457843 0.457843
0.555392 0.555392 0.555392
0.247058 0.247058 0.247058
0.252941 0.252941 0.252941
0.268627 0.268627 0.268627
0.294118 0.294118 0.294118
0.335294 0.335294 0.335294
0.391666 0.391666 0.391666
0.450000 0.450000 0.450000
0.520098 0.520098 0.520098
0.615686 0.615686 0.615686
0.375490 0.375490 0.375490
0.379412 0.379412 0.379412
0.394118 0.394118 0.394118
0.414706 0.414706 0.414706
0.446078 0.446078 0.446078
0.485294 0.485294 0.485294
0.536274 0.536274 0.536274
0.601961 0.601961 0.601961
0.683824 0.683824 0.683824
0.496079 0.496079 0.496079
0.500000 0.500000 0.500000
0.513725 0.513725 0.513725
0.527451 0.527451 0.527451
0.554902 0.554902 0.554902
0.590686 0.590686 0.590686
0.633334 0.633334 0.633334
0.687746 0.687746 0.687746
0.757843 0.757843 0.757843
0.640196 0.640196 0.640196
0.643627 0.643627 0.643627
0.650981 0.650981 0.650981
0.663725 0.663725 0.663725
0.684804 0.684804 0.684804
0.706863 0.706863 0.706863
0.738235 0.738235 0.738235
0.777451 0.777451 0.777451
0.831863 0.831863 0.831863
0.792157 0.792157 0.792157
0.796078 0.796078 0.796078
0.800000 0.800000 0.800000
0.807843 0.807843 0.807843
0.819608 0.819608 0.819608
0.832843 0.832843 0.832843
0.851961 0.851961 0.851961
0.878431 0.878431 0.878431
0.917647 0.917647 0.917647
0.003922 0.003922 0.003922
0.015686 0.015686 0.015686
0.030883 0.030883 0.030883
0.054412 0.054412 0.054412
0.091667 0.091667 0.091667
0.154412 0.154412 0.154412
0.237255 0.237255 0.237255
0.338235 0.338235 0.338235
0.466667 0.466667 0.466667
0.042647 0.042647 0.042647
0.054412 0.054412 0.054412
0.076961 0.076961 0.076961
0.107843 0.107843 0.107843
0.151961 0.151961 0.151961
0.216667 0.216667 0.216667
0.290686 0.290686 0.290686
0.392647 0.392647 0.392647
0.501471 0.501471 0.501471
0.096569 0.096569 0.096569
0.104902 0.104902 0.104902
0.127941 0.127941 0.127941
0.159804 0.159804 0.159804
0.204902 0.204902 0.204902
0.263236 0.263236 0.263236
0.337255 0.337255 0.337255
0.431373 0.431373 0.431373
0.532353 0.532353 0.532353
0.174510 0.174510 0.174510
0.182353 0.182353 0.182353
0.201471 0.201471 0.201471
0.229412 0.229412 0.229412
0.270588 0.270588 0.270588
0.325490 0.325490 0.325490
0.402941 0.402941 0.402941
0.477451 0.477451 0.477451
0.575000 0.575000 0.575000
0.270589 0.270589 0.270589
0.275980 0.275980 0.275980
0.291667 0.291667 0.291667
0.318138 0.318138 0.318138
0.362745 0.362745 0.362745
0.415196 0.415196 0.415196
0.469608 0.469608 0.469608
0.536274 0.536274 0.536274
0.630883 0.630883 0.630883
0.395098 0.395098 0.395098
0.402451 0.402451 0.402451
0.414216 0.414216 0.414216
0.435294 0.435294 0.435294
0.463726 0.463726 0.463726
0.500980 0.500980 0.500980
0.550981 0.550981 0.550981
0.615196 0.615196 0.615196
0.695588 0.695588 0.695588
0.511765 0.511765 0.511765
0.515687 0.515687 0.515687
0.526961 0.526961 0.526961
0.543137 0.543137 0.543137
0.570098 0.570098 0.570098
0.603432 0.603432 0.603432
0.646078 0.646078 0.646078
0.699510 0.699510 0.699510
0.765686 0.765686 0.765686
0.651470 0.651470 0.651470
0.655392 0.655392 0.655392
0.662745 0.662745 0.662745
0.675000 0.675000 0.675000
0.692647 0.692647 0.692647
0.718137 0.718137 0.718137
0.746569 0.746569 0.746569
0.785294 0.785294 0.785294
0.835784 0.835784 0.835784
0.800000 0.800000 0.800000
0.803922 0.803922 0.803922
0.807843 0.807843 0.807843
0.815196 0.815196 0.815196
0.823529 0.823529 0.823529
0.839216 0.839216 0.839216
0.858824 0.858824 0.858824
0.882353 0.882353 0.882353
0.921569 0.921569 0.921569
0.019608 0.019608 0.019608
0.042157 0.042157 0.042157
0.061765 0.061765 0.061765
0.091667 0.091667 0.091667
0.138235 0.138235 0.138235
0.202942 0.202942 0.202942
0.278431 0.278431 0.278431
0.384314 0.384314 0.384314
0.498039 0.498039 0.498039
0.076961 0.076961 0.076961
0.092647 0.092647 0.092647
0.116667 0.116667 0.116667
0.151471 0.151471 0.151471
0.198529 0.198529 0.198529
0.258824 0.258824 0.258824
0.333333 0.333333 0.333333
0.430883 0.430883 0.430883
0.532353 0.532353 0.532353
0.139215 0.139215 0.139215
0.150980 0.150980 0.150980
0.174510 0.174510 0.174510
0.205882 0.205882 0.205882
0.248039 0.248039 0.248039
0.305392 0.305392 0.305392
0.383333 0.383333 0.383333
0.462745 0.462745 0.462745
0.563725 0.563725 0.563725
0.221078 0.221078 0.221078
0.228922 0.228922 0.228922
0.244608 0.244608 0.244608
0.272059 0.272059 0.272059
0.313235 0.313235 0.313235
0.373529 0.373529 0.373529
0.438725 0.438725 0.438725
0.508823 0.508823 0.508823
0.605392 0.605392 0.605392
0.314706 0.314706 0.314706
0.321569 0.321569 0.321569
0.338235 0.338235 0.338235
0.367647 0.367647 0.367647
0.406863 0.406863 0.406863
0.450490 0.450490 0.450490
0.500980 0.500980 0.500980
0.570098 0.570098 0.570098
0.656863 0.656863 0.656863
0.434314 0.434314 0.434314
0.438235 0.438235 0.438235
0.447549 0.447549 0.447549
0.467157 0.467157 0.467157
0.494608 0.494608 0.494608
0.532353 0.532353 0.532353
0.581863 0.581863 0.581863
0.642647 0.642647 0.642647
0.719118 0.719118 0.719118
0.543137 0.543137 0.543137
0.547059 0.547059 0.547059
0.557843 0.557843 0.557843
0.574510 0.574510 0.574510
0.599019 0.599019 0.599019
0.632353 0.632353 0.632353
0.672549 0.672549 0.672549
0.722059 0.722059 0.722059
0.781373 0.781373 0.781373
0.675490 0.675490 0.675490
0.679412 0.679412 0.679412
0.686275 0.686275 0.686275
0.698039 0.698039 0.698039
0.716177 0.716177 0.716177
0.738235 0.738235 0.738235
0.766177 0.766177 0.766177
0.800980 0.800980 0.800980
0.851470 0.851470 0.851470
0.815686 0.815686 0.815686
0.819118 0.819118 0.819118
0.822549 0.822549 0.822549
0.829902 0.829902 0.829902
0.839216 0.839216 0.839216
0.852451 0.852451 0.852451
0.870588 0.870588 0.870588
0.894118 0.894118 0.894118
0.929412 0.929412 0.929412
0.049510 0.049510 0.049510
0.080882 0.080882 0.080882
0.107353 0.107353 0.107353
0.143627 0.143627 0.143627
0.190686 0.190686 0.190686
0.250980 0.250980 0.250980
0.328921 0.328921 0.328921
0.428431 0.428431 0.428431
0.533333 0.533333 0.533333
0.127451 0.127451 0.127451
0.147059 0.147059 0.147059
0.174510 0.174510 0.174510
0.208824 0.208824 0.208824
0.251471 0.251471 0.251471
0.309804 0.309804 0.309804
0.387745 0.387745 0.387745
0.469608 0.469608 0.469608
0.568137 0.568137 0.568137
0.197549 0.197549 0.197549
0.209314 0.209314 0.209314
0.231863 0.231863 0.231863
0.260294 0.260294 0.260294
0.302451 0.302451 0.302451
0.363725 0.363725 0.363725
0.430883 0.430883 0.430883
0.501471 0.501471 0.501471
0.599020 0.599020 0.599020
0.275490 0.275490 0.275490
0.283334 0.283334 0.283334
0.301961 0.301961 0.301961
0.330392 0.330392 0.330392
0.375490 0.375490 0.375490
0.425981 0.425981 0.425981
0.479412 0.479412 0.479412
0.548039 0.548039 0.548039
0.641667 0.641667 0.641667
0.376961 0.376961 0.376961
0.384314 0.384314 0.384314
0.399510 0.399510 0.399510
0.422549 0.422549 0.422549
0.453432 0.453432 0.453432
0.492157 0.492157 0.492157
0.542647 0.542647 0.542647
0.608824 0.608824 0.608824
0.690687 0.690687 0.690687
0.478431 0.478431 0.478431
0.482353 0.482353 0.482353
0.494118 0.494118 0.494118
0.511274 0.511274 0.511274
0.539216 0.539216 0.539216
0.576471 0.576471 0.576471
0.622549 0.622549 0.622549
0.678922 0.678922 0.678922
0.746569 0.746569 0.746569
0.588725 0.588725 0.588725
0.592647 0.592647 0.592647
0.603432 0.603432 0.603432
0.619117 0.619117 0.619117
0.642157 0.642157 0.642157
0.671078 0.671078 0.671078
0.706373 0.706373 0.706373
0.750491 0.750491 0.750491
0.804902 0.804902 0.804902
0.710784 0.710784 0.710784
0.713236 0.713236 0.713236
0.720588 0.720588 0.720588
0.730392 0.730392 0.730392
0.746078 0.746078 0.746078
0.766667 0.766667 0.766667
0.791176 0.791176 0.791176
0.824019 0.824019 0.824019
0.867157 0.867157 0.867157
0.839216 0.839216 0.839216
0.839216 0.839216 0.839216
0.843137 0.843137 0.843137
0.849510 0.849510 0.849510
0.858824 0.858824 0.858824
0.870588 0.870588 0.870588
0.886275 0.886275 0.886275
0.908333 0.908333 0.908333
0.941176 0.941176 0.941176
0.100000 0.100000 0.100000
0.141176 0.141176 0.141176
0.170588 0.170588 0.170588
0.208334 0.208334 0.208334
0.252941 0.252941 0.252941
0.313235 0.313235 0.313235
0.392157 0.392157 0.392157
0.473039 0.473039 0.473039
0.574510 0.574510 0.574510
0.197549 0.197549 0.197549
0.217157 0.217157 0.217157
0.240686 0.240686 0.240686
0.271079 0.271079 0.271079
0.315196 0.315196 0.315196
0.379412 0.379412 0.379412
0.443627 0.443627 0.443627
0.514216 0.514216 0.514216
0.611275 0.611275 0.611275
0.267647 0.267647 0.267647
0.275490 0.275490 0.275490
0.299020 0.299020 0.299020
0.328922 0.328922 0.328922
0.375490 0.375490 0.375490
0.428432 0.428432 0.428432
0.482353 0.482353 0.482353
0.551471 0.551471 0.551471
0.644118 0.644118 0.644118
0.351471 0.351471 0.351471
0.360784 0.360784 0.360784
0.379902 0.379902 0.379902
0.406863 0.406863 0.406863
0.439706 0.439706 0.439706
0.481863 0.481863 0.481863
0.532843 0.532843 0.532843
0.599019 0.599019 0.599019
0.682843 0.682843 0.682843
0.447059 0.447059 0.447059
0.450981 0.450981 0.450981
0.462746 0.462746 0.462746
0.482353 0.482353 0.482353
0.511764 0.511764 0.511764
0.550490 0.550490 0.550490
0.597059 0.597059 0.597059
0.657353 0.657353 0.657353
0.729411 0.729411 0.729411
0.538235 0.538235 0.538235
0.542157 0.542157 0.542157
0.552451 0.552451 0.552451
0.570588 0.570588 0.570588
0.597549 0.597549 0.597549
0.630882 0.630882 0.630882
0.671078 0.671078 0.671078
0.719608 0.719608 0.719608
0.778431 0.778431 0.778431
0.643137 0.643137 0.643137
0.647059 0.647059 0.647059
0.654902 0.654902 0.654902
0.669608 0.669608 0.669608
0.689216 0.689216 0.689216
0.714216 0.714216 0.714216
0.745098 0.745098 0.745098
0.783333 0.783333 0.783333
0.832353 0.832353 0.832353
0.750000 0.750000 0.750000
0.751471 0.751471 0.751471
0.757843 0.757843 0.757843
0.767157 0.767157 0.767157
0.778922 0.778922 0.778922
0.798039 0.798039 0.798039
0.820098 0.820098 0.820098
0.848039 0.848039 0.848039
0.888235 0.888235 0.888235
0.862745 0.862745 0.862745
0.864706 0.864706 0.864706
0.866667 0.866667 0.866667
0.872549 0.872549 0.872549
0.880392 0.880392 0.880392
0.892157 0.892157 0.892157
0.905882 0.905882 0.905882
0.925490 0.925490 0.925490
0.952941 0.952941 0.952941
0.183333 0.183333 0.183333
0.224510 0.224510 0.224510
0.252451 0.252451 0.252451
0.286275 0.286275 0.286275
0.332353 0.332353 0.332353
0.395098 0.395098 0.395098
0.457353 0.457353 0.457353
0.527941 0.527941 0.527941
0.627451 0.627451 0.627451
0.280882 0.280882 0.280882
0.299020 0.299020 0.299020
0.325490 0.325490 0.325490
0.360294 0.360294 0.360294
0.404902 0.404902 0.404902
0.451961 0.451961 0.451961
0.504412 0.504412 0.504412
0.574510 0.574510 0.574510
0.663726 0.663726 0.663726
0.358824 0.358824 0.358824
0.370588 0.370588 0.370588
0.392647 0.392647 0.392647
0.420098 0.420098 0.420098
0.455392 0.455392 0.455392
0.494608 0.494608 0.494608
0.546569 0.546569 0.546569
0.612745 0.612745 0.612745
0.693137 0.693137 0.693137
0.439216 0.439216 0.439216
0.446569 0.446569 0.446569
0.458824 0.458824 0.458824
0.478431 0.478431 0.478431
0.509804 0.509804 0.509804
0.549020 0.549020 0.549020
0.597059 0.597059 0.597059
0.656863 0.656863 0.656863
0.727941 0.727941 0.727941
0.517157 0.517157 0.517157
0.521078 0.521078 0.521078
0.532843 0.532843 0.532843
0.552451 0.552451 0.552451
0.581373 0.581373 0.581373
0.616667 0.616667 0.616667
0.658333 0.658333 0.658333
0.709314 0.709314 0.709314
0.770098 0.770098 0.770098
0.608333 0.608333 0.608333
0.612255 0.612255 0.612255
0.621569 0.621569 0.621569
0.638235 0.638235 0.638235
0.659804 0.659804 0.659804
0.689216 0.689216 0.689216
0.721569 0.721569 0.721569
0.762745 0.762745 0.762745
0.813235 0.813235 0.813235
0.700490 0.700490 0.700490
0.704412 0.704412 0.704412
0.712255 0.712255 0.712255
0.724020 0.724020 0.724020
0.739706 0.739706 0.739706
0.759314 0.759314 0.759314
0.786275 0.786275 0.786275
0.817647 0.817647 0.817647
0.860294 0.860294 0.860294
0.790196 0.790196 0.790196
0.794118 0.794118 0.794118
0.798039 0.798039 0.798039
0.805883 0.805883 0.805883
0.817647 0.817647 0.817647
0.831863 0.831863 0.831863
0.851470 0.851470 0.851470
0.875490 0.875490 0.875490
0.910294 0.910294 0.910294
0.890196 0.890196 0.890196
0.891667 0.891667 0.891667
0.894118 0.894118 0.894118
0.899510 0.899510 0.899510
0.905882 0.905882 0.905882
0.915196 0.915196 0.915196
0.926961 0.926961 0.926961
0.945098 0.945098 0.945098
0.968627 0.968627 0.968627
0.284314 0.284314 0.284314
0.323530 0.323530 0.323530
0.354902 0.354902 0.354902
0.390196 0.390196 0.390196
0.430392 0.430392 0.430392
0.473039 0.473039 0.473039
0.527451 0.527451 0.527451
0.597549 0.597549 0.597549
0.683334 0.683334 0.683334
0.389706 0.389706 0.389706
0.408333 0.408333 0.408333
0.427941 0.427941 0.427941
0.455392 0.455392 0.455392
0.486765 0.486765 0.486765
0.527451 0.527451 0.527451
0.578432 0.578432 0.578432
0.640687 0.640687 0.640687
0.714706 0.714706 0.714706
0.454902 0.454902 0.454902
0.462745 0.462745 0.462745
0.478431 0.478431 0.478431
0.501961 0.501961 0.501961
0.533333 0.533333 0.533333
0.572549 0.572549 0.572549
0.620588 0.620588 0.620588
0.675980 0.675980 0.675980
0.742156 0.742156 0.742156
0.521079 0.521079 0.521079
0.528432 0.528432 0.528432
0.540686 0.540686 0.540686
0.560294 0.560294 0.560294
0.589706 0.589706 0.589706
0.626961 0.626961 0.626961
0.667157 0.667157 0.667157
0.716667 0.716667 0.716667
0.773529 0.773529 0.773529
0.600000 0.600000 0.600000
0.603922 0.603922 0.603922
0.614706 0.614706 0.614706
0.632843 0.632843 0.632843
0.655882 0.655882 0.655882
0.685294 0.685294 0.685294
0.720588 0.720588 0.720588
0.759804 0.759804 0.759804
0.809804 0.809804 0.809804
0.680882 0.680882 0.680882
0.684804 0.684804 0.684804
0.692647 0.692647 0.692647
0.706863 0.706863 0.706863
0.724020 0.724020 0.724020
0.747549 0.747549 0.747549
0.775000 0.775000 0.775000
0.806373 0.806373 0.806373
0.848529 0.848529 0.848529
0.758824 0.758824 0.758824
0.762745 0.762745 0.762745
0.768627 0.768627 0.768627
0.778432 0.778432 0.778432
0.790196 0.790196 0.790196
0.808823 0.808823 0.808823
0.829412 0.829412 0.829412
0.855883 0.855883 0.855883
0.891177 0.891177 0.891177
0.836274 0.836274 0.836274
0.836765 0.836765 0.836765
0.840686 0.840686 0.840686
0.848530 0.848530 0.848530
0.856373 0.856373 0.856373
0.868628 0.868628 0.868628
0.883824 0.883824 0.883824
0.906372 0.906372 0.906372
0.934314 0.934314 0.934314
0.921569 0.921569 0.921569
0.921569 0.921569 0.921569
0.925490 0.925490 0.925490
0.927941 0.927941 0.927941
0.933333 0.933333 0.933333
0.941176 0.941176 0.941176
0.950000 0.950000 0.950000
0.964706 0.964706 0.964706
0.981372 0.981372 0.981372
0.408823 0.408823 0.408823
0.439706 0.439706 0.439706
0.459804 0.459804 0.459804
0.485294 0.485294 0.485294
0.516177 0.516177 0.516177
0.558824 0.558824 0.558824
0.609314 0.609314 0.609314
0.667647 0.667647 0.667647
0.737745 0.737745 0.737745
0.490196 0.490196 0.490196
0.502451 0.502451 0.502451
0.521569 0.521569 0.521569
0.545098 0.545098 0.545098
0.576471 0.576471 0.576471
0.615686 0.615686 0.615686
0.656373 0.656373 0.656373
0.709804 0.709804 0.709804
0.769117 0.769117 0.769117
0.550000 0.550000 0.550000
0.556863 0.556863 0.556863
0.572549 0.572549 0.572549
0.595588 0.595588 0.595588
0.623529 0.623529 0.623529
0.658334 0.658334 0.658334
0.697549 0.697549 0.697549
0.740686 0.740686 0.740686
0.792647 0.792647 0.792647
0.618627 0.618627 0.618627
0.623039 0.623039 0.623039
0.634804 0.634804 0.634804
0.653921 0.653921 0.653921
0.677451 0.677451 0.677451
0.704902 0.704902 0.704902
0.737254 0.737254 0.737254
0.775490 0.775490 0.775490
0.822059 0.822059 0.822059
0.688726 0.688726 0.688726
0.692647 0.692647 0.692647
0.700490 0.700490 0.700490
0.716667 0.716667 0.716667
0.732353 0.732353 0.732353
0.754902 0.754902 0.754902
0.782843 0.782843 0.782843
0.814216 0.814216 0.814216
0.853431 0.853431 0.853431
0.757843 0.757843 0.757843
0.758824 0.758824 0.758824
0.766667 0.766667 0.766667
0.774510 0.774510 0.774510
0.790196 0.790196 0.790196
0.805883 0.805883 0.805883
0.829412 0.829412 0.829412
0.855392 0.855392 0.855392
0.887745 0.887745 0.887745
0.821078 0.821078 0.821078
0.821079 0.821079 0.821079
0.825000 0.825000 0.825000
0.832844 0.832844 0.832844
0.844608 0.844608 0.844608
0.859314 0.859314 0.859314
0.875490 0.875490 0.875490
0.895589 0.895589 0.895589
0.925980 0.925980 0.925980
0.883333 0.883333 0.883333
0.883333 0.883333 0.883333
0.887255 0.887255 0.887255
0.893137 0.893137 0.893137
0.899019 0.899019 0.899019
0.910294 0.910294 0.910294
0.922549 0.922549 0.922549
0.937745 0.937745 0.937745
0.961274 0.961274 0.961274
0.952941 0.952941 0.952941
0.953431 0.953431 0.953431
0.953431 0.953431 0.953431
0.957353 0.957353 0.957353
0.961274 0.961274 0.961274
0.968627 0.968627 0.968627
0.973039 0.973039 0.973039
0.984314 0.984314 0.984314
0.996078 0.996078 0.996078
0.517647 0.517647 0.517647
0.545098 0.545098 0.545098
0.564706 0.564706 0.564706
0.590686 0.590686 0.590686
0.619608 0.619608 0.619608
0.654902 0.654902 0.654902
0.695098 0.695098 0.695098
0.741666 0.741666 0.741666
0.796078 0.796078 0.796078
0.599510 0.599510 0.599510
0.611765 0.611765 0.611765
0.630883 0.630883 0.630883
0.650490 0.650490 0.650490
0.677941 0.677941 0.677941
0.703431 0.703431 0.703431
0.740686 0.740686 0.740686
0.779902 0.779902 0.779902
0.823529 0.823529 0.823529
0.661765 0.661765 0.661765
0.665686 0.665686 0.665686
0.678431 0.678431 0.678431
0.697059 0.697059 0.697059
0.715687 0.715687 0.715687
0.744117 0.744117 0.744117
0.769607 0.769607 0.769607
0.806863 0.806863 0.806863
0.846079 0.846079 0.846079
0.720098 0.720098 0.720098
0.724020 0.724020 0.724020
0.731863 0.731863 0.731863
0.743627 0.743627 0.743627
0.763235 0.763235 0.763235
0.781863 0.781863 0.781863
0.804902 0.804902 0.804902
0.837745 0.837745 0.837745
0.870588 0.870588 0.870588
0.776471 0.776471 0.776471
0.778431 0.778431 0.778431
0.786274 0.786274 0.786274
0.794118 0.794118 0.794118
0.809804 0.809804 0.809804
0.825000 0.825000 0.825000
0.844118 0.844118 0.844118
0.870588 0.870588 0.870588
0.900000 0.900000 0.900000
0.832843 0.832843 0.832843
0.832843 0.832843 0.832843
0.836765 0.836765 0.836765
0.844608 0.844608 0.844608
0.856373 0.856373 0.856373
0.870588 0.870588 0.870588
0.886275 0.886275 0.886275
0.907353 0.907353 0.907353
0.930882 0.930882 0.930882
0.883333 0.883333 0.883333
0.887255 0.887255 0.887255
0.890196 0.890196 0.890196
0.895098 0.895098 0.895098
0.902941 0.902941 0.902941
0.915196 0.915196 0.915196
0.926471 0.926471 0.926471
0.942156 0.942156 0.942156
0.960784 0.960784 0.960784
0.937745 0.937745 0.937745
0.937745 0.937745 0.937745
0.941176 0.941176 0.941176
0.945098 0.945098 0.945098
0.949510 0.949510 0.949510
0.956863 0.956863 0.956863
0.964706 0.964706 0.964706
0.973039 0.973039 0.973039
0.988235 0.988235 0.988235
0.988235 0.988235 0.988235
0.988235 0.988235 0.988235
0.988235 0.988235 0.988235
0.988235 0.988235 0.988235
0.992157 0.992157 0.992157
0.996078 0.996078 0.996078
1.000000 1.000000 1.000000
1.000000 1.000000 1.000000
1.000000 1.000000 1.000000
