Black-and-White/Ilford/Ilford HP5 1 - 65x.cube
TITLE "Ilford HP5 1 -"
LUT_3D_SIZE 5
DOMAIN_MIN 0.000000 0.000000 0.000000
DOMAIN_MAX 1.000000 1.000000 1.000000
0.000000 0.000000 0.000000
0.047059 0.047059 0.047059
0.217647 0.217647 0.217647
0.394118 0.394118 0.394118
0.592157 0.592157 0.592157
0.126471 0.126471 0.126471
0.198039 0.198039 0.198039
0.362745 0.362745 0.362745
0.475490 0.475490 0.475490
0.641176 0.641176 0.641176
0.366667 0.366667 0.366667
0.375491 0.375491 0.375491
0.468627 0.468627 0.468627
0.615687 0.615687 0.615687
0.770588 0.770588 0.770588
0.583333 0.583333 0.583333
0.583333 0.583333 0.583333
0.627451 0.627451 0.627451
0.727451 0.727451 0.727451
0.875490 0.875490 0.875490
0.878431 0.878431 0.878431
0.878431 0.878431 0.878431
0.884314 0.884314 0.884314
0.933333 0.933333 0.933333
0.976471 0.976471 0.976471
0.088235 0.088235 0.088235
0.154902 0.154902 0.154902
0.290196 0.290196 0.290196
0.402942 0.402942 0.402942
0.583333 0.583333 0.583333
0.198039 0.198039 0.198039
0.259804 0.259804 0.259804
0.361765 0.361765 0.361765
0.473529 0.473529 0.473529
0.637255 0.637255 0.637255
0.427451 0.427451 0.427451
0.429412 0.429412 0.429412
0.494117 0.494117 0.494117
0.625490 0.625490 0.625490
0.766666 0.766666 0.766666
0.617647 0.617647 0.617647
0.619608 0.619608 0.619608
0.643137 0.643137 0.643137
0.737255 0.737255 0.737255
0.881373 0.881373 0.881373
0.883333 0.883333 0.883333
0.886275 0.886275 0.886275
0.893137 0.893137 0.893137
0.933333 0.933333 0.933333
0.980392 0.980392 0.980392
0.309804 0.309804 0.309804
0.350000 0.350000 0.350000
0.419608 0.419608 0.419608
0.522549 0.522549 0.522549
0.656863 0.656863 0.656863
0.377451 0.377451 0.377451
0.410784 0.410784 0.410784
0.461765 0.461765 0.461765
0.556863 0.556863 0.556863
0.673529 0.673529 0.673529
0.462745 0.462745 0.462745
0.489216 0.489216 0.489216
0.549019 0.549019 0.549019
0.627451 0.627451 0.627451
0.754902 0.754902 0.754902
0.678431 0.678431 0.678431
0.691176 0.691176 0.691176
0.700000 0.700000 0.700000
0.766667 0.766667 0.766667
0.895098 0.895098 0.895098
0.905882 0.905882 0.905882
0.905882 0.905882 0.905882
0.913725 0.913725 0.913725
0.938235 0.938235 0.938235
0.980392 0.980392 0.980392
0.534313 0.534313 0.534313
0.552941 0.552941 0.552941
0.601961 0.601961 0.601961
0.652941 0.652941 0.652941
0.757843 0.757843 0.757843
0.572549 0.572549 0.572549
0.585294 0.585294 0.585294
0.632353 0.632353 0.632353
0.675490 0.675490 0.675490
0.779412 0.779412 0.779412
0.597059 0.597059 0.597059
0.627451 0.627451 0.627451
0.681372 0.681372 0.681372
0.729412 0.729412 0.729412
0.833333 0.833333 0.833333
0.704902 0.704902 0.704902
0.719608 0.719608 0.719608
0.752941 0.752941 0.752941
0.816667 0.816667 0.816667
0.895098 0.895098 0.895098
0.929412 0.929412 0.929412
0.931372 0.931372 0.931372
0.942156 0.942156 0.942156
0.953922 0.953922 0.953922
0.991177 0.991177 0.991177
0.835294 0.835294 0.835294
0.844118 0.844118 0.844118
0.866667 0.866667 0.866667
0.898039 0.898039 0.898039
0.921569 0.921569 0.921569
0.847059 0.847059 0.847059
0.854902 0.854902 0.854902
0.872549 0.872549 0.872549
0.902941 0.902941 0.902941
0.925490 0.925490 0.925490
0.866667 0.866667 0.866667
0.872549 0.872549 0.872549
0.892157 0.892157 0.892157
0.918627 0.918627 0.918627
0.945098 0.945098 0.945098
0.886275 0.886275 0.886275
0.890196 0.890196 0.890196
0.903922 0.903922 0.903922
0.942157 0.942157 0.942157
0.968627 0.968627 0.968627
0.960784 0.960784 0.960784
0.960784 0.960784 0.960784
0.968627 0.968627 0.968627
0.980392 0.980392 0.980392
1.000000 1.000000 1.000000
