Black-and-White/Ilford/Ilford Delta 100 65x.cube
TITLE "Ilford Delta 100"
LUT_3D_SIZE 65
DOMAIN_MIN 0.000000 0.000000 0.000000
DOMAIN_MAX 1.000000 1.000000 1.000000
0.000000 0.000000 0.000000
0.000000 0.000000 0.000000
0.000000 0.000000 0.000000
0.000000 0.000000 0.000000
0.000000 0.000000 0.000000
0.000000 0.000000 0.000000
0.000000 0.000000 0.000000
0.000000 0.000000 0.000000
0.000000 0.000000 0.000000
0.000000 0.000000 0.000000
0.000000 0.000000 0.000000
0.000000 0.000000 0.000000
0.000000 0.000000 0.000000
0.000000 0.000000 0.000000
0.000000 0.000000 0.000000
0.000000 0.000000 0.000000
0.000000 0.000000 0.000000
0.000000 0.000000 0.000000
0.000000 0.000000 0.000000
0.003922 0.003922 0.003922
0.003922 0.003922 0.003922
0.003922 0.003922 0.003922
0.003922 0.003922 0.003922
0.003922 0.003922 0.003922
0.003922 0.003922 0.003922
0.003922 0.003922 0.003922
0.003922 0.003922 0.003922
0.007843 0.007843 0.007843
0.007843 0.007843 0.007843
0.007843 0.007843 0.007843
0.007843 0.007843 0.007843
0.008885 0.008885 0.008885
0.011765 0.011765 0.011765
0.011765 0.011765 0.011765
0.011765 0.011765 0.011765
0.015686 0.015686 0.015686
0.015686 0.015686 0.015686
0.019608 0.019608 0.019608
0.019608 0.019608 0.019608
0.023529 0.023529 0.023529
0.023529 0.023529 0.023529
0.027451 0.027451 0.027451
0.030760 0.030760 0.030760
0.031679 0.031679 0.031679
0.036520 0.036520 0.036520
0.039216 0.039216 0.039216
0.043137 0.043137 0.043137
0.047059 0.047059 0.047059
0.051960 0.051960 0.051960
0.056802 0.056802 0.056802
0.058824 0.058824 0.058824
0.062745 0.062745 0.062745
0.067402 0.067402 0.067402
0.074510 0.074510 0.074510
0.081005 0.081005 0.081005
0.085846 0.085846 0.085846
0.090686 0.090686 0.090686
0.095527 0.095527 0.095527
0.104289 0.104289 0.104289
0.113051 0.113051 0.113051
0.117892 0.117892 0.117892
0.126654 0.126654 0.126654
0.135417 0.135417 0.135417
0.148101 0.148101 0.148101
0.156863 0.156863 0.156863
0.000919 0.000919 0.000919
0.000919 0.000919 0.000919
0.003922 0.003922 0.003922
0.003922 0.003922 0.003922
0.003922 0.003922 0.003922
0.003922 0.003922 0.003922
0.004841 0.004841 0.004841
0.004841 0.004841 0.004841
0.004841 0.004841 0.004841
0.004841 0.004841 0.004841
0.007843 0.007843 0.007843
0.007843 0.007843 0.007843
0.011030 0.011030 0.011030
0.008762 0.008762 0.008762
0.008762 0.008762 0.008762
0.008762 0.008762 0.008762
0.008762 0.008762 0.008762
0.008762 0.008762 0.008762
0.012684 0.012684 0.012684
0.012684 0.012684 0.012684
0.012684 0.012684 0.012684
0.012684 0.012684 0.012684
0.016605 0.016605 0.016605
0.016605 0.016605 0.016605
0.016605 0.016605 0.016605
0.016605 0.016605 0.016605
0.020527 0.020527 0.020527
0.020527 0.020527 0.020527
0.020527 0.020527 0.020527
0.021446 0.021446 0.021446
0.024448 0.024448 0.024448
0.025367 0.025367 0.025367
0.028370 0.028370 0.028370
0.029289 0.029289 0.029289
0.032292 0.032292 0.032292
0.033089 0.033089 0.033089
0.037929 0.037929 0.037929
0.040135 0.040135 0.040135
0.041054 0.041054 0.041054
0.044975 0.044975 0.044975
0.049449 0.049449 0.049449
0.048897 0.048897 0.048897
0.052818 0.052818 0.052818
0.057047 0.057047 0.057047
0.060662 0.060662 0.060662
0.064583 0.064583 0.064583
0.068505 0.068505 0.068505
0.072487 0.072487 0.072487
0.077329 0.077329 0.077329
0.082169 0.082169 0.082169
0.087010 0.087010 0.087010
0.091850 0.091850 0.091850
0.096691 0.096691 0.096691
0.101532 0.101532 0.101532
0.107720 0.107720 0.107720
0.115135 0.115135 0.115135
0.119975 0.119975 0.119975
0.128738 0.128738 0.128738
0.133578 0.133578 0.133578
0.145588 0.145588 0.145588
0.151103 0.151103 0.151103
0.160785 0.160785 0.160785
0.169546 0.169546 0.169546
0.184314 0.184314 0.184314
0.193995 0.193995 0.193995
0.005760 0.005760 0.005760
0.005760 0.005760 0.005760
0.007843 0.007843 0.007843
0.007843 0.007843 0.007843
0.007843 0.007843 0.007843
0.009681 0.009681 0.009681
0.009681 0.009681 0.009681
0.009681 0.009681 0.009681
0.009681 0.009681 0.009681
0.011765 0.011765 0.011765
0.011765 0.011765 0.011765
0.014032 0.014032 0.014032
0.013603 0.013603 0.013603
0.013603 0.013603 0.013603
0.012868 0.012868 0.012868
0.015686 0.015686 0.015686
0.017524 0.017524 0.017524
0.017524 0.017524 0.017524
0.017524 0.017524 0.017524
0.017463 0.017463 0.017463
0.022304 0.022304 0.022304
0.021446 0.021446 0.021446
0.020221 0.020221 0.020221
0.025367 0.025367 0.025367
0.025367 0.025367 0.025367
0.025367 0.025367 0.025367
0.029289 0.029289 0.029289
0.029289 0.029289 0.029289
0.031495 0.031495 0.031495
0.033211 0.033211 0.033211
0.033334 0.033334 0.033334
0.037132 0.037132 0.037132
0.039093 0.039093 0.039093
0.041054 0.041054 0.041054
0.044853 0.044853 0.044853
0.046813 0.046813 0.046813
0.048897 0.048897 0.048897
0.051532 0.051532 0.051532
0.056373 0.056373 0.056373
0.058578 0.058578 0.058578
0.060662 0.060662 0.060662
0.062500 0.062500 0.062500
0.067892 0.067892 0.067892
0.068812 0.068812 0.068812
0.073652 0.073652 0.073652
0.078186 0.078186 0.078186
0.083334 0.083334 0.083334
0.084252 0.084252 0.084252
0.092034 0.092034 0.092034
0.095956 0.095956 0.095956
0.099877 0.099877 0.099877
0.107537 0.107537 0.107537
0.113480 0.113480 0.113480
0.117218 0.117218 0.117218
0.121323 0.121323 0.121323
0.130821 0.130821 0.130821
0.135661 0.135661 0.135661
0.142341 0.142341 0.142341
0.151103 0.151103 0.151103
0.159865 0.159865 0.159865
0.168628 0.168628 0.168628
0.176716 0.176716 0.176716
0.190319 0.190319 0.190319
0.198836 0.198836 0.198836
0.211519 0.211519 0.211519
0.010601 0.010601 0.010601
0.010601 0.010601 0.010601
0.011765 0.011765 0.011765
0.011765 0.011765 0.011765
0.011765 0.011765 0.011765
0.014522 0.014522 0.014522
0.014522 0.014522 0.014522
0.014522 0.014522 0.014522
0.014522 0.014522 0.014522
0.015686 0.015686 0.015686
0.018444 0.018444 0.018444
0.018444 0.018444 0.018444
0.018444 0.018444 0.018444
0.019608 0.019608 0.019608
0.022365 0.022365 0.022365
0.022365 0.022365 0.022365
0.022365 0.022365 0.022365
0.022365 0.022365 0.022365
0.026287 0.026287 0.026287
0.026287 0.026287 0.026287
0.026287 0.026287 0.026287
0.027451 0.027451 0.027451
0.030209 0.030209 0.030209
0.030209 0.030209 0.030209
0.034130 0.034130 0.034130
0.034130 0.034130 0.034130
0.038052 0.038052 0.038052
0.038052 0.038052 0.038052
0.038052 0.038052 0.038052
0.041973 0.041973 0.041973
0.041973 0.041973 0.041973
0.045895 0.045895 0.045895
0.047855 0.047855 0.047855
0.049816 0.049816 0.049816
0.053615 0.053615 0.053615
0.054534 0.054534 0.054534
0.057660 0.057660 0.057660
0.060294 0.060294 0.060294
0.065135 0.065135 0.065135
0.066053 0.066053 0.066053
0.069424 0.069424 0.069424
0.073346 0.073346 0.073346
0.076103 0.076103 0.076103
0.081189 0.081189 0.081189
0.085111 0.085111 0.085111
0.089032 0.089032 0.089032
0.091790 0.091790 0.091790
0.096875 0.096875 0.096875
0.103554 0.103554 0.103554
0.106618 0.106618 0.106618
0.111458 0.111458 0.111458
0.116299 0.116299 0.116299
0.121139 0.121139 0.121139
0.128248 0.128248 0.128248
0.134743 0.134743 0.134743
0.138848 0.138848 0.138848
0.148345 0.148345 0.148345
0.153187 0.153187 0.153187
0.161949 0.161949 0.161949
0.173959 0.173959 0.173959
0.182231 0.182231 0.182231
0.189399 0.189399 0.189399
0.203676 0.203676 0.203676
0.213603 0.213603 0.213603
0.226287 0.226287 0.226287
0.015441 0.015441 0.015441
0.012684 0.012684 0.012684
0.015686 0.015686 0.015686
0.015686 0.015686 0.015686
0.019363 0.019363 0.019363
0.019363 0.019363 0.019363
0.019363 0.019363 0.019363
0.018199 0.018199 0.018199
0.019608 0.019608 0.019608
0.023284 0.023284 0.023284
0.023284 0.023284 0.023284
0.021875 0.021875 0.021875
0.023529 0.023529 0.023529
0.027206 0.027206 0.027206
0.027206 0.027206 0.027206
0.025551 0.025551 0.025551
0.027451 0.027451 0.027451
0.031128 0.031128 0.031128
0.031128 0.031128 0.031128
0.035049 0.035049 0.035049
0.035049 0.035049 0.035049
0.035049 0.035049 0.035049
0.038971 0.038971 0.038971
0.038971 0.038971 0.038971
0.037745 0.037745 0.037745
0.042892 0.042892 0.042892
0.042892 0.042892 0.042892
0.046814 0.046814 0.046814
0.046814 0.046814 0.046814
0.050735 0.050735 0.050735
0.050735 0.050735 0.050735
0.054657 0.054657 0.054657
0.056618 0.056618 0.056618
0.058579 0.058579 0.058579
0.062377 0.062377 0.062377
0.063297 0.063297 0.063297
0.066422 0.066422 0.066422
0.070343 0.070343 0.070343
0.073897 0.073897 0.073897
0.074815 0.074815 0.074815
0.078186 0.078186 0.078186
0.082108 0.082108 0.082108
0.086030 0.086030 0.086030
0.089951 0.089951 0.089951
0.093873 0.093873 0.093873
0.097794 0.097794 0.097794
0.101716 0.101716 0.101716
0.105699 0.105699 0.105699
0.110538 0.110538 0.110538
0.115380 0.115380 0.115380
0.120221 0.120221 0.120221
0.125245 0.125245 0.125245
0.129901 0.129901 0.129901
0.138664 0.138664 0.138664
0.143505 0.143505 0.143505
0.152267 0.152267 0.152267
0.157107 0.157107 0.157107
0.165869 0.165869 0.165869
0.174633 0.174633 0.174633
0.183395 0.183395 0.183395
0.195833 0.195833 0.195833
0.202083 0.202083 0.202083
0.217279 0.217279 0.217279
0.225368 0.225368 0.225368
0.238971 0.238971 0.238971
0.020282 0.020282 0.020282
0.023529 0.023529 0.023529
0.025367 0.025367 0.025367
0.024203 0.024203 0.024203
0.024203 0.024203 0.024203
0.024203 0.024203 0.024203
0.024203 0.024203 0.024203
0.029964 0.029964 0.029964
0.028125 0.028125 0.028125
0.028125 0.028125 0.028125
0.029473 0.029473 0.029473
0.032047 0.032047 0.032047
0.032047 0.032047 0.032047
0.031557 0.031557 0.031557
0.035968 0.035968 0.035968
0.035968 0.035968 0.035968
0.035968 0.035968 0.035968
0.039828 0.039828 0.039828
0.039890 0.039890 0.039890
0.039890 0.039890 0.039890
0.043811 0.043811 0.043811
0.043811 0.043811 0.043811
0.044424 0.044424 0.044424
0.047733 0.047733 0.047733
0.047733 0.047733 0.047733
0.051654 0.051654 0.051654
0.051654 0.051654 0.051654
0.055576 0.055576 0.055576
0.055576 0.055576 0.055576
0.059498 0.059498 0.059498
0.060172 0.060172 0.060172
0.063419 0.063419 0.063419
0.065380 0.065380 0.065380
0.067341 0.067341 0.067341
0.068015 0.068015 0.068015
0.072059 0.072059 0.072059
0.075184 0.075184 0.075184
0.079105 0.079105 0.079105
0.082659 0.082659 0.082659
0.083578 0.083578 0.083578
0.088420 0.088420 0.088420
0.093259 0.093259 0.093259
0.094792 0.094792 0.094792
0.099019 0.099019 0.099019
0.103861 0.103861 0.103861
0.108700 0.108700 0.108700
0.113542 0.113542 0.113542
0.118321 0.118321 0.118321
0.123223 0.123223 0.123223
0.128063 0.128063 0.128063
0.132905 0.132905 0.132905
0.134681 0.134681 0.134681
0.142524 0.142524 0.142524
0.151349 0.151349 0.151349
0.154289 0.154289 0.154289
0.164950 0.164950 0.164950
0.170465 0.170465 0.170465
0.179228 0.179228 0.179228
0.187990 0.187990 0.187990
0.196753 0.196753 0.196753
0.205086 0.205086 0.205086
0.218688 0.218688 0.218688
0.226960 0.226960 0.226960
0.239645 0.239645 0.239645
0.252328 0.252328 0.252328
0.029044 0.029044 0.029044
0.029044 0.029044 0.029044
0.029044 0.029044 0.029044
0.034130 0.034130 0.034130
0.032966 0.032966 0.032966
0.032966 0.032966 0.032966
0.032966 0.032966 0.032966
0.035478 0.035478 0.035478
0.036887 0.036887 0.036887
0.036887 0.036887 0.036887
0.036887 0.036887 0.036887
0.040809 0.040809 0.040809
0.040809 0.040809 0.040809
0.040809 0.040809 0.040809
0.044730 0.044730 0.044730
0.044730 0.044730 0.044730
0.044730 0.044730 0.044730
0.048590 0.048590 0.048590
0.048652 0.048652 0.048652
0.048652 0.048652 0.048652
0.052573 0.052573 0.052573
0.052573 0.052573 0.052573
0.053186 0.053186 0.053186
0.056495 0.056495 0.056495
0.056495 0.056495 0.056495
0.060417 0.060417 0.060417
0.062010 0.062010 0.062010
0.064338 0.064338 0.064338
0.064338 0.064338 0.064338
0.068260 0.068260 0.068260
0.068383 0.068383 0.068383
0.072181 0.072181 0.072181
0.074142 0.074142 0.074142
0.076103 0.076103 0.076103
0.080024 0.080024 0.080024
0.080821 0.080821 0.080821
0.085662 0.085662 0.085662
0.087868 0.087868 0.087868
0.091789 0.091789 0.091789
0.095711 0.095711 0.095711
0.099632 0.099632 0.099632
0.102022 0.102022 0.102022
0.106863 0.106863 0.106863
0.107781 0.107781 0.107781
0.112623 0.112623 0.112623
0.119240 0.119240 0.119240
0.123162 0.123162 0.123162
0.127144 0.127144 0.127144
0.131986 0.131986 0.131986
0.136519 0.136519 0.136519
0.145588 0.145588 0.145588
0.150429 0.150429 0.150429
0.155269 0.155269 0.155269
0.161703 0.161703 0.161703
0.168873 0.168873 0.168873
0.177634 0.177634 0.177634
0.184068 0.184068 0.184068
0.192831 0.192831 0.192831
0.201593 0.201593 0.201593
0.210355 0.210355 0.210355
0.217770 0.217770 0.217770
0.231802 0.231802 0.231802
0.240564 0.240564 0.240564
0.253248 0.253248 0.253248
0.265931 0.265931 0.265931
0.037807 0.037807 0.037807
0.037807 0.037807 0.037807
0.040318 0.040318 0.040318
0.041728 0.041728 0.041728
0.041728 0.041728 0.041728
0.041728 0.041728 0.041728
0.041728 0.041728 0.041728
0.041728 0.041728 0.041728
0.045650 0.045650 0.045650
0.045650 0.045650 0.045650
0.045650 0.045650 0.045650
0.049571 0.049571 0.049571
0.049571 0.049571 0.049571
0.052083 0.052083 0.052083
0.053493 0.053493 0.053493
0.053493 0.053493 0.053493
0.053493 0.053493 0.053493
0.057415 0.057415 0.057415
0.057415 0.057415 0.057415
0.059926 0.059926 0.059926
0.061336 0.061336 0.061336
0.061336 0.061336 0.061336
0.065258 0.065258 0.065258
0.065258 0.065258 0.065258
0.067708 0.067708 0.067708
0.069179 0.069179 0.069179
0.069547 0.069547 0.069547
0.073101 0.073101 0.073101
0.075306 0.075306 0.075306
0.077022 0.077022 0.077022
0.080944 0.080944 0.080944
0.080944 0.080944 0.080944
0.084866 0.084866 0.084866
0.087745 0.087745 0.087745
0.088787 0.088787 0.088787
0.092709 0.092709 0.092709
0.096630 0.096630 0.096630
0.099265 0.099265 0.099265
0.100552 0.100552 0.100552
0.105025 0.105025 0.105025
0.110906 0.110906 0.110906
0.112316 0.112316 0.112316
0.116238 0.116238 0.116238
0.122671 0.122671 0.122671
0.125307 0.125307 0.125307
0.130147 0.130147 0.130147
0.134988 0.134988 0.134988
0.142279 0.142279 0.142279
0.146201 0.146201 0.146201
0.149510 0.149510 0.149510
0.154044 0.154044 0.154044
0.163113 0.163113 0.163113
0.167954 0.167954 0.167954
0.175306 0.175306 0.175306
0.181557 0.181557 0.181557
0.190319 0.190319 0.190319
0.197672 0.197672 0.197672
0.206434 0.206434 0.206434
0.215196 0.215196 0.215196
0.223958 0.223958 0.223958
0.236642 0.236642 0.236642
0.245404 0.245404 0.245404
0.255576 0.255576 0.255576
0.266850 0.266850 0.266850
0.280944 0.280944 0.280944
0.046569 0.046569 0.046569
0.050000 0.050000 0.050000
0.050490 0.050490 0.050490
0.050490 0.050490 0.050490
0.050490 0.050490 0.050490
0.050490 0.050490 0.050490
0.053922 0.053922 0.053922
0.054412 0.054412 0.054412
0.054412 0.054412 0.054412
0.054412 0.054412 0.054412
0.055760 0.055760 0.055760
0.058334 0.058334 0.058334
0.058334 0.058334 0.058334
0.058517 0.058517 0.058517
0.062255 0.062255 0.062255
0.062255 0.062255 0.062255
0.065197 0.065197 0.065197
0.066177 0.066177 0.066177
0.066177 0.066177 0.066177
0.070098 0.070098 0.070098
0.070098 0.070098 0.070098
0.073713 0.073713 0.073713
0.074020 0.074020 0.074020
0.074020 0.074020 0.074020
0.077941 0.077941 0.077941
0.077941 0.077941 0.077941
0.081863 0.081863 0.081863
0.085295 0.085295 0.085295
0.085785 0.085785 0.085785
0.089216 0.089216 0.089216
0.089706 0.089706 0.089706
0.090748 0.090748 0.090748
0.093628 0.093628 0.093628
0.097549 0.097549 0.097549
0.101348 0.101348 0.101348
0.102267 0.102267 0.102267
0.108824 0.108824 0.108824
0.109314 0.109314 0.109314
0.112745 0.112745 0.112745
0.117157 0.117157 0.117157
0.118627 0.118627 0.118627
0.123468 0.123468 0.123468
0.128309 0.128309 0.128309
0.129227 0.129227 0.129227
0.136765 0.136765 0.136765
0.144118 0.144118 0.144118
0.148040 0.148040 0.148040
0.152022 0.152022 0.152022
0.159804 0.159804 0.159804
0.162194 0.162194 0.162194
0.167034 0.167034 0.167034
0.175797 0.175797 0.175797
0.180638 0.180638 0.180638
0.188909 0.188909 0.188909
0.194240 0.194240 0.194240
0.203003 0.203003 0.203003
0.211275 0.211275 0.211275
0.220037 0.220037 0.220037
0.228800 0.228800 0.228800
0.237378 0.237378 0.237378
0.250245 0.250245 0.250245
0.256740 0.256740 0.256740
0.271691 0.271691 0.271691
0.283456 0.283456 0.283456
0.293628 0.293628 0.293628
0.059253 0.059253 0.059253
0.059253 0.059253 0.059253
0.059253 0.059253 0.059253
0.059253 0.059253 0.059253
0.059253 0.059253 0.059253
0.059682 0.059682 0.059682
0.063174 0.063174 0.063174
0.063174 0.063174 0.063174
0.063174 0.063174 0.063174
0.063603 0.063603 0.063603
0.067096 0.067096 0.067096
0.067096 0.067096 0.067096
0.067096 0.067096 0.067096
0.071017 0.071017 0.071017
0.071017 0.071017 0.071017
0.073039 0.073039 0.073039
0.074939 0.074939 0.074939
0.074939 0.074939 0.074939
0.075368 0.075368 0.075368
0.078860 0.078860 0.078860
0.081556 0.081556 0.081556
0.082782 0.082782 0.082782
0.083395 0.083395 0.083395
0.086704 0.086704 0.086704
0.086704 0.086704 0.086704
0.090074 0.090074 0.090074
0.091054 0.091054 0.091054
0.094547 0.094547 0.094547
0.094547 0.094547 0.094547
0.098468 0.098468 0.098468
0.098590 0.098590 0.098590
0.102390 0.102390 0.102390
0.102819 0.102819 0.102819
0.109190 0.109190 0.109190
0.110233 0.110233 0.110233
0.114154 0.114154 0.114154
0.118076 0.118076 0.118076
0.118505 0.118505 0.118505
0.125552 0.125552 0.125552
0.126348 0.126348 0.126348
0.130270 0.130270 0.130270
0.136151 0.136151 0.136151
0.140993 0.140993 0.140993
0.141911 0.141911 0.141911
0.145956 0.145956 0.145956
0.155514 0.155514 0.155514
0.160356 0.160356 0.160356
0.165564 0.165564 0.165564
0.170036 0.170036 0.170036
0.174877 0.174877 0.174877
0.183639 0.183639 0.183639
0.185172 0.185172 0.185172
0.193750 0.193750 0.193750
0.202083 0.202083 0.202083
0.207353 0.207353 0.207353
0.216115 0.216115 0.216115
0.224938 0.224938 0.224938
0.233640 0.233640 0.233640
0.242402 0.242402 0.242402
0.251165 0.251165 0.251165
0.263848 0.263848 0.263848
0.272610 0.272610 0.272610
0.281372 0.281372 0.281372
0.294057 0.294057 0.294057
0.306740 0.306740 0.306740
0.068015 0.068015 0.068015
0.068015 0.068015 0.068015
0.068015 0.068015 0.068015
0.069363 0.069363 0.069363
0.069363 0.069363 0.069363
0.071936 0.071936 0.071936
0.071936 0.071936 0.071936
0.071936 0.071936 0.071936
0.073284 0.073284 0.073284
0.075858 0.075858 0.075858
0.075858 0.075858 0.075858
0.075858 0.075858 0.075858
0.077206 0.077206 0.077206
0.079779 0.079779 0.079779
0.079779 0.079779 0.079779
0.083701 0.083701 0.083701
0.083701 0.083701 0.083701
0.087561 0.087561 0.087561
0.087623 0.087623 0.087623
0.089400 0.089400 0.089400
0.091544 0.091544 0.091544
0.091544 0.091544 0.091544
0.095466 0.095466 0.095466
0.095466 0.095466 0.095466
0.097917 0.097917 0.097917
0.099387 0.099387 0.099387
0.099755 0.099755 0.099755
0.103309 0.103309 0.103309
0.104657 0.104657 0.104657
0.110355 0.110355 0.110355
0.111152 0.111152 0.111152
0.112194 0.112194 0.112194
0.115073 0.115073 0.115073
0.116421 0.116421 0.116421
0.122794 0.122794 0.122794
0.123714 0.123714 0.123714
0.128186 0.128186 0.128186
0.133395 0.133395 0.133395
0.134681 0.134681 0.134681
0.139951 0.139951 0.139951
0.143995 0.143995 0.143995
0.148836 0.148836 0.148836
0.153677 0.153677 0.153677
0.154595 0.154595 0.154595
0.159436 0.159436 0.159436
0.165625 0.165625 0.165625
0.173039 0.173039 0.173039
0.179167 0.179167 0.179167
0.183088 0.183088 0.183088
0.187562 0.187562 0.187562
0.196324 0.196324 0.196324
0.198774 0.198774 0.198774
0.207353 0.207353 0.207353
0.214461 0.214461 0.214461
0.223530 0.223530 0.223530
0.232291 0.232291 0.232291
0.238480 0.238480 0.238480
0.247242 0.247242 0.247242
0.256004 0.256004 0.256004
0.264767 0.264767 0.264767
0.277451 0.277451 0.277451
0.286213 0.286213 0.286213
0.297549 0.297549 0.297549
0.307660 0.307660 0.307660
0.320343 0.320343 0.320343
0.079044 0.079044 0.079044
0.077696 0.077696 0.077696
0.080698 0.080698 0.080698
0.080698 0.080698 0.080698
0.080698 0.080698 0.080698
0.080698 0.080698 0.080698
0.082966 0.082966 0.082966
0.084620 0.084620 0.084620
0.084620 0.084620 0.084620
0.084620 0.084620 0.084620
0.086887 0.086887 0.086887
0.088542 0.088542 0.088542
0.088542 0.088542 0.088542
0.088726 0.088726 0.088726
0.092463 0.092463 0.092463
0.092463 0.092463 0.092463
0.094730 0.094730 0.094730
0.096385 0.096385 0.096385
0.098652 0.098652 0.098652
0.100306 0.100306 0.100306
0.100306 0.100306 0.100306
0.102573 0.102573 0.102573
0.106495 0.106495 0.106495
0.105760 0.105760 0.105760
0.108149 0.108149 0.108149
0.110416 0.110416 0.110416
0.114338 0.114338 0.114338
0.113358 0.113358 0.113358
0.118260 0.118260 0.118260
0.119914 0.119914 0.119914
0.120036 0.120036 0.120036
0.126103 0.126103 0.126103
0.127757 0.127757 0.127757
0.130024 0.130024 0.130024
0.135478 0.135478 0.135478
0.137867 0.137867 0.137867
0.141789 0.141789 0.141789
0.146079 0.146079 0.146079
0.145711 0.145711 0.145711
0.153554 0.153554 0.153554
0.157475 0.157475 0.157475
0.161520 0.161520 0.161520
0.166360 0.166360 0.166360
0.167280 0.167280 0.167280
0.172120 0.172120 0.172120
0.181005 0.181005 0.181005
0.185723 0.185723 0.185723
0.192769 0.192769 0.192769
0.195405 0.195405 0.195405
0.202512 0.202512 0.202512
0.209008 0.209008 0.209008
0.216115 0.216115 0.216115
0.224142 0.224142 0.224142
0.229718 0.229718 0.229718
0.238480 0.238480 0.238480
0.244976 0.244976 0.244976
0.252084 0.252084 0.252084
0.262501 0.262501 0.262501
0.271263 0.271263 0.271263
0.280025 0.280025 0.280025
0.291054 0.291054 0.291054
0.298713 0.298713 0.298713
0.310233 0.310233 0.310233
0.321262 0.321262 0.321262
0.331679 0.331679 0.331679
0.089461 0.089461 0.089461
0.089461 0.089461 0.089461
0.092647 0.092647 0.092647
0.092647 0.092647 0.092647
0.092647 0.092647 0.092647
0.093383 0.093383 0.093383
0.093383 0.093383 0.093383
0.093383 0.093383 0.093383
0.096568 0.096568 0.096568
0.097304 0.097304 0.097304
0.097304 0.097304 0.097304
0.100490 0.100490 0.100490
0.100490 0.100490 0.100490
0.101226 0.101226 0.101226
0.104411 0.104411 0.104411
0.105147 0.105147 0.105147
0.105147 0.105147 0.105147
0.108333 0.108333 0.108333
0.109069 0.109069 0.109069
0.112254 0.112254 0.112254
0.112990 0.112990 0.112990
0.112990 0.112990 0.112990
0.116912 0.116912 0.116912
0.120098 0.120098 0.120098
0.119363 0.119363 0.119363
0.120834 0.120834 0.120834
0.124755 0.124755 0.124755
0.127941 0.127941 0.127941
0.128677 0.128677 0.128677
0.131801 0.131801 0.131801
0.135784 0.135784 0.135784
0.136520 0.136520 0.136520
0.138480 0.138480 0.138480
0.143627 0.143627 0.143627
0.148162 0.148162 0.148162
0.151470 0.151470 0.151470
0.155392 0.155392 0.155392
0.159313 0.159313 0.159313
0.159313 0.159313 0.159313
0.167156 0.167156 0.167156
0.171078 0.171078 0.171078
0.175000 0.175000 0.175000
0.179044 0.179044 0.179044
0.179964 0.179964 0.179964
0.187990 0.187990 0.187990
0.194607 0.194607 0.194607
0.198407 0.198407 0.198407
0.203247 0.203247 0.203247
0.211275 0.211275 0.211275
0.216115 0.216115 0.216115
0.224877 0.224877 0.224877
0.230454 0.230454 0.230454
0.235295 0.235295 0.235295
0.245588 0.245588 0.245588
0.252083 0.252083 0.252083
0.260845 0.260845 0.260845
0.269608 0.269608 0.269608
0.278370 0.278370 0.278370
0.287132 0.287132 0.287132
0.295895 0.295895 0.295895
0.304657 0.304657 0.304657
0.314154 0.314154 0.314154
0.322916 0.322916 0.322916
0.334865 0.334865 0.334865
0.344363 0.344363 0.344363
0.102145 0.102145 0.102145
0.102145 0.102145 0.102145
0.102145 0.102145 0.102145
0.102145 0.102145 0.102145
0.102329 0.102329 0.102329
0.106066 0.106066 0.106066
0.106066 0.106066 0.106066
0.106066 0.106066 0.106066
0.106066 0.106066 0.106066
0.106250 0.106250 0.106250
0.109988 0.109988 0.109988
0.109988 0.109988 0.109988
0.113174 0.113174 0.113174
0.113909 0.113909 0.113909
0.113909 0.113909 0.113909
0.115931 0.115931 0.115931
0.117831 0.117831 0.117831
0.117831 0.117831 0.117831
0.121753 0.121753 0.121753
0.121753 0.121753 0.121753
0.121937 0.121937 0.121937
0.125674 0.125674 0.125674
0.125858 0.125858 0.125858
0.129596 0.129596 0.129596
0.129780 0.129780 0.129780
0.133517 0.133517 0.133517
0.133701 0.133701 0.133701
0.138726 0.138726 0.138726
0.141360 0.141360 0.141360
0.141544 0.141544 0.141544
0.145404 0.145404 0.145404
0.150246 0.150246 0.150246
0.149388 0.149388 0.149388
0.156004 0.156004 0.156004
0.160846 0.160846 0.160846
0.161152 0.161152 0.161152
0.166606 0.166606 0.166606
0.171446 0.171446 0.171446
0.176286 0.176286 0.176286
