Black-and-White/Ilford/Ilford Delta 400 65x.cube
TITLE "Ilford Delta 400"
LUT_3D_SIZE 9
DOMAIN_MIN 0.000000 0.000000 0.000000
DOMAIN_MAX 1.000000 1.000000 1.000000
0.000000 0.000000 0.000000
0.003922 0.003922 0.003922
0.014706 0.014706 0.014706
0.037745 0.037745 0.037745
0.074510 0.074510 0.074510
0.130882 0.130882 0.130882
0.201961 0.201961 0.201961
0.282843 0.282843 0.282843
0.396078 0.396078 0.396078
0.031373 0.031373 0.031373
0.046569 0.046569 0.046569
0.070098 0.070098 0.070098
0.101471 0.101471 0.101471
0.139215 0.139215 0.139215
0.195588 0.195588 0.195588
0.255392 0.255392 0.255392
0.333334 0.333334 0.333334
0.435294 0.435294 0.435294
0.100981 0.100981 0.100981
0.112745 0.112745 0.112745
0.132353 0.132353 0.132353
0.159804 0.159804 0.159804
0.197059 0.197059 0.197059
0.243628 0.243628 0.243628
0.299019 0.299019 0.299019
0.379903 0.379903 0.379903
0.466667 0.466667 0.466667
0.178922 0.178922 0.178922
0.182843 0.182843 0.182843
0.198529 0.198529 0.198529
0.222059 0.222059 0.222059
0.253431 0.253431 0.253431
0.296569 0.296569 0.296569
0.353921 0.353921 0.353921
0.424019 0.424019 0.424019
0.504412 0.504412 0.504412
0.256863 0.256863 0.256863
0.264216 0.264216 0.264216
0.275490 0.275490 0.275490
0.294608 0.294608 0.294608
0.325491 0.325491 0.325491
0.368137 0.368137 0.368137
0.421569 0.421569 0.421569
0.476961 0.476961 0.476961
0.554902 0.554902 0.554902
0.354412 0.354412 0.354412
0.358333 0.358333 0.358333
0.370098 0.370098 0.370098
0.389706 0.389706 0.389706
0.417157 0.417157 0.417157
0.448529 0.448529 0.448529
0.488726 0.488726 0.488726
0.543137 0.543137 0.543137
0.617157 0.617157 0.617157
0.459804 0.459804 0.459804
0.460785 0.460785 0.460785
0.468628 0.468628 0.468628
0.483333 0.483333 0.483333
0.504902 0.504902 0.504902
0.531373 0.531373 0.531373
0.570588 0.570588 0.570588
0.621079 0.621079 0.621079
0.687255 0.687255 0.687255
0.573529 0.573529 0.573529
0.577451 0.577451 0.577451
0.585294 0.585294 0.585294
0.597058 0.597058 0.597058
0.618137 0.618137 0.618137
0.641177 0.641177 0.641177
0.672058 0.672058 0.672058
0.710784 0.710784 0.710784
0.765196 0.765196 0.765196
0.725490 0.725490 0.725490
0.729412 0.729412 0.729412
0.733333 0.733333 0.733333
0.741176 0.741176 0.741176
0.750981 0.750981 0.750981
0.764706 0.764706 0.764706
0.784314 0.784314 0.784314
0.811765 0.811765 0.811765
0.850980 0.850980 0.850980
0.011765 0.011765 0.011765
0.034804 0.034804 0.034804
0.061765 0.061765 0.061765
0.092157 0.092157 0.092157
0.132843 0.132843 0.132843
0.187745 0.187745 0.187745
0.248039 0.248039 0.248039
0.329412 0.329412 0.329412
0.434804 0.434804 0.434804
0.077451 0.077451 0.077451
0.093628 0.093628 0.093628
0.117157 0.117157 0.117157
0.147059 0.147059 0.147059
0.185784 0.185784 0.185784
0.232353 0.232353 0.232353
0.290686 0.290686 0.290686
0.369117 0.369117 0.369117
0.462255 0.462255 0.462255
0.136274 0.136274 0.136274
0.147549 0.147549 0.147549
0.167157 0.167157 0.167157
0.191176 0.191176 0.191176
0.225000 0.225000 0.225000
0.269608 0.269608 0.269608
0.325980 0.325980 0.325980
0.403432 0.403432 0.403432
0.485785 0.485785 0.485785
0.202451 0.202451 0.202451
0.209804 0.209804 0.209804
0.222059 0.222059 0.222059
0.245098 0.245098 0.245098
0.275000 0.275000 0.275000
0.317647 0.317647 0.317647
0.375981 0.375981 0.375981
0.442157 0.442157 0.442157
0.520098 0.520098 0.520098
0.275980 0.275980 0.275980
0.280392 0.280392 0.280392
0.292157 0.292157 0.292157
0.311765 0.311765 0.311765
0.345098 0.345098 0.345098
0.387745 0.387745 0.387745
0.434314 0.434314 0.434314
0.490196 0.490196 0.490196
0.568137 0.568137 0.568137
0.371568 0.371568 0.371568
0.377451 0.377451 0.377451
0.387255 0.387255 0.387255
0.404902 0.404902 0.404902
0.430882 0.430882 0.430882
0.461765 0.461765 0.461765
0.500490 0.500490 0.500490
0.554902 0.554902 0.554902
0.628922 0.628922 0.628922
0.471569 0.471569 0.471569
0.475000 0.475000 0.475000
0.482353 0.482353 0.482353
0.496079 0.496079 0.496079
0.516667 0.516667 0.516667
0.543627 0.543627 0.543627
0.582353 0.582353 0.582353
0.632844 0.632844 0.632844
0.698529 0.698529 0.698529
0.585294 0.585294 0.585294
0.589215 0.589215 0.589215
0.596568 0.596568 0.596568
0.608333 0.608333 0.608333
0.625980 0.625980 0.625980
0.649020 0.649020 0.649020
0.679411 0.679411 0.679411
0.718627 0.718627 0.718627
0.769117 0.769117 0.769117
0.733333 0.733333 0.733333
0.736765 0.736765 0.736765
0.740686 0.740686 0.740686
0.747549 0.747549 0.747549
0.756863 0.756863 0.756863
0.772549 0.772549 0.772549
0.792157 0.792157 0.792157
0.816176 0.816176 0.816176
0.854902 0.854902 0.854902
0.042157 0.042157 0.042157
0.074020 0.074020 0.074020
0.100981 0.100981 0.100981
0.132353 0.132353 0.132353
0.173530 0.173530 0.173530
0.224020 0.224020 0.224020
0.282353 0.282353 0.282353
0.361764 0.361764 0.361764
0.458824 0.458824 0.458824
0.117157 0.117157 0.117157
0.135784 0.135784 0.135784
0.155883 0.155883 0.155883
0.186274 0.186274 0.186274
0.221078 0.221078 0.221078
0.265686 0.265686 0.265686
0.322059 0.322059 0.322059
0.400490 0.400490 0.400490
0.485785 0.485785 0.485785
0.175490 0.175490 0.175490
0.183334 0.183334 0.183334
0.201961 0.201961 0.201961
0.226470 0.226470 0.226470
0.257844 0.257844 0.257844
0.302451 0.302451 0.302451
0.360784 0.360784 0.360784
0.430883 0.430883 0.430883
0.509804 0.509804 0.509804
0.236765 0.236765 0.236765
0.241667 0.241667 0.241667
0.256373 0.256373 0.256373
0.276961 0.276961 0.276961
0.308333 0.308333 0.308333
0.353432 0.353432 0.353432
0.407843 0.407843 0.407843
0.466177 0.466177 0.466177
0.544118 0.544118 0.544118
0.309804 0.309804 0.309804
0.314706 0.314706 0.314706
0.326471 0.326471 0.326471
0.349510 0.349510 0.349510
0.380393 0.380393 0.380393
0.419117 0.419117 0.419117
0.461765 0.461765 0.461765
0.516177 0.516177 0.516177
0.593137 0.593137 0.593137
0.404412 0.404412 0.404412
0.408334 0.408334 0.408334
0.417157 0.417157 0.417157
0.434314 0.434314 0.434314
0.456373 0.456373 0.456373
0.486765 0.486765 0.486765
0.525980 0.525980 0.525980
0.578432 0.578432 0.578432
0.651471 0.651471 0.651471
0.495098 0.495098 0.495098
0.498039 0.498039 0.498039
0.505882 0.505882 0.505882
0.521079 0.521079 0.521079
0.541176 0.541176 0.541176
0.569608 0.569608 0.569608
0.605883 0.605883 0.605883
0.652451 0.652451 0.652451
0.714706 0.714706 0.714706
0.608823 0.608823 0.608823
0.612745 0.612745 0.612745
0.619608 0.619608 0.619608
0.630883 0.630883 0.630883
0.647059 0.647059 0.647059
0.670098 0.670098 0.670098
0.698039 0.698039 0.698039
0.734313 0.734313 0.734313
0.783824 0.783824 0.783824
0.749020 0.749020 0.749020
0.751961 0.751961 0.751961
0.755882 0.755882 0.755882
0.760784 0.760784 0.760784
0.772549 0.772549 0.772549
0.784314 0.784314 0.784314
0.803922 0.803922 0.803922
0.827451 0.827451 0.827451
0.865686 0.865686 0.865686
0.084804 0.084804 0.084804
0.121079 0.121079 0.121079
0.147549 0.147549 0.147549
0.178922 0.178922 0.178922
0.214216 0.214216 0.214216
0.261275 0.261275 0.261275
0.321078 0.321078 0.321078
0.400490 0.400490 0.400490
0.486275 0.486275 0.486275
0.166666 0.166666 0.166666
0.182353 0.182353 0.182353
0.201471 0.201471 0.201471
0.229412 0.229412 0.229412
0.260784 0.260784 0.260784
0.305882 0.305882 0.305882
0.365196 0.365196 0.365196
0.435294 0.435294 0.435294
0.516177 0.516177 0.516177
0.221078 0.221078 0.221078
0.228922 0.228922 0.228922
0.244608 0.244608 0.244608
0.268137 0.268137 0.268137
0.299510 0.299510 0.299510
0.345588 0.345588 0.345588
0.403431 0.403431 0.403431
0.462255 0.462255 0.462255
0.540196 0.540196 0.540196
0.279412 0.279412 0.279412
0.284804 0.284804 0.284804
0.299020 0.299020 0.299020
0.322549 0.322549 0.322549
0.353922 0.353922 0.353922
0.397059 0.397059 0.397059
0.444118 0.444118 0.444118
0.499020 0.499020 0.499020
0.575000 0.575000 0.575000
0.357353 0.357353 0.357353
0.361275 0.361275 0.361275
0.375490 0.375490 0.375490
0.396569 0.396569 0.396569
0.423530 0.423530 0.423530
0.455392 0.455392 0.455392
0.494608 0.494608 0.494608
0.549510 0.549510 0.549510
0.624020 0.624020 0.624020
0.443137 0.443137 0.443137
0.447059 0.447059 0.447059
0.454902 0.454902 0.454902
0.470588 0.470588 0.470588
0.493627 0.493627 0.493627
0.521569 0.521569 0.521569
0.560784 0.560784 0.560784
0.612255 0.612255 0.612255
0.678431 0.678431 0.678431
0.532843 0.532843 0.532843
0.535294 0.535294 0.535294
0.544608 0.544608 0.544608
0.557353 0.557353 0.557353
0.578432 0.578432 0.578432
0.604412 0.604412 0.604412
0.638725 0.638725 0.638725
0.681863 0.681863 0.681863
0.738235 0.738235 0.738235
0.642647 0.642647 0.642647
0.646078 0.646078 0.646078
0.651961 0.651961 0.651961
0.662255 0.662255 0.662255
0.677451 0.677451 0.677451
0.697059 0.697059 0.697059
0.723039 0.723039 0.723039
0.755882 0.755882 0.755882
0.800490 0.800490 0.800490
0.771078 0.771078 0.771078
0.772549 0.772549 0.772549
0.776471 0.776471 0.776471
0.782843 0.782843 0.782843
0.792157 0.792157 0.792157
0.803922 0.803922 0.803922
0.820588 0.820588 0.820588
0.843137 0.843137 0.843137
0.878431 0.878431 0.878431
0.143137 0.143137 0.143137
0.175981 0.175981 0.175981
0.200981 0.200981 0.200981
0.227941 0.227941 0.227941
0.260784 0.260784 0.260784
0.307843 0.307843 0.307843
0.369607 0.369607 0.369607
0.439706 0.439706 0.439706
0.521569 0.521569 0.521569
0.219118 0.219118 0.219118
0.232843 0.232843 0.232843
0.251961 0.251961 0.251961
0.276470 0.276470 0.276470
0.309804 0.309804 0.309804
0.358333 0.358333 0.358333
0.413725 0.413725 0.413725
0.473039 0.473039 0.473039
0.550980 0.550980 0.550980
0.271569 0.271569 0.271569
0.279412 0.279412 0.279412
0.296079 0.296079 0.296079
0.322549 0.322549 0.322549
0.355882 0.355882 0.355882
0.399510 0.399510 0.399510
0.446078 0.446078 0.446078
0.501471 0.501471 0.501471
0.579412 0.579412 0.579412
0.337745 0.337745 0.337745
0.341667 0.341667 0.341667
0.357353 0.357353 0.357353
0.380883 0.380883 0.380883
0.411764 0.411764 0.411764
0.446568 0.446568 0.446568
0.486765 0.486765 0.486765
0.540196 0.540196 0.540196
0.616177 0.616177 0.616177
0.415686 0.415686 0.415686
0.419608 0.419608 0.419608
0.431373 0.431373 0.431373
0.447059 0.447059 0.447059
0.470588 0.470588 0.470588
0.501470 0.501470 0.501470
0.540196 0.540196 0.540196
0.592647 0.592647 0.592647
0.660784 0.660784 0.660784
0.489706 0.489706 0.489706
0.493627 0.493627 0.493627
0.501470 0.501470 0.501470
0.517157 0.517157 0.517157
0.540686 0.540686 0.540686
0.568137 0.568137 0.568137
0.604412 0.604412 0.604412
0.650981 0.650981 0.650981
0.711275 0.711275 0.711275
0.579412 0.579412 0.579412
0.583333 0.583333 0.583333
0.591176 0.591176 0.591176
0.602941 0.602941 0.602941
0.622549 0.622549 0.622549
0.646078 0.646078 0.646078
0.677451 0.677451 0.677451
0.715197 0.715197 0.715197
0.765686 0.765686 0.765686
0.680882 0.680882 0.680882
0.684804 0.684804 0.684804
0.688726 0.688726 0.688726
0.699019 0.699019 0.699019
0.712255 0.712255 0.712255
0.730392 0.730392 0.730392
0.751471 0.751471 0.751471
0.781372 0.781372 0.781372
0.822059 0.822059 0.822059
0.796078 0.796078 0.796078
0.798039 0.798039 0.798039
0.800000 0.800000 0.800000
0.805883 0.805883 0.805883
0.813725 0.813725 0.813725
0.825490 0.825490 0.825490
0.841176 0.841176 0.841176
0.860785 0.860785 0.860785
0.894118 0.894118 0.894118
0.209314 0.209314 0.209314
0.240196 0.240196 0.240196
0.260294 0.260294 0.260294
0.287745 0.287745 0.287745
0.321078 0.321078 0.321078
0.371568 0.371568 0.371568
0.425980 0.425980 0.425980
0.484314 0.484314 0.484314
0.564706 0.564706 0.564706
0.283334 0.283334 0.283334
0.299020 0.299020 0.299020
0.318628 0.318628 0.318628
0.346079 0.346079 0.346079
0.381373 0.381373 0.381373
0.420588 0.420588 0.420588
0.465196 0.465196 0.465196
0.519608 0.519608 0.519608
0.597549 0.597549 0.597549
0.341666 0.341666 0.341666
0.352941 0.352941 0.352941
0.369117 0.369117 0.369117
0.392647 0.392647 0.392647
0.424019 0.424019 0.424019
0.456373 0.456373 0.456373
0.498039 0.498039 0.498039
0.550981 0.550981 0.550981
0.625000 0.625000 0.625000
0.409314 0.409314 0.409314
0.415686 0.415686 0.415686
0.427451 0.427451 0.427451
0.443137 0.443137 0.443137
0.467157 0.467157 0.467157
0.498039 0.498039 0.498039
0.539706 0.539706 0.539706
0.592157 0.592157 0.592157
0.660294 0.660294 0.660294
0.474019 0.474019 0.474019
0.477941 0.477941 0.477941
0.485784 0.485784 0.485784
0.501470 0.501470 0.501470
0.525000 0.525000 0.525000
0.556372 0.556372 0.556372
0.592647 0.592647 0.592647
0.641177 0.641177 0.641177
0.700000 0.700000 0.700000
0.548039 0.548039 0.548039
0.551961 0.551961 0.551961
0.559804 0.559804 0.559804
0.575490 0.575490 0.575490
0.595098 0.595098 0.595098
0.622549 0.622549 0.622549
0.653922 0.653922 0.653922
0.696079 0.696079 0.696079
0.746569 0.746569 0.746569
0.633824 0.633824 0.633824
0.637255 0.637255 0.637255
0.641667 0.641667 0.641667
0.653431 0.653431 0.653431
0.670588 0.670588 0.670588
0.692647 0.692647 0.692647
0.718628 0.718628 0.718628
0.750490 0.750490 0.750490
0.793137 0.793137 0.793137
0.723530 0.723530 0.723530
0.726470 0.726470 0.726470
0.730392 0.730392 0.730392
0.738235 0.738235 0.738235
0.750000 0.750000 0.750000
0.765196 0.765196 0.765196
0.782353 0.782353 0.782353
0.808823 0.808823 0.808823
0.845098 0.845098 0.845098
0.825000 0.825000 0.825000
0.825000 0.825000 0.825000
0.828922 0.828922 0.828922
0.832843 0.832843 0.832843
0.840686 0.840686 0.840686
0.850980 0.850980 0.850980
0.863726 0.863726 0.863726
0.882353 0.882353 0.882353
0.911274 0.911274 0.911274
0.287255 0.287255 0.287255
0.315687 0.315687 0.315687
0.339216 0.339216 0.339216
0.366667 0.366667 0.366667
0.400981 0.400981 0.400981
0.440196 0.440196 0.440196
0.483333 0.483333 0.483333
0.538726 0.538726 0.538726
0.616667 0.616667 0.616667
0.369117 0.369117 0.369117
0.380882 0.380882 0.380882
0.400490 0.400490 0.400490
0.424019 0.424019 0.424019
0.451470 0.451470 0.451470
0.480882 0.480882 0.480882
0.523530 0.523530 0.523530
0.577941 0.577941 0.577941
0.648039 0.648039 0.648039
0.423529 0.423529 0.423529
0.431373 0.431373 0.431373
0.443137 0.443137 0.443137
0.462745 0.462745 0.462745
0.485294 0.485294 0.485294
0.516177 0.516177 0.516177
0.558824 0.558824 0.558824
0.609314 0.609314 0.609314
0.674510 0.674510 0.674510
0.477941 0.477941 0.477941
0.481863 0.481863 0.481863
0.493627 0.493627 0.493627
0.509314 0.509314 0.509314
0.532843 0.532843 0.532843
0.564215 0.564215 0.564215
0.601961 0.601961 0.601961
0.648529 0.648529 0.648529
0.706863 0.706863 0.706863
0.540196 0.540196 0.540196
0.544117 0.544117 0.544117
0.556863 0.556863 0.556863
0.570098 0.570098 0.570098
0.591176 0.591176 0.591176
0.618627 0.618627 0.618627
0.652941 0.652941 0.652941
0.692647 0.692647 0.692647
0.743137 0.743137 0.743137
0.614216 0.614216 0.614216
0.618137 0.618137 0.618137
0.625980 0.625980 0.625980
0.637745 0.637745 0.637745
0.657353 0.657353 0.657353
0.678432 0.678432 0.678432
0.707843 0.707843 0.707843
0.739706 0.739706 0.739706
0.781863 0.781863 0.781863
0.692157 0.692157 0.692157
0.696079 0.696079 0.696079
0.700000 0.700000 0.700000
0.709314 0.709314 0.709314
0.723530 0.723530 0.723530
0.739706 0.739706 0.739706
0.762745 0.762745 0.762745
0.789215 0.789215 0.789215
0.824510 0.824510 0.824510
0.769117 0.769117 0.769117
0.770098 0.770098 0.770098
0.774020 0.774020 0.774020
0.780882 0.780882 0.780882
0.789706 0.789706 0.789706
0.801471 0.801471 0.801471
0.817157 0.817157 0.817157
0.840196 0.840196 0.840196
0.871568 0.871568 0.871568
0.855883 0.855883 0.855883
0.855883 0.855883 0.855883
0.859804 0.859804 0.859804
0.863726 0.863726 0.863726
0.870588 0.870588 0.870588
0.878431 0.878431 0.878431
0.890196 0.890196 0.890196
0.905882 0.905882 0.905882
0.930392 0.930392 0.930392
0.384804 0.384804 0.384804
0.408823 0.408823 0.408823
0.427941 0.427941 0.427941
0.448039 0.448039 0.448039
0.475000 0.475000 0.475000
0.507843 0.507843 0.507843
0.550000 0.550000 0.550000
0.600980 0.600980 0.600980
0.671078 0.671078 0.671078
0.451960 0.451960 0.451960
0.462745 0.462745 0.462745
0.478431 0.478431 0.478431
0.498039 0.498039 0.498039
0.520098 0.520098 0.520098
0.551471 0.551471 0.551471
0.596078 0.596078 0.596078
0.640196 0.640196 0.640196
0.701471 0.701471 0.701471
0.501471 0.501471 0.501471
0.506862 0.506862 0.506862
0.521079 0.521079 0.521079
0.536274 0.536274 0.536274
0.559804 0.559804 0.559804
0.590196 0.590196 0.590196
0.630883 0.630883 0.630883
0.671568 0.671568 0.671568
0.725980 0.725980 0.725980
0.555882 0.555882 0.555882
0.560294 0.560294 0.560294
0.571568 0.571568 0.571568
0.587255 0.587255 0.587255
0.610784 0.610784 0.610784
0.638235 0.638235 0.638235
0.669608 0.669608 0.669608
0.706863 0.706863 0.706863
0.753431 0.753431 0.753431
0.622059 0.622059 0.622059
0.625980 0.625980 0.625980
0.633824 0.633824 0.633824
0.645588 0.645588 0.645588
0.665196 0.665196 0.665196
0.688726 0.688726 0.688726
0.716177 0.716177 0.716177
0.747549 0.747549 0.747549
0.786274 0.786274 0.786274
0.688236 0.688236 0.688236
0.692157 0.692157 0.692157
0.696079 0.696079 0.696079
0.707843 0.707843 0.707843
0.724020 0.724020 0.724020
0.739216 0.739216 0.739216
0.762255 0.762255 0.762255
0.786275 0.786275 0.786275
0.821569 0.821569 0.821569
0.754412 0.754412 0.754412
0.754412 0.754412 0.754412
0.758333 0.758333 0.758333
0.766177 0.766177 0.766177
0.777942 0.777942 0.777942
0.789706 0.789706 0.789706
0.808824 0.808824 0.808824
0.828922 0.828922 0.828922
0.859804 0.859804 0.859804
0.816666 0.816666 0.816666
0.816666 0.816666 0.816666
0.820588 0.820588 0.820588
0.827941 0.827941 0.827941
0.835784 0.835784 0.835784
0.844117 0.844117 0.844117
0.859314 0.859314 0.859314
0.875490 0.875490 0.875490
0.902451 0.902451 0.902451
0.890686 0.890686 0.890686
0.894118 0.894118 0.894118
0.894608 0.894608 0.894608
0.898529 0.898529 0.898529
0.902451 0.902451 0.902451
0.910294 0.910294 0.910294
0.918627 0.918627 0.918627
0.933333 0.933333 0.933333
0.953431 0.953431 0.953431
0.474510 0.474510 0.474510
0.498039 0.498039 0.498039
0.513726 0.513726 0.513726
0.533333 0.533333 0.533333
0.558823 0.558823 0.558823
0.589706 0.589706 0.589706
0.628432 0.628432 0.628432
0.671078 0.671078 0.671078
0.725490 0.725490 0.725490
0.541176 0.541176 0.541176
0.552451 0.552451 0.552451
0.568137 0.568137 0.568137
0.587745 0.587745 0.587745
0.611275 0.611275 0.611275
0.638726 0.638726 0.638726
0.667647 0.667647 0.667647
0.706372 0.706372 0.706372
0.756373 0.756373 0.756373
0.595098 0.595098 0.595098
0.599020 0.599020 0.599020
0.611765 0.611765 0.611765
0.630392 0.630392 0.630392
0.650000 0.650000 0.650000
0.674510 0.674510 0.674510
0.704902 0.704902 0.704902
0.740196 0.740196 0.740196
0.779412 0.779412 0.779412
0.649510 0.649510 0.649510
0.653431 0.653431 0.653431
0.662745 0.662745 0.662745
0.676961 0.676961 0.676961
0.694118 0.694118 0.694118
0.716177 0.716177 0.716177
0.738235 0.738235 0.738235
0.771078 0.771078 0.771078
0.803922 0.803922 0.803922
0.707843 0.707843 0.707843
0.711765 0.711765 0.711765
0.717647 0.717647 0.717647
0.727451 0.727451 0.727451
0.743137 0.743137 0.743137
0.758823 0.758823 0.758823
0.777451 0.777451 0.777451
0.803922 0.803922 0.803922
0.835294 0.835294 0.835294
0.764706 0.764706 0.764706
0.766176 0.766176 0.766176
0.770098 0.770098 0.770098
0.777941 0.777941 0.777941
0.789706 0.789706 0.789706
0.801471 0.801471 0.801471
0.821078 0.821078 0.821078
0.840686 0.840686 0.840686
0.866667 0.866667 0.866667
0.819608 0.819608 0.819608
0.820588 0.820588 0.820588
0.824510 0.824510 0.824510
0.828431 0.828431 0.828431
0.836274 0.836274 0.836274
0.848039 0.848039 0.848039
0.862745 0.862745 0.862745
0.879412 0.879412 0.879412
0.901961 0.901961 0.901961
0.875000 0.875000 0.875000
0.875000 0.875000 0.875000
0.878431 0.878431 0.878431
0.884804 0.884804 0.884804
0.886765 0.886765 0.886765
0.894608 0.894608 0.894608
0.906372 0.906372 0.906372
0.918137 0.918137 0.918137
0.937745 0.937745 0.937745
0.937255 0.937255 0.937255
0.937255 0.937255 0.937255
0.941176 0.941176 0.941176
0.945098 0.945098 0.945098
0.949020 0.949020 0.949020
0.952941 0.952941 0.952941
0.961765 0.961765 0.961765
0.976471 0.976471 0.976471
1.000000 1.000000 1.000000
