Black-and-White/Ilford/Ilford Pan F Plus 50 65x.cube
TITLE "Ilford Pan F Plus 50"
LUT_3D_SIZE 5
DOMAIN_MIN 0.000000 0.000000 0.000000
DOMAIN_MAX 1.000000 1.000000 1.000000
0.000000 0.000000 0.000000
0.003922 0.003922 0.003922
0.023529 0.023529 0.023529
0.099020 0.099020 0.099020
0.266667 0.266667 0.266667
0.154902 0.154902 0.154902
0.174510 0.174510 0.174510
0.220588 0.220588 0.220588
0.313725 0.313725 0.313725
0.450000 0.450000 0.450000
0.433334 0.433334 0.433334
0.443138 0.443138 0.443138
0.474510 0.474510 0.474510
0.529411 0.529411 0.529411
0.617647 0.617647 0.617647
0.699019 0.699019 0.699019
0.702941 0.702941 0.702941
0.715687 0.715687 0.715687
0.739216 0.739216 0.739216
0.781373 0.781373 0.781373
0.894118 0.894118 0.894118
0.898039 0.898039 0.898039
0.901961 0.901961 0.901961
0.909804 0.909804 0.909804
0.925490 0.925490 0.925490
0.014706 0.014706 0.014706
0.042157 0.042157 0.042157
0.085294 0.085294 0.085294
0.175490 0.175490 0.175490
0.351961 0.351961 0.351961
0.209804 0.209804 0.209804
0.233333 0.233333 0.233333
0.284314 0.284314 0.284314
0.371569 0.371569 0.371569
0.493138 0.493138 0.493138
0.470588 0.470588 0.470588
0.479412 0.479412 0.479412
0.509804 0.509804 0.509804
0.560785 0.560785 0.560785
0.644118 0.644118 0.644118
0.715687 0.715687 0.715687
0.719608 0.719608 0.719608
0.732353 0.732353 0.732353
0.754902 0.754902 0.754902
0.793137 0.793137 0.793137
0.901961 0.901961 0.901961
0.901961 0.901961 0.901961
0.905882 0.905882 0.905882
0.913725 0.913725 0.913725
0.929412 0.929412 0.929412
0.070588 0.070588 0.070588
0.112745 0.112745 0.112745
0.166666 0.166666 0.166666
0.261765 0.261765 0.261765
0.425490 0.425490 0.425490
0.305882 0.305882 0.305882
0.329412 0.329412 0.329412
0.375490 0.375490 0.375490
0.446078 0.446078 0.446078
0.553922 0.553922 0.553922
0.537254 0.537254 0.537254
0.545098 0.545098 0.545098
0.572549 0.572549 0.572549
0.618627 0.618627 0.618627
0.688236 0.688236 0.688236
0.750000 0.750000 0.750000
0.753922 0.753922 0.753922
0.763725 0.763725 0.763725
0.783333 0.783333 0.783333
0.816667 0.816667 0.816667
0.915686 0.915686 0.915686
0.917647 0.917647 0.917647
0.921569 0.921569 0.921569
0.929412 0.929412 0.929412
0.945098 0.945098 0.945098
0.197059 0.197059 0.197059
0.245098 0.245098 0.245098
0.306862 0.306862 0.306862
0.397058 0.397058 0.397058
0.522549 0.522549 0.522549
0.435294 0.435294 0.435294
0.450980 0.450980 0.450980
0.487255 0.487255 0.487255
0.545098 0.545098 0.545098
0.636275 0.636275 0.636275
0.626470 0.626470 0.626470
0.634314 0.634314 0.634314
0.654902 0.654902 0.654902
0.689216 0.689216 0.689216
0.743137 0.743137 0.743137
0.793137 0.793137 0.793137
0.794118 0.794118 0.794118
0.804902 0.804902 0.804902
0.820588 0.820588 0.820588
0.848039 0.848039 0.848039
0.934313 0.934313 0.934313
0.937255 0.937255 0.937255
0.941176 0.941176 0.941176
0.946079 0.946079 0.946079
0.960784 0.960784 0.960784
0.400000 0.400000 0.400000
0.438236 0.438236 0.438236
0.480392 0.480392 0.480392
0.542156 0.542156 0.542156
0.639216 0.639216 0.639216
0.583333 0.583333 0.583333
0.595098 0.595098 0.595098
0.626470 0.626470 0.626470
0.669608 0.669608 0.669608
0.728431 0.728431 0.728431
0.727451 0.727451 0.727451
0.735294 0.735294 0.735294
0.747059 0.747059 0.747059
0.772549 0.772549 0.772549
0.809804 0.809804 0.809804
0.848039 0.848039 0.848039
0.848039 0.848039 0.848039
0.855883 0.855883 0.855883
0.867647 0.867647 0.867647
0.890196 0.890196 0.890196
0.968627 0.968627 0.968627
0.968627 0.968627 0.968627
0.972549 0.972549 0.972549
0.980392 0.980392 0.980392
1.000000 1.000000 1.000000
