Black-and-White/Ilford/Ilford XP2 65x.cube
TITLE "Ilford XP2"
LUT_3D_SIZE 65
DOMAIN_MIN 0.000000 0.000000 0.000000
DOMAIN_MAX 1.000000 1.000000 1.000000
0.000000 0.000000 0.000000
0.000000 0.000000 0.000000
0.000000 0.000000 0.000000
0.000000 0.000000 0.000000
0.000000 0.000000 0.000000
0.000000 0.000000 0.000000
0.000000 0.000000 0.000000
0.000000 0.000000 0.000000
0.000000 0.000000 0.000000
0.000000 0.000000 0.000000
0.000000 0.000000 0.000000
0.000000 0.000000 0.000000
0.000000 0.000000 0.000000
0.000000 0.000000 0.000000
0.000000 0.000000 0.000000
0.003922 0.003922 0.003922
0.003922 0.003922 0.003922
0.003922 0.003922 0.003922
0.003922 0.003922 0.003922
0.003922 0.003922 0.003922
0.003922 0.003922 0.003922
0.003922 0.003922 0.003922
0.007843 0.007843 0.007843
0.007843 0.007843 0.007843
0.007843 0.007843 0.007843
0.007843 0.007843 0.007843
0.011765 0.011765 0.011765
0.011765 0.011765 0.011765
0.011765 0.011765 0.011765
0.014890 0.014890 0.014890
0.015686 0.015686 0.015686
0.019608 0.019608 0.019608
0.019608 0.019608 0.019608
0.023529 0.023529 0.023529
0.023529 0.023529 0.023529
0.027451 0.027451 0.027451
0.031373 0.031373 0.031373
0.034007 0.034007 0.034007
0.038848 0.038848 0.038848
0.043137 0.043137 0.043137
0.044608 0.044608 0.044608
0.049448 0.049448 0.049448
0.054289 0.054289 0.054289
0.059130 0.059130 0.059130
0.063971 0.063971 0.063971
0.070588 0.070588 0.070588
0.074510 0.074510 0.074510
0.082353 0.082353 0.082353
0.087255 0.087255 0.087255
0.096017 0.096017 0.096017
0.100858 0.100858 0.100858
0.105882 0.105882 0.105882
0.114460 0.114460 0.114460
0.123223 0.123223 0.123223
0.131985 0.131985 0.131985
0.140747 0.140747 0.140747
0.149020 0.149020 0.149020
0.154350 0.154350 0.154350
0.163113 0.163113 0.163113
0.175797 0.175797 0.175797
0.184559 0.184559 0.184559
0.193321 0.193321 0.193321
0.204167 0.204167 0.204167
0.214767 0.214767 0.214767
0.227451 0.227451 0.227451
0.000000 0.000000 0.000000
0.000000 0.000000 0.000000
0.000000 0.000000 0.000000
0.000000 0.000000 0.000000
0.003677 0.003677 0.003677
0.000919 0.000919 0.000919
0.000919 0.000919 0.000919
0.003922 0.003922 0.003922
0.003922 0.003922 0.003922
0.003922 0.003922 0.003922
0.003922 0.003922 0.003922
0.006189 0.006189 0.006189
0.004841 0.004841 0.004841
0.004106 0.004106 0.004106
0.007843 0.007843 0.007843
0.007843 0.007843 0.007843
0.007843 0.007843 0.007843
0.008762 0.008762 0.008762
0.008762 0.008762 0.008762
0.011765 0.011765 0.011765
0.011765 0.011765 0.011765
0.012684 0.012684 0.012684
0.012378 0.012378 0.012378
0.017218 0.017218 0.017218
0.016605 0.016605 0.016605
0.016605 0.016605 0.016605
0.020527 0.020527 0.020527
0.020527 0.020527 0.020527
0.025735 0.025735 0.025735
0.024448 0.024448 0.024448
0.028370 0.028370 0.028370
0.029412 0.029412 0.029412
0.032292 0.032292 0.032292
0.036213 0.036213 0.036213
0.040012 0.040012 0.040012
0.040932 0.040932 0.040932
0.045772 0.045772 0.045772
0.050613 0.050613 0.050613
0.055454 0.055454 0.055454
0.056373 0.056373 0.056373
0.060662 0.060662 0.060662
0.064583 0.064583 0.064583
0.068505 0.068505 0.068505
0.075736 0.075736 0.075736
0.081495 0.081495 0.081495
0.089339 0.089339 0.089339
0.094178 0.094178 0.094178
0.099019 0.099019 0.099019
0.107781 0.107781 0.107781
0.111642 0.111642 0.111642
0.121384 0.121384 0.121384
0.126226 0.126226 0.126226
0.134987 0.134987 0.134987
0.140748 0.140748 0.140748
0.148590 0.148590 0.148590
0.157352 0.157352 0.157352
0.166115 0.166115 0.166115
0.171875 0.171875 0.171875
0.180637 0.180637 0.180637
0.192401 0.192401 0.192401
0.201164 0.201164 0.201164
0.209926 0.209926 0.209926
0.219608 0.219608 0.219608
0.231372 0.231372 0.231372
0.244056 0.244056 0.244056
0.000000 0.000000 0.000000
0.001838 0.001838 0.001838
0.003922 0.003922 0.003922
0.003922 0.003922 0.003922
0.003922 0.003922 0.003922
0.003922 0.003922 0.003922
0.003922 0.003922 0.003922
0.003922 0.003922 0.003922
0.005760 0.005760 0.005760
0.004351 0.004351 0.004351
0.007843 0.007843 0.007843
0.007843 0.007843 0.007843
0.007843 0.007843 0.007843
0.009681 0.009681 0.009681
0.008946 0.008946 0.008946
0.011765 0.011765 0.011765
0.011765 0.011765 0.011765
0.011765 0.011765 0.011765
0.013603 0.013603 0.013603
0.013542 0.013542 0.013542
0.015686 0.015686 0.015686
0.017524 0.017524 0.017524
0.019608 0.019608 0.019608
0.021446 0.021446 0.021446
0.021446 0.021446 0.021446
0.023529 0.023529 0.023529
0.025367 0.025367 0.025367
0.027451 0.027451 0.027451
0.029289 0.029289 0.029289
0.029289 0.029289 0.029289
0.031496 0.031496 0.031496
0.037132 0.037132 0.037132
0.041177 0.041177 0.041177
0.041054 0.041054 0.041054
0.044975 0.044975 0.044975
0.047855 0.047855 0.047855
0.052696 0.052696 0.052696
0.056740 0.056740 0.056740
0.060662 0.060662 0.060662
0.065134 0.065134 0.065134
0.069976 0.069976 0.069976
0.074816 0.074816 0.074816
0.081740 0.081740 0.081740
0.084497 0.084497 0.084497
0.092034 0.092034 0.092034
0.098101 0.098101 0.098101
0.102941 0.102941 0.102941
0.107781 0.107781 0.107781
0.116544 0.116544 0.116544
0.123468 0.123468 0.123468
0.130147 0.130147 0.130147
0.134988 0.134988 0.134988
0.143750 0.143750 0.143750
0.150858 0.150858 0.150858
0.157353 0.157353 0.157353
0.166115 0.166115 0.166115
0.173039 0.173039 0.173039
0.181801 0.181801 0.181801
0.188481 0.188481 0.188481
0.199326 0.199326 0.199326
0.209926 0.209926 0.209926
0.218688 0.218688 0.218688
0.227451 0.227451 0.227451
0.240134 0.240134 0.240134
0.250980 0.250980 0.250980
0.003922 0.003922 0.003922
0.003922 0.003922 0.003922
0.003922 0.003922 0.003922
0.003922 0.003922 0.003922
0.003922 0.003922 0.003922
0.006679 0.006679 0.006679
0.005515 0.005515 0.005515
0.007843 0.007843 0.007843
0.007843 0.007843 0.007843
0.007843 0.007843 0.007843
0.010601 0.010601 0.010601
0.010601 0.010601 0.010601
0.011765 0.011765 0.011765
0.011765 0.011765 0.011765
0.011765 0.011765 0.011765
0.014522 0.014522 0.014522
0.014522 0.014522 0.014522
0.015686 0.015686 0.015686
0.018444 0.018444 0.018444
0.018444 0.018444 0.018444
0.019608 0.019608 0.019608
0.023223 0.023223 0.023223
0.020221 0.020221 0.020221
0.023529 0.023529 0.023529
0.026287 0.026287 0.026287
0.027451 0.027451 0.027451
0.027819 0.027819 0.027819
0.034130 0.034130 0.034130
0.033579 0.033579 0.033579
0.038419 0.038419 0.038419
0.041973 0.041973 0.041973
0.040258 0.040258 0.040258
0.045895 0.045895 0.045895
0.049938 0.049938 0.049938
0.054779 0.054779 0.054779
0.057660 0.057660 0.057660
0.061581 0.061581 0.061581
0.064216 0.064216 0.064216
0.069056 0.069056 0.069056
0.071140 0.071140 0.071140
0.075980 0.075980 0.075980
0.080821 0.080821 0.080821
0.088419 0.088419 0.088419
0.093259 0.093259 0.093259
0.098101 0.098101 0.098101
0.104718 0.104718 0.104718
0.111703 0.111703 0.111703
0.116544 0.116544 0.116544
0.124326 0.124326 0.124326
0.130147 0.130147 0.130147
0.136152 0.136152 0.136152
0.143750 0.143750 0.143750
0.148590 0.148590 0.148590
0.157353 0.157353 0.157353
0.163358 0.163358 0.163358
0.172120 0.172120 0.172120
0.179719 0.179719 0.179719
0.188481 0.188481 0.188481
0.197243 0.197243 0.197243
0.206005 0.206005 0.206005
0.214768 0.214768 0.214768
0.221936 0.221936 0.221936
0.236214 0.236214 0.236214
0.244976 0.244976 0.244976
0.257660 0.257660 0.257660
0.003922 0.003922 0.003922
0.007598 0.007598 0.007598
0.007598 0.007598 0.007598
0.007843 0.007843 0.007843
0.007843 0.007843 0.007843
0.007843 0.007843 0.007843
0.007843 0.007843 0.007843
0.011520 0.011520 0.011520
0.011275 0.011275 0.011275
0.011765 0.011765 0.011765
0.011765 0.011765 0.011765
0.011765 0.011765 0.011765
0.015441 0.015441 0.015441
0.015686 0.015686 0.015686
0.015686 0.015686 0.015686
0.019363 0.019363 0.019363
0.019363 0.019363 0.019363
0.019608 0.019608 0.019608
0.023284 0.023284 0.023284
0.023284 0.023284 0.023284
0.023529 0.023529 0.023529
0.027206 0.027206 0.027206
0.024142 0.024142 0.024142
0.031128 0.031128 0.031128
0.031128 0.031128 0.031128
0.035049 0.035049 0.035049
0.035294 0.035294 0.035294
0.038971 0.038971 0.038971
0.039216 0.039216 0.039216
0.042892 0.042892 0.042892
0.046814 0.046814 0.046814
0.050735 0.050735 0.050735
0.049019 0.049019 0.049019
0.053860 0.053860 0.053860
0.058579 0.058579 0.058579
0.059620 0.059620 0.059620
0.066422 0.066422 0.066422
0.070343 0.070343 0.070343
0.074265 0.074265 0.074265
0.078738 0.078738 0.078738
0.086030 0.086030 0.086030
0.089951 0.089951 0.089951
0.093873 0.093873 0.093873
0.101716 0.101716 0.101716
0.103186 0.103186 0.103186
0.111703 0.111703 0.111703
0.117402 0.117402 0.117402
0.125245 0.125245 0.125245
0.130146 0.130146 0.130146
0.137010 0.137010 0.137010
0.143750 0.143750 0.143750
0.148836 0.148836 0.148836
0.157352 0.157352 0.157352
0.164461 0.164461 0.164461
0.170956 0.170956 0.170956
0.179718 0.179718 0.179718
0.184804 0.184804 0.184804
0.193320 0.193320 0.193320
0.202084 0.202084 0.202084
0.210846 0.210846 0.210846
0.219853 0.219853 0.219853
0.232291 0.232291 0.232291
0.241053 0.241053 0.241053
0.253738 0.253738 0.253738
0.262500 0.262500 0.262500
0.008517 0.008517 0.008517
0.008517 0.008517 0.008517
0.008517 0.008517 0.008517
0.011765 0.011765 0.011765
0.011765 0.011765 0.011765
0.011765 0.011765 0.011765
0.011765 0.011765 0.011765
0.012439 0.012439 0.012439
0.012439 0.012439 0.012439
0.015686 0.015686 0.015686
0.017034 0.017034 0.017034
0.016360 0.016360 0.016360
0.016360 0.016360 0.016360
0.020282 0.020282 0.020282
0.020282 0.020282 0.020282
0.020282 0.020282 0.020282
0.023529 0.023529 0.023529
0.027390 0.027390 0.027390
0.024203 0.024203 0.024203
0.027451 0.027451 0.027451
0.028125 0.028125 0.028125
0.031373 0.031373 0.031373
0.032047 0.032047 0.032047
0.036826 0.036826 0.036826
0.035968 0.035968 0.035968
0.042586 0.042586 0.042586
0.039584 0.039584 0.039584
0.043811 0.043811 0.043811
0.043811 0.043811 0.043811
0.047733 0.047733 0.047733
0.051654 0.051654 0.051654
0.055944 0.055944 0.055944
0.057537 0.057537 0.057537
0.059498 0.059498 0.059498
0.063419 0.063419 0.063419
0.068138 0.068138 0.068138
0.072978 0.072978 0.072978
0.075184 0.075184 0.075184
0.079105 0.079105 0.079105
0.086949 0.086949 0.086949
0.090870 0.090870 0.090870
0.094792 0.094792 0.094792
0.102021 0.102021 0.102021
0.106188 0.106188 0.106188
0.111704 0.111704 0.111704
0.118321 0.118321 0.118321
0.125307 0.125307 0.125307
0.130147 0.130147 0.130147
0.134987 0.134987 0.134987
0.141850 0.141850 0.141850
0.148590 0.148590 0.148590
0.153615 0.153615 0.153615
0.162193 0.162193 0.162193
0.169301 0.169301 0.169301
0.175796 0.175796 0.175796
0.184558 0.184558 0.184558
0.192647 0.192647 0.192647
0.201409 0.201409 0.201409
0.210172 0.210172 0.210172
0.218934 0.218934 0.218934
0.228370 0.228370 0.228370
0.237132 0.237132 0.237132
0.245894 0.245894 0.245894
0.260907 0.260907 0.260907
0.267341 0.267341 0.267341
0.011765 0.011765 0.011765
0.013358 0.013358 0.013358
0.013358 0.013358 0.013358
0.013358 0.013358 0.013358
0.013358 0.013358 0.013358
0.015686 0.015686 0.015686
0.015686 0.015686 0.015686
0.017279 0.017279 0.017279
0.017279 0.017279 0.017279
0.019608 0.019608 0.019608
0.021201 0.021201 0.021201
0.021201 0.021201 0.021201
0.021201 0.021201 0.021201
0.025122 0.025122 0.025122
0.025122 0.025122 0.025122
0.025122 0.025122 0.025122
0.030392 0.030392 0.030392
0.029044 0.029044 0.029044
0.031373 0.031373 0.031373
0.032966 0.032966 0.032966
0.032966 0.032966 0.032966
0.036887 0.036887 0.036887
0.039216 0.039216 0.039216
0.040809 0.040809 0.040809
0.040809 0.040809 0.040809
0.044730 0.044730 0.044730
0.048652 0.048652 0.048652
0.048346 0.048346 0.048346
0.052573 0.052573 0.052573
0.058027 0.058027 0.058027
0.060417 0.060417 0.060417
0.059866 0.059866 0.059866
0.064338 0.064338 0.064338
0.068260 0.068260 0.068260
0.074387 0.074387 0.074387
0.076103 0.076103 0.076103
0.080024 0.080024 0.080024
0.083946 0.083946 0.083946
0.087868 0.087868 0.087868
0.092340 0.092340 0.092340
0.099632 0.099632 0.099632
0.103554 0.103554 0.103554
0.107475 0.107475 0.107475
0.115318 0.115318 0.115318
0.120466 0.120466 0.120466
0.125307 0.125307 0.125307
0.131005 0.131005 0.131005
0.138848 0.138848 0.138848
0.143750 0.143750 0.143750
0.150919 0.150919 0.150919
0.157353 0.157353 0.157353
0.162194 0.162194 0.162194
0.169362 0.169362 0.169362
0.175796 0.175796 0.175796
0.184558 0.184558 0.184558
0.191728 0.191728 0.191728
0.198162 0.198162 0.198162
0.206924 0.206924 0.206924
0.215687 0.215687 0.215687
0.224449 0.224449 0.224449
0.233211 0.233211 0.233211
0.241544 0.241544 0.241544
0.255147 0.255147 0.255147
0.263420 0.263420 0.263420
0.276103 0.276103 0.276103
0.015686 0.015686 0.015686
0.018199 0.018199 0.018199
0.018199 0.018199 0.018199
0.018199 0.018199 0.018199
0.018199 0.018199 0.018199
0.019608 0.019608 0.019608
0.022120 0.022120 0.022120
0.022120 0.022120 0.022120
0.022120 0.022120 0.022120
0.023529 0.023529 0.023529
0.026042 0.026042 0.026042
0.026042 0.026042 0.026042
0.026042 0.026042 0.026042
0.029964 0.029964 0.029964
0.028554 0.028554 0.028554
0.033885 0.033885 0.033885
0.033885 0.033885 0.033885
0.033885 0.033885 0.033885
0.037807 0.037807 0.037807
0.037071 0.037071 0.037071
0.041728 0.041728 0.041728
0.041728 0.041728 0.041728
0.045650 0.045650 0.045650
0.044669 0.044669 0.044669
0.049571 0.049571 0.049571
0.052941 0.052941 0.052941
0.053860 0.053860 0.053860
0.057415 0.057415 0.057415
0.061336 0.061336 0.061336
0.061336 0.061336 0.061336
0.062868 0.062868 0.062868
0.069179 0.069179 0.069179
0.073101 0.073101 0.073101
0.075980 0.075980 0.075980
0.080821 0.080821 0.080821
0.084866 0.084866 0.084866
0.088787 0.088787 0.088787
0.092709 0.092709 0.092709
0.096262 0.096262 0.096262
0.101102 0.101102 0.101102
0.105944 0.105944 0.105944
0.112316 0.112316 0.112316
0.116238 0.116238 0.116238
0.120465 0.120465 0.120465
0.128003 0.128003 0.128003
0.134069 0.134069 0.134069
0.140318 0.140318 0.140318
0.143750 0.143750 0.143750
0.151532 0.151532 0.151532
0.157353 0.157353 0.157353
0.163603 0.163603 0.163603
0.170956 0.170956 0.170956
0.175796 0.175796 0.175796
0.182047 0.182047 0.182047
0.189400 0.189400 0.189400
0.198162 0.198162 0.198162
0.204412 0.204412 0.204412
0.213174 0.213174 0.213174
0.221936 0.221936 0.221936
0.229289 0.229289 0.229289
0.241974 0.241974 0.241974
0.250736 0.250736 0.250736
0.259497 0.259497 0.259497
0.269669 0.269669 0.269669
0.280944 0.280944 0.280944
0.023039 0.023039 0.023039
0.023039 0.023039 0.023039
0.023039 0.023039 0.023039
0.022365 0.022365 0.022365
0.023529 0.023529 0.023529
0.026961 0.026961 0.026961
0.026961 0.026961 0.026961
0.026961 0.026961 0.026961
0.027451 0.027451 0.027451
0.030883 0.030883 0.030883
0.030883 0.030883 0.030883
0.029718 0.029718 0.029718
0.034804 0.034804 0.034804
0.031557 0.031557 0.031557
0.038726 0.038726 0.038726
0.038726 0.038726 0.038726
0.039216 0.039216 0.039216
0.042647 0.042647 0.042647
0.040074 0.040074 0.040074
0.046569 0.046569 0.046569
0.045833 0.045833 0.045833
0.050490 0.050490 0.050490
0.054412 0.054412 0.054412
0.054412 0.054412 0.054412
0.056863 0.056863 0.056863
0.058334 0.058334 0.058334
0.062255 0.062255 0.062255
0.066177 0.066177 0.066177
0.064951 0.064951 0.064951
0.070098 0.070098 0.070098
0.074020 0.074020 0.074020
0.077941 0.077941 0.077941
0.079902 0.079902 0.079902
0.081311 0.081311 0.081311
0.085785 0.085785 0.085785
0.090503 0.090503 0.090503
0.095343 0.095343 0.095343
0.100184 0.100184 0.100184
0.105024 0.105024 0.105024
0.109864 0.109864 0.109864
0.114706 0.114706 0.114706
0.119547 0.119547 0.119547
0.125000 0.125000 0.125000
0.129227 0.129227 0.129227
0.134069 0.134069 0.134069
0.139399 0.139399 0.139399
0.147672 0.147672 0.147672
0.152513 0.152513 0.152513
0.160294 0.160294 0.160294
0.162684 0.162684 0.162684
0.170956 0.170956 0.170956
0.175981 0.175981 0.175981
0.184558 0.184558 0.184558
0.191667 0.191667 0.191667
0.198162 0.198162 0.198162
0.203432 0.203432 0.203432
0.211764 0.211764 0.211764
0.220526 0.220526 0.220526
0.229289 0.229289 0.229289
0.238052 0.238052 0.238052
0.246813 0.246813 0.246813
0.253309 0.253309 0.253309
0.268259 0.268259 0.268259
0.277022 0.277022 0.277022
0.289706 0.289706 0.289706
0.027880 0.027880 0.027880
0.027880 0.027880 0.027880
0.027880 0.027880 0.027880
0.027880 0.027880 0.027880
0.035049 0.035049 0.035049
0.031802 0.031802 0.031802
0.031802 0.031802 0.031802
0.031802 0.031802 0.031802
0.038726 0.038726 0.038726
0.035723 0.035723 0.035723
0.035723 0.035723 0.035723
0.041483 0.041483 0.041483
0.039645 0.039645 0.039645
0.043566 0.043566 0.043566
0.043566 0.043566 0.043566
0.043566 0.043566 0.043566
0.047488 0.047488 0.047488
0.047488 0.047488 0.047488
0.051409 0.051409 0.051409
0.051409 0.051409 0.051409
0.055331 0.055331 0.055331
0.055331 0.055331 0.055331
0.059253 0.059253 0.059253
0.060785 0.060785 0.060785
0.063174 0.063174 0.063174
0.066544 0.066544 0.066544
0.067464 0.067464 0.067464
0.071017 0.071017 0.071017
0.074939 0.074939 0.074939
0.078064 0.078064 0.078064
0.082782 0.082782 0.082782
0.082782 0.082782 0.082782
0.086704 0.086704 0.086704
0.090625 0.090625 0.090625
0.094547 0.094547 0.094547
0.099264 0.099264 0.099264
0.104106 0.104106 0.104106
0.108945 0.108945 0.108945
0.110233 0.110233 0.110233
0.118076 0.118076 0.118076
0.121998 0.121998 0.121998
0.128308 0.128308 0.128308
0.133150 0.133150 0.133150
0.137684 0.137684 0.137684
0.142831 0.142831 0.142831
0.147671 0.147671 0.147671
0.153370 0.153370 0.153370
0.161213 0.161213 0.161213
0.165135 0.165135 0.165135
0.170956 0.170956 0.170956
0.176900 0.176900 0.176900
0.184558 0.184558 0.184558
0.189399 0.189399 0.189399
0.196507 0.196507 0.196507
0.206495 0.206495 0.206495
0.211764 0.211764 0.211764
0.220098 0.220098 0.220098
0.228860 0.228860 0.228860
0.237623 0.237623 0.237623
0.242893 0.242893 0.242893
0.255147 0.255147 0.255147
0.264338 0.264338 0.264338
0.273100 0.273100 0.273100
0.281863 0.281863 0.281863
0.294547 0.294547 0.294547
0.035294 0.035294 0.035294
0.036642 0.036642 0.036642
0.036642 0.036642 0.036642
0.036642 0.036642 0.036642
0.036642 0.036642 0.036642
0.040564 0.040564 0.040564
0.040564 0.040564 0.040564
0.040564 0.040564 0.040564
0.040564 0.040564 0.040564
0.044485 0.044485 0.044485
0.044485 0.044485 0.044485
0.044485 0.044485 0.044485
0.050245 0.050245 0.050245
0.048407 0.048407 0.048407
0.052328 0.052328 0.052328
0.052328 0.052328 0.052328
0.055270 0.055270 0.055270
0.056250 0.056250 0.056250
0.057108 0.057108 0.057108
0.060172 0.060172 0.060172
0.062868 0.062868 0.062868
0.064093 0.064093 0.064093
0.068015 0.068015 0.068015
0.068015 0.068015 0.068015
0.071936 0.071936 0.071936
0.071936 0.071936 0.071936
0.074878 0.074878 0.074878
0.079779 0.079779 0.079779
0.084559 0.084559 0.084559
0.086826 0.086826 0.086826
0.087746 0.087746 0.087746
0.091544 0.091544 0.091544
0.095466 0.095466 0.095466
0.099387 0.099387 0.099387
0.105759 0.105759 0.105759
0.108027 0.108027 0.108027
0.112868 0.112868 0.112868
0.115073 0.115073 0.115073
0.118995 0.118995 0.118995
0.126838 0.126838 0.126838
0.130760 0.130760 0.130760
0.134681 0.134681 0.134681
0.141912 0.141912 0.141912
0.146446 0.146446 0.146446
0.150368 0.150368 0.150368
0.156433 0.156433 0.156433
0.163848 0.163848 0.163848
0.166115 0.166115 0.166115
0.173897 0.173897 0.173897
0.179719 0.179719 0.179719
0.184558 0.184558 0.184558
0.189583 0.189583 0.189583
0.198162 0.198162 0.198162
0.203002 0.203002 0.203002
0.211764 0.211764 0.211764
0.220526 0.220526 0.220526
0.225367 0.225367 0.225367
0.234130 0.234130 0.234130
0.242893 0.242893 0.242893
0.251655 0.251655 0.251655
0.260417 0.260417 0.260417
0.269179 0.269179 0.269179
0.277941 0.277941 0.277941
0.292280 0.292280 0.292280
0.299387 0.299387 0.299387
0.041483 0.041483 0.041483
0.040135 0.040135 0.040135
0.043137 0.043137 0.043137
0.045404 0.045404 0.045404
0.045404 0.045404 0.045404
0.045404 0.045404 0.045404
0.049326 0.049326 0.049326
0.049326 0.049326 0.049326
0.049326 0.049326 0.049326
0.049326 0.049326 0.049326
0.053247 0.053247 0.053247
0.053247 0.053247 0.053247
0.053247 0.053247 0.053247
0.057169 0.057169 0.057169
0.056005 0.056005 0.056005
0.061091 0.061091 0.061091
0.061091 0.061091 0.061091
0.066606 0.066606 0.066606
0.065012 0.065012 0.065012
0.068934 0.068934 0.068934
0.068934 0.068934 0.068934
0.072855 0.072855 0.072855
0.076777 0.076777 0.076777
0.076777 0.076777 0.076777
0.080882 0.080882 0.080882
0.080698 0.080698 0.080698
0.084620 0.084620 0.084620
0.088542 0.088542 0.088542
0.090748 0.090748 0.090748
0.092463 0.092463 0.092463
0.096508 0.096508 0.096508
0.100306 0.100306 0.100306
0.104228 0.104228 0.104228
0.108149 0.108149 0.108149
0.111948 0.111948 0.111948
0.115992 0.115992 0.115992
0.119363 0.119363 0.119363
0.123836 0.123836 0.123836
0.127757 0.127757 0.127757
0.132231 0.132231 0.132231
0.139522 0.139522 0.139522
0.143443 0.143443 0.143443
0.147365 0.147365 0.147365
0.151594 0.151594 0.151594
0.159130 0.159130 0.159130
0.162929 0.162929 0.162929
0.170037 0.170037 0.170037
0.174877 0.174877 0.174877
0.179719 0.179719 0.179719
0.186581 0.186581 0.186581
0.193321 0.193321 0.193321
0.199816 0.199816 0.199816
0.206189 0.206189 0.206189
0.211764 0.211764 0.211764
0.217953 0.217953 0.217953
0.227022 0.227022 0.227022
0.234131 0.234131 0.234131
0.242893 0.242893 0.242893
0.251655 0.251655 0.251655
0.258150 0.258150 0.258150
0.269179 0.269179 0.269179
0.277941 0.277941 0.277941
0.286703 0.286703 0.286703
0.295465 0.295465 0.295465
0.308149 0.308149 0.308149
0.050245 0.050245 0.050245
0.050245 0.050245 0.050245
0.050245 0.050245 0.050245
0.049816 0.049816 0.049816
0.054167 0.054167 0.054167
0.054167 0.054167 0.054167
0.054167 0.054167 0.054167
0.054902 0.054902 0.054902
0.058089 0.058089 0.058089
0.058089 0.058089 0.058089
0.056250 0.056250 0.056250
0.062010 0.062010 0.062010
0.062010 0.062010 0.062010
0.065932 0.065932 0.065932
0.065932 0.065932 0.065932
0.064767 0.064767 0.064767
0.069853 0.069853 0.069853
0.069853 0.069853 0.069853
0.073775 0.073775 0.073775
0.075551 0.075551 0.075551
0.077696 0.077696 0.077696
0.081311 0.081311 0.081311
0.079044 0.079044 0.079044
0.085540 0.085540 0.085540
0.087990 0.087990 0.087990
0.089461 0.089461 0.089461
0.093383 0.093383 0.093383
0.097304 0.097304 0.097304
0.096324 0.096324 0.096324
0.101226 0.101226 0.101226
0.105147 0.105147 0.105147
0.109069 0.109069 0.109069
0.112990 0.112990 0.112990
0.115870 0.115870 0.115870
0.120711 0.120711 0.120711
0.124755 0.124755 0.124755
0.128677 0.128677 0.128677
0.132598 0.132598 0.132598
0.136520 0.136520 0.136520
0.140993 0.140993 0.140993
0.145833 0.145833 0.145833
0.150674 0.150674 0.150674
0.156250 0.156250 0.156250
0.160356 0.160356 0.160356
0.165195 0.165195 0.165195
0.171814 0.171814 0.171814
0.175736 0.175736 0.175736
0.183579 0.183579 0.183579
0.185294 0.185294 0.185294
0.193321 0.193321 0.193321
0.199265 0.199265 0.199265
0.206924 0.206924 0.206924
0.211764 0.211764 0.211764
0.217341 0.217341 0.217341
0.225368 0.225368 0.225368
0.234130 0.234130 0.234130
0.239706 0.239706 0.239706
0.247732 0.247732 0.247732
0.256495 0.256495 0.256495
0.265258 0.265258 0.265258
0.274019 0.274019 0.274019
0.282782 0.282782 0.282782
0.290442 0.290442 0.290442
0.304228 0.304228 0.304228
0.312991 0.312991 0.312991
0.058824 0.058824 0.058824
0.059008 0.059008 0.059008
0.059008 0.059008 0.059008
0.059008 0.059008 0.059008
0.059008 0.059008 0.059008
0.059008 0.059008 0.059008
0.062929 0.062929 0.062929
0.062929 0.062929 0.062929
0.062929 0.062929 0.062929
0.067096 0.067096 0.067096
0.066851 0.066851 0.066851
0.066851 0.066851 0.066851
0.073775 0.073775 0.073775
0.070772 0.070772 0.070772
0.071875 0.071875 0.071875
0.074694 0.074694 0.074694
0.074694 0.074694 0.074694
0.078615 0.078615 0.078615
0.079473 0.079473 0.079473
0.082537 0.082537 0.082537
0.085233 0.085233 0.085233
0.086459 0.086459 0.086459
0.090380 0.090380 0.090380
0.091911 0.091911 0.091911
0.094302 0.094302 0.094302
0.101409 0.101409 0.101409
0.098590 0.098590 0.098590
0.102145 0.102145 0.102145
0.106066 0.106066 0.106066
0.112929 0.112929 0.112929
0.113909 0.113909 0.113909
0.114951 0.114951 0.114951
0.117831 0.117831 0.117831
0.121753 0.121753 0.121753
0.125674 0.125674 0.125674
0.130392 0.130392 0.130392
0.135232 0.135232 0.135232
0.140074 0.140074 0.140074
0.144914 0.144914 0.144914
