Black-and-White/Ilford/Ilford FP4 Plus 125 65x.cube
TITLE "Ilford FP4 Plus 125"
LUT_3D_SIZE 5
DOMAIN_MIN 0.000000 0.000000 0.000000
DOMAIN_MAX 1.000000 1.000000 1.000000
0.000000 0.000000 0.000000
0.027451 0.027451 0.027451
0.088235 0.088235 0.088235
0.185294 0.185294 0.185294
0.333333 0.333333 0.333333
0.199020 0.199020 0.199020
0.221568 0.221568 0.221568
0.261765 0.261765 0.261765
0.337254 0.337254 0.337254
0.461765 0.461765 0.461765
0.400000 0.400000 0.400000
0.412745 0.412745 0.412745
0.443137 0.443137 0.443137
0.497059 0.497059 0.497059
0.594118 0.594118 0.594118
0.633334 0.633334 0.633334
0.640196 0.640196 0.640196
0.659804 0.659804 0.659804
0.692157 0.692157 0.692157
0.746079 0.746079 0.746079
0.850980 0.850980 0.850980
0.850980 0.850980 0.850980
0.858824 0.858824 0.858824
0.870588 0.870588 0.870588
0.894118 0.894118 0.894118
0.090196 0.090196 0.090196
0.136274 0.136274 0.136274
0.191176 0.191176 0.191176
0.275490 0.275490 0.275490
0.415686 0.415686 0.415686
0.265686 0.265686 0.265686
0.284314 0.284314 0.284314
0.324510 0.324510 0.324510
0.400000 0.400000 0.400000
0.508824 0.508824 0.508824
0.447059 0.447059 0.447059
0.455882 0.455882 0.455882
0.486274 0.486274 0.486274
0.538235 0.538235 0.538235
0.629412 0.629412 0.629412
0.662745 0.662745 0.662745
0.668628 0.668628 0.668628
0.685294 0.685294 0.685294
0.715687 0.715687 0.715687
0.765686 0.765686 0.765686
0.858824 0.858824 0.858824
0.862745 0.862745 0.862745
0.866667 0.866667 0.866667
0.878431 0.878431 0.878431
0.901961 0.901961 0.901961
0.198039 0.198039 0.198039
0.241177 0.241177 0.241177
0.286274 0.286274 0.286274
0.366667 0.366667 0.366667
0.490196 0.490196 0.490196
0.362745 0.362745 0.362745
0.381373 0.381373 0.381373
0.420588 0.420588 0.420588
0.483333 0.483333 0.483333
0.583333 0.583333 0.583333
0.529411 0.529411 0.529411
0.541176 0.541176 0.541176
0.568628 0.568628 0.568628
0.615687 0.615687 0.615687
0.690196 0.690196 0.690196
0.718628 0.718628 0.718628
0.723530 0.723530 0.723530
0.736274 0.736274 0.736274
0.761764 0.761764 0.761764
0.800981 0.800981 0.800981
0.882353 0.882353 0.882353
0.884314 0.884314 0.884314
0.890196 0.890196 0.890196
0.898039 0.898039 0.898039
0.921569 0.921569 0.921569
0.343137 0.343137 0.343137
0.385294 0.385294 0.385294
0.428432 0.428432 0.428432
0.492157 0.492157 0.492157
0.597059 0.597059 0.597059
0.500000 0.500000 0.500000
0.513726 0.513726 0.513726
0.549020 0.549020 0.549020
0.600000 0.600000 0.600000
0.679412 0.679412 0.679412
0.646078 0.646078 0.646078
0.653922 0.653922 0.653922
0.673529 0.673529 0.673529
0.708823 0.708823 0.708823
0.759804 0.759804 0.759804
0.782353 0.782353 0.782353
0.786275 0.786275 0.786275
0.797058 0.797058 0.797058
0.812745 0.812745 0.812745
0.844118 0.844118 0.844118
0.913725 0.913725 0.913725
0.913725 0.913725 0.913725
0.917647 0.917647 0.917647
0.926471 0.926471 0.926471
0.949020 0.949020 0.949020
0.529412 0.529412 0.529412
0.560784 0.560784 0.560784
0.596078 0.596078 0.596078
0.644118 0.644118 0.644118
0.713726 0.713726 0.713726
0.661765 0.661765 0.661765
0.673530 0.673530 0.673530
0.697059 0.697059 0.697059
0.732353 0.732353 0.732353
0.776471 0.776471 0.776471
0.766666 0.766666 0.766666
0.770588 0.770588 0.770588
0.784314 0.784314 0.784314
0.805883 0.805883 0.805883
0.835294 0.835294 0.835294
0.855883 0.855883 0.855883
0.859804 0.859804 0.859804
0.866667 0.866667 0.866667
0.879412 0.879412 0.879412
0.899020 0.899020 0.899020
0.964706 0.964706 0.964706
0.964706 0.964706 0.964706
0.968627 0.968627 0.968627
0.980392 0.980392 0.980392
1.000000 1.000000 1.000000
