Black-and-White/Ilford/Ilford HP5 Plus 400 65x.cube
TITLE "Ilford HP5 Plus 400"
LUT_3D_SIZE 5
DOMAIN_MIN 0.000000 0.000000 0.000000
DOMAIN_MAX 1.000000 1.000000 1.000000
0.000000 0.000000 0.000000
0.006863 0.006863 0.006863
0.041177 0.041177 0.041177
0.174510 0.174510 0.174510
0.423529 0.423529 0.423529
0.061765 0.061765 0.061765
0.089216 0.089216 0.089216
0.167647 0.167647 0.167647
0.301960 0.301960 0.301960
0.508824 0.508824 0.508824
0.247058 0.247058 0.247058
0.268627 0.268627 0.268627
0.335294 0.335294 0.335294
0.450000 0.450000 0.450000
0.615686 0.615686 0.615686
0.496079 0.496079 0.496079
0.513725 0.513725 0.513725
0.554902 0.554902 0.554902
0.633334 0.633334 0.633334
0.757843 0.757843 0.757843
0.792157 0.792157 0.792157
0.800000 0.800000 0.800000
0.819608 0.819608 0.819608
0.851961 0.851961 0.851961
0.917647 0.917647 0.917647
0.019608 0.019608 0.019608
0.061765 0.061765 0.061765
0.138235 0.138235 0.138235
0.278431 0.278431 0.278431
0.498039 0.498039 0.498039
0.139215 0.139215 0.139215
0.174510 0.174510 0.174510
0.248039 0.248039 0.248039
0.383333 0.383333 0.383333
0.563725 0.563725 0.563725
0.314706 0.314706 0.314706
0.338235 0.338235 0.338235
0.406863 0.406863 0.406863
0.500980 0.500980 0.500980
0.656863 0.656863 0.656863
0.543137 0.543137 0.543137
0.557843 0.557843 0.557843
0.599019 0.599019 0.599019
0.672549 0.672549 0.672549
0.781373 0.781373 0.781373
0.815686 0.815686 0.815686
0.822549 0.822549 0.822549
0.839216 0.839216 0.839216
0.870588 0.870588 0.870588
0.929412 0.929412 0.929412
0.100000 0.100000 0.100000
0.170588 0.170588 0.170588
0.252941 0.252941 0.252941
0.392157 0.392157 0.392157
0.574510 0.574510 0.574510
0.267647 0.267647 0.267647
0.299020 0.299020 0.299020
0.375490 0.375490 0.375490
0.482353 0.482353 0.482353
0.644118 0.644118 0.644118
0.447059 0.447059 0.447059
0.462746 0.462746 0.462746
0.511764 0.511764 0.511764
0.597059 0.597059 0.597059
0.729411 0.729411 0.729411
0.643137 0.643137 0.643137
0.654902 0.654902 0.654902
0.689216 0.689216 0.689216
0.745098 0.745098 0.745098
0.832353 0.832353 0.832353
0.862745 0.862745 0.862745
0.866667 0.866667 0.866667
0.880392 0.880392 0.880392
0.905882 0.905882 0.905882
0.952941 0.952941 0.952941
0.284314 0.284314 0.284314
0.354902 0.354902 0.354902
0.430392 0.430392 0.430392
0.527451 0.527451 0.527451
0.683334 0.683334 0.683334
0.454902 0.454902 0.454902
0.478431 0.478431 0.478431
0.533333 0.533333 0.533333
0.620588 0.620588 0.620588
0.742156 0.742156 0.742156
0.600000 0.600000 0.600000
0.614706 0.614706 0.614706
0.655882 0.655882 0.655882
0.720588 0.720588 0.720588
0.809804 0.809804 0.809804
0.758824 0.758824 0.758824
0.768627 0.768627 0.768627
0.790196 0.790196 0.790196
0.829412 0.829412 0.829412
0.891177 0.891177 0.891177
0.921569 0.921569 0.921569
0.925490 0.925490 0.925490
0.933333 0.933333 0.933333
0.950000 0.950000 0.950000
0.981372 0.981372 0.981372
0.517647 0.517647 0.517647
0.564706 0.564706 0.564706
0.619608 0.619608 0.619608
0.695098 0.695098 0.695098
0.796078 0.796078 0.796078
0.661765 0.661765 0.661765
0.678431 0.678431 0.678431
0.715687 0.715687 0.715687
0.769607 0.769607 0.769607
0.846079 0.846079 0.846079
0.776471 0.776471 0.776471
0.786274 0.786274 0.786274
0.809804 0.809804 0.809804
0.844118 0.844118 0.844118
0.900000 0.900000 0.900000
0.883333 0.883333 0.883333
0.890196 0.890196 0.890196
0.902941 0.902941 0.902941
0.926471 0.926471 0.926471
0.960784 0.960784 0.960784
0.988235 0.988235 0.988235
0.988235 0.988235 0.988235
0.992157 0.992157 0.992157
1.000000 1.000000 1.000000
1.000000 1.000000 1.000000
