Black-and-White/Ilford/Ilford HP5 Plus 400 65x.cube
TITLE "Ilford HP5 Plus 400"
LUT_3D_SIZE 65
DOMAIN_MIN 0.000000 0.000000 0.000000
DOMAIN_MAX 1.000000 1.000000 1.000000
0.000000 0.000000 0.000000
0.000000 0.000000 0.000000
0.000000 0.000000 0.000000
0.000000 0.000000 0.000000
0.000000 0.000000 0.000000
0.000000 0.000000 0.000000
0.000000 0.000000 0.000000
0.000000 0.000000 0.000000
0.000000 0.000000 0.000000
0.000000 0.000000 0.000000
0.001348 0.001348 0.001348
0.003922 0.003922 0.003922
0.003922 0.003922 0.003922
0.003922 0.003922 0.003922
0.003922 0.003922 0.003922
0.003922 0.003922 0.003922
0.006863 0.006863 0.006863
0.007843 0.007843 0.007843
0.007843 0.007843 0.007843
0.007843 0.007843 0.007843
0.011765 0.011765 0.011765
0.011765 0.011765 0.011765
0.011765 0.011765 0.011765
0.015686 0.015686 0.015686
0.015686 0.015686 0.015686
0.019608 0.019608 0.019608
0.019976 0.019976 0.019976
0.023529 0.023529 0.023529
0.025735 0.025735 0.025735
0.027451 0.027451 0.027451
0.031496 0.031496 0.031496
0.036336 0.036336 0.036336
0.041177 0.041177 0.041177
0.046017 0.046017 0.046017
0.050857 0.050857 0.050857
0.055699 0.055699 0.055699
0.060539 0.060539 0.060539
0.069301 0.069301 0.069301
0.074510 0.074510 0.074510
0.082905 0.082905 0.082905
0.091667 0.091667 0.091667
0.100429 0.100429 0.100429
0.109191 0.109191 0.109191
0.117953 0.117953 0.117953
0.130637 0.130637 0.130637
0.139399 0.139399 0.139399
0.152083 0.152083 0.152083
0.160907 0.160907 0.160907
0.174510 0.174510 0.174510
0.188113 0.188113 0.188113
0.198897 0.198897 0.198897
0.211581 0.211581 0.211581
0.225000 0.225000 0.225000
0.238603 0.238603 0.238603
0.252206 0.252206 0.252206
0.265809 0.265809 0.265809
0.279411 0.279411 0.279411
0.293015 0.293015 0.293015
0.310539 0.310539 0.310539
0.328064 0.328064 0.328064
0.345588 0.345588 0.345588
0.367034 0.367034 0.367034
0.386642 0.386642 0.386642
0.406005 0.406005 0.406005
0.423529 0.423529 0.423529
0.000000 0.000000 0.000000
0.000000 0.000000 0.000000
0.000000 0.000000 0.000000
0.000000 0.000000 0.000000
0.003677 0.003677 0.003677
0.000919 0.000919 0.000919
0.003922 0.003922 0.003922
0.003922 0.003922 0.003922
0.003922 0.003922 0.003922
0.003922 0.003922 0.003922
0.004841 0.004841 0.004841
0.004841 0.004841 0.004841
0.007843 0.007843 0.007843
0.007843 0.007843 0.007843
0.008762 0.008762 0.008762
0.008762 0.008762 0.008762
0.011765 0.011765 0.011765
0.011765 0.011765 0.011765
0.012684 0.012684 0.012684
0.015686 0.015686 0.015686
0.016605 0.016605 0.016605
0.019608 0.019608 0.019608
0.020527 0.020527 0.020527
0.025061 0.025061 0.025061
0.024448 0.024448 0.024448
0.030821 0.030821 0.030821
0.032292 0.032292 0.032292
0.033579 0.033579 0.033579
0.036213 0.036213 0.036213
0.040135 0.040135 0.040135
0.044179 0.044179 0.044179
0.049020 0.049020 0.049020
0.053860 0.053860 0.053860
0.061703 0.061703 0.061703
0.063664 0.063664 0.063664
0.071507 0.071507 0.071507
0.077145 0.077145 0.077145
0.085907 0.085907 0.085907
0.091667 0.091667 0.091667
0.099510 0.099510 0.099510
0.108272 0.108272 0.108272
0.117034 0.117034 0.117034
0.126716 0.126716 0.126716
0.138481 0.138481 0.138481
0.148162 0.148162 0.148162
0.159927 0.159927 0.159927
0.169608 0.169608 0.169608
0.182291 0.182291 0.182291
0.194056 0.194056 0.194056
0.206741 0.206741 0.206741
0.218321 0.218321 0.218321
0.228186 0.228186 0.228186
0.241606 0.241606 0.241606
0.255208 0.255208 0.255208
0.268811 0.268811 0.268811
0.282415 0.282415 0.282415
0.296017 0.296017 0.296017
0.309620 0.309620 0.309620
0.327145 0.327145 0.327145
0.344670 0.344670 0.344670
0.363113 0.363113 0.363113
0.383640 0.383640 0.383640
0.401164 0.401164 0.401164
0.418689 0.418689 0.418689
0.436213 0.436213 0.436213
0.000000 0.000000 0.000000
0.000000 0.000000 0.000000
0.001838 0.001838 0.001838
0.003922 0.003922 0.003922
0.003922 0.003922 0.003922
0.003922 0.003922 0.003922
0.003922 0.003922 0.003922
0.003922 0.003922 0.003922
0.005760 0.005760 0.005760
0.007843 0.007843 0.007843
0.007843 0.007843 0.007843
0.007843 0.007843 0.007843
0.009681 0.009681 0.009681
0.011765 0.011765 0.011765
0.011765 0.011765 0.011765
0.013787 0.013787 0.013787
0.013603 0.013603 0.013603
0.015686 0.015686 0.015686
0.017524 0.017524 0.017524
0.019608 0.019608 0.019608
0.022304 0.022304 0.022304
0.023529 0.023529 0.023529
0.025367 0.025367 0.025367
0.029289 0.029289 0.029289
0.029289 0.029289 0.029289
0.033211 0.033211 0.033211
0.035662 0.035662 0.035662
0.041054 0.041054 0.041054
0.045343 0.045343 0.045343
0.048100 0.048100 0.048100
0.052818 0.052818 0.052818
0.056740 0.056740 0.056740
0.060662 0.060662 0.060662
0.067463 0.067463 0.067463
0.072304 0.072304 0.072304
0.080269 0.080269 0.080269
0.085907 0.085907 0.085907
0.092034 0.092034 0.092034
0.101593 0.101593 0.101593
0.108272 0.108272 0.108272
0.117034 0.117034 0.117034
0.125797 0.125797 0.125797
0.139951 0.139951 0.139951
0.147242 0.147242 0.147242
0.159927 0.159927 0.159927
0.168689 0.168689 0.168689
0.181373 0.181373 0.181373
0.190196 0.190196 0.190196
0.202818 0.202818 0.202818
0.215503 0.215503 0.215503
0.224265 0.224265 0.224265
0.236949 0.236949 0.236949
0.248530 0.248530 0.248530
0.262317 0.262317 0.262317
0.275000 0.275000 0.275000
0.287684 0.287684 0.287684
0.302941 0.302941 0.302941
0.318383 0.318383 0.318383
0.335907 0.335907 0.335907
0.353431 0.353431 0.353431
0.370955 0.370955 0.370955
0.390563 0.390563 0.390563
0.408089 0.408089 0.408089
0.425613 0.425613 0.425613
0.441054 0.441054 0.441054
0.002758 0.002758 0.002758
0.003922 0.003922 0.003922
0.003922 0.003922 0.003922
0.003922 0.003922 0.003922
0.003922 0.003922 0.003922
0.003922 0.003922 0.003922
0.006679 0.006679 0.006679
0.007843 0.007843 0.007843
0.007843 0.007843 0.007843
0.007843 0.007843 0.007843
0.010601 0.010601 0.010601
0.011765 0.011765 0.011765
0.011765 0.011765 0.011765
0.014522 0.014522 0.014522
0.012868 0.012868 0.012868
0.015686 0.015686 0.015686
0.018627 0.018627 0.018627
0.018444 0.018444 0.018444
0.022365 0.022365 0.022365
0.021385 0.021385 0.021385
0.023529 0.023529 0.023529
0.026287 0.026287 0.026287
0.030209 0.030209 0.030209
0.034130 0.034130 0.034130
0.033824 0.033824 0.033824
0.038052 0.038052 0.038052
0.039584 0.039584 0.039584
0.045895 0.045895 0.045895
0.049816 0.049816 0.049816
0.054105 0.054105 0.054105
0.055025 0.055025 0.055025
0.059866 0.059866 0.059866
0.067463 0.067463 0.067463
0.073468 0.073468 0.073468
0.077267 0.077267 0.077267
0.083150 0.083150 0.083150
0.092954 0.092954 0.092954
0.099510 0.099510 0.099510
0.108272 0.108272 0.108272
0.117034 0.117034 0.117034
0.125797 0.125797 0.125797
0.134559 0.134559 0.134559
0.143321 0.143321 0.143321
0.156004 0.156004 0.156004
0.163235 0.163235 0.163235
0.177451 0.177451 0.177451
0.186213 0.186213 0.186213
0.198897 0.198897 0.198897
0.211580 0.211580 0.211580
0.219485 0.219485 0.219485
0.233027 0.233027 0.233027
0.241789 0.241789 0.241789
0.258394 0.258394 0.258394
0.271079 0.271079 0.271079
0.282415 0.282415 0.282415
0.296017 0.296017 0.296017
0.309619 0.309619 0.309619
0.324388 0.324388 0.324388
0.341912 0.341912 0.341912
0.359436 0.359436 0.359436
0.379718 0.379718 0.379718
0.397243 0.397243 0.397243
0.412010 0.412010 0.412010
0.429535 0.429535 0.429535
0.445895 0.445895 0.445895
0.003922 0.003922 0.003922
0.003922 0.003922 0.003922
0.003922 0.003922 0.003922
0.003922 0.003922 0.003922
0.007598 0.007598 0.007598
0.007843 0.007843 0.007843
0.007843 0.007843 0.007843
0.007843 0.007843 0.007843
0.011520 0.011520 0.011520
0.011765 0.011765 0.011765
0.011765 0.011765 0.011765
0.011765 0.011765 0.011765
0.015441 0.015441 0.015441
0.015686 0.015686 0.015686
0.019363 0.019363 0.019363
0.017708 0.017708 0.017708
0.019608 0.019608 0.019608
0.023468 0.023468 0.023468
0.023529 0.023529 0.023529
0.027206 0.027206 0.027206
0.027451 0.027451 0.027451
0.031128 0.031128 0.031128
0.035049 0.035049 0.035049
0.038971 0.038971 0.038971
0.037745 0.037745 0.037745
0.042892 0.042892 0.042892
0.043505 0.043505 0.043505
0.050735 0.050735 0.050735
0.054657 0.054657 0.054657
0.058579 0.058579 0.058579
0.058947 0.058947 0.058947
0.067463 0.067463 0.067463
0.074265 0.074265 0.074265
0.077389 0.077389 0.077389
0.085907 0.085907 0.085907
0.090748 0.090748 0.090748
0.099510 0.099510 0.099510
0.104595 0.104595 0.104595
0.113357 0.113357 0.113357
0.122120 0.122120 0.122120
0.134559 0.134559 0.134559
0.143321 0.143321 0.143321
0.152083 0.152083 0.152083
0.157476 0.157476 0.157476
0.173530 0.173530 0.173530
0.180760 0.180760 0.180760
0.194975 0.194975 0.194975
0.207660 0.207660 0.207660
0.216422 0.216422 0.216422
0.229106 0.229106 0.229106
0.237010 0.237010 0.237010
0.250551 0.250551 0.250551
0.263236 0.263236 0.263236
0.275919 0.275919 0.275919
0.288603 0.288603 0.288603
0.301287 0.301287 0.301287
0.314706 0.314706 0.314706
0.331985 0.331985 0.331985
0.349509 0.349509 0.349509
0.367034 0.367034 0.367034
0.384559 0.384559 0.384559
0.402083 0.402083 0.402083
0.419608 0.419608 0.419608
0.433456 0.433456 0.433456
0.450735 0.450735 0.450735
0.004596 0.004596 0.004596
0.007843 0.007843 0.007843
0.007843 0.007843 0.007843
0.007843 0.007843 0.007843
0.007843 0.007843 0.007843
0.008517 0.008517 0.008517
0.011765 0.011765 0.011765
0.011765 0.011765 0.011765
0.011765 0.011765 0.011765
0.012439 0.012439 0.012439
0.015686 0.015686 0.015686
0.015686 0.015686 0.015686
0.016360 0.016360 0.016360
0.019608 0.019608 0.019608
0.020282 0.020282 0.020282
0.023529 0.023529 0.023529
0.023529 0.023529 0.023529
0.024203 0.024203 0.024203
0.028309 0.028309 0.028309
0.028125 0.028125 0.028125
0.032047 0.032047 0.032047
0.038910 0.038910 0.038910
0.039216 0.039216 0.039216
0.039890 0.039890 0.039890
0.043811 0.043811 0.043811
0.050429 0.050429 0.050429
0.051654 0.051654 0.051654
0.056189 0.056189 0.056189
0.061030 0.061030 0.061030
0.065870 0.065870 0.065870
0.066790 0.066790 0.066790
0.072304 0.072304 0.072304
0.080392 0.080392 0.080392
0.083027 0.083027 0.083027
0.090748 0.090748 0.090748
0.098836 0.098836 0.098836
0.104351 0.104351 0.104351
0.113113 0.113113 0.113113
0.121874 0.121874 0.121874
0.130637 0.130637 0.130637
0.139400 0.139400 0.139400
0.148161 0.148161 0.148161
0.160171 0.160171 0.160171
0.169607 0.169607 0.169607
0.178371 0.178371 0.178371
0.191053 0.191053 0.191053
0.199816 0.199816 0.199816
0.212500 0.212500 0.212500
0.221262 0.221262 0.221262
0.233947 0.233947 0.233947
0.242709 0.242709 0.242709
0.255392 0.255392 0.255392
0.268076 0.268076 0.268076
0.280760 0.280760 0.280760
0.293443 0.293443 0.293443
0.306128 0.306128 0.306128
0.323223 0.323223 0.323223
0.340074 0.340074 0.340074
0.354351 0.354351 0.354351
0.371876 0.371876 0.371876
0.389399 0.389399 0.389399
0.406924 0.406924 0.406924
0.423775 0.423775 0.423775
0.438052 0.438052 0.438052
0.454902 0.454902 0.454902
0.007843 0.007843 0.007843
0.009436 0.009436 0.009436
0.009436 0.009436 0.009436
0.009436 0.009436 0.009436
0.011765 0.011765 0.011765
0.011765 0.011765 0.011765
0.013358 0.013358 0.013358
0.013358 0.013358 0.013358
0.015686 0.015686 0.015686
0.017279 0.017279 0.017279
0.017034 0.017034 0.017034
0.019608 0.019608 0.019608
0.022794 0.022794 0.022794
0.023529 0.023529 0.023529
0.025122 0.025122 0.025122
0.025122 0.025122 0.025122
0.027451 0.027451 0.027451
0.029044 0.029044 0.029044
0.032966 0.032966 0.032966
0.035294 0.035294 0.035294
0.036887 0.036887 0.036887
0.042831 0.042831 0.042831
0.044730 0.044730 0.044730
0.044669 0.044669 0.044669
0.048652 0.048652 0.048652
0.052573 0.052573 0.052573
0.055270 0.055270 0.055270
0.060111 0.060111 0.060111
0.064338 0.064338 0.064338
0.068260 0.068260 0.068260
0.076103 0.076103 0.076103
0.080024 0.080024 0.080024
0.083946 0.083946 0.083946
0.090748 0.090748 0.090748
0.099510 0.099510 0.099510
0.104351 0.104351 0.104351
0.113113 0.113113 0.113113
0.121875 0.121875 0.121875
0.130637 0.130637 0.130637
0.139400 0.139400 0.139400
0.148162 0.148162 0.148162
0.156924 0.156924 0.156924
0.165686 0.165686 0.165686
0.178371 0.178371 0.178371
0.187133 0.187133 0.187133
0.200368 0.200368 0.200368
0.208579 0.208579 0.208579
0.217402 0.217402 0.217402
0.230024 0.230024 0.230024
0.238787 0.238787 0.238787
0.251471 0.251471 0.251471
0.266299 0.266299 0.266299
0.276838 0.276838 0.276838
0.287255 0.287255 0.287255
0.300858 0.300858 0.300858
0.314460 0.314460 0.314460
0.331495 0.331495 0.331495
0.345588 0.345588 0.345588
0.363113 0.363113 0.363113
0.380637 0.380637 0.380637
0.396568 0.396568 0.396568
0.411765 0.411765 0.411765
0.427206 0.427206 0.427206
0.442892 0.442892 0.442892
0.458824 0.458824 0.458824
0.011765 0.011765 0.011765
0.011765 0.011765 0.011765
0.011765 0.011765 0.011765
0.014522 0.014522 0.014522
0.014277 0.014277 0.014277
0.015686 0.015686 0.015686
0.015686 0.015686 0.015686
0.018199 0.018199 0.018199
0.018199 0.018199 0.018199
0.019608 0.019608 0.019608
0.022120 0.022120 0.022120
0.021875 0.021875 0.021875
0.023529 0.023529 0.023529
0.023713 0.023713 0.023713
0.029964 0.029964 0.029964
0.029473 0.029473 0.029473
0.034314 0.034314 0.034314
0.033885 0.033885 0.033885
0.037807 0.037807 0.037807
0.041728 0.041728 0.041728
0.041728 0.041728 0.041728
0.045650 0.045650 0.045650
0.049571 0.049571 0.049571
0.053493 0.053493 0.053493
0.055944 0.055944 0.055944
0.057415 0.057415 0.057415
0.065258 0.065258 0.065258
0.066544 0.066544 0.066544
0.071385 0.071385 0.071385
0.076225 0.076225 0.076225
0.081066 0.081066 0.081066
0.085907 0.085907 0.085907
0.092709 0.092709 0.092709
0.099510 0.099510 0.099510
0.105759 0.105759 0.105759
0.113113 0.113113 0.113113
0.121875 0.121875 0.121875
0.130637 0.130637 0.130637
0.135478 0.135478 0.135478
0.148161 0.148161 0.148161
0.156924 0.156924 0.156924
0.165686 0.165686 0.165686
0.174449 0.174449 0.174449
0.181005 0.181005 0.181005
0.195895 0.195895 0.195895
0.204657 0.204657 0.204657
0.217341 0.217341 0.217341
0.226103 0.226103 0.226103
0.238786 0.238786 0.238786
0.247549 0.247549 0.247549
0.260539 0.260539 0.260539
0.268995 0.268995 0.268995
0.279902 0.279902 0.279902
0.294362 0.294362 0.294362
0.307047 0.307047 0.307047
0.323223 0.323223 0.323223
0.336826 0.336826 0.336826
0.354350 0.354350 0.354350
0.369363 0.369363 0.369363
0.385478 0.385478 0.385478
0.403003 0.403003 0.403003
0.419362 0.419362 0.419362
0.431618 0.431618 0.431618
0.449142 0.449142 0.449142
0.462745 0.462745 0.462745
0.015196 0.015196 0.015196
0.015686 0.015686 0.015686
0.015686 0.015686 0.015686
0.019118 0.019118 0.019118
0.019118 0.019118 0.019118
0.019608 0.019608 0.019608
0.019608 0.019608 0.019608
0.023039 0.023039 0.023039
0.023039 0.023039 0.023039
0.023529 0.023529 0.023529
0.026961 0.026961 0.026961
0.025796 0.025796 0.025796
0.030883 0.030883 0.030883
0.027635 0.027635 0.027635
0.034804 0.034804 0.034804
0.033395 0.033395 0.033395
0.038726 0.038726 0.038726
0.038726 0.038726 0.038726
0.040074 0.040074 0.040074
0.046569 0.046569 0.046569
0.050490 0.050490 0.050490
0.050490 0.050490 0.050490
0.051593 0.051593 0.051593
0.058334 0.058334 0.058334
0.062255 0.062255 0.062255
0.066177 0.066177 0.066177
0.070098 0.070098 0.070098
0.074020 0.074020 0.074020
0.077941 0.077941 0.077941
0.081556 0.081556 0.081556
0.089706 0.089706 0.089706
0.091238 0.091238 0.091238
0.099510 0.099510 0.099510
0.104840 0.104840 0.104840
0.113112 0.113112 0.113112
0.121875 0.121875 0.121875
0.130637 0.130637 0.130637
0.136765 0.136765 0.136765
0.144240 0.144240 0.144240
0.156923 0.156923 0.156923
0.165686 0.165686 0.165686
0.174449 0.174449 0.174449
0.183211 0.183211 0.183211
0.191972 0.191972 0.191972
0.204657 0.204657 0.204657
0.213419 0.213419 0.213419
0.221813 0.221813 0.221813
0.234866 0.234866 0.234866
0.243628 0.243628 0.243628
0.256311 0.256311 0.256311
0.265074 0.265074 0.265074
0.277757 0.277757 0.277757
0.290442 0.290442 0.290442
0.303124 0.303124 0.303124
0.315809 0.315809 0.315809
0.328493 0.328493 0.328493
0.345587 0.345587 0.345587
0.361704 0.361704 0.361704
0.376715 0.376715 0.376715
0.394240 0.394240 0.394240
0.411519 0.411519 0.411519
0.421936 0.421936 0.421936
0.438970 0.438970 0.438970
0.453064 0.453064 0.453064
0.470098 0.470098 0.470098
0.019608 0.019608 0.019608
0.020037 0.020037 0.020037
0.020037 0.020037 0.020037
0.020037 0.020037 0.020037
0.023529 0.023529 0.023529
0.024203 0.024203 0.024203
0.023958 0.023958 0.023958
0.023958 0.023958 0.023958
0.027451 0.027451 0.027451
0.027880 0.027880 0.027880
0.031373 0.031373 0.031373
0.031802 0.031802 0.031802
0.031802 0.031802 0.031802
0.035478 0.035478 0.035478
0.040319 0.040319 0.040319
0.039645 0.039645 0.039645
0.046078 0.046078 0.046078
0.043566 0.043566 0.043566
0.047488 0.047488 0.047488
0.051409 0.051409 0.051409
0.057598 0.057598 0.057598
0.055331 0.055331 0.055331
0.059866 0.059866 0.059866
0.063174 0.063174 0.063174
0.067096 0.067096 0.067096
0.071017 0.071017 0.071017
0.075307 0.075307 0.075307
0.080147 0.080147 0.080147
0.084988 0.084988 0.084988
0.089829 0.089829 0.089829
0.094669 0.094669 0.094669
0.102390 0.102390 0.102390
0.108271 0.108271 0.108271
0.113113 0.113113 0.113113
0.121874 0.121874 0.121874
0.130638 0.130638 0.130638
0.139400 0.139400 0.139400
0.145527 0.145527 0.145527
0.153003 0.153003 0.153003
0.161764 0.161764 0.161764
0.175490 0.175490 0.175490
0.183210 0.183210 0.183210
0.191972 0.191972 0.191972
0.200735 0.200735 0.200735
0.209497 0.209497 0.209497
0.223897 0.223897 0.223897
0.230943 0.230943 0.230943
0.239339 0.239339 0.239339
0.252389 0.252389 0.252389
0.261153 0.261153 0.261153
0.276225 0.276225 0.276225
0.282598 0.282598 0.282598
0.295282 0.295282 0.295282
0.307966 0.307966 0.307966
0.323223 0.323223 0.323223
0.336826 0.336826 0.336826
0.350429 0.350429 0.350429
0.367954 0.367954 0.367954
0.383149 0.383149 0.383149
0.399082 0.399082 0.399082
0.416360 0.416360 0.416360
0.429044 0.429044 0.429044
0.441728 0.441728 0.441728
0.457414 0.457414 0.457414
0.474510 0.474510 0.474510
0.023529 0.023529 0.023529
0.024877 0.024877 0.024877
0.024877 0.024877 0.024877
0.024877 0.024877 0.024877
0.027451 0.027451 0.027451
0.028799 0.028799 0.028799
0.028799 0.028799 0.028799
0.033885 0.033885 0.033885
0.032721 0.032721 0.032721
0.031802 0.031802 0.031802
0.036642 0.036642 0.036642
0.036642 0.036642 0.036642
0.042402 0.042402 0.042402
0.043137 0.043137 0.043137
0.044485 0.044485 0.044485
0.049081 0.049081 0.049081
0.048407 0.048407 0.048407
0.054841 0.054841 0.054841
0.056250 0.056250 0.056250
0.056250 0.056250 0.056250
0.060172 0.060172 0.060172
0.064093 0.064093 0.064093
0.068015 0.068015 0.068015
0.071936 0.071936 0.071936
0.074387 0.074387 0.074387
0.079228 0.079228 0.079228
0.083701 0.083701 0.083701
0.087623 0.087623 0.087623
0.093750 0.093750 0.093750
0.098591 0.098591 0.098591
0.103432 0.103432 0.103432
0.111152 0.111152 0.111152
0.115073 0.115073 0.115073
0.121875 0.121875 0.121875
0.130637 0.130637 0.130637
0.139400 0.139400 0.139400
0.148162 0.148162 0.148162
0.153003 0.153003 0.153003
0.161765 0.161765 0.161765
0.170527 0.170527 0.170527
0.179290 0.179290 0.179290
0.193014 0.193014 0.193014
0.200735 0.200735 0.200735
0.209497 0.209497 0.209497
0.218259 0.218259 0.218259
0.227022 0.227022 0.227022
0.241421 0.241421 0.241421
0.248468 0.248468 0.248468
0.257230 0.257230 0.257230
0.270466 0.270466 0.270466
0.278677 0.278677 0.278677
0.291361 0.291361 0.291361
0.304044 0.304044 0.304044
0.316728 0.316728 0.316728
0.329411 0.329411 0.329411
0.345589 0.345589 0.345589
0.359191 0.359191 0.359191
0.376716 0.376716 0.376716
0.392892 0.392892 0.392892
0.404595 0.404595 0.404595
0.420098 0.420098 0.420098
0.433701 0.433701 0.433701
0.448652 0.448652 0.448652
0.464829 0.464829 0.464829
0.478431 0.478431 0.478431
0.029718 0.029718 0.029718
0.029718 0.029718 0.029718
0.031373 0.031373 0.031373
0.034130 0.034130 0.034130
0.033640 0.033640 0.033640
0.032047 0.032047 0.032047
0.037561 0.037561 0.037561
0.037561 0.037561 0.037561
0.037561 0.037561 0.037561
0.041483 0.041483 0.041483
0.041483 0.041483 0.041483
0.043137 0.043137 0.043137
0.045404 0.045404 0.045404
0.049326 0.049326 0.049326
0.048162 0.048162 0.048162
0.053247 0.053247 0.053247
0.057844 0.057844 0.057844
0.057169 0.057169 0.057169
0.061091 0.061091 0.061091
0.065012 0.065012 0.065012
0.069363 0.069363 0.069363
0.072549 0.072549 0.072549
0.076777 0.076777 0.076777
0.078309 0.078309 0.078309
0.080698 0.080698 0.080698
0.084620 0.084620 0.084620
0.092463 0.092463 0.092463
0.096385 0.096385 0.096385
0.100306 0.100306 0.100306
0.107353 0.107353 0.107353
0.112194 0.112194 0.112194
0.117034 0.117034 0.117034
0.125797 0.125797 0.125797
0.130637 0.130637 0.130637
0.139399 0.139399 0.139399
0.148161 0.148161 0.148161
0.156924 0.156924 0.156924
0.163051 0.163051 0.163051
0.170527 0.170527 0.170527
0.179290 0.179290 0.179290
0.188052 0.188052 0.188052
0.196814 0.196814 0.196814
0.207230 0.207230 0.207230
0.218259 0.218259 0.218259
0.227022 0.227022 0.227022
0.235785 0.235785 0.235785
0.244547 0.244547 0.244547
0.257230 0.257230 0.257230
0.265992 0.265992 0.265992
0.274387 0.274387 0.274387
0.287439 0.287439 0.287439
0.299939 0.299939 0.299939
0.312806 0.312806 0.312806
0.323223 0.323223 0.323223
0.338174 0.338174 0.338174
0.354351 0.354351 0.354351
0.367954 0.367954 0.367954
0.384068 0.384068 0.384068
0.399081 0.399081 0.399081
0.412684 0.412684 0.412684
0.426286 0.426286 0.426286
0.442647 0.442647 0.442647
0.455331 0.455331 0.455331
0.468750 0.468750 0.468750
0.484620 0.484620 0.484620
0.035294 0.035294 0.035294
0.038481 0.038481 0.038481
0.038481 0.038481 0.038481
0.038481 0.038481 0.038481
0.038481 0.038481 0.038481
0.042402 0.042402 0.042402
0.042402 0.042402 0.042402
0.041728 0.041728 0.041728
0.046569 0.046569 0.046569
0.046324 0.046324 0.046324
0.050245 0.050245 0.050245
0.050245 0.050245 0.050245
0.054167 0.054167 0.054167
0.051164 0.051164 0.051164
0.058089 0.058089 0.058089
0.056924 0.056924 0.056924
0.062010 0.062010 0.062010
0.066606 0.066606 0.066606
0.069853 0.069853 0.069853
0.071630 0.071630 0.071630
0.073775 0.073775 0.073775
0.077696 0.077696 0.077696
0.079044 0.079044 0.079044
0.085540 0.085540 0.085540
0.089461 0.089461 0.089461
0.093383 0.093383 0.093383
0.097672 0.097672 0.097672
0.102512 0.102512 0.102512
0.109069 0.109069 0.109069
0.112929 0.112929 0.112929
0.120955 0.120955 0.120955
0.125797 0.125797 0.125797
0.131373 0.131373 0.131373
0.139399 0.139399 0.139399
0.148162 0.148162 0.148162
0.156923 0.156923 0.156923
0.162500 0.162500 0.162500
0.170527 0.170527 0.170527
0.179289 0.179289 0.179289
0.188052 0.188052 0.188052
0.196814 0.196814 0.196814
0.205576 0.205576 0.205576
0.214338 0.214338 0.214338
0.223101 0.223101 0.223101
0.229902 0.229902 0.229902
0.244547 0.244547 0.244547
0.253309 0.253309 0.253309
0.258947 0.258947 0.258947
0.274754 0.274754 0.274754
0.283517 0.283517 0.283517
0.295098 0.295098 0.295098
0.304963 0.304963 0.304963
0.318382 0.318382 0.318382
0.331985 0.331985 0.331985
0.345589 0.345589 0.345589
0.359620 0.359620 0.359620
0.376225 0.376225 0.376225
0.390318 0.390318 0.390318
0.405514 0.405514 0.405514
0.418199 0.418199 0.418199
0.434805 0.434805 0.434805
0.447487 0.447487 0.447487
0.460171 0.460171 0.460171
0.472672 0.472672 0.472672
0.489461 0.489461 0.489461
0.043137 0.043137 0.043137
0.044056 0.044056 0.044056
0.043321 0.043321 0.043321
0.043321 0.043321 0.043321
0.043321 0.043321 0.043321
0.047243 0.047243 0.047243
0.047243 0.047243 0.047243
0.047243 0.047243 0.047243
0.054412 0.054412 0.054412
0.051164 0.051164 0.051164
0.056250 0.056250 0.056250
0.055086 0.055086 0.055086
0.062010 0.062010 0.062010
0.059008 0.059008 0.059008
0.062929 0.062929 0.062929
0.068689 0.068689 0.068689
0.066851 0.066851 0.066851
0.070772 0.070772 0.070772
0.074694 0.074694 0.074694
0.080208 0.080208 0.080208
0.081311 0.081311 0.081311
0.082537 0.082537 0.082537
0.090809 0.090809 0.090809
0.091911 0.091911 0.091911
0.096753 0.096753 0.096753
0.101592 0.101592 0.101592
0.106066 0.106066 0.106066
0.111275 0.111275 0.111275
0.116115 0.116115 0.116115
0.124694 0.124694 0.124694
0.129596 0.129596 0.129596
0.134558 0.134558 0.134558
0.141360 0.141360 0.141360
0.148161 0.148161 0.148161
0.156923 0.156923 0.156923
0.161764 0.161764 0.161764
0.170527 0.170527 0.170527
0.179290 0.179290 0.179290
0.188052 0.188052 0.188052
