Black-and-White/Ilford/Ilford Delta 100 65x.cube
TITLE "Ilford Delta 100"
LUT_3D_SIZE 5
DOMAIN_MIN 0.000000 0.000000 0.000000
DOMAIN_MAX 1.000000 1.000000 1.000000
0.000000 0.000000 0.000000
0.000000 0.000000 0.000000
0.011765 0.011765 0.011765
0.051960 0.051960 0.051960
0.156863 0.156863 0.156863
0.136274 0.136274 0.136274
0.154902 0.154902 0.154902
0.194117 0.194117 0.194117
0.269608 0.269608 0.269608
0.390196 0.390196 0.390196
0.427451 0.427451 0.427451
0.435294 0.435294 0.435294
0.458823 0.458823 0.458823
0.493137 0.493137 0.493137
0.554902 0.554902 0.554902
0.652941 0.652941 0.652941
0.656863 0.656863 0.656863
0.667647 0.667647 0.667647
0.687255 0.687255 0.687255
0.722549 0.722549 0.722549
0.882353 0.882353 0.882353
0.882353 0.882353 0.882353
0.886275 0.886275 0.886275
0.898039 0.898039 0.898039
0.913725 0.913725 0.913725
0.030392 0.030392 0.030392
0.053921 0.053921 0.053921
0.085294 0.085294 0.085294
0.145098 0.145098 0.145098
0.285295 0.285295 0.285295
0.225490 0.225490 0.225490
0.248039 0.248039 0.248039
0.290196 0.290196 0.290196
0.358823 0.358823 0.358823
0.450000 0.450000 0.450000
0.474510 0.474510 0.474510
0.482353 0.482353 0.482353
0.501961 0.501961 0.501961
0.534314 0.534314 0.534314
0.586275 0.586275 0.586275
0.676471 0.676471 0.676471
0.679412 0.679412 0.679412
0.690196 0.690196 0.690196
0.707843 0.707843 0.707843
0.742156 0.742156 0.742156
0.894118 0.894118 0.894118
0.894118 0.894118 0.894118
0.898039 0.898039 0.898039
0.908823 0.908823 0.908823
0.925490 0.925490 0.925490
0.115686 0.115686 0.115686
0.150981 0.150981 0.150981
0.198039 0.198039 0.198039
0.281373 0.281373 0.281373
0.405883 0.405883 0.405883
0.365686 0.365686 0.365686
0.381373 0.381373 0.381373
0.412745 0.412745 0.412745
0.459804 0.459804 0.459804
0.528431 0.528431 0.528431
0.552941 0.552941 0.552941
0.556863 0.556863 0.556863
0.572549 0.572549 0.572549
0.600000 0.600000 0.600000
0.647058 0.647058 0.647058
0.723530 0.723530 0.723530
0.726471 0.726471 0.726471
0.735294 0.735294 0.735294
0.751961 0.751961 0.751961
0.781373 0.781373 0.781373
0.917647 0.917647 0.917647
0.917647 0.917647 0.917647
0.921569 0.921569 0.921569
0.929412 0.929412 0.929412
0.945098 0.945098 0.945098
0.322549 0.322549 0.322549
0.362745 0.362745 0.362745
0.402941 0.402941 0.402941
0.452941 0.452941 0.452941
0.526471 0.526471 0.526471
0.509804 0.509804 0.509804
0.521569 0.521569 0.521569
0.541176 0.541176 0.541176
0.573530 0.573530 0.573530
0.624510 0.624510 0.624510
0.645098 0.645098 0.645098
0.650000 0.650000 0.650000
0.661765 0.661765 0.661765
0.685294 0.685294 0.685294
0.720588 0.720588 0.720588
0.785294 0.785294 0.785294
0.789215 0.789215 0.789215
0.797058 0.797058 0.797058
0.809804 0.809804 0.809804
0.836274 0.836274 0.836274
0.949020 0.949020 0.949020
0.949020 0.949020 0.949020
0.952941 0.952941 0.952941
0.960784 0.960784 0.960784
0.972549 0.972549 0.972549
0.529412 0.529412 0.529412
0.549020 0.549020 0.549020
0.572549 0.572549 0.572549
0.603922 0.603922 0.603922
0.654902 0.654902 0.654902
0.647059 0.647059 0.647059
0.657843 0.657843 0.657843
0.673530 0.673530 0.673530
0.697059 0.697059 0.697059
0.733333 0.733333 0.733333
0.754902 0.754902 0.754902
0.758823 0.758823 0.758823
0.770588 0.770588 0.770588
0.785294 0.785294 0.785294
0.815686 0.815686 0.815686
0.867647 0.867647 0.867647
0.871568 0.871568 0.871568
0.879412 0.879412 0.879412
0.891177 0.891177 0.891177
0.910784 0.910784 0.910784
0.988235 0.988235 0.988235
0.988235 0.988235 0.988235
0.992157 0.992157 0.992157
0.996078 0.996078 0.996078
1.000000 1.000000 1.000000
