Black-and-White/Ilford/Ilford Delta 400 65x.cube
TITLE "Ilford Delta 400"
LUT_3D_SIZE 5
DOMAIN_MIN 0.000000 0.000000 0.000000
DOMAIN_MAX 1.000000 1.000000 1.000000
0.000000 0.000000 0.000000
0.014706 0.014706 0.014706
0.074510 0.074510 0.074510
0.201961 0.201961 0.201961
0.396078 0.396078 0.396078
0.100981 0.100981 0.100981
0.132353 0.132353 0.132353
0.197059 0.197059 0.197059
0.299019 0.299019 0.299019
0.466667 0.466667 0.466667
0.256863 0.256863 0.256863
0.275490 0.275490 0.275490
0.325491 0.325491 0.325491
0.421569 0.421569 0.421569
0.554902 0.554902 0.554902
0.459804 0.459804 0.459804
0.468628 0.468628 0.468628
0.504902 0.504902 0.504902
0.570588 0.570588 0.570588
0.687255 0.687255 0.687255
0.725490 0.725490 0.725490
0.733333 0.733333 0.733333
0.750981 0.750981 0.750981
0.784314 0.784314 0.784314
0.850980 0.850980 0.850980
0.042157 0.042157 0.042157
0.100981 0.100981 0.100981
0.173530 0.173530 0.173530
0.282353 0.282353 0.282353
0.458824 0.458824 0.458824
0.175490 0.175490 0.175490
0.201961 0.201961 0.201961
0.257844 0.257844 0.257844
0.360784 0.360784 0.360784
0.509804 0.509804 0.509804
0.309804 0.309804 0.309804
0.326471 0.326471 0.326471
0.380393 0.380393 0.380393
0.461765 0.461765 0.461765
0.593137 0.593137 0.593137
0.495098 0.495098 0.495098
0.505882 0.505882 0.505882
0.541176 0.541176 0.541176
0.605883 0.605883 0.605883
0.714706 0.714706 0.714706
0.749020 0.749020 0.749020
0.755882 0.755882 0.755882
0.772549 0.772549 0.772549
0.803922 0.803922 0.803922
0.865686 0.865686 0.865686
0.143137 0.143137 0.143137
0.200981 0.200981 0.200981
0.260784 0.260784 0.260784
0.369607 0.369607 0.369607
0.521569 0.521569 0.521569
0.271569 0.271569 0.271569
0.296079 0.296079 0.296079
0.355882 0.355882 0.355882
0.446078 0.446078 0.446078
0.579412 0.579412 0.579412
0.415686 0.415686 0.415686
0.431373 0.431373 0.431373
0.470588 0.470588 0.470588
0.540196 0.540196 0.540196
0.660784 0.660784 0.660784
0.579412 0.579412 0.579412
0.591176 0.591176 0.591176
0.622549 0.622549 0.622549
0.677451 0.677451 0.677451
0.765686 0.765686 0.765686
0.796078 0.796078 0.796078
0.800000 0.800000 0.800000
0.813725 0.813725 0.813725
0.841176 0.841176 0.841176
0.894118 0.894118 0.894118
0.287255 0.287255 0.287255
0.339216 0.339216 0.339216
0.400981 0.400981 0.400981
0.483333 0.483333 0.483333
0.616667 0.616667 0.616667
0.423529 0.423529 0.423529
0.443137 0.443137 0.443137
0.485294 0.485294 0.485294
0.558824 0.558824 0.558824
0.674510 0.674510 0.674510
0.540196 0.540196 0.540196
0.556863 0.556863 0.556863
0.591176 0.591176 0.591176
0.652941 0.652941 0.652941
0.743137 0.743137 0.743137
0.692157 0.692157 0.692157
0.700000 0.700000 0.700000
0.723530 0.723530 0.723530
0.762745 0.762745 0.762745
0.824510 0.824510 0.824510
0.855883 0.855883 0.855883
0.859804 0.859804 0.859804
0.870588 0.870588 0.870588
0.890196 0.890196 0.890196
0.930392 0.930392 0.930392
0.474510 0.474510 0.474510
0.513726 0.513726 0.513726
0.558823 0.558823 0.558823
0.628432 0.628432 0.628432
0.725490 0.725490 0.725490
0.595098 0.595098 0.595098
0.611765 0.611765 0.611765
0.650000 0.650000 0.650000
0.704902 0.704902 0.704902
0.779412 0.779412 0.779412
0.707843 0.707843 0.707843
0.717647 0.717647 0.717647
0.743137 0.743137 0.743137
0.777451 0.777451 0.777451
0.835294 0.835294 0.835294
0.819608 0.819608 0.819608
0.824510 0.824510 0.824510
0.836274 0.836274 0.836274
0.862745 0.862745 0.862745
0.901961 0.901961 0.901961
0.937255 0.937255 0.937255
0.941176 0.941176 0.941176
0.949020 0.949020 0.949020
0.961765 0.961765 0.961765
1.000000 1.000000 1.000000
