Black-and-White/Ilford/Ilford HP5 1 - 65x.cube
TITLE "Ilford HP5 1 -"
LUT_3D_SIZE 65
DOMAIN_MIN 0.000000 0.000000 0.000000
DOMAIN_MAX 1.000000 1.000000 1.000000
0.000000 0.000000 0.000000
0.000000 0.000000 0.000000
0.003922 0.003922 0.003922
0.001164 0.001164 0.001164
0.000000 0.000000 0.000000
0.003922 0.003922 0.003922
0.007843 0.007843 0.007843
0.007843 0.007843 0.007843
0.011275 0.011275 0.011275
0.012194 0.012194 0.012194
0.017034 0.017034 0.017034
0.019608 0.019608 0.019608
0.023529 0.023529 0.023529
0.027635 0.027635 0.027635
0.035294 0.035294 0.035294
0.041238 0.041238 0.041238
0.047059 0.047059 0.047059
0.054841 0.054841 0.054841
0.066667 0.066667 0.066667
0.074142 0.074142 0.074142
0.085049 0.085049 0.085049
0.089890 0.089890 0.089890
0.102574 0.102574 0.102574
0.111336 0.111336 0.111336
0.122549 0.122549 0.122549
0.132782 0.132782 0.132782
0.149388 0.149388 0.149388
0.158150 0.158150 0.158150
0.168627 0.168627 0.168627
0.182721 0.182721 0.182721
0.192280 0.192280 0.192280
0.204964 0.204964 0.204964
0.217647 0.217647 0.217647
0.230331 0.230331 0.230331
0.239093 0.239093 0.239093
0.251777 0.251777 0.251777
0.264461 0.264461 0.264461
0.274510 0.274510 0.274510
0.289461 0.289461 0.289461
0.298591 0.298591 0.298591
0.311275 0.311275 0.311275
0.320037 0.320037 0.320037
0.332720 0.332720 0.332720
0.341789 0.341789 0.341789
0.354167 0.354167 0.354167
0.362929 0.362929 0.362929
0.371691 0.371691 0.371691
0.384375 0.384375 0.384375
0.394118 0.394118 0.394118
0.401900 0.401900 0.401900
0.413480 0.413480 0.413480
0.423345 0.423345 0.423345
0.436029 0.436029 0.436029
0.446446 0.446446 0.446446
0.457476 0.457476 0.457476
0.469730 0.469730 0.469730
0.478921 0.478921 0.478921
0.491605 0.491605 0.491605
0.502696 0.502696 0.502696
0.516299 0.516299 0.516299
0.529657 0.529657 0.529657
0.539583 0.539583 0.539583
0.555025 0.555025 0.555025
0.573714 0.573714 0.573714
0.592157 0.592157 0.592157
0.000000 0.000000 0.000000
0.003922 0.003922 0.003922
0.003922 0.003922 0.003922
0.003922 0.003922 0.003922
0.007843 0.007843 0.007843
0.011765 0.011765 0.011765
0.013358 0.013358 0.013358
0.014277 0.014277 0.014277
0.012684 0.012684 0.012684
0.017034 0.017034 0.017034
0.020527 0.020527 0.020527
0.026716 0.026716 0.026716
0.031556 0.031556 0.031556
0.031741 0.031741 0.031741
0.041422 0.041422 0.041422
0.050000 0.050000 0.050000
0.054841 0.054841 0.054841
0.063604 0.063604 0.063604
0.072365 0.072365 0.072365
0.081985 0.081985 0.081985
0.088664 0.088664 0.088664
0.095037 0.095037 0.095037
0.111336 0.111336 0.111336
0.115563 0.115563 0.115563
0.128860 0.128860 0.128860
0.137622 0.137622 0.137622
0.149755 0.149755 0.149755
0.162990 0.162990 0.162990
0.174755 0.174755 0.174755
0.184436 0.184436 0.184436
0.196323 0.196323 0.196323
0.209926 0.209926 0.209926
0.221569 0.221569 0.221569
0.234252 0.234252 0.234252
0.243811 0.243811 0.243811
0.252696 0.252696 0.252696
0.266176 0.266176 0.266176
0.275429 0.275429 0.275429
0.293383 0.293383 0.293383
0.302512 0.302512 0.302512
0.315748 0.315748 0.315748
0.323958 0.323958 0.323958
0.333640 0.333640 0.333640
0.345404 0.345404 0.345404
0.353860 0.353860 0.353860
0.365932 0.365932 0.365932
0.375613 0.375613 0.375613
0.385294 0.385294 0.385294
0.394056 0.394056 0.394056
0.405821 0.405821 0.405821
0.412684 0.412684 0.412684
0.424265 0.424265 0.424265
0.436029 0.436029 0.436029
0.448713 0.448713 0.448713
0.455821 0.455821 0.455821
0.473652 0.473652 0.473652
0.482843 0.482843 0.482843
0.494608 0.494608 0.494608
0.506618 0.506618 0.506618
0.516973 0.516973 0.516973
0.528983 0.528983 0.528983
0.546507 0.546507 0.546507
0.555943 0.555943 0.555943
0.571630 0.571630 0.571630
0.592157 0.592157 0.592157
0.001838 0.001838 0.001838
0.000919 0.000919 0.000919
0.005760 0.005760 0.005760
0.005760 0.005760 0.005760
0.011520 0.011520 0.011520
0.011765 0.011765 0.011765
0.013358 0.013358 0.013358
0.018199 0.018199 0.018199
0.023039 0.023039 0.023039
0.025367 0.025367 0.025367
0.029289 0.029289 0.029289
0.031556 0.031556 0.031556
0.033211 0.033211 0.033211
0.043137 0.043137 0.043137
0.046078 0.046078 0.046078
0.052818 0.052818 0.052818
0.060662 0.060662 0.060662
0.070527 0.070527 0.070527
0.076226 0.076226 0.076226
0.085968 0.085968 0.085968
0.096814 0.096814 0.096814
0.103492 0.103492 0.103492
0.117402 0.117402 0.117402
0.124939 0.124939 0.124939
0.133088 0.133088 0.133088
0.147917 0.147917 0.147917
0.157231 0.157231 0.157231
0.167831 0.167831 0.167831
0.176225 0.176225 0.176225
0.189277 0.189277 0.189277
0.200245 0.200245 0.200245
0.214645 0.214645 0.214645
0.223407 0.223407 0.223407
0.237133 0.237133 0.237133
0.244853 0.244853 0.244853
0.260662 0.260662 0.260662
0.270221 0.270221 0.270221
0.282905 0.282905 0.282905
0.291667 0.291667 0.291667
0.308272 0.308272 0.308272
0.315196 0.315196 0.315196
0.330269 0.330269 0.330269
0.335171 0.335171 0.335171
0.347242 0.347242 0.347242
0.358088 0.358088 0.358088
0.366850 0.366850 0.366850
0.375613 0.375613 0.375613
0.386214 0.386214 0.386214
0.396201 0.396201 0.396201
0.407721 0.407721 0.407721
0.417402 0.417402 0.417402
0.427267 0.427267 0.427267
0.437867 0.437867 0.437867
0.450552 0.450552 0.450552
0.459314 0.459314 0.459314
0.471998 0.471998 0.471998
0.481495 0.481495 0.481495
0.494853 0.494853 0.494853
0.506128 0.506128 0.506128
0.520221 0.520221 0.520221
0.529902 0.529902 0.529902
0.543505 0.543505 0.543505
0.559191 0.559191 0.559191
0.573714 0.573714 0.573714
0.592157 0.592157 0.592157
0.003922 0.003922 0.003922
0.007843 0.007843 0.007843
0.005760 0.005760 0.005760
0.010601 0.010601 0.010601
0.010601 0.010601 0.010601
0.012439 0.012439 0.012439
0.015686 0.015686 0.015686
0.022120 0.022120 0.022120
0.026961 0.026961 0.026961
0.032966 0.032966 0.032966
0.032721 0.032721 0.032721
0.037561 0.037561 0.037561
0.041973 0.041973 0.041973
0.052574 0.052574 0.052574
0.054841 0.054841 0.054841
0.063603 0.063603 0.063603
0.068443 0.068443 0.068443
0.077205 0.077205 0.077205
0.084804 0.084804 0.084804
0.094730 0.094730 0.094730
0.102267 0.102267 0.102267
0.112254 0.112254 0.112254
0.121630 0.121630 0.121630
0.129779 0.129779 0.129779
0.142463 0.142463 0.142463
0.154596 0.154596 0.154596
0.163909 0.163909 0.163909
0.173958 0.173958 0.173958
0.184804 0.184804 0.184804
0.194117 0.194117 0.194117
0.207966 0.207966 0.207966
0.219485 0.219485 0.219485
0.227451 0.227451 0.227451
0.241054 0.241054 0.241054
0.250857 0.250857 0.250857
0.262378 0.262378 0.262378
0.275061 0.275061 0.275061
0.284988 0.284988 0.284988
0.296507 0.296507 0.296507
0.309191 0.309191 0.309191
0.321875 0.321875 0.321875
0.327512 0.327512 0.327512
0.339951 0.339951 0.339951
0.352084 0.352084 0.352084
0.358088 0.358088 0.358088
0.368995 0.368995 0.368995
0.378370 0.378370 0.378370
0.392157 0.392157 0.392157
0.400000 0.400000 0.400000
0.407721 0.407721 0.407721
0.418505 0.418505 0.418505
0.431189 0.431189 0.431189
0.440687 0.440687 0.440687
0.451471 0.451471 0.451471
0.464155 0.464155 0.464155
0.470159 0.470159 0.470159
0.486765 0.486765 0.486765
0.498285 0.498285 0.498285
0.508211 0.508211 0.508211
0.520895 0.520895 0.520895
0.529902 0.529902 0.529902
0.541912 0.541912 0.541912
0.557108 0.557108 0.557108
0.574633 0.574633 0.574633
0.592157 0.592157 0.592157
0.007598 0.007598 0.007598
0.010600 0.010600 0.010600
0.006005 0.006005 0.006005
0.012684 0.012684 0.012684
0.011765 0.011765 0.011765
0.019363 0.019363 0.019363
0.021201 0.021201 0.021201
0.023529 0.023529 0.023529
0.030883 0.030883 0.030883
0.035479 0.035479 0.035479
0.042892 0.042892 0.042892
0.045160 0.045160 0.045160
0.053922 0.053922 0.053922
0.062255 0.062255 0.062255
0.063604 0.063604 0.063604
0.072366 0.072366 0.072366
0.077205 0.077205 0.077205
0.085969 0.085969 0.085969
0.097549 0.097549 0.097549
0.101348 0.101348 0.101348
0.108578 0.108578 0.108578
0.117096 0.117096 0.117096
0.126103 0.126103 0.126103
0.138541 0.138541 0.138541
0.147304 0.147304 0.147304
0.159436 0.159436 0.159436
0.172672 0.172672 0.172672
0.181434 0.181434 0.181434
0.191912 0.191912 0.191912
0.202880 0.202880 0.202880
0.211765 0.211765 0.211765
0.224326 0.224326 0.224326
0.233333 0.233333 0.233333
0.246017 0.246017 0.246017
0.254779 0.254779 0.254779
0.267218 0.267218 0.267218
0.277941 0.277941 0.277941
0.292586 0.292586 0.292586
0.301226 0.301226 0.301226
0.310356 0.310356 0.310356
0.325245 0.325245 0.325245
0.335478 0.335478 0.335478
0.341176 0.341176 0.341176
0.349633 0.349633 0.349633
0.365686 0.365686 0.365686
0.370772 0.370772 0.370772
0.383211 0.383211 0.383211
0.395833 0.395833 0.395833
0.398039 0.398039 0.398039
0.409743 0.409743 0.409743
0.421323 0.421323 0.421323
0.431189 0.431189 0.431189
0.443628 0.443628 0.443628
0.452635 0.452635 0.452635
0.460294 0.460294 0.460294
0.474081 0.474081 0.474081
0.489951 0.489951 0.489951
0.495527 0.495527 0.495527
0.511888 0.511888 0.511888
0.520221 0.520221 0.520221
0.533578 0.533578 0.533578
0.543505 0.543505 0.543505
0.562623 0.562623 0.562623
0.574633 0.574633 0.574633
0.595833 0.595833 0.595833
0.008517 0.008517 0.008517
0.011520 0.011520 0.011520
0.013603 0.013603 0.013603
0.015197 0.015197 0.015197
0.019363 0.019363 0.019363
0.020282 0.020282 0.020282
0.024203 0.024203 0.024203
0.033150 0.033150 0.033150
0.035968 0.035968 0.035968
0.044240 0.044240 0.044240
0.048407 0.048407 0.048407
0.058517 0.058517 0.058517
0.069792 0.069792 0.069792
0.068199 0.068199 0.068199
0.075858 0.075858 0.075858
0.083027 0.083027 0.083027
0.092831 0.092831 0.092831
0.098653 0.098653 0.098653
0.103493 0.103493 0.103493
0.112929 0.112929 0.112929
0.117769 0.117769 0.117769
0.129779 0.129779 0.129779
0.138542 0.138542 0.138542
0.147304 0.147304 0.147304
0.156740 0.156740 0.156740
0.164828 0.164828 0.164828
0.177513 0.177513 0.177513
0.190808 0.190808 0.190808
0.195711 0.195711 0.195711
0.210846 0.210846 0.210846
0.220405 0.220405 0.220405
0.230208 0.230208 0.230208
0.241851 0.241851 0.241851
0.250613 0.250613 0.250613
0.259375 0.259375 0.259375
0.272855 0.272855 0.272855
0.281495 0.281495 0.281495
0.291544 0.291544 0.291544
0.309069 0.309069 0.309069
0.314951 0.314951 0.314951
0.324387 0.324387 0.324387
0.336396 0.336396 0.336396
0.345772 0.345772 0.345772
0.354595 0.354595 0.354595
0.366606 0.366606 0.366606
0.373590 0.373590 0.373590
0.384129 0.384129 0.384129
0.393566 0.393566 0.393566
0.405883 0.405883 0.405883
0.415564 0.415564 0.415564
0.423101 0.423101 0.423101
0.428799 0.428799 0.428799
0.444546 0.444546 0.444546
0.453309 0.453309 0.453309
0.465992 0.465992 0.465992
0.478247 0.478247 0.478247
0.488113 0.488113 0.488113
0.496875 0.496875 0.496875
0.511213 0.511213 0.511213
0.521568 0.521568 0.521568
0.534926 0.534926 0.534926
0.544853 0.544853 0.544853
0.560294 0.560294 0.560294
0.575980 0.575980 0.575980
0.587010 0.587010 0.587010
0.015686 0.015686 0.015686
0.012684 0.012684 0.012684
0.015441 0.015441 0.015441
0.017279 0.017279 0.017279
0.019608 0.019608 0.019608
0.025122 0.025122 0.025122
0.029044 0.029044 0.029044
0.032966 0.032966 0.032966
0.046569 0.046569 0.046569
0.054167 0.054167 0.054167
0.060172 0.060172 0.060172
0.066605 0.066605 0.066605
0.076103 0.076103 0.076103
0.087868 0.087868 0.087868
0.090564 0.090564 0.090564
0.094976 0.094976 0.094976
0.101225 0.101225 0.101225
0.111335 0.111335 0.111335
0.118505 0.118505 0.118505
0.124939 0.124939 0.124939
0.131373 0.131373 0.131373
0.140135 0.140135 0.140135
0.152206 0.152206 0.152206
0.158456 0.158456 0.158456
0.166299 0.166299 0.166299
0.177512 0.177512 0.177512
0.191421 0.191421 0.191421
0.196324 0.196324 0.196324
0.207721 0.207721 0.207721
0.219608 0.219608 0.219608
0.227574 0.227574 0.227574
0.237929 0.237929 0.237929
0.246691 0.246691 0.246691
0.260662 0.260662 0.260662
0.268137 0.268137 0.268137
0.280821 0.280821 0.280821
0.291299 0.291299 0.291299
0.303309 0.303309 0.303309
0.311030 0.311030 0.311030
0.323714 0.323714 0.323714
0.332353 0.332353 0.332353
0.343566 0.343566 0.343566
0.355638 0.355638 0.355638
0.359804 0.359804 0.359804
0.371446 0.371446 0.371446
0.380760 0.380760 0.380760
0.388971 0.388971 0.388971
0.401654 0.401654 0.401654
0.410416 0.410416 0.410416
0.419179 0.419179 0.419179
0.430270 0.430270 0.430270
0.436704 0.436704 0.436704
0.449387 0.449387 0.449387
0.458149 0.458149 0.458149
0.470834 0.470834 0.470834
0.483823 0.483823 0.483823
0.494608 0.494608 0.494608
0.503186 0.503186 0.503186
0.516054 0.516054 0.516054
0.528064 0.528064 0.528064
0.539338 0.539338 0.539338
0.554105 0.554105 0.554105
0.566544 0.566544 0.566544
0.580147 0.580147 0.580147
0.600000 0.600000 0.600000
0.018199 0.018199 0.018199
0.022120 0.022120 0.022120
0.017524 0.017524 0.017524
0.022120 0.022120 0.022120
0.025797 0.025797 0.025797
0.029964 0.029964 0.029964
0.033885 0.033885 0.033885
0.040318 0.040318 0.040318
0.049080 0.049080 0.049080
0.061765 0.061765 0.061765
0.068015 0.068015 0.068015
0.077635 0.077635 0.077635
0.085540 0.085540 0.085540
0.092892 0.092892 0.092892
0.104473 0.104473 0.104473
0.110416 0.110416 0.110416
0.114828 0.114828 0.114828
0.122610 0.122610 0.122610
0.125797 0.125797 0.125797
0.137622 0.137622 0.137622
0.142279 0.142279 0.142279
0.150122 0.150122 0.150122
0.159988 0.159988 0.159988
0.168750 0.168750 0.168750
0.177512 0.177512 0.177512
0.189645 0.189645 0.189645
0.198958 0.198958 0.198958
0.207721 0.207721 0.207721
0.218995 0.218995 0.218995
0.224632 0.224632 0.224632
0.237928 0.237928 0.237928
0.246691 0.246691 0.246691
0.254902 0.254902 0.254902
0.268505 0.268505 0.268505
0.276899 0.276899 0.276899
0.289584 0.289584 0.289584
0.298346 0.298346 0.298346
0.311152 0.311152 0.311152
0.319792 0.319792 0.319792
0.331924 0.331924 0.331924
0.336274 0.336274 0.336274
0.347488 0.347488 0.347488
0.359559 0.359559 0.359559
0.371140 0.371140 0.371140
0.373775 0.373775 0.373775
0.382537 0.382537 0.382537
0.393811 0.393811 0.393811
0.406434 0.406434 0.406434
0.414277 0.414277 0.414277
0.424020 0.424020 0.424020
0.430270 0.430270 0.430270
0.442953 0.442953 0.442953
0.454228 0.454228 0.454228
0.459620 0.459620 0.459620
0.471753 0.471753 0.471753
0.484437 0.484437 0.484437
0.494608 0.494608 0.494608
0.504780 0.504780 0.504780
0.518567 0.518567 0.518567
0.531250 0.531250 0.531250
0.543934 0.543934 0.543934
0.556617 0.556617 0.556617
0.568873 0.568873 0.568873
0.581986 0.581986 0.581986
0.605024 0.605024 0.605024
0.023529 0.023529 0.023529
0.026961 0.026961 0.026961
0.023529 0.023529 0.023529
0.026961 0.026961 0.026961
0.026961 0.026961 0.026961
0.032047 0.032047 0.032047
0.042157 0.042157 0.042157
0.045160 0.045160 0.045160
0.050490 0.050490 0.050490
0.056680 0.056680 0.056680
0.081373 0.081373 0.081373
0.084130 0.084130 0.084130
0.097059 0.097059 0.097059
0.098407 0.098407 0.098407
0.110416 0.110416 0.110416
0.124510 0.124510 0.124510
0.127942 0.127942 0.127942
0.135784 0.135784 0.135784
0.144976 0.144976 0.144976
0.153738 0.153738 0.153738
0.158578 0.158578 0.158578
0.167340 0.167340 0.167340
0.172672 0.172672 0.172672
0.184865 0.184865 0.184865
0.190196 0.190196 0.190196
0.202390 0.202390 0.202390
0.211642 0.211642 0.211642
0.214338 0.214338 0.214338
0.225735 0.225735 0.225735
0.237929 0.237929 0.237929
0.246690 0.246690 0.246690
0.255454 0.255454 0.255454
0.262745 0.262745 0.262745
0.276409 0.276409 0.276409
0.285662 0.285662 0.285662
0.297549 0.297549 0.297549
0.307108 0.307108 0.307108
0.315870 0.315870 0.315870
0.328677 0.328677 0.328677
0.333885 0.333885 0.333885
0.346078 0.346078 0.346078
0.351409 0.351409 0.351409
0.364216 0.364216 0.364216
0.372365 0.372365 0.372365
0.381128 0.381128 0.381128
0.388603 0.388603 0.388603
0.398652 0.398652 0.398652
0.404045 0.404045 0.404045
0.419118 0.419118 0.419118
0.425429 0.425429 0.425429
0.434191 0.434191 0.434191
0.446875 0.446875 0.446875
0.455637 0.455637 0.455637
0.466667 0.466667 0.466667
0.477083 0.477083 0.477083
0.489338 0.489338 0.489338
0.498529 0.498529 0.498529
0.513236 0.513236 0.513236
0.522304 0.522304 0.522304
0.531985 0.531985 0.531985
0.541666 0.541666 0.541666
0.555269 0.555269 0.555269
0.574142 0.574142 0.574142
0.586397 0.586397 0.586397
0.603922 0.603922 0.603922
0.032231 0.032231 0.032231
0.035294 0.035294 0.035294
0.030392 0.030392 0.030392
0.031802 0.031802 0.031802
0.035723 0.035723 0.035723
0.039645 0.039645 0.039645
0.048652 0.048652 0.048652
0.053493 0.053493 0.053493
0.055760 0.055760 0.055760
0.071017 0.071017 0.071017
0.077635 0.077635 0.077635
0.096568 0.096568 0.096568
0.102083 0.102083 0.102083
0.110601 0.110601 0.110601
0.119179 0.119179 0.119179
0.133456 0.133456 0.133456
0.137132 0.137132 0.137132
0.145894 0.145894 0.145894
0.159008 0.159008 0.159008
0.167341 0.167341 0.167341
0.172181 0.172181 0.172181
0.180944 0.180944 0.180944
0.189093 0.189093 0.189093
0.196936 0.196936 0.196936
0.206802 0.206802 0.206802
0.212071 0.212071 0.212071
0.223958 0.223958 0.223958
0.228309 0.228309 0.228309
0.240135 0.240135 0.240135
0.249816 0.249816 0.249816
0.259253 0.259253 0.259253
0.264215 0.264215 0.264215
0.272977 0.272977 0.272977
0.285661 0.285661 0.285661
0.294423 0.294423 0.294423
0.303187 0.303187 0.303187
0.312378 0.312378 0.312378
0.324633 0.324633 0.324633
0.336520 0.336520 0.336520
0.342156 0.342156 0.342156
0.350920 0.350920 0.350920
0.359682 0.359682 0.359682
0.368444 0.368444 0.368444
0.377206 0.377206 0.377206
0.386765 0.386765 0.386765
0.392586 0.392586 0.392586
0.406127 0.406127 0.406127
0.411888 0.411888 0.411888
0.421017 0.421017 0.421017
0.429779 0.429779 0.429779
0.436152 0.436152 0.436152
0.454534 0.454534 0.454534
0.460295 0.460295 0.460295
0.470405 0.470405 0.470405
0.481005 0.481005 0.481005
0.490197 0.490197 0.490197
0.502880 0.502880 0.502880
0.516545 0.516545 0.516545
0.524327 0.524327 0.524327
0.539828 0.539828 0.539828
0.549081 0.549081 0.549081
0.563112 0.563112 0.563112
0.576716 0.576716 0.576716
0.590319 0.590319 0.590319
0.607843 0.607843 0.607843
0.040564 0.040564 0.040564
0.041912 0.041912 0.041912
0.044975 0.044975 0.044975
0.039154 0.039154 0.039154
0.044241 0.044241 0.044241
0.048407 0.048407 0.048407
0.056495 0.056495 0.056495
0.058762 0.058762 0.058762
0.067524 0.067524 0.067524
0.076287 0.076287 0.076287
0.085049 0.085049 0.085049
0.096078 0.096078 0.096078
0.109069 0.109069 0.109069
0.123101 0.123101 0.123101
0.129044 0.129044 0.129044
0.140625 0.140625 0.140625
0.149387 0.149387 0.149387
0.158149 0.158149 0.158149
0.170833 0.170833 0.170833
0.179596 0.179596 0.179596
0.191054 0.191054 0.191054
0.197120 0.197120 0.197120
0.206618 0.206618 0.206618
0.210539 0.210539 0.210539
0.219485 0.219485 0.219485
0.225675 0.225675 0.225675
0.234437 0.234437 0.234437
0.241851 0.241851 0.241851
0.249755 0.249755 0.249755
0.262500 0.262500 0.262500
0.269363 0.269363 0.269363
0.274019 0.274019 0.274019
0.287623 0.287623 0.287623
0.294424 0.294424 0.294424
0.300735 0.300735 0.300735
0.316422 0.316422 0.316422
0.320343 0.320343 0.320343
0.330821 0.330821 0.330821
0.344363 0.344363 0.344363
0.350920 0.350920 0.350920
0.359804 0.359804 0.359804
0.368444 0.368444 0.368444
0.377206 0.377206 0.377206
0.385662 0.385662 0.385662
0.393382 0.393382 0.393382
0.399571 0.399571 0.399571
0.408334 0.408334 0.408334
0.415809 0.415809 0.415809
0.428432 0.428432 0.428432
0.437194 0.437194 0.437194
0.445956 0.445956 0.445956
0.454718 0.454718 0.454718
0.463480 0.463480 0.463480
0.473590 0.473590 0.473590
0.484927 0.484927 0.484927
0.495036 0.495036 0.495036
0.506372 0.506372 0.506372
0.516483 0.516483 0.516483
0.527819 0.527819 0.527819
0.537928 0.537928 0.537928
0.553186 0.553186 0.553186
0.563112 0.563112 0.563112
0.578554 0.578554 0.578554
0.592892 0.592892 0.592892
0.609069 0.609069 0.609069
0.057169 0.057169 0.057169
0.054167 0.054167 0.054167
0.057598 0.057598 0.057598
0.055515 0.055515 0.055515
0.057169 0.057169 0.057169
0.061091 0.061091 0.061091
0.065012 0.065012 0.065012
0.071446 0.071446 0.071446
0.081373 0.081373 0.081373
0.087316 0.087316 0.087316
0.092892 0.092892 0.092892
0.104228 0.104228 0.104228
0.112071 0.112071 0.112071
0.135784 0.135784 0.135784
0.144546 0.144546 0.144546
0.151409 0.151409 0.151409
0.162071 0.162071 0.162071
0.170834 0.170834 0.170834
0.179596 0.179596 0.179596
0.192769 0.192769 0.192769
0.201471 0.201471 0.201471
0.213419 0.213419 0.213419
0.218566 0.218566 0.218566
0.228064 0.228064 0.228064
0.231985 0.231985 0.231985
0.239277 0.239277 0.239277
0.248039 0.248039 0.248039
0.256801 0.256801 0.256801
0.263297 0.263297 0.263297
0.269547 0.269547 0.269547
0.280821 0.280821 0.280821
0.290809 0.290809 0.290809
0.298346 0.298346 0.298346
0.305453 0.305453 0.305453
0.319669 0.319669 0.319669
0.324633 0.324633 0.324633
0.333395 0.333395 0.333395
0.342157 0.342157 0.342157
0.350919 0.350919 0.350919
0.359682 0.359682 0.359682
0.368444 0.368444 0.368444
0.377328 0.377328 0.377328
0.383701 0.383701 0.383701
0.388848 0.388848 0.388848
0.402267 0.402267 0.402267
0.410110 0.410110 0.410110
0.417096 0.417096 0.417096
0.425858 0.425858 0.425858
0.434621 0.434621 0.434621
0.441115 0.441115 0.441115
0.453799 0.453799 0.453799
0.460907 0.460907 0.460907
0.471323 0.471323 0.471323
0.482353 0.482353 0.482353
0.491116 0.491116 0.491116
0.501532 0.501532 0.501532
0.512561 0.512561 0.512561
0.524388 0.524388 0.524388
0.537990 0.537990 0.537990
0.547672 0.547672 0.547672
0.557353 0.557353 0.557353
0.573713 0.573713 0.573713
0.584559 0.584559 0.584559
0.601165 0.601165 0.601165
0.617953 0.617953 0.617953
0.065932 0.065932 0.065932
0.069117 0.069117 0.069117
0.066667 0.066667 0.066667
0.065932 0.065932 0.065932
0.069117 0.069117 0.069117
0.066605 0.066605 0.066605
0.072181 0.072181 0.072181
0.080209 0.080209 0.080209
0.088971 0.088971 0.088971
0.093811 0.093811 0.093811
0.105147 0.105147 0.105147
0.111335 0.111335 0.111335
0.124019 0.124019 0.124019
0.129780 0.129780 0.129780
0.153309 0.153309 0.153309
0.165257 0.165257 0.165257
0.170833 0.170833 0.170833
0.178921 0.178921 0.178921
0.191544 0.191544 0.191544
0.197855 0.197855 0.197855
0.209804 0.209804 0.209804
0.218137 0.218137 0.218137
0.231250 0.231250 0.231250
0.244853 0.244853 0.244853
0.249509 0.249509 0.249509
0.256802 0.256802 0.256802
0.261642 0.261642 0.261642
0.269853 0.269853 0.269853
0.279167 0.279167 0.279167
0.283947 0.283947 0.283947
0.289706 0.289706 0.289706
0.299387 0.299387 0.299387
0.311030 0.311030 0.311030
0.320098 0.320098 0.320098
0.328432 0.328432 0.328432
0.334191 0.334191 0.334191
0.347549 0.347549 0.347549
0.355392 0.355392 0.355392
0.359313 0.359313 0.359313
0.368444 0.368444 0.368444
0.377206 0.377206 0.377206
0.381250 0.381250 0.381250
0.390686 0.390686 0.390686
0.403187 0.403187 0.403187
0.405147 0.405147 0.405147
0.418137 0.418137 0.418137
0.425122 0.425122 0.425122
0.431434 0.431434 0.431434
0.442402 0.442402 0.442402
0.450245 0.450245 0.450245
0.459804 0.459804 0.459804
0.466483 0.466483 0.466483
0.478432 0.478432 0.478432
0.485662 0.485662 0.485662
0.496691 0.496691 0.496691
0.505147 0.505147 0.505147
0.521323 0.521323 0.521323
0.528309 0.528309 0.528309
0.541176 0.541176 0.541176
0.551532 0.551532 0.551532
0.561274 0.561274 0.561274
0.574877 0.574877 0.574877
0.589584 0.589584 0.589584
0.602084 0.602084 0.602084
0.622794 0.622794 0.622794
0.082537 0.082537 0.082537
0.081802 0.081802 0.081802
0.077145 0.077145 0.077145
0.079964 0.079964 0.079964
0.082475 0.082475 0.082475
0.083211 0.083211 0.083211
0.087868 0.087868 0.087868
0.092892 0.092892 0.092892
0.097734 0.097734 0.097734
0.106495 0.106495 0.106495
0.115073 0.115073 0.115073
0.122365 0.122365 0.122365
0.125858 0.125858 0.125858
0.137623 0.137623 0.137623
0.151410 0.151410 0.151410
0.160968 0.160968 0.160968
0.182537 0.182537 0.182537
0.192279 0.192279 0.192279
0.197487 0.197487 0.197487
0.209804 0.209804 0.209804
0.221262 0.221262 0.221262
0.227328 0.227328 0.227328
0.240625 0.240625 0.240625
0.252512 0.252512 0.252512
0.255270 0.255270 0.255270
0.270221 0.270221 0.270221
0.275245 0.275245 0.275245
0.284008 0.284008 0.284008
0.292585 0.292585 0.292585
0.298407 0.298407 0.298407
0.306372 0.306372 0.306372
0.315135 0.315135 0.315135
0.323714 0.323714 0.323714
0.332476 0.332476 0.332476
0.344853 0.344853 0.344853
0.345466 0.345466 0.345466
0.354840 0.354840 0.354840
0.363602 0.363602 0.363602
0.372181 0.372181 0.372181
