Black-and-White/Ilford/Ilford FP4 Plus 125 65x.cube
TITLE "Ilford FP4 Plus 125"
LUT_3D_SIZE 9
DOMAIN_MIN 0.000000 0.000000 0.000000
DOMAIN_MAX 1.000000 1.000000 1.000000
0.000000 0.000000 0.000000
0.007843 0.007843 0.007843
0.027451 0.027451 0.027451
0.054902 0.054902 0.054902
0.088235 0.088235 0.088235
0.126961 0.126961 0.126961
0.185294 0.185294 0.185294
0.251470 0.251470 0.251470
0.333333 0.333333 0.333333
0.105392 0.105392 0.105392
0.117157 0.117157 0.117157
0.136275 0.136275 0.136275
0.156373 0.156373 0.156373
0.187745 0.187745 0.187745
0.226961 0.226961 0.226961
0.271079 0.271079 0.271079
0.329411 0.329411 0.329411
0.407353 0.407353 0.407353
0.199020 0.199020 0.199020
0.206863 0.206863 0.206863
0.221568 0.221568 0.221568
0.238236 0.238236 0.238236
0.261765 0.261765 0.261765
0.294608 0.294608 0.294608
0.337254 0.337254 0.337254
0.391666 0.391666 0.391666
0.461765 0.461765 0.461765
0.288726 0.288726 0.288726
0.292647 0.292647 0.292647
0.302941 0.302941 0.302941
0.318628 0.318628 0.318628
0.341667 0.341667 0.341667
0.375000 0.375000 0.375000
0.414216 0.414216 0.414216
0.457843 0.457843 0.457843
0.520098 0.520098 0.520098
0.400000 0.400000 0.400000
0.401961 0.401961 0.401961
0.412745 0.412745 0.412745
0.423530 0.423530 0.423530
0.443137 0.443137 0.443137
0.466176 0.466176 0.466176
0.497059 0.497059 0.497059
0.535784 0.535784 0.535784
0.594118 0.594118 0.594118
0.512745 0.512745 0.512745
0.515196 0.515196 0.515196
0.520588 0.520588 0.520588
0.533334 0.533334 0.533334
0.548529 0.548529 0.548529
0.567647 0.567647 0.567647
0.595098 0.595098 0.595098
0.630392 0.630392 0.630392
0.672059 0.672059 0.672059
0.633334 0.633334 0.633334
0.636274 0.636274 0.636274
0.640196 0.640196 0.640196
0.648039 0.648039 0.648039
0.659804 0.659804 0.659804
0.672549 0.672549 0.672549
0.692157 0.692157 0.692157
0.715197 0.715197 0.715197
0.746079 0.746079 0.746079
0.746078 0.746078 0.746078
0.746078 0.746078 0.746078
0.750000 0.750000 0.750000
0.753921 0.753921 0.753921
0.761274 0.761274 0.761274
0.770588 0.770588 0.770588
0.780882 0.780882 0.780882
0.796568 0.796568 0.796568
0.816176 0.816176 0.816176
0.850980 0.850980 0.850980
0.850980 0.850980 0.850980
0.850980 0.850980 0.850980
0.854902 0.854902 0.854902
0.858824 0.858824 0.858824
0.862745 0.862745 0.862745
0.870588 0.870588 0.870588
0.878431 0.878431 0.878431
0.894118 0.894118 0.894118
0.042647 0.042647 0.042647
0.074020 0.074020 0.074020
0.093628 0.093628 0.093628
0.117157 0.117157 0.117157
0.146569 0.146569 0.146569
0.189216 0.189216 0.189216
0.239706 0.239706 0.239706
0.298039 0.298039 0.298039
0.383824 0.383824 0.383824
0.152451 0.152451 0.152451
0.167647 0.167647 0.167647
0.183334 0.183334 0.183334
0.206863 0.206863 0.206863
0.232843 0.232843 0.232843
0.266177 0.266177 0.266177
0.309314 0.309314 0.309314
0.368137 0.368137 0.368137
0.442647 0.442647 0.442647
0.230392 0.230392 0.230392
0.237745 0.237745 0.237745
0.250000 0.250000 0.250000
0.268137 0.268137 0.268137
0.291177 0.291177 0.291177
0.322549 0.322549 0.322549
0.364706 0.364706 0.364706
0.419118 0.419118 0.419118
0.481863 0.481863 0.481863
0.311765 0.311765 0.311765
0.315686 0.315686 0.315686
0.326961 0.326961 0.326961
0.342157 0.342157 0.342157
0.365686 0.365686 0.365686
0.396078 0.396078 0.396078
0.433333 0.433333 0.433333
0.477451 0.477451 0.477451
0.535784 0.535784 0.535784
0.415686 0.415686 0.415686
0.419608 0.419608 0.419608
0.427451 0.427451 0.427451
0.439706 0.439706 0.439706
0.458823 0.458823 0.458823
0.481863 0.481863 0.481863
0.512745 0.512745 0.512745
0.551471 0.551471 0.551471
0.605882 0.605882 0.605882
0.526471 0.526471 0.526471
0.528431 0.528431 0.528431
0.534314 0.534314 0.534314
0.544117 0.544117 0.544117
0.559804 0.559804 0.559804
0.579412 0.579412 0.579412
0.606373 0.606373 0.606373
0.638235 0.638235 0.638235
0.681372 0.681372 0.681372
0.644117 0.644117 0.644117
0.645098 0.645098 0.645098
0.649020 0.649020 0.649020
0.656863 0.656863 0.656863
0.668628 0.668628 0.668628
0.682843 0.682843 0.682843
0.700000 0.700000 0.700000
0.723039 0.723039 0.723039
0.753922 0.753922 0.753922
0.753431 0.753431 0.753431
0.753431 0.753431 0.753431
0.756863 0.756863 0.756863
0.761274 0.761274 0.761274
0.765686 0.765686 0.765686
0.774510 0.774510 0.774510
0.785294 0.785294 0.785294
0.800490 0.800490 0.800490
0.820098 0.820098 0.820098
0.854902 0.854902 0.854902
0.854902 0.854902 0.854902
0.854902 0.854902 0.854902
0.858824 0.858824 0.858824
0.862745 0.862745 0.862745
0.866667 0.866667 0.866667
0.871568 0.871568 0.871568
0.882353 0.882353 0.882353
0.894118 0.894118 0.894118
0.090196 0.090196 0.090196
0.116667 0.116667 0.116667
0.136274 0.136274 0.136274
0.159314 0.159314 0.159314
0.191176 0.191176 0.191176
0.230392 0.230392 0.230392
0.275490 0.275490 0.275490
0.332843 0.332843 0.332843
0.415686 0.415686 0.415686
0.195588 0.195588 0.195588
0.210294 0.210294 0.210294
0.223039 0.223039 0.223039
0.242647 0.242647 0.242647
0.268137 0.268137 0.268137
0.300490 0.300490 0.300490
0.343627 0.343627 0.343627
0.400000 0.400000 0.400000
0.469608 0.469608 0.469608
0.265686 0.265686 0.265686
0.272549 0.272549 0.272549
0.284314 0.284314 0.284314
0.300980 0.300980 0.300980
0.324510 0.324510 0.324510
0.358823 0.358823 0.358823
0.400000 0.400000 0.400000
0.446569 0.446569 0.446569
0.508824 0.508824 0.508824
0.346569 0.346569 0.346569
0.350490 0.350490 0.350490
0.362255 0.362255 0.362255
0.377941 0.377941 0.377941
0.400490 0.400490 0.400490
0.428922 0.428922 0.428922
0.462255 0.462255 0.462255
0.504902 0.504902 0.504902
0.563235 0.563235 0.563235
0.447059 0.447059 0.447059
0.450981 0.450981 0.450981
0.455882 0.455882 0.455882
0.467647 0.467647 0.467647
0.486274 0.486274 0.486274
0.509314 0.509314 0.509314
0.538235 0.538235 0.538235
0.577941 0.577941 0.577941
0.629412 0.629412 0.629412
0.551961 0.551961 0.551961
0.553432 0.553432 0.553432
0.559804 0.559804 0.559804
0.569117 0.569117 0.569117
0.584804 0.584804 0.584804
0.604412 0.604412 0.604412
0.627941 0.627941 0.627941
0.659314 0.659314 0.659314
0.699510 0.699510 0.699510
0.662745 0.662745 0.662745
0.664706 0.664706 0.664706
0.668628 0.668628 0.668628
0.675490 0.675490 0.675490
0.685294 0.685294 0.685294
0.699019 0.699019 0.699019
0.715687 0.715687 0.715687
0.738235 0.738235 0.738235
0.765686 0.765686 0.765686
0.765196 0.765196 0.765196
0.765196 0.765196 0.765196
0.768137 0.768137 0.768137
0.772059 0.772059 0.772059
0.776961 0.776961 0.776961
0.784804 0.784804 0.784804
0.796568 0.796568 0.796568
0.808823 0.808823 0.808823
0.830392 0.830392 0.830392
0.858824 0.858824 0.858824
0.861765 0.861765 0.861765
0.862745 0.862745 0.862745
0.865196 0.865196 0.865196
0.866667 0.866667 0.866667
0.872059 0.872059 0.872059
0.878431 0.878431 0.878431
0.886275 0.886275 0.886275
0.901961 0.901961 0.901961
0.137255 0.137255 0.137255
0.163235 0.163235 0.163235
0.183333 0.183333 0.183333
0.210294 0.210294 0.210294
0.237255 0.237255 0.237255
0.270588 0.270588 0.270588
0.314706 0.314706 0.314706
0.375490 0.375490 0.375490
0.450980 0.450980 0.450980
0.241176 0.241176 0.241176
0.252941 0.252941 0.252941
0.266177 0.266177 0.266177
0.284314 0.284314 0.284314
0.308333 0.308333 0.308333
0.343137 0.343137 0.343137
0.386274 0.386274 0.386274
0.438235 0.438235 0.438235
0.501471 0.501471 0.501471
0.308824 0.308824 0.308824
0.315196 0.315196 0.315196
0.326961 0.326961 0.326961
0.346569 0.346569 0.346569
0.370098 0.370098 0.370098
0.401471 0.401471 0.401471
0.438725 0.438725 0.438725
0.481863 0.481863 0.481863
0.543627 0.543627 0.543627
0.393137 0.393137 0.393137
0.397059 0.397059 0.397059
0.404902 0.404902 0.404902
0.420588 0.420588 0.420588
0.440196 0.440196 0.440196
0.466667 0.466667 0.466667
0.497549 0.497549 0.497549
0.538235 0.538235 0.538235
0.594608 0.594608 0.594608
0.482843 0.482843 0.482843
0.486765 0.486765 0.486765
0.494117 0.494117 0.494117
0.505883 0.505883 0.505883
0.522059 0.522059 0.522059
0.545098 0.545098 0.545098
0.573039 0.573039 0.573039
0.610294 0.610294 0.610294
0.656863 0.656863 0.656863
0.585784 0.585784 0.585784
0.588235 0.588235 0.588235
0.592157 0.592157 0.592157
0.603922 0.603922 0.603922
0.617157 0.617157 0.617157
0.635294 0.635294 0.635294
0.657353 0.657353 0.657353
0.684314 0.684314 0.684314
0.721569 0.721569 0.721569
0.688236 0.688236 0.688236
0.689706 0.689706 0.689706
0.693627 0.693627 0.693627
0.700000 0.700000 0.700000
0.709314 0.709314 0.709314
0.721078 0.721078 0.721078
0.736764 0.736764 0.736764
0.756373 0.756373 0.756373
0.781373 0.781373 0.781373
0.780882 0.780882 0.780882
0.780882 0.780882 0.780882
0.783824 0.783824 0.783824
0.787255 0.787255 0.787255
0.792647 0.792647 0.792647
0.800490 0.800490 0.800490
0.808823 0.808823 0.808823
0.822549 0.822549 0.822549
0.839706 0.839706 0.839706
0.870588 0.870588 0.870588
0.870588 0.870588 0.870588
0.870588 0.870588 0.870588
0.874510 0.874510 0.874510
0.878431 0.878431 0.878431
0.882353 0.882353 0.882353
0.886275 0.886275 0.886275
0.894608 0.894608 0.894608
0.909804 0.909804 0.909804
0.198039 0.198039 0.198039
0.221569 0.221569 0.221569
0.241177 0.241177 0.241177
0.260784 0.260784 0.260784
0.286274 0.286274 0.286274
0.321078 0.321078 0.321078
0.366667 0.366667 0.366667
0.424019 0.424019 0.424019
0.490196 0.490196 0.490196
0.291667 0.291667 0.291667
0.303431 0.303431 0.303431
0.319118 0.319118 0.319118
0.338725 0.338725 0.338725
0.362255 0.362255 0.362255
0.397059 0.397059 0.397059
0.434314 0.434314 0.434314
0.480882 0.480882 0.480882
0.542647 0.542647 0.542647
0.362745 0.362745 0.362745
0.369608 0.369608 0.369608
0.381373 0.381373 0.381373
0.400981 0.400981 0.400981
0.420588 0.420588 0.420588
0.450490 0.450490 0.450490
0.483333 0.483333 0.483333
0.525000 0.525000 0.525000
0.583333 0.583333 0.583333
0.443628 0.443628 0.443628
0.447549 0.447549 0.447549
0.455392 0.455392 0.455392
0.467647 0.467647 0.467647
0.486765 0.486765 0.486765
0.511765 0.511765 0.511765
0.541667 0.541667 0.541667
0.581373 0.581373 0.581373
0.633824 0.633824 0.633824
0.529411 0.529411 0.529411
0.533334 0.533334 0.533334
0.541176 0.541176 0.541176
0.552941 0.552941 0.552941
0.568628 0.568628 0.568628
0.589706 0.589706 0.589706
0.615687 0.615687 0.615687
0.649510 0.649510 0.649510
0.690196 0.690196 0.690196
0.626961 0.626961 0.626961
0.630392 0.630392 0.630392
0.634804 0.634804 0.634804
0.642647 0.642647 0.642647
0.654412 0.654412 0.654412
0.672059 0.672059 0.672059
0.691667 0.691667 0.691667
0.715687 0.715687 0.715687
0.746569 0.746569 0.746569
0.718628 0.718628 0.718628
0.720588 0.720588 0.720588
0.723530 0.723530 0.723530
0.728431 0.728431 0.728431
0.736274 0.736274 0.736274
0.748039 0.748039 0.748039
0.761764 0.761764 0.761764
0.777451 0.777451 0.777451
0.800981 0.800981 0.800981
0.800490 0.800490 0.800490
0.800490 0.800490 0.800490
0.802451 0.802451 0.802451
0.804412 0.804412 0.804412
0.810294 0.810294 0.810294
0.816176 0.816176 0.816176
0.825000 0.825000 0.825000
0.835784 0.835784 0.835784
0.855392 0.855392 0.855392
0.882353 0.882353 0.882353
0.882353 0.882353 0.882353
0.884314 0.884314 0.884314
0.886275 0.886275 0.886275
0.890196 0.890196 0.890196
0.894118 0.894118 0.894118
0.898039 0.898039 0.898039
0.905882 0.905882 0.905882
0.921569 0.921569 0.921569
0.264216 0.264216 0.264216
0.283824 0.283824 0.283824
0.303431 0.303431 0.303431
0.324510 0.324510 0.324510
0.350490 0.350490 0.350490
0.385784 0.385784 0.385784
0.425980 0.425980 0.425980
0.475980 0.475980 0.475980
0.538725 0.538725 0.538725
0.361765 0.361765 0.361765
0.373039 0.373039 0.373039
0.385294 0.385294 0.385294
0.404902 0.404902 0.404902
0.428432 0.428432 0.428432
0.455883 0.455883 0.455883
0.491177 0.491177 0.491177
0.533333 0.533333 0.533333
0.591667 0.591667 0.591667
0.431863 0.431863 0.431863
0.435785 0.435785 0.435785
0.447549 0.447549 0.447549
0.463236 0.463236 0.463236
0.482843 0.482843 0.482843
0.506373 0.506373 0.506373
0.537745 0.537745 0.537745
0.578432 0.578432 0.578432
0.630392 0.630392 0.630392
0.501961 0.501961 0.501961
0.505882 0.505882 0.505882
0.513726 0.513726 0.513726
0.525490 0.525490 0.525490
0.545098 0.545098 0.545098
0.568627 0.568627 0.568627
0.596078 0.596078 0.596078
0.631373 0.631373 0.631373
0.675980 0.675980 0.675980
0.587745 0.587745 0.587745
0.589706 0.589706 0.589706
0.595588 0.595588 0.595588
0.607353 0.607353 0.607353
0.619607 0.619607 0.619607
0.638725 0.638725 0.638725
0.662255 0.662255 0.662255
0.689706 0.689706 0.689706
0.725000 0.725000 0.725000
0.673529 0.673529 0.673529
0.673529 0.673529 0.673529
0.677451 0.677451 0.677451
0.685294 0.685294 0.685294
0.697059 0.697059 0.697059
0.708824 0.708824 0.708824
0.726961 0.726961 0.726961
0.747059 0.747059 0.747059
0.774020 0.774020 0.774020
0.750000 0.750000 0.750000
0.751471 0.751471 0.751471
0.753922 0.753922 0.753922
0.759314 0.759314 0.759314
0.765686 0.765686 0.765686
0.775000 0.775000 0.775000
0.785784 0.785784 0.785784
0.800980 0.800980 0.800980
0.820588 0.820588 0.820588
0.820098 0.820098 0.820098
0.820098 0.820098 0.820098
0.821569 0.821569 0.821569
0.825000 0.825000 0.825000
0.829412 0.829412 0.829412
0.835784 0.835784 0.835784
0.843627 0.843627 0.843627
0.852941 0.852941 0.852941
0.871078 0.871078 0.871078
0.895588 0.895588 0.895588
0.898039 0.898039 0.898039
0.898039 0.898039 0.898039
0.899510 0.899510 0.899510
0.901961 0.901961 0.901961
0.905882 0.905882 0.905882
0.911274 0.911274 0.911274
0.918137 0.918137 0.918137
0.933333 0.933333 0.933333
0.343137 0.343137 0.343137
0.366667 0.366667 0.366667
0.385294 0.385294 0.385294
0.404902 0.404902 0.404902
0.428432 0.428432 0.428432
0.457353 0.457353 0.457353
0.492157 0.492157 0.492157
0.538235 0.538235 0.538235
0.597059 0.597059 0.597059
0.439706 0.439706 0.439706
0.447549 0.447549 0.447549
0.458824 0.458824 0.458824
0.474020 0.474020 0.474020
0.498529 0.498529 0.498529
0.520098 0.520098 0.520098
0.553431 0.553431 0.553431
0.593628 0.593628 0.593628
0.644117 0.644117 0.644117
0.500000 0.500000 0.500000
0.505882 0.505882 0.505882
0.513726 0.513726 0.513726
0.529412 0.529412 0.529412
0.549020 0.549020 0.549020
0.572549 0.572549 0.572549
0.600000 0.600000 0.600000
0.635294 0.635294 0.635294
0.679412 0.679412 0.679412
0.568137 0.568137 0.568137
0.572059 0.572059 0.572059
0.579902 0.579902 0.579902
0.591666 0.591666 0.591666
0.607353 0.607353 0.607353
0.627451 0.627451 0.627451
0.652941 0.652941 0.652941
0.681373 0.681373 0.681373
0.718628 0.718628 0.718628
0.646078 0.646078 0.646078
0.648529 0.648529 0.648529
0.653922 0.653922 0.653922
0.661765 0.661765 0.661765
0.673529 0.673529 0.673529
0.688726 0.688726 0.688726
0.708823 0.708823 0.708823
0.731863 0.731863 0.731863
0.759804 0.759804 0.759804
0.719118 0.719118 0.719118
0.720098 0.720098 0.720098
0.724020 0.724020 0.724020
0.731863 0.731863 0.731863
0.738725 0.738725 0.738725
0.750490 0.750490 0.750490
0.763235 0.763235 0.763235
0.778922 0.778922 0.778922
0.801471 0.801471 0.801471
0.782353 0.782353 0.782353
0.785294 0.785294 0.785294
0.786275 0.786275 0.786275
0.790196 0.790196 0.790196
0.797058 0.797058 0.797058
0.804902 0.804902 0.804902
0.812745 0.812745 0.812745
0.825000 0.825000 0.825000
0.844118 0.844118 0.844118
0.843627 0.843627 0.843627
0.843627 0.843627 0.843627
0.844117 0.844117 0.844117
0.847549 0.847549 0.847549
0.851470 0.851470 0.851470
0.855883 0.855883 0.855883
0.863235 0.863235 0.863235
0.872059 0.872059 0.872059
0.886765 0.886765 0.886765
0.913725 0.913725 0.913725
0.913725 0.913725 0.913725
0.913725 0.913725 0.913725
0.914706 0.914706 0.914706
0.917647 0.917647 0.917647
0.921569 0.921569 0.921569
0.926471 0.926471 0.926471
0.933823 0.933823 0.933823
0.949020 0.949020 0.949020
0.435784 0.435784 0.435784
0.455392 0.455392 0.455392
0.470098 0.470098 0.470098
0.486765 0.486765 0.486765
0.506372 0.506372 0.506372
0.533823 0.533823 0.533823
0.565686 0.565686 0.565686
0.604902 0.604902 0.604902
0.655392 0.655392 0.655392
0.517647 0.517647 0.517647
0.525980 0.525980 0.525980
0.537255 0.537255 0.537255
0.551961 0.551961 0.551961
0.572549 0.572549 0.572549
0.594118 0.594118 0.594118
0.621078 0.621078 0.621078
0.655882 0.655882 0.655882
0.698039 0.698039 0.698039
0.577451 0.577451 0.577451
0.583824 0.583824 0.583824
0.591667 0.591667 0.591667
0.603432 0.603432 0.603432
0.623039 0.623039 0.623039
0.642647 0.642647 0.642647
0.666177 0.666177 0.666177
0.693628 0.693628 0.693628
0.728431 0.728431 0.728431
0.642157 0.642157 0.642157
0.647059 0.647059 0.647059
0.650000 0.650000 0.650000
0.661765 0.661765 0.661765
0.673529 0.673529 0.673529
0.688236 0.688236 0.688236
0.707353 0.707353 0.707353
0.732353 0.732353 0.732353
0.761274 0.761274 0.761274
0.704412 0.704412 0.704412
0.708333 0.708333 0.708333
0.712255 0.712255 0.712255
0.720098 0.720098 0.720098
0.727941 0.727941 0.727941
0.743137 0.743137 0.743137
0.754412 0.754412 0.754412
0.774510 0.774510 0.774510
0.796568 0.796568 0.796568
0.766176 0.766176 0.766176
0.766176 0.766176 0.766176
0.770098 0.770098 0.770098
0.774510 0.774510 0.774510
0.781863 0.781863 0.781863
0.789706 0.789706 0.789706
0.801471 0.801471 0.801471
0.813726 0.813726 0.813726
0.832843 0.832843 0.832843
0.817157 0.817157 0.817157
0.820098 0.820098 0.820098
0.820588 0.820588 0.820588
0.824510 0.824510 0.824510
0.828432 0.828432 0.828432
0.836765 0.836765 0.836765
0.844117 0.844117 0.844117
0.855392 0.855392 0.855392
0.867647 0.867647 0.867647
0.867647 0.867647 0.867647
0.871078 0.871078 0.871078
0.871078 0.871078 0.871078
0.875000 0.875000 0.875000
0.875490 0.875490 0.875490
0.882843 0.882843 0.882843
0.886765 0.886765 0.886765
0.894608 0.894608 0.894608
0.906372 0.906372 0.906372
0.933333 0.933333 0.933333
0.933333 0.933333 0.933333
0.933823 0.933823 0.933823
0.937255 0.937255 0.937255
0.937745 0.937745 0.937745
0.941666 0.941666 0.941666
0.949020 0.949020 0.949020
0.953431 0.953431 0.953431
0.968627 0.968627 0.968627
0.529412 0.529412 0.529412
0.548530 0.548530 0.548530
0.560784 0.560784 0.560784
0.576471 0.576471 0.576471
0.596078 0.596078 0.596078
0.619608 0.619608 0.619608
0.644118 0.644118 0.644118
0.675000 0.675000 0.675000
0.713726 0.713726 0.713726
0.607353 0.607353 0.607353
0.615196 0.615196 0.615196
0.626961 0.626961 0.626961
0.637745 0.637745 0.637745
0.652941 0.652941 0.652941
0.674020 0.674020 0.674020
0.697549 0.697549 0.697549
0.718137 0.718137 0.718137
0.752451 0.752451 0.752451
0.661765 0.661765 0.661765
0.665686 0.665686 0.665686
0.673530 0.673530 0.673530
0.685294 0.685294 0.685294
0.697059 0.697059 0.697059
0.712746 0.712746 0.712746
0.732353 0.732353 0.732353
0.749510 0.749510 0.749510
0.776471 0.776471 0.776471
0.713726 0.713726 0.713726
0.716177 0.716177 0.716177
0.721569 0.721569 0.721569
0.729412 0.729412 0.729412
0.739706 0.739706 0.739706
0.750490 0.750490 0.750490
0.767157 0.767157 0.767157
0.784314 0.784314 0.784314
0.803922 0.803922 0.803922
0.766666 0.766666 0.766666
0.766666 0.766666 0.766666
0.770588 0.770588 0.770588
0.776471 0.776471 0.776471
0.784314 0.784314 0.784314
0.794118 0.794118 0.794118
0.805883 0.805883 0.805883
0.816176 0.816176 0.816176
0.835294 0.835294 0.835294
0.813235 0.813235 0.813235
0.813235 0.813235 0.813235
0.818627 0.818627 0.818627
0.821078 0.821078 0.821078
0.825000 0.825000 0.825000
0.832843 0.832843 0.832843
0.840686 0.840686 0.840686
0.852451 0.852451 0.852451
0.866667 0.866667 0.866667
0.855883 0.855883 0.855883
0.858824 0.858824 0.858824
0.859804 0.859804 0.859804
0.862745 0.862745 0.862745
0.866667 0.866667 0.866667
0.871568 0.871568 0.871568
0.879412 0.879412 0.879412
0.887255 0.887255 0.887255
0.899020 0.899020 0.899020
0.902451 0.902451 0.902451
0.902451 0.902451 0.902451
0.902451 0.902451 0.902451
0.906372 0.906372 0.906372
0.909804 0.909804 0.909804
0.914215 0.914215 0.914215
0.918137 0.918137 0.918137
0.925980 0.925980 0.925980
0.937745 0.937745 0.937745
0.964706 0.964706 0.964706
0.964706 0.964706 0.964706
0.964706 0.964706 0.964706
0.968627 0.968627 0.968627
0.968627 0.968627 0.968627
0.974020 0.974020 0.974020
0.980392 0.980392 0.980392
0.988235 0.988235 0.988235
1.000000 1.000000 1.000000
