Black-and-White/Ilford/Ilford Pan F Plus 50 65x.cube
TITLE "Ilford Pan F Plus 50"
LUT_3D_SIZE 65
DOMAIN_MIN 0.000000 0.000000 0.000000
DOMAIN_MAX 1.000000 1.000000 1.000000
0.000000 0.000000 0.000000
0.000000 0.000000 0.000000
0.000000 0.000000 0.000000
0.000000 0.000000 0.000000
0.000000 0.000000 0.000000
0.000000 0.000000 0.000000
0.000000 0.000000 0.000000
0.000000 0.000000 0.000000
0.000000 0.000000 0.000000
0.000000 0.000000 0.000000
0.000000 0.000000 0.000000
0.000000 0.000000 0.000000
0.000000 0.000000 0.000000
0.003922 0.003922 0.003922
0.003922 0.003922 0.003922
0.003922 0.003922 0.003922
0.003922 0.003922 0.003922
0.003922 0.003922 0.003922
0.003922 0.003922 0.003922
0.003922 0.003922 0.003922
0.006618 0.006618 0.006618
0.007843 0.007843 0.007843
0.007843 0.007843 0.007843
0.007843 0.007843 0.007843
0.010294 0.010294 0.010294
0.011765 0.011765 0.011765
0.011765 0.011765 0.011765
0.011765 0.011765 0.011765
0.015686 0.015686 0.015686
0.015686 0.015686 0.015686
0.019608 0.019608 0.019608
0.019608 0.019608 0.019608
0.023529 0.023529 0.023529
0.026409 0.026409 0.026409
0.027451 0.027451 0.027451
0.031373 0.031373 0.031373
0.035294 0.035294 0.035294
0.039216 0.039216 0.039216
0.043137 0.043137 0.043137
0.047610 0.047610 0.047610
0.050980 0.050980 0.050980
0.057292 0.057292 0.057292
0.062132 0.062132 0.062132
0.066973 0.066973 0.066973
0.071814 0.071814 0.071814
0.078431 0.078431 0.078431
0.085417 0.085417 0.085417
0.090257 0.090257 0.090257
0.099020 0.099020 0.099020
0.107782 0.107782 0.107782
0.112622 0.112622 0.112622
0.121385 0.121385 0.121385
0.130147 0.130147 0.130147
0.138909 0.138909 0.138909
0.147672 0.147672 0.147672
0.159926 0.159926 0.159926
0.165196 0.165196 0.165196
0.173958 0.173958 0.173958
0.186642 0.186642 0.186642
0.199326 0.199326 0.199326
0.212010 0.212010 0.212010
0.221936 0.221936 0.221936
0.237378 0.237378 0.237378
0.253064 0.253064 0.253064
0.266667 0.266667 0.266667
0.000919 0.000919 0.000919
0.003922 0.003922 0.003922
0.003922 0.003922 0.003922
0.004841 0.004841 0.004841
0.004841 0.004841 0.004841
0.004841 0.004841 0.004841
0.004841 0.004841 0.004841
0.007843 0.007843 0.007843
0.008762 0.008762 0.008762
0.008762 0.008762 0.008762
0.008762 0.008762 0.008762
0.008762 0.008762 0.008762
0.014951 0.014951 0.014951
0.012684 0.012684 0.012684
0.012684 0.012684 0.012684
0.012684 0.012684 0.012684
0.016605 0.016605 0.016605
0.016605 0.016605 0.016605
0.016605 0.016605 0.016605
0.017524 0.017524 0.017524
0.020527 0.020527 0.020527
0.024143 0.024143 0.024143
0.024448 0.024448 0.024448
0.025980 0.025980 0.025980
0.025367 0.025367 0.025367
0.031740 0.031740 0.031740
0.032292 0.032292 0.032292
0.033211 0.033211 0.033211
0.038419 0.038419 0.038419
0.037132 0.037132 0.037132
0.041054 0.041054 0.041054
0.044975 0.044975 0.044975
0.049939 0.049939 0.049939
0.051777 0.051777 0.051777
0.052818 0.052818 0.052818
0.057537 0.057537 0.057537
0.062378 0.062378 0.062378
0.067218 0.067218 0.067218
0.072059 0.072059 0.072059
0.076900 0.076900 0.076900
0.081740 0.081740 0.081740
0.086581 0.086581 0.086581
0.089032 0.089032 0.089032
0.099877 0.099877 0.099877
0.105025 0.105025 0.105025
0.108639 0.108639 0.108639
0.118627 0.118627 0.118627
0.123468 0.123468 0.123468
0.132230 0.132230 0.132230
0.140993 0.140993 0.140993
0.143933 0.143933 0.143933
0.154595 0.154595 0.154595
0.163358 0.163358 0.163358
0.172120 0.172120 0.172120
0.180882 0.180882 0.180882
0.189644 0.189644 0.189644
0.198406 0.198406 0.198406
0.208089 0.208089 0.208089
0.219853 0.219853 0.219853
0.232537 0.232537 0.232537
0.246140 0.246140 0.246140
0.259069 0.259069 0.259069
0.271508 0.271508 0.271508
0.287193 0.287193 0.287193
0.303799 0.303799 0.303799
0.005760 0.005760 0.005760
0.007843 0.007843 0.007843
0.009681 0.009681 0.009681
0.009681 0.009681 0.009681
0.009681 0.009681 0.009681
0.011765 0.011765 0.011765
0.013603 0.013603 0.013603
0.013603 0.013603 0.013603
0.013603 0.013603 0.013603
0.015686 0.015686 0.015686
0.017524 0.017524 0.017524
0.017524 0.017524 0.017524
0.017524 0.017524 0.017524
0.021446 0.021446 0.021446
0.021446 0.021446 0.021446
0.021446 0.021446 0.021446
0.024387 0.024387 0.024387
0.025367 0.025367 0.025367
0.025367 0.025367 0.025367
0.029289 0.029289 0.029289
0.029289 0.029289 0.029289
0.031127 0.031127 0.031127
0.035049 0.035049 0.035049
0.037132 0.037132 0.037132
0.039583 0.039583 0.039583
0.041054 0.041054 0.041054
0.041422 0.041422 0.041422
0.044975 0.044975 0.044975
0.048897 0.048897 0.048897
0.052022 0.052022 0.052022
0.052941 0.052941 0.052941
0.058578 0.058578 0.058578
0.060662 0.060662 0.060662
0.064583 0.064583 0.064583
0.068505 0.068505 0.068505
0.074264 0.074264 0.074264
0.078186 0.078186 0.078186
0.082905 0.082905 0.082905
0.087745 0.087745 0.087745
0.093872 0.093872 0.093872
0.097794 0.097794 0.097794
0.101715 0.101715 0.101715
0.108946 0.108946 0.108946
0.113787 0.113787 0.113787
0.120711 0.120711 0.120711
0.127390 0.127390 0.127390
0.134314 0.134314 0.134314
0.139155 0.139155 0.139155
0.147916 0.147916 0.147916
0.156679 0.156679 0.156679
0.160539 0.160539 0.160539
0.170282 0.170282 0.170282
0.179045 0.179045 0.179045
0.187807 0.187807 0.187807
0.196569 0.196569 0.196569
0.205331 0.205331 0.205331
0.215932 0.215932 0.215932
0.224265 0.224265 0.224265
0.237868 0.237868 0.237868
0.251470 0.251470 0.251470
0.261152 0.261152 0.261152
0.274755 0.274755 0.274755
0.290196 0.290196 0.290196
0.305882 0.305882 0.305882
0.319485 0.319485 0.319485
0.011765 0.011765 0.011765
0.014522 0.014522 0.014522
0.014522 0.014522 0.014522
0.014522 0.014522 0.014522
0.014522 0.014522 0.014522
0.018444 0.018444 0.018444
0.018444 0.018444 0.018444
0.018444 0.018444 0.018444
0.019608 0.019608 0.019608
0.022365 0.022365 0.022365
0.022365 0.022365 0.022365
0.023529 0.023529 0.023529
0.026287 0.026287 0.026287
0.026287 0.026287 0.026287
0.030209 0.030209 0.030209
0.030209 0.030209 0.030209
0.030209 0.030209 0.030209
0.035233 0.035233 0.035233
0.034130 0.034130 0.034130
0.038052 0.038052 0.038052
0.038052 0.038052 0.038052
0.041973 0.041973 0.041973
0.041973 0.041973 0.041973
0.045895 0.045895 0.045895
0.048345 0.048345 0.048345
0.049816 0.049816 0.049816
0.053738 0.053738 0.053738
0.055025 0.055025 0.055025
0.057660 0.057660 0.057660
0.061581 0.061581 0.061581
0.065503 0.065503 0.065503
0.066544 0.066544 0.066544
0.071385 0.071385 0.071385
0.076225 0.076225 0.076225
0.081066 0.081066 0.081066
0.081985 0.081985 0.081985
0.086826 0.086826 0.086826
0.092954 0.092954 0.092954
0.100429 0.100429 0.100429
0.101347 0.101347 0.101347
0.111397 0.111397 0.111397
0.115319 0.115319 0.115319
0.119792 0.119792 0.119792
0.124633 0.124633 0.124633
0.134927 0.134927 0.134927
0.138235 0.138235 0.138235
0.146998 0.146998 0.146998
0.151839 0.151839 0.151839
0.159436 0.159436 0.159436
0.165441 0.165441 0.165441
0.174204 0.174204 0.174204
0.182966 0.182966 0.182966
0.190564 0.190564 0.190564
0.196569 0.196569 0.196569
0.208088 0.208088 0.208088
0.216851 0.216851 0.216851
0.226777 0.226777 0.226777
0.238297 0.238297 0.238297
0.250980 0.250980 0.250980
0.260907 0.260907 0.260907
0.273836 0.273836 0.273836
0.287439 0.287439 0.287439
0.301042 0.301042 0.301042
0.315564 0.315564 0.315564
0.332169 0.332169 0.332169
0.019363 0.019363 0.019363
0.019363 0.019363 0.019363
0.019363 0.019363 0.019363
0.019608 0.019608 0.019608
0.023284 0.023284 0.023284
0.023284 0.023284 0.023284
0.021201 0.021201 0.021201
0.027206 0.027206 0.027206
0.027206 0.027206 0.027206
0.023958 0.023958 0.023958
0.031128 0.031128 0.031128
0.031128 0.031128 0.031128
0.030638 0.030638 0.030638
0.035049 0.035049 0.035049
0.036153 0.036153 0.036153
0.038971 0.038971 0.038971
0.038971 0.038971 0.038971
0.042831 0.042831 0.042831
0.042892 0.042892 0.042892
0.046814 0.046814 0.046814
0.046814 0.046814 0.046814
0.050735 0.050735 0.050735
0.051349 0.051349 0.051349
0.054657 0.054657 0.054657
0.057108 0.057108 0.057108
0.058579 0.058579 0.058579
0.062500 0.062500 0.062500
0.063787 0.063787 0.063787
0.070098 0.070098 0.070098
0.070343 0.070343 0.070343
0.074265 0.074265 0.074265
0.078186 0.078186 0.078186
0.082108 0.082108 0.082108
0.084988 0.084988 0.084988
0.089706 0.089706 0.089706
0.097549 0.097549 0.097549
0.101471 0.101471 0.101471
0.104350 0.104350 0.104350
0.109191 0.109191 0.109191
0.114032 0.114032 0.114032
0.118873 0.118873 0.118873
0.123713 0.123713 0.123713
0.132843 0.132843 0.132843
0.140686 0.140686 0.140686
0.142157 0.142157 0.142157
0.152451 0.152451 0.152451
0.155760 0.155760 0.155760
0.160601 0.160601 0.160601
0.169363 0.169363 0.169363
0.179902 0.179902 0.179902
0.182966 0.182966 0.182966
0.191728 0.191728 0.191728
0.200490 0.200490 0.200490
0.209253 0.209253 0.209253
0.218015 0.218015 0.218015
0.226777 0.226777 0.226777
0.236029 0.236029 0.236029
0.248222 0.248222 0.248222
0.259313 0.259313 0.259313
0.272917 0.272917 0.272917
0.286274 0.286274 0.286274
0.302635 0.302635 0.302635
0.315318 0.315318 0.315318
0.327329 0.327329 0.327329
0.340931 0.340931 0.340931
0.024203 0.024203 0.024203
0.025122 0.025122 0.025122
0.028125 0.028125 0.028125
0.028125 0.028125 0.028125
0.028125 0.028125 0.028125
0.032047 0.032047 0.032047
0.032047 0.032047 0.032047
0.032047 0.032047 0.032047
0.035968 0.035968 0.035968
0.035968 0.035968 0.035968
0.039890 0.039890 0.039890
0.039890 0.039890 0.039890
0.043077 0.043077 0.043077
0.043811 0.043811 0.043811
0.044914 0.044914 0.044914
0.047733 0.047733 0.047733
0.047733 0.047733 0.047733
0.051654 0.051654 0.051654
0.052512 0.052512 0.052512
0.055576 0.055576 0.055576
0.058272 0.058272 0.058272
0.059498 0.059498 0.059498
0.063419 0.063419 0.063419
0.064951 0.064951 0.064951
0.067341 0.067341 0.067341
0.070711 0.070711 0.070711
0.071630 0.071630 0.071630
0.075184 0.075184 0.075184
0.079105 0.079105 0.079105
0.079779 0.079779 0.079779
0.083149 0.083149 0.083149
0.087623 0.087623 0.087623
0.092831 0.092831 0.092831
0.097672 0.097672 0.097672
0.102512 0.102512 0.102512
0.106556 0.106556 0.106556
0.112194 0.112194 0.112194
0.117034 0.117034 0.117034
0.121874 0.121874 0.121874
0.126838 0.126838 0.126838
0.131557 0.131557 0.131557
0.136396 0.136396 0.136396
0.138603 0.138603 0.138603
0.146078 0.146078 0.146078
0.154840 0.154840 0.154840
0.158211 0.158211 0.158211
0.168444 0.168444 0.168444
0.173284 0.173284 0.173284
0.182046 0.182046 0.182046
0.185662 0.185662 0.185662
0.195650 0.195650 0.195650
0.204411 0.204411 0.204411
0.213174 0.213174 0.213174
0.221937 0.221937 0.221937
0.230698 0.230698 0.230698
0.239460 0.239460 0.239460
0.252144 0.252144 0.252144
0.262317 0.262317 0.262317
0.273590 0.273590 0.273590
0.283026 0.283026 0.283026
0.298958 0.298958 0.298958
0.311642 0.311642 0.311642
0.324326 0.324326 0.324326
0.337009 0.337009 0.337009
0.350368 0.350368 0.350368
0.032966 0.032966 0.032966
0.036887 0.036887 0.036887
0.036887 0.036887 0.036887
0.036887 0.036887 0.036887
0.036887 0.036887 0.036887
0.040809 0.040809 0.040809
0.040809 0.040809 0.040809
0.043321 0.043321 0.043321
0.044730 0.044730 0.044730
0.046323 0.046323 0.046323
0.048652 0.048652 0.048652
0.048652 0.048652 0.048652
0.050245 0.050245 0.050245
0.052573 0.052573 0.052573
0.056495 0.056495 0.056495
0.056495 0.056495 0.056495
0.059436 0.059436 0.059436
0.060417 0.060417 0.060417
0.061275 0.061275 0.061275
0.064338 0.064338 0.064338
0.065931 0.065931 0.065931
0.071876 0.071876 0.071876
0.072181 0.072181 0.072181
0.073713 0.073713 0.073713
0.078554 0.078554 0.078554
0.080024 0.080024 0.080024
0.083946 0.083946 0.083946
0.085233 0.085233 0.085233
0.090074 0.090074 0.090074
0.091789 0.091789 0.091789
0.097304 0.097304 0.097304
0.099632 0.099632 0.099632
0.103554 0.103554 0.103554
0.107475 0.107475 0.107475
0.111397 0.111397 0.111397
0.116115 0.116115 0.116115
0.120833 0.120833 0.120833
0.124755 0.124755 0.124755
0.128676 0.128676 0.128676
0.135477 0.135477 0.135477
0.140319 0.140319 0.140319
0.149081 0.149081 0.149081
0.153922 0.153922 0.153922
0.158763 0.158763 0.158763
0.163603 0.163603 0.163603
0.172365 0.172365 0.172365
0.175735 0.175735 0.175735
0.187500 0.187500 0.187500
0.190808 0.190808 0.190808
0.199571 0.199571 0.199571
0.208334 0.208334 0.208334
0.214767 0.214767 0.214767
0.223530 0.223530 0.223530
0.232292 0.232292 0.232292
0.241054 0.241054 0.241054
0.252145 0.252145 0.252145
0.262500 0.262500 0.262500
0.273590 0.273590 0.273590
0.283946 0.283946 0.283946
0.298284 0.298284 0.298284
0.307965 0.307965 0.307965
0.321569 0.321569 0.321569
0.335171 0.335171 0.335171
0.348774 0.348774 0.348774
0.362377 0.362377 0.362377
0.044240 0.044240 0.044240
0.045650 0.045650 0.045650
0.045650 0.045650 0.045650
0.048406 0.048406 0.048406
0.049571 0.049571 0.049571
0.049571 0.049571 0.049571
0.052083 0.052083 0.052083
0.053493 0.053493 0.053493
0.053493 0.053493 0.053493
0.057415 0.057415 0.057415
0.057415 0.057415 0.057415
0.059926 0.059926 0.059926
0.061336 0.061336 0.061336
0.061520 0.061520 0.061520
0.065258 0.065258 0.065258
0.067769 0.067769 0.067769
0.069179 0.069179 0.069179
0.073040 0.073040 0.073040
0.073101 0.073101 0.073101
0.074877 0.074877 0.074877
0.077022 0.077022 0.077022
0.079534 0.079534 0.079534
0.081556 0.081556 0.081556
0.084866 0.084866 0.084866
0.087316 0.087316 0.087316
0.092157 0.092157 0.092157
0.093076 0.093076 0.093076
0.096630 0.096630 0.096630
0.100552 0.100552 0.100552
0.103063 0.103063 0.103063
0.108395 0.108395 0.108395
0.109436 0.109436 0.109436
0.114277 0.114277 0.114277
0.119118 0.119118 0.119118
0.122671 0.122671 0.122671
0.130514 0.130514 0.130514
0.134436 0.134436 0.134436
0.138480 0.138480 0.138480
0.143321 0.143321 0.143321
0.150122 0.150122 0.150122
0.153003 0.153003 0.153003
0.157843 0.157843 0.157843
0.163297 0.163297 0.163297
0.167525 0.167525 0.167525
0.176287 0.176287 0.176287
0.181128 0.181128 0.181128
0.189890 0.189890 0.189890
0.194731 0.194731 0.194731
0.203492 0.203492 0.203492
0.210846 0.210846 0.210846
0.216789 0.216789 0.216789
0.225858 0.225858 0.225858
0.234621 0.234621 0.234621
0.243383 0.243383 0.243383
0.254657 0.254657 0.254657
0.263419 0.263419 0.263419
0.276103 0.276103 0.276103
0.283762 0.283762 0.283762
0.297549 0.297549 0.297549
0.307721 0.307721 0.307721
0.322917 0.322917 0.322917
0.333089 0.333089 0.333089
0.345772 0.345772 0.345772
0.357046 0.357046 0.357046
0.371140 0.371140 0.371140
0.054412 0.054412 0.054412
0.057844 0.057844 0.057844
0.056250 0.056250 0.056250
0.058334 0.058334 0.058334
0.058334 0.058334 0.058334
0.061765 0.061765 0.061765
0.062255 0.062255 0.062255
0.062255 0.062255 0.062255
0.065687 0.065687 0.065687
0.066177 0.066177 0.066177
0.069608 0.069608 0.069608
0.070098 0.070098 0.070098
0.073530 0.073530 0.073530
0.074020 0.074020 0.074020
0.077451 0.077451 0.077451
0.077941 0.077941 0.077941
0.081373 0.081373 0.081373
0.081863 0.081863 0.081863
0.082721 0.082721 0.082721
0.085785 0.085785 0.085785
0.088480 0.088480 0.088480
0.093321 0.093321 0.093321
0.097059 0.097059 0.097059
0.095159 0.095159 0.095159
0.100981 0.100981 0.100981
0.101471 0.101471 0.101471
0.108824 0.108824 0.108824
0.109314 0.109314 0.109314
0.111519 0.111519 0.111519
0.116667 0.116667 0.116667
0.117279 0.117279 0.117279
0.124510 0.124510 0.124510
0.128432 0.128432 0.128432
0.132353 0.132353 0.132353
0.136642 0.136642 0.136642
0.137561 0.137561 0.137561
0.144608 0.144608 0.144608
0.148530 0.148530 0.148530
0.156005 0.156005 0.156005
0.156923 0.156923 0.156923
0.167647 0.167647 0.167647
0.170527 0.170527 0.170527
0.175368 0.175368 0.175368
0.180209 0.180209 0.180209
0.191177 0.191177 0.191177
0.193811 0.193811 0.193811
0.202941 0.202941 0.202941
0.207415 0.207415 0.207415
0.215686 0.215686 0.215686
0.221017 0.221017 0.221017
0.229780 0.229780 0.229780
0.238542 0.238542 0.238542
0.247303 0.247303 0.247303
0.256066 0.256066 0.256066
0.268260 0.268260 0.268260
0.277022 0.277022 0.277022
0.286274 0.286274 0.286274
0.296446 0.296446 0.296446
0.311153 0.311153 0.311153
0.319731 0.319731 0.319731
0.333089 0.333089 0.333089
0.343015 0.343015 0.343015
0.357966 0.357966 0.357966
0.367218 0.367218 0.367218
0.379902 0.379902 0.379902
0.067096 0.067096 0.067096
0.067096 0.067096 0.067096
0.068934 0.068934 0.068934
0.067525 0.067525 0.067525
0.071017 0.071017 0.071017
0.071017 0.071017 0.071017
0.071446 0.071446 0.071446
0.074939 0.074939 0.074939
0.074939 0.074939 0.074939
0.075368 0.075368 0.075368
0.078860 0.078860 0.078860
0.081127 0.081127 0.081127
0.082782 0.082782 0.082782
0.082966 0.082966 0.082966
0.086704 0.086704 0.086704
0.087133 0.087133 0.087133
0.090625 0.090625 0.090625
0.091054 0.091054 0.091054
0.095405 0.095405 0.095405
0.098468 0.098468 0.098468
0.101164 0.101164 0.101164
0.102390 0.102390 0.102390
0.106311 0.106311 0.106311
0.106740 0.106740 0.106740
0.110233 0.110233 0.110233
0.114154 0.114154 0.114154
0.118076 0.118076 0.118076
0.118505 0.118505 0.118505
0.124204 0.124204 0.124204
0.129044 0.129044 0.129044
0.129963 0.129963 0.129963
0.134803 0.134803 0.134803
0.137684 0.137684 0.137684
0.141605 0.141605 0.141605
0.145527 0.145527 0.145527
0.149878 0.149878 0.149878
0.153799 0.153799 0.153799
0.157721 0.157721 0.157721
0.161642 0.161642 0.161642
0.169607 0.169607 0.169607
0.173407 0.173407 0.173407
0.183210 0.183210 0.183210
0.188052 0.188052 0.188052
0.192892 0.192892 0.192892
0.196936 0.196936 0.196936
0.206496 0.206496 0.206496
0.211765 0.211765 0.211765
0.220098 0.220098 0.220098
0.225367 0.225367 0.225367
0.233702 0.233702 0.233702
0.242464 0.242464 0.242464
0.251226 0.251226 0.251226
0.259988 0.259988 0.259988
0.268750 0.268750 0.268750
0.280086 0.280086 0.280086
0.286704 0.286704 0.286704
0.298958 0.298958 0.298958
0.308149 0.308149 0.308149
0.320404 0.320404 0.320404
0.332414 0.332414 0.332414
0.342279 0.342279 0.342279
0.354534 0.354534 0.354534
0.365380 0.365380 0.365380
0.375980 0.375980 0.375980
0.388664 0.388664 0.388664
0.077206 0.077206 0.077206
0.076777 0.076777 0.076777
0.079779 0.079779 0.079779
0.079779 0.079779 0.079779
0.081127 0.081127 0.081127
0.083701 0.083701 0.083701
0.083701 0.083701 0.083701
0.085049 0.085049 0.085049
0.087623 0.087623 0.087623
0.088971 0.088971 0.088971
0.088971 0.088971 0.088971
0.091544 0.091544 0.091544
0.092892 0.092892 0.092892
0.095466 0.095466 0.095466
0.096569 0.096569 0.096569
0.099387 0.099387 0.099387
0.100735 0.100735 0.100735
0.103309 0.103309 0.103309
0.107230 0.107230 0.107230
0.108578 0.108578 0.108578
0.111152 0.111152 0.111152
0.112500 0.112500 0.112500
0.115686 0.115686 0.115686
0.118995 0.118995 0.118995
0.120343 0.120343 0.120343
0.126287 0.126287 0.126287
0.127206 0.127206 0.127206
0.132108 0.132108 0.132108
0.134681 0.134681 0.134681
0.136029 0.136029 0.136029
0.142524 0.142524 0.142524
0.146446 0.146446 0.146446
0.147794 0.147794 0.147794
0.153248 0.153248 0.153248
0.155637 0.155637 0.155637
0.163480 0.163480 0.163480
0.167770 0.167770 0.167770
0.172610 0.172610 0.172610
0.177451 0.177451 0.177451
0.183088 0.183088 0.183088
0.187133 0.187133 0.187133
0.191973 0.191973 0.191973
0.197426 0.197426 0.197426
0.201654 0.201654 0.201654
0.210416 0.210416 0.210416
0.216605 0.216605 0.216605
0.224020 0.224020 0.224020
0.230208 0.230208 0.230208
0.237622 0.237622 0.237622
0.246384 0.246384 0.246384
0.255147 0.255147 0.255147
0.263910 0.263910 0.263910
0.272671 0.272671 0.272671
0.281434 0.281434 0.281434
0.290197 0.290197 0.290197
0.300306 0.300306 0.300306
0.308210 0.308210 0.308210
0.320404 0.320404 0.320404
0.330515 0.330515 0.330515
0.341851 0.341851 0.341851
0.350858 0.350858 0.350858
0.363296 0.363296 0.363296
0.375980 0.375980 0.375980
0.387745 0.387745 0.387745
0.397426 0.397426 0.397426
0.088542 0.088542 0.088542
0.090809 0.090809 0.090809
0.092463 0.092463 0.092463
0.092463 0.092463 0.092463
0.096139 0.096139 0.096139
0.094730 0.094730 0.094730
0.096385 0.096385 0.096385
0.096385 0.096385 0.096385
0.098652 0.098652 0.098652
0.100306 0.100306 0.100306
0.102573 0.102573 0.102573
0.104228 0.104228 0.104228
0.107414 0.107414 0.107414
0.108149 0.108149 0.108149
0.110416 0.110416 0.110416
0.112071 0.112071 0.112071
0.115012 0.115012 0.115012
0.115992 0.115992 0.115992
0.116850 0.116850 0.116850
0.122181 0.122181 0.122181
0.122181 0.122181 0.122181
0.127451 0.127451 0.127451
0.130024 0.130024 0.130024
0.131679 0.131679 0.131679
0.133946 0.133946 0.133946
0.138970 0.138970 0.138970
0.141789 0.141789 0.141789
0.143443 0.143443 0.143443
0.145650 0.145650 0.145650
0.149632 0.149632 0.149632
0.151410 0.151410 0.151410
0.156250 0.156250 0.156250
0.161397 0.161397 0.161397
0.165931 0.165931 0.165931
0.170772 0.170772 0.170772
0.171691 0.171691 0.171691
0.178738 0.178738 0.178738
0.185294 0.185294 0.185294
0.190135 0.190135 0.190135
0.191053 0.191053 0.191053
0.200613 0.200613 0.200613
0.204657 0.204657 0.204657
0.208456 0.208456 0.208456
0.214339 0.214339 0.214339
0.224142 0.224142 0.224142
0.227941 0.227941 0.227941
0.236704 0.236704 0.236704
0.243811 0.243811 0.243811
0.250307 0.250307 0.250307
0.259069 0.259069 0.259069
0.267831 0.267831 0.267831
0.276593 0.276593 0.276593
0.285355 0.285355 0.285355
0.294117 0.294117 0.294117
0.302880 0.302880 0.302880
0.311642 0.311642 0.311642
0.322671 0.322671 0.322671
0.333089 0.333089 0.333089
0.341851 0.341851 0.341851
0.353860 0.353860 0.353860
0.363296 0.363296 0.363296
0.373223 0.373223 0.373223
0.384742 0.384742 0.384742
0.395772 0.395772 0.395772
0.406189 0.406189 0.406189
0.104411 0.104411 0.104411
0.104411 0.104411 0.104411
0.103063 0.103063 0.103063
0.105147 0.105147 0.105147
0.108824 0.108824 0.108824
0.108333 0.108333 0.108333
0.109069 0.109069 0.109069
0.109069 0.109069 0.109069
0.112254 0.112254 0.112254
0.112990 0.112990 0.112990
0.116176 0.116176 0.116176
0.115257 0.115257 0.115257
0.120098 0.120098 0.120098
0.120834 0.120834 0.120834
0.124019 0.124019 0.124019
0.122855 0.122855 0.122855
0.127941 0.127941 0.127941
0.127941 0.127941 0.127941
0.131862 0.131862 0.131862
0.132598 0.132598 0.132598
0.135294 0.135294 0.135294
0.140134 0.140134 0.140134
0.143627 0.143627 0.143627
0.141973 0.141973 0.141973
0.147549 0.147549 0.147549
0.148285 0.148285 0.148285
0.152206 0.152206 0.152206
0.153493 0.153493 0.153493
0.158333 0.158333 0.158333
0.163235 0.163235 0.163235
0.167156 0.167156 0.167156
0.171078 0.171078 0.171078
0.175000 0.175000 0.175000
0.175736 0.175736 0.175736
0.183456 0.183456 0.183456
0.184374 0.184374 0.184374
0.189216 0.189216 0.189216
0.194056 0.194056 0.194056
0.198529 0.198529 0.198529
0.203737 0.203737 0.203737
0.211765 0.211765 0.211765
0.218137 0.218137 0.218137
0.222058 0.222058 0.222058
0.227022 0.227022 0.227022
0.237745 0.237745 0.237745
0.243811 0.243811 0.243811
0.249387 0.249387 0.249387
0.257414 0.257414 0.257414
0.262991 0.262991 0.262991
0.271753 0.271753 0.271753
0.280515 0.280515 0.280515
0.289277 0.289277 0.289277
0.300490 0.300490 0.300490
0.306066 0.306066 0.306066
0.315564 0.315564 0.315564
0.324326 0.324326 0.324326
0.333089 0.333089 0.333089
0.345037 0.345037 0.345037
0.352941 0.352941 0.352941
0.363297 0.363297 0.363297
0.375245 0.375245 0.375245
0.384742 0.384742 0.384742
0.393504 0.393504 0.393504
0.406189 0.406189 0.406189
0.418137 0.418137 0.418137
0.114093 0.114093 0.114093
0.117831 0.117831 0.117831
0.117831 0.117831 0.117831
0.117831 0.117831 0.117831
0.118015 0.118015 0.118015
0.121753 0.121753 0.121753
0.121753 0.121753 0.121753
0.121937 0.121937 0.121937
0.121937 0.121937 0.121937
0.125674 0.125674 0.125674
0.125858 0.125858 0.125858
0.129596 0.129596 0.129596
0.132782 0.132782 0.132782
0.133517 0.133517 0.133517
0.134620 0.134620 0.134620
0.137439 0.137439 0.137439
0.140380 0.140380 0.140380
0.137623 0.137623 0.137623
0.141544 0.141544 0.141544
0.145282 0.145282 0.145282
0.145466 0.145466 0.145466
0.152819 0.152819 0.152819
0.153125 0.153125 0.153125
0.153309 0.153309 0.153309
0.159498 0.159498 0.159498
0.160968 0.160968 0.160968
0.164890 0.164890 0.164890
0.165074 0.165074 0.165074
0.171017 0.171017 0.171017
0.175857 0.175857 0.175857
0.176839 0.176839 0.176839
0.181617 0.181617 0.181617
0.184498 0.184498 0.184498
0.188419 0.188419 0.188419
0.192341 0.192341 0.192341
0.197058 0.197058 0.197058
0.200368 0.200368 0.200368
0.204290 0.204290 0.204290
0.215503 0.215503 0.215503
