Black-and-White/Ilford/Ilford FP4 Plus 125 65x.cube
TITLE "Ilford FP4 Plus 125"
LUT_3D_SIZE 65
DOMAIN_MIN 0.000000 0.000000 0.000000
DOMAIN_MAX 1.000000 1.000000 1.000000
0.000000 0.000000 0.000000
0.000000 0.000000 0.000000
0.000000 0.000000 0.000000
0.000000 0.000000 0.000000
0.003922 0.003922 0.003922
0.003922 0.003922 0.003922
0.005515 0.005515 0.005515
0.007843 0.007843 0.007843
0.007843 0.007843 0.007843
0.011765 0.011765 0.011765
0.013113 0.013113 0.013113
0.015686 0.015686 0.015686
0.019608 0.019608 0.019608
0.019792 0.019792 0.019792
0.023529 0.023529 0.023529
0.027451 0.027451 0.027451
0.027451 0.027451 0.027451
0.031373 0.031373 0.031373
0.035294 0.035294 0.035294
0.037071 0.037071 0.037071
0.041912 0.041912 0.041912
0.046753 0.046753 0.046753
0.050980 0.050980 0.050980
0.052512 0.052512 0.052512
0.054902 0.054902 0.054902
0.058824 0.058824 0.058824
0.062745 0.062745 0.062745
0.066667 0.066667 0.066667
0.070588 0.070588 0.070588
0.073713 0.073713 0.073713
0.078431 0.078431 0.078431
0.082353 0.082353 0.082353
0.088235 0.088235 0.088235
0.093076 0.093076 0.093076
0.097916 0.097916 0.097916
0.101961 0.101961 0.101961
0.105882 0.105882 0.105882
0.112438 0.112438 0.112438
0.117279 0.117279 0.117279
0.122120 0.122120 0.122120
0.126961 0.126961 0.126961
0.133333 0.133333 0.133333
0.140563 0.140563 0.140563
0.145404 0.145404 0.145404
0.154167 0.154167 0.154167
0.162929 0.162929 0.162929
0.167769 0.167769 0.167769
0.176532 0.176532 0.176532
0.185294 0.185294 0.185294
0.194056 0.194056 0.194056
0.198897 0.198897 0.198897
0.207659 0.207659 0.207659
0.216421 0.216421 0.216421
0.225184 0.225184 0.225184
0.233946 0.233946 0.233946
0.242708 0.242708 0.242708
0.251470 0.251470 0.251470
0.260233 0.260233 0.260233
0.268995 0.268995 0.268995
0.277757 0.277757 0.277757
0.286520 0.286520 0.286520
0.299203 0.299203 0.299203
0.307966 0.307966 0.307966
0.320650 0.320650 0.320650
0.333333 0.333333 0.333333
0.013603 0.013603 0.013603
0.018443 0.018443 0.018443
0.021446 0.021446 0.021446
0.024204 0.024204 0.024204
0.025367 0.025367 0.025367
0.029289 0.029289 0.029289
0.033211 0.033211 0.033211
0.035723 0.035723 0.035723
0.037132 0.037132 0.037132
0.041054 0.041054 0.041054
0.044975 0.044975 0.044975
0.047243 0.047243 0.047243
0.048897 0.048897 0.048897
0.052818 0.052818 0.052818
0.053737 0.053737 0.053737
0.056740 0.056740 0.056740
0.060662 0.060662 0.060662
0.064522 0.064522 0.064522
0.064583 0.064583 0.064583
0.068505 0.068505 0.068505
0.072426 0.072426 0.072426
0.076042 0.076042 0.076042
0.076961 0.076961 0.076961
0.080269 0.080269 0.080269
0.084191 0.084191 0.084191
0.088113 0.088113 0.088113
0.092034 0.092034 0.092034
0.093321 0.093321 0.093321
0.098162 0.098162 0.098162
0.099877 0.099877 0.099877
0.103922 0.103922 0.103922
0.108762 0.108762 0.108762
0.113603 0.113603 0.113603
0.118443 0.118443 0.118443
0.123285 0.123285 0.123285
0.128125 0.128125 0.128125
0.132966 0.132966 0.132966
0.137806 0.137806 0.137806
0.143014 0.143014 0.143014
0.150858 0.150858 0.150858
0.156250 0.156250 0.156250
0.161091 0.161091 0.161091
0.169853 0.169853 0.169853
0.174694 0.174694 0.174694
0.183456 0.183456 0.183456
0.188296 0.188296 0.188296
0.197059 0.197059 0.197059
0.201899 0.201899 0.201899
0.210662 0.210662 0.210662
0.217524 0.217524 0.217524
0.224265 0.224265 0.224265
0.229289 0.229289 0.229289
0.241054 0.241054 0.241054
0.246630 0.246630 0.246630
0.252818 0.252818 0.252818
0.263236 0.263236 0.263236
0.271997 0.271997 0.271997
0.280760 0.280760 0.280760
0.289523 0.289523 0.289523
0.301532 0.301532 0.301532
0.307965 0.307965 0.307965
0.319730 0.319730 0.319730
0.329412 0.329412 0.329412
0.344180 0.344180 0.344180
0.354779 0.354779 0.354779
0.027206 0.027206 0.027206
0.035049 0.035049 0.035049
0.038970 0.038970 0.038970
0.038970 0.038970 0.038970
0.044731 0.044731 0.044731
0.046813 0.046813 0.046813
0.046568 0.046568 0.046568
0.050735 0.050735 0.050735
0.056250 0.056250 0.056250
0.056740 0.056740 0.056740
0.058088 0.058088 0.058088
0.062929 0.062929 0.062929
0.062500 0.062500 0.062500
0.064767 0.064767 0.064767
0.070343 0.070343 0.070343
0.072426 0.072426 0.072426
0.074264 0.074264 0.074264
0.076348 0.076348 0.076348
0.080269 0.080269 0.080269
0.082047 0.082047 0.082047
0.086887 0.086887 0.086887
0.088113 0.088113 0.088113
0.092034 0.092034 0.092034
0.095956 0.095956 0.095956
0.098407 0.098407 0.098407
0.103247 0.103247 0.103247
0.105637 0.105637 0.105637
0.107720 0.107720 0.107720
0.111642 0.111642 0.111642
0.113480 0.113480 0.113480
0.119485 0.119485 0.119485
0.123407 0.123407 0.123407
0.127328 0.127328 0.127328
0.131250 0.131250 0.131250
0.135171 0.135171 0.135171
0.139890 0.139890 0.139890
0.146936 0.146936 0.146936
0.153493 0.153493 0.153493
0.158333 0.158333 0.158333
0.163174 0.163174 0.163174
0.168015 0.168015 0.168015
0.176777 0.176777 0.176777
0.181618 0.181618 0.181618
0.188297 0.188297 0.188297
0.195221 0.195221 0.195221
0.203983 0.203983 0.203983
0.208824 0.208824 0.208824
0.213665 0.213665 0.213665
0.222427 0.222427 0.222427
0.231189 0.231189 0.231189
0.236030 0.236030 0.236030
0.244792 0.244792 0.244792
0.249633 0.249633 0.249633
0.258395 0.258395 0.258395
0.267157 0.267157 0.267157
0.272426 0.272426 0.272426
0.280760 0.280760 0.280760
0.289523 0.289523 0.289523
0.298285 0.298285 0.298285
0.310295 0.310295 0.310295
0.319730 0.319730 0.319730
0.327818 0.327818 0.327818
0.341177 0.341177 0.341177
0.352941 0.352941 0.352941
0.366544 0.366544 0.366544
0.044731 0.044731 0.044731
0.048652 0.048652 0.048652
0.049816 0.049816 0.049816
0.052574 0.052574 0.052574
0.053738 0.053738 0.053738
0.057660 0.057660 0.057660
0.059252 0.059252 0.059252
0.061581 0.061581 0.061581
0.064339 0.064339 0.064339
0.065931 0.065931 0.065931
0.069424 0.069424 0.069424
0.073346 0.073346 0.073346
0.076531 0.076531 0.076531
0.077267 0.077267 0.077267
0.081189 0.081189 0.081189
0.083946 0.083946 0.083946
0.085111 0.085111 0.085111
0.088970 0.088970 0.088970
0.091790 0.091790 0.091790
0.092954 0.092954 0.092954
0.095649 0.095649 0.095649
0.100491 0.100491 0.100491
0.103554 0.103554 0.103554
0.104718 0.104718 0.104718
0.108640 0.108640 0.108640
0.112009 0.112009 0.112009
0.112929 0.112929 0.112929
0.117770 0.117770 0.117770
0.120405 0.120405 0.120405
0.124326 0.124326 0.124326
0.131005 0.131005 0.131005
0.132169 0.132169 0.132169
0.138051 0.138051 0.138051
0.142892 0.142892 0.142892
0.147733 0.147733 0.147733
0.151777 0.151777 0.151777
0.157414 0.157414 0.157414
0.162255 0.162255 0.162255
0.166299 0.166299 0.166299
0.175307 0.175307 0.175307
0.180699 0.180699 0.180699
0.185539 0.185539 0.185539
0.190993 0.190993 0.190993
0.199142 0.199142 0.199142
0.203983 0.203983 0.203983
0.212745 0.212745 0.212745
0.217586 0.217586 0.217586
0.222427 0.222427 0.222427
0.231188 0.231188 0.231188
0.238052 0.238052 0.238052
0.244792 0.244792 0.244792
0.249816 0.249816 0.249816
0.258394 0.258394 0.258394
0.267157 0.267157 0.267157
0.273346 0.273346 0.273346
0.280760 0.280760 0.280760
0.289523 0.289523 0.289523
0.298285 0.298285 0.298285
0.307047 0.307047 0.307047
0.315809 0.315809 0.315809
0.328492 0.328492 0.328492
0.337254 0.337254 0.337254
0.349939 0.349939 0.349939
0.358701 0.358701 0.358701
0.371385 0.371385 0.371385
0.058334 0.058334 0.058334
0.058579 0.058579 0.058579
0.060416 0.060416 0.060416
0.062500 0.062500 0.062500
0.066177 0.066177 0.066177
0.070098 0.070098 0.070098
0.070343 0.070343 0.070343
0.072856 0.072856 0.072856
0.074265 0.074265 0.074265
0.078186 0.078186 0.078186
0.079535 0.079535 0.079535
0.082108 0.082108 0.082108
0.085294 0.085294 0.085294
0.086213 0.086213 0.086213
0.089951 0.089951 0.089951
0.091974 0.091974 0.091974
0.093873 0.093873 0.093873
0.097549 0.097549 0.097549
0.098653 0.098653 0.098653
0.101716 0.101716 0.101716
0.105637 0.105637 0.105637
0.109253 0.109253 0.109253
0.110171 0.110171 0.110171
0.113480 0.113480 0.113480
0.117402 0.117402 0.117402
0.120772 0.120772 0.120772
0.125245 0.125245 0.125245
0.126532 0.126532 0.126532
0.132843 0.132843 0.132843
0.133088 0.133088 0.133088
0.137131 0.137131 0.137131
0.141973 0.141973 0.141973
0.146814 0.146814 0.146814
0.151654 0.151654 0.151654
0.156495 0.156495 0.156495
0.161336 0.161336 0.161336
0.166176 0.166176 0.166176
0.171017 0.171017 0.171017
0.176226 0.176226 0.176226
0.184069 0.184069 0.184069
0.189461 0.189461 0.189461
0.194301 0.194301 0.194301
0.199755 0.199755 0.199755
0.207905 0.207905 0.207905
0.212745 0.212745 0.212745
0.221507 0.221507 0.221507
0.226348 0.226348 0.226348
0.231188 0.231188 0.231188
0.239950 0.239950 0.239950
0.246814 0.246814 0.246814
0.253554 0.253554 0.253554
0.258395 0.258395 0.258395
0.267156 0.267156 0.267156
0.274265 0.274265 0.274265
0.280760 0.280760 0.280760
0.289522 0.289522 0.289522
0.298285 0.298285 0.298285
0.307047 0.307047 0.307047
0.315809 0.315809 0.315809
0.324571 0.324571 0.324571
0.329902 0.329902 0.329902
0.346017 0.346017 0.346017
0.353187 0.353187 0.353187
0.367463 0.367463 0.367463
0.380147 0.380147 0.380147
0.068015 0.068015 0.068015
0.071262 0.071262 0.071262
0.071936 0.071936 0.071936
0.075184 0.075184 0.075184
0.075858 0.075858 0.075858
0.079105 0.079105 0.079105
0.079779 0.079779 0.079779
0.083027 0.083027 0.083027
0.083701 0.083701 0.083701
0.087623 0.087623 0.087623
0.090870 0.090870 0.090870
0.093137 0.093137 0.093137
0.094792 0.094792 0.094792
0.098713 0.098713 0.098713
0.099816 0.099816 0.099816
0.102635 0.102635 0.102635
0.105576 0.105576 0.105576
0.106556 0.106556 0.106556
0.110478 0.110478 0.110478
0.112255 0.112255 0.112255
0.114399 0.114399 0.114399
0.118321 0.118321 0.118321
0.122243 0.122243 0.122243
0.123775 0.123775 0.123775
0.126164 0.126164 0.126164
0.130086 0.130086 0.130086
0.134007 0.134007 0.134007
0.137929 0.137929 0.137929
0.140135 0.140135 0.140135
0.144975 0.144975 0.144975
0.149694 0.149694 0.149694
0.150368 0.150368 0.150368
0.154289 0.154289 0.154289
0.161458 0.161458 0.161458
0.165380 0.165380 0.165380
0.169975 0.169975 0.169975
0.177145 0.177145 0.177145
0.183701 0.183701 0.183701
0.188542 0.188542 0.188542
0.193382 0.193382 0.193382
0.198223 0.198223 0.198223
0.204596 0.204596 0.204596
0.211825 0.211825 0.211825
0.216666 0.216666 0.216666
0.221508 0.221508 0.221508
0.228125 0.228125 0.228125
0.235111 0.235111 0.235111
0.239951 0.239951 0.239951
0.247733 0.247733 0.247733
0.253554 0.253554 0.253554
0.261642 0.261642 0.261642
0.267156 0.267156 0.267156
0.271997 0.271997 0.271997
0.280760 0.280760 0.280760
0.286949 0.286949 0.286949
0.294362 0.294362 0.294362
0.303125 0.303125 0.303125
0.311887 0.311887 0.311887
0.320649 0.320649 0.320649
0.329411 0.329411 0.329411
0.342095 0.342095 0.342095
0.350858 0.350858 0.350858
0.363541 0.363541 0.363541
0.375306 0.375306 0.375306
0.388235 0.388235 0.388235
0.080024 0.080024 0.080024
0.083946 0.083946 0.083946
0.083946 0.083946 0.083946
0.085539 0.085539 0.085539
0.087868 0.087868 0.087868
0.088542 0.088542 0.088542
0.091789 0.091789 0.091789
0.093382 0.093382 0.093382
0.095711 0.095711 0.095711
0.099632 0.099632 0.099632
0.099632 0.099632 0.099632
0.103554 0.103554 0.103554
0.103554 0.103554 0.103554
0.107475 0.107475 0.107475
0.108578 0.108578 0.108578
0.111397 0.111397 0.111397
0.112990 0.112990 0.112990
0.115318 0.115318 0.115318
0.119240 0.119240 0.119240
0.120833 0.120833 0.120833
0.125858 0.125858 0.125858
0.127083 0.127083 0.127083
0.131005 0.131005 0.131005
0.132537 0.132537 0.132537
0.137377 0.137377 0.137377
0.138848 0.138848 0.138848
0.143137 0.143137 0.143137
0.146691 0.146691 0.146691
0.150613 0.150613 0.150613
0.152206 0.152206 0.152206
0.160049 0.160049 0.160049
0.162377 0.162377 0.162377
0.166299 0.166299 0.166299
0.173101 0.173101 0.173101
0.177941 0.177941 0.177941
0.181985 0.181985 0.181985
0.187623 0.187623 0.187623
0.192463 0.192463 0.192463
0.197304 0.197304 0.197304
0.202144 0.202144 0.202144
0.206986 0.206986 0.206986
0.213358 0.213358 0.213358
0.220588 0.220588 0.220588
0.225429 0.225429 0.225429
0.230270 0.230270 0.230270
0.236887 0.236887 0.236887
0.243873 0.243873 0.243873
0.248714 0.248714 0.248714
0.253554 0.253554 0.253554
0.262317 0.262317 0.262317
0.267157 0.267157 0.267157
0.272181 0.272181 0.272181
0.280760 0.280760 0.280760
0.289523 0.289523 0.289523
0.294362 0.294362 0.294362
0.303124 0.303124 0.303124
0.311887 0.311887 0.311887
0.320649 0.320649 0.320649
0.329411 0.329411 0.329411
0.338173 0.338173 0.338173
0.350858 0.350858 0.350858
0.359620 0.359620 0.359620
0.372794 0.372794 0.372794
0.381067 0.381067 0.381067
0.393750 0.393750 0.393750
0.092709 0.092709 0.092709
0.095220 0.095220 0.095220
0.096630 0.096630 0.096630
0.096630 0.096630 0.096630
0.099142 0.099142 0.099142
0.100552 0.100552 0.100552
0.102144 0.102144 0.102144
0.104473 0.104473 0.104473
0.107905 0.107905 0.107905
0.108395 0.108395 0.108395
0.109742 0.109742 0.109742
0.112316 0.112316 0.112316
0.114828 0.114828 0.114828
0.118750 0.118750 0.118750
0.120160 0.120160 0.120160
0.122181 0.122181 0.122181
0.124081 0.124081 0.124081
0.126593 0.126593 0.126593
0.130514 0.130514 0.130514
0.131924 0.131924 0.131924
0.134436 0.134436 0.134436
0.139460 0.139460 0.139460
0.142279 0.142279 0.142279
0.143689 0.143689 0.143689
0.146140 0.146140 0.146140
0.150980 0.150980 0.150980
0.151900 0.151900 0.151900
0.156740 0.156740 0.156740
0.161887 0.161887 0.161887
0.166421 0.166421 0.166421
0.167341 0.167341 0.167341
0.172181 0.172181 0.172181
0.177022 0.177022 0.177022
0.181863 0.181863 0.181863
0.185416 0.185416 0.185416
0.191544 0.191544 0.191544
0.196385 0.196385 0.196385
0.201103 0.201103 0.201103
0.205024 0.205024 0.205024
0.210906 0.210906 0.210906
0.218199 0.218199 0.218199
0.222120 0.222120 0.222120
0.229351 0.229351 0.229351
0.234192 0.234192 0.234192
0.239032 0.239032 0.239032
0.245650 0.245650 0.245650
0.252635 0.252635 0.252635
0.257475 0.257475 0.257475
0.262317 0.262317 0.262317
0.269179 0.269179 0.269179
0.275919 0.275919 0.275919
0.280944 0.280944 0.280944
0.289523 0.289523 0.289523
0.296630 0.296630 0.296630
0.303125 0.303125 0.303125
0.311888 0.311888 0.311888
0.320649 0.320649 0.320649
0.329411 0.329411 0.329411
0.338174 0.338174 0.338174
0.346936 0.346936 0.346936
0.355944 0.355944 0.355944
0.368383 0.368383 0.368383
0.376716 0.376716 0.376716
0.389829 0.389829 0.389829
0.402513 0.402513 0.402513
0.105392 0.105392 0.105392
0.108824 0.108824 0.108824
0.107231 0.107231 0.107231
0.109314 0.109314 0.109314
0.109314 0.109314 0.109314
0.109987 0.109987 0.109987
0.113235 0.113235 0.113235
0.116667 0.116667 0.116667
0.117157 0.117157 0.117157
0.117586 0.117586 0.117586
0.121079 0.121079 0.121079
0.124510 0.124510 0.124510
0.125000 0.125000 0.125000
0.128922 0.128922 0.128922
0.132353 0.132353 0.132353
0.132843 0.132843 0.132843
0.136275 0.136275 0.136275
0.136765 0.136765 0.136765
0.140686 0.140686 0.140686
0.142463 0.142463 0.142463
0.148040 0.148040 0.148040
0.148530 0.148530 0.148530
0.152451 0.152451 0.152451
0.153983 0.153983 0.153983
0.156373 0.156373 0.156373
0.160294 0.160294 0.160294
0.167647 0.167647 0.167647
0.168137 0.168137 0.168137
0.170343 0.170343 0.170343
0.175184 0.175184 0.175184
0.183334 0.183334 0.183334
0.183824 0.183824 0.183824
0.187745 0.187745 0.187745
0.191667 0.191667 0.191667
0.195588 0.195588 0.195588
0.200306 0.200306 0.200306
0.207353 0.207353 0.207353
0.211275 0.211275 0.211275
0.215196 0.215196 0.215196
0.223039 0.223039 0.223039
0.226961 0.226961 0.226961
0.233272 0.233272 0.233272
0.238113 0.238113 0.238113
0.242647 0.242647 0.242647
0.247793 0.247793 0.247793
0.254412 0.254412 0.254412
0.257966 0.257966 0.257966
0.262806 0.262806 0.262806
0.271079 0.271079 0.271079
0.277941 0.277941 0.277941
0.284682 0.284682 0.284682
0.290012 0.290012 0.290012
0.298285 0.298285 0.298285
0.303124 0.303124 0.303124
0.311888 0.311888 0.311888
0.320650 0.320650 0.320650
0.329411 0.329411 0.329411
0.338173 0.338173 0.338173
0.346936 0.346936 0.346936
0.355699 0.355699 0.355699
0.364460 0.364460 0.364460
0.377144 0.377144 0.377144
0.385906 0.385906 0.385906
0.398591 0.398591 0.398591
0.407353 0.407353 0.407353
0.118076 0.118076 0.118076
0.118076 0.118076 0.118076
0.119914 0.119914 0.119914
0.118505 0.118505 0.118505
0.121998 0.121998 0.121998
0.122672 0.122672 0.122672
0.125919 0.125919 0.125919
0.125919 0.125919 0.125919
0.126348 0.126348 0.126348
0.129841 0.129841 0.129841
0.131189 0.131189 0.131189
0.133762 0.133762 0.133762
0.136948 0.136948 0.136948
0.138113 0.138113 0.138113
0.141605 0.141605 0.141605
0.143627 0.143627 0.143627
0.145527 0.145527 0.145527
0.145956 0.145956 0.145956
0.150307 0.150307 0.150307
0.153370 0.153370 0.153370
0.153799 0.153799 0.153799
0.160907 0.160907 0.160907
0.161826 0.161826 0.161826
0.165135 0.165135 0.165135
0.165564 0.165564 0.165564
0.172426 0.172426 0.172426
0.173346 0.173346 0.173346
0.178187 0.178187 0.178187
0.183027 0.183027 0.183027
0.187868 0.187868 0.187868
0.188786 0.188786 0.188786
0.193628 0.193628 0.193628
0.198468 0.198468 0.198468
0.203308 0.203308 0.203308
0.208150 0.208150 0.208150
0.212194 0.212194 0.212194
0.216115 0.216115 0.216115
0.220037 0.220037 0.220037
0.223958 0.223958 0.223958
0.231802 0.231802 0.231802
0.235723 0.235723 0.235723
0.239645 0.239645 0.239645
0.246874 0.246874 0.246874
0.251409 0.251409 0.251409
0.256556 0.256556 0.256556
0.261398 0.261398 0.261398
0.267096 0.267096 0.267096
0.274939 0.274939 0.274939
0.278860 0.278860 0.278860
0.284681 0.284681 0.284681
0.290625 0.290625 0.290625
0.298285 0.298285 0.298285
0.303125 0.303125 0.303125
0.311887 0.311887 0.311887
0.320649 0.320649 0.320649
0.329411 0.329411 0.329411
0.334252 0.334252 0.334252
0.343014 0.343014 0.343014
0.355270 0.355270 0.355270
0.364032 0.364032 0.364032
0.373223 0.373223 0.373223
0.381985 0.381985 0.381985
0.396324 0.396324 0.396324
0.403431 0.403431 0.403431
0.416115 0.416115 0.416115
0.128186 0.128186 0.128186
0.130760 0.130760 0.130760
0.130760 0.130760 0.130760
0.133517 0.133517 0.133517
0.132108 0.132108 0.132108
0.134681 0.134681 0.134681
0.136274 0.136274 0.136274
0.136029 0.136029 0.136029
0.138603 0.138603 0.138603
0.139032 0.139032 0.139032
0.142524 0.142524 0.142524
0.143872 0.143872 0.143872
0.146446 0.146446 0.146446
0.150368 0.150368 0.150368
0.151716 0.151716 0.151716
0.154289 0.154289 0.154289
0.157230 0.157230 0.157230
0.158211 0.158211 0.158211
0.162132 0.162132 0.162132
0.163480 0.163480 0.163480
0.168750 0.168750 0.168750
0.169975 0.169975 0.169975
0.173897 0.173897 0.173897
0.175245 0.175245 0.175245
0.177819 0.177819 0.177819
0.181740 0.181740 0.181740
0.185662 0.185662 0.185662
0.189583 0.189583 0.189583
0.190931 0.190931 0.190931
0.194853 0.194853 0.194853
0.201348 0.201348 0.201348
0.205270 0.205270 0.205270
0.207231 0.207231 0.207231
0.212071 0.212071 0.212071
0.216912 0.216912 0.216912
0.220956 0.220956 0.220956
0.226593 0.226593 0.226593
0.231434 0.231434 0.231434
0.232721 0.232721 0.232721
0.240564 0.240564 0.240564
0.244485 0.244485 0.244485
0.248407 0.248407 0.248407
0.252328 0.252328 0.252328
0.260172 0.260172 0.260172
0.264093 0.264093 0.264093
0.270160 0.270160 0.270160
0.274999 0.274999 0.274999
0.279840 0.279840 0.279840
0.287623 0.287623 0.287623
0.293443 0.293443 0.293443
0.300858 0.300858 0.300858
0.307047 0.307047 0.307047
0.311887 0.311887 0.311887
0.320649 0.320649 0.320649
0.329411 0.329411 0.329411
0.334681 0.334681 0.334681
0.343014 0.343014 0.343014
0.351777 0.351777 0.351777
0.360540 0.360540 0.360540
0.369302 0.369302 0.369302
0.381985 0.381985 0.381985
0.390747 0.390747 0.390747
0.399510 0.399510 0.399510
0.412193 0.412193 0.412193
0.420956 0.420956 0.420956
0.139522 0.139522 0.139522
0.141789 0.141789 0.141789
0.143443 0.143443 0.143443
0.143443 0.143443 0.143443
0.147120 0.147120 0.147120
0.144118 0.144118 0.144118
0.147365 0.147365 0.147365
0.149877 0.149877 0.149877
0.149632 0.149632 0.149632
0.153554 0.153554 0.153554
0.152635 0.152635 0.152635
0.155208 0.155208 0.155208
0.157475 0.157475 0.157475
0.161397 0.161397 0.161397
0.163051 0.163051 0.163051
0.165318 0.165318 0.165318
0.166973 0.166973 0.166973
0.169240 0.169240 0.169240
0.173162 0.173162 0.173162
0.174816 0.174816 0.174816
0.177083 0.177083 0.177083
0.182353 0.182353 0.182353
0.183272 0.183272 0.183272
0.186581 0.186581 0.186581
0.188848 0.188848 0.188848
0.193872 0.193872 0.193872
0.194792 0.194792 0.194792
0.200613 0.200613 0.200613
0.202267 0.202267 0.202267
0.206189 0.206189 0.206189
0.212377 0.212377 0.212377
0.214032 0.214032 0.214032
0.217953 0.217953 0.217953
0.220220 0.220220 0.220220
0.224142 0.224142 0.224142
0.230514 0.230514 0.230514
0.235356 0.235356 0.235356
0.240196 0.240196 0.240196
0.245037 0.245037 0.245037
0.249326 0.249326 0.249326
0.253247 0.253247 0.253247
0.257169 0.257169 0.257169
0.261091 0.261091 0.261091
0.268934 0.268934 0.268934
0.272855 0.272855 0.272855
0.278922 0.278922 0.278922
0.283762 0.283762 0.283762
0.288604 0.288604 0.288604
0.296385 0.296385 0.296385
0.302206 0.302206 0.302206
0.307047 0.307047 0.307047
0.315809 0.315809 0.315809
0.320649 0.320649 0.320649
0.329411 0.329411 0.329411
0.335600 0.335600 0.335600
0.343015 0.343015 0.343015
0.351778 0.351778 0.351778
0.360540 0.360540 0.360540
0.369302 0.369302 0.369302
0.378063 0.378063 0.378063
0.390747 0.390747 0.390747
0.399510 0.399510 0.399510
0.408272 0.408272 0.408272
0.417035 0.417035 0.417035
0.429718 0.429718 0.429718
0.152206 0.152206 0.152206
0.155392 0.155392 0.155392
0.155392 0.155392 0.155392
0.154964 0.154964 0.154964
0.156128 0.156128 0.156128
0.159313 0.159313 0.159313
0.157720 0.157720 0.157720
0.160049 0.160049 0.160049
0.163481 0.163481 0.163481
0.163971 0.163971 0.163971
0.167156 0.167156 0.167156
0.167892 0.167892 0.167892
0.171078 0.171078 0.171078
0.171814 0.171814 0.171814
0.172917 0.172917 0.172917
0.175736 0.175736 0.175736
0.178676 0.178676 0.178676
0.179657 0.179657 0.179657
0.183579 0.183579 0.183579
0.185355 0.185355 0.185355
0.190686 0.190686 0.190686
0.191422 0.191422 0.191422
0.195343 0.195343 0.195343
0.196875 0.196875 0.196875
0.199265 0.199265 0.199265
0.203187 0.203187 0.203187
0.207108 0.207108 0.207108
0.208395 0.208395 0.208395
0.213235 0.213235 0.213235
0.218137 0.218137 0.218137
0.218994 0.218994 0.218994
0.225980 0.225980 0.225980
0.226716 0.226716 0.226716
0.230638 0.230638 0.230638
0.234559 0.234559 0.234559
0.239276 0.239276 0.239276
0.244118 0.244118 0.244118
0.248958 0.248958 0.248958
0.253799 0.253799 0.253799
0.258089 0.258089 0.258089
0.262010 0.262010 0.262010
0.265932 0.265932 0.265932
0.269853 0.269853 0.269853
0.274080 0.274080 0.274080
0.281618 0.281618 0.281618
0.284498 0.284498 0.284498
0.292525 0.292525 0.292525
0.297366 0.297366 0.297366
0.302205 0.302205 0.302205
0.307782 0.307782 0.307782
0.315809 0.315809 0.315809
0.324571 0.324571 0.324571
0.329411 0.329411 0.329411
0.338173 0.338173 0.338173
0.344363 0.344363 0.344363
0.351777 0.351777 0.351777
0.360540 0.360540 0.360540
0.369302 0.369302 0.369302
0.378064 0.378064 0.378064
0.386826 0.386826 0.386826
0.395589 0.395589 0.395589
0.405086 0.405086 0.405086
0.417035 0.417035 0.417035
0.425797 0.425797 0.425797
0.435294 0.435294 0.435294
0.164890 0.164890 0.164890
0.164890 0.164890 0.164890
0.165074 0.165074 0.165074
0.165074 0.165074 0.165074
0.168811 0.168811 0.168811
0.168811 0.168811 0.168811
0.168995 0.168995 0.168995
0.172733 0.172733 0.172733
0.172733 0.172733 0.172733
0.172917 0.172917 0.172917
0.176655 0.176655 0.176655
0.176839 0.176839 0.176839
0.180576 0.180576 0.180576
0.180760 0.180760 0.180760
0.184498 0.184498 0.184498
0.184682 0.184682 0.184682
0.188419 0.188419 0.188419
0.188603 0.188603 0.188603
0.193199 0.193199 0.193199
0.196262 0.196262 0.196262
0.200184 0.200184 0.200184
0.203799 0.203799 0.203799
0.204106 0.204106 0.204106
0.208027 0.208027 0.208027
0.210477 0.210477 0.210477
0.211949 0.211949 0.211949
0.215870 0.215870 0.215870
0.219792 0.219792 0.219792
0.221998 0.221998 0.221998
0.226838 0.226838 0.226838
0.227757 0.227757 0.227757
0.231557 0.231557 0.231557
0.235478 0.235478 0.235478
0.239400 0.239400 0.239400
0.243321 0.243321 0.243321
0.247243 0.247243 0.247243
0.251164 0.251164 0.251164
0.255086 0.255086 0.255086
0.259008 0.259008 0.259008
