Color/CreativePack-1/CrispWarm 65x.cube
TITLE "CrispWarm"
LUT_3D_SIZE 9
DOMAIN_MIN 0.000000 0.000000 0.000000
DOMAIN_MAX 1.000000 1.000000 1.000000
0.000000 0.000000 0.000000
0.006863 0.000000 0.000000
0.182353 0.000000 0.000000
0.361765 0.000000 0.000000
0.541176 0.000000 0.000000
0.720588 0.000000 0.000000
0.897059 0.000000 0.000000
1.000000 0.000000 0.000000
1.000000 0.000000 0.000000
0.000000 0.003432 0.000000
0.006863 0.003432 0.000000
0.182353 0.003432 0.000000
0.361765 0.003432 0.000000
0.541176 0.003432 0.000000
0.720588 0.003432 0.000000
0.897059 0.003432 0.000000
1.000000 0.003432 0.000000
1.000000 0.003432 0.000000
0.000000 0.162745 0.000000
0.006863 0.162745 0.000000
0.182353 0.162745 0.000000
0.361765 0.162745 0.000000
0.541177 0.162745 0.000000
0.720588 0.162745 0.000000
0.897059 0.162745 0.000000
1.000000 0.162745 0.000000
1.000000 0.162745 0.000000
0.000000 0.322549 0.000000
0.006863 0.322549 0.000000
0.182353 0.322549 0.000000
0.361765 0.322549 0.000000
0.541176 0.322549 0.000000
0.720588 0.322549 0.000000
0.897059 0.322549 0.000000
1.000000 0.322549 0.000000
1.000000 0.322549 0.000000
0.000000 0.482353 0.000000
0.006863 0.482353 0.000000
0.182353 0.482353 0.000000
0.361765 0.482353 0.000000
0.541176 0.482353 0.000000
0.720588 0.482353 0.000000
0.897059 0.482353 0.000000
1.000000 0.482353 0.000000
1.000000 0.482353 0.000000
0.000000 0.642157 0.000000
0.006863 0.642157 0.000000
0.182353 0.642157 0.000000
0.361765 0.642157 0.000000
0.541176 0.642157 0.000000
0.720588 0.642157 0.000000
0.897059 0.642157 0.000000
1.000000 0.642157 0.000000
1.000000 0.642157 0.000000
0.000000 0.801961 0.000000
0.006863 0.801961 0.000000
0.182353 0.801961 0.000000
0.361765 0.801961 0.000000
0.541176 0.801961 0.000000
0.720588 0.801961 0.000000
0.897059 0.801961 0.000000
1.000000 0.801961 0.000000
1.000000 0.801961 0.000000
0.000000 0.958333 0.000000
0.006863 0.958334 0.000000
0.182353 0.958333 0.000000
0.361765 0.958333 0.000000
0.541176 0.958333 0.000000
0.720588 0.958333 0.000000
0.897059 0.958334 0.000000
1.000000 0.958333 0.000000
1.000000 0.958333 0.000000
0.000000 1.000000 0.000000
0.006863 1.000000 0.000000
0.182353 1.000000 0.000000
0.361765 1.000000 0.000000
0.541176 1.000000 0.000000
0.720588 1.000000 0.000000
0.897059 1.000000 0.000000
1.000000 1.000000 0.000000
1.000000 1.000000 0.000000
0.000000 0.000000 0.003432
0.006863 0.000000 0.003432
0.182353 0.000000 0.003432
0.361765 0.000000 0.003432
0.541176 0.000000 0.003432
0.720588 0.000000 0.003432
0.897059 0.000000 0.003432
1.000000 0.000000 0.003432
1.000000 0.000000 0.003432
0.000000 0.003432 0.003432
0.006863 0.003432 0.003432
0.182353 0.003432 0.003432
0.361765 0.003432 0.003432
0.541176 0.003432 0.003432
0.720588 0.003432 0.003432
0.897059 0.003432 0.003432
1.000000 0.003432 0.003432
1.000000 0.003432 0.003432
0.000000 0.162745 0.003432
0.006863 0.162745 0.003432
0.182353 0.162745 0.003432
0.361765 0.162745 0.003432
0.541176 0.162745 0.003432
0.720588 0.162745 0.003432
0.897059 0.162745 0.003432
1.000000 0.162745 0.003432
1.000000 0.162745 0.003432
0.000000 0.322549 0.003432
0.006863 0.322549 0.003432
0.182353 0.322549 0.003432
0.361765 0.322549 0.003432
0.541176 0.322549 0.003432
0.720588 0.322549 0.003432
0.897059 0.322549 0.003432
1.000000 0.322549 0.003432
1.000000 0.322549 0.003432
0.000000 0.482353 0.003432
0.006863 0.482353 0.003432
0.182353 0.482353 0.003432
0.361765 0.482353 0.003432
0.541176 0.482353 0.003432
0.720588 0.482353 0.003432
0.897059 0.482353 0.003432
1.000000 0.482353 0.003432
1.000000 0.482353 0.003432
0.000000 0.642157 0.003432
0.006863 0.642157 0.003432
0.182353 0.642157 0.003432
0.361765 0.642157 0.003432
0.541176 0.642157 0.003432
0.720588 0.642157 0.003432
0.897059 0.642157 0.003432
1.000000 0.642157 0.003432
1.000000 0.642157 0.003432
0.000000 0.801961 0.003432
0.006863 0.801961 0.003432
0.182353 0.801961 0.003432
0.361765 0.801961 0.003432
0.541176 0.801961 0.003432
0.720588 0.801961 0.003432
0.897059 0.801961 0.003432
1.000000 0.801961 0.003432
1.000000 0.801961 0.003432
0.000000 0.958333 0.003432
0.006863 0.958333 0.003432
0.182353 0.958333 0.003432
0.361765 0.958333 0.003432
0.541177 0.958333 0.003432
0.720588 0.958333 0.003432
0.897059 0.958334 0.003432
1.000000 0.958333 0.003432
1.000000 0.958333 0.003432
0.000000 1.000000 0.003432
0.006863 1.000000 0.003432
0.182353 1.000000 0.003432
0.361765 1.000000 0.003432
0.541176 1.000000 0.003432
0.720588 1.000000 0.003432
0.897059 1.000000 0.003432
1.000000 1.000000 0.003432
1.000000 1.000000 0.003432
0.000000 0.000000 0.143137
0.006863 0.000000 0.143137
0.182353 0.000000 0.143137
0.361765 0.000000 0.143137
0.541176 0.000000 0.143137
0.720588 0.000000 0.143137
0.897059 0.000000 0.143137
1.000000 0.000000 0.143137
1.000000 0.000000 0.143137
0.000000 0.003432 0.143137
0.006863 0.003432 0.143137
0.182353 0.003432 0.143137
0.361765 0.003432 0.143137
0.541176 0.003432 0.143137
0.720588 0.003432 0.143137
0.897059 0.003432 0.143137
1.000000 0.003432 0.143137
1.000000 0.003432 0.143137
0.000000 0.162745 0.143137
0.006863 0.162745 0.143137
0.182353 0.162745 0.143137
0.361765 0.162745 0.143137
0.541176 0.162745 0.143137
0.720588 0.162745 0.143137
0.897059 0.162745 0.143137
1.000000 0.162745 0.143137
1.000000 0.162745 0.143137
0.000000 0.322549 0.143137
0.006863 0.322549 0.143137
0.182353 0.322549 0.143137
0.361765 0.322549 0.143137
0.541176 0.322549 0.143137
0.720588 0.322549 0.143137
0.897059 0.322549 0.143137
1.000000 0.322549 0.143137
1.000000 0.322549 0.143137
0.000000 0.482353 0.143137
0.006863 0.482353 0.143137
0.182353 0.482353 0.143137
0.361765 0.482353 0.143137
0.541176 0.482353 0.143137
0.720588 0.482353 0.143137
0.897059 0.482353 0.143137
1.000000 0.482353 0.143137
1.000000 0.482353 0.143137
0.000000 0.642157 0.143137
0.006863 0.642157 0.143137
0.182353 0.642157 0.143137
0.361765 0.642157 0.143137
0.541176 0.642157 0.143137
0.720588 0.642157 0.143137
0.897059 0.642157 0.143137
1.000000 0.642157 0.143137
1.000000 0.642157 0.143137
0.000000 0.801961 0.143137
0.006863 0.801961 0.143137
0.182353 0.801961 0.143137
0.361765 0.801961 0.143137
0.541176 0.801961 0.143137
0.720588 0.801961 0.143137
0.897059 0.801961 0.143137
1.000000 0.801961 0.143137
1.000000 0.801961 0.143137
0.000000 0.958333 0.143137
0.006863 0.958333 0.143137
0.182353 0.958333 0.143137
0.361765 0.958333 0.143137
0.541177 0.958333 0.143137
0.720588 0.958333 0.143137
0.897059 0.958333 0.143137
1.000000 0.958333 0.143137
1.000000 0.958333 0.143137
0.000000 1.000000 0.143137
0.006863 1.000000 0.143137
0.182353 1.000000 0.143137
0.361765 1.000000 0.143137
0.541176 1.000000 0.143137
0.720588 1.000000 0.143137
0.897059 1.000000 0.143137
1.000000 1.000000 0.143137
1.000000 1.000000 0.143137
0.000000 0.000000 0.283334
0.006863 0.000000 0.283334
0.182353 0.000000 0.283334
0.361765 0.000000 0.283334
0.541176 0.000000 0.283334
0.720588 0.000000 0.283334
0.897059 0.000000 0.283334
1.000000 0.000000 0.283333
1.000000 0.000000 0.283334
0.000000 0.003432 0.283334
0.006863 0.003432 0.283334
0.182353 0.003432 0.283334
0.361765 0.003432 0.283334
0.541176 0.003432 0.283334
0.720588 0.003432 0.283334
0.897059 0.003432 0.283334
1.000000 0.003432 0.283333
1.000000 0.003432 0.283334
0.000000 0.162745 0.283334
0.006863 0.162745 0.283334
0.182353 0.162745 0.283334
0.361765 0.162745 0.283334
0.541176 0.162745 0.283334
0.720588 0.162745 0.283334
0.897059 0.162745 0.283334
1.000000 0.162745 0.283333
1.000000 0.162745 0.283334
0.000000 0.322549 0.283334
0.006863 0.322549 0.283334
0.182353 0.322549 0.283334
0.361765 0.322549 0.283334
0.541176 0.322549 0.283334
0.720588 0.322549 0.283334
0.897059 0.322549 0.283334
1.000000 0.322549 0.283333
1.000000 0.322549 0.283334
0.000000 0.482353 0.283334
0.006863 0.482353 0.283334
0.182353 0.482353 0.283334
0.361765 0.482353 0.283334
0.541176 0.482353 0.283334
0.720588 0.482353 0.283334
0.897059 0.482353 0.283334
1.000000 0.482353 0.283333
1.000000 0.482353 0.283334
0.000000 0.642157 0.283334
0.006863 0.642157 0.283334
0.182353 0.642157 0.283334
0.361765 0.642157 0.283334
0.541176 0.642157 0.283334
0.720588 0.642157 0.283334
0.897059 0.642157 0.283334
1.000000 0.642157 0.283333
1.000000 0.642157 0.283334
0.000000 0.801961 0.283334
0.006863 0.801961 0.283334
0.182353 0.801961 0.283334
0.361765 0.801961 0.283334
0.541176 0.801961 0.283334
0.720588 0.801961 0.283334
0.897059 0.801961 0.283334
1.000000 0.801961 0.283334
1.000000 0.801961 0.283334
0.000000 0.958333 0.283333
0.006863 0.958333 0.283333
0.182353 0.958333 0.283333
0.361765 0.958333 0.283333
0.541177 0.958333 0.283333
0.720588 0.958333 0.283333
0.897059 0.958333 0.283334
1.000000 0.958333 0.283333
1.000000 0.958333 0.283333
0.000000 1.000000 0.283334
0.006863 1.000000 0.283334
0.182353 1.000000 0.283334
0.361765 1.000000 0.283334
0.541176 1.000000 0.283334
0.720588 1.000000 0.283334
0.897059 1.000000 0.283334
1.000000 1.000000 0.283333
1.000000 1.000000 0.283334
0.000000 0.000000 0.423530
0.006863 0.000000 0.423530
0.182353 0.000000 0.423530
0.361765 0.000000 0.423530
0.541176 0.000000 0.423530
0.720588 0.000000 0.423530
0.897059 0.000000 0.423530
1.000000 0.000000 0.423530
1.000000 0.000000 0.423530
0.000000 0.003432 0.423530
0.006863 0.003432 0.423530
0.182353 0.003432 0.423530
0.361765 0.003432 0.423530
0.541176 0.003432 0.423530
0.720588 0.003432 0.423530
0.897059 0.003432 0.423530
1.000000 0.003432 0.423530
1.000000 0.003432 0.423530
0.000000 0.162745 0.423530
0.006863 0.162745 0.423530
0.182353 0.162745 0.423530
0.361765 0.162745 0.423530
0.541176 0.162745 0.423530
0.720588 0.162745 0.423530
0.897059 0.162745 0.423530
1.000000 0.162745 0.423530
1.000000 0.162745 0.423530
0.000000 0.322549 0.423530
0.006863 0.322549 0.423530
0.182353 0.322549 0.423530
0.361765 0.322549 0.423530
0.541176 0.322549 0.423530
0.720588 0.322549 0.423530
0.897059 0.322549 0.423530
1.000000 0.322549 0.423530
1.000000 0.322549 0.423530
0.000000 0.482353 0.423530
0.006863 0.482353 0.423530
0.182353 0.482353 0.423530
0.361765 0.482353 0.423530
0.541176 0.482353 0.423530
0.720588 0.482353 0.423530
0.897059 0.482353 0.423530
1.000000 0.482353 0.423530
1.000000 0.482353 0.423530
0.000000 0.642157 0.423530
0.006863 0.642157 0.423530
0.182353 0.642157 0.423530
0.361765 0.642157 0.423530
0.541176 0.642157 0.423530
0.720588 0.642157 0.423530
0.897059 0.642157 0.423530
1.000000 0.642157 0.423530
1.000000 0.642157 0.423530
0.000000 0.801961 0.423530
0.006863 0.801961 0.423530
0.182353 0.801961 0.423530
0.361765 0.801961 0.423530
0.541176 0.801961 0.423530
0.720588 0.801961 0.423530
0.897059 0.801961 0.423530
1.000000 0.801961 0.423530
1.000000 0.801961 0.423530
0.000000 0.958333 0.423530
0.006863 0.958333 0.423530
0.182353 0.958333 0.423530
0.361765 0.958333 0.423530
0.541177 0.958333 0.423530
0.720588 0.958333 0.423530
0.897059 0.958333 0.423530
1.000000 0.958333 0.423530
1.000000 0.958333 0.423530
0.000000 1.000000 0.423530
0.006863 1.000000 0.423530
0.182353 1.000000 0.423530
0.361765 1.000000 0.423530
0.541176 1.000000 0.423530
0.720588 1.000000 0.423530
0.897059 1.000000 0.423530
1.000000 1.000000 0.423530
1.000000 1.000000 0.423530
0.000000 0.000000 0.563725
0.006863 0.000000 0.563725
0.182353 0.000000 0.563725
0.361765 0.000000 0.563725
0.541176 0.000000 0.563725
0.720588 0.000000 0.563725
0.897059 0.000000 0.563725
1.000000 0.000000 0.563725
1.000000 0.000000 0.563725
0.000000 0.003432 0.563725
0.006863 0.003432 0.563725
0.182353 0.003432 0.563725
0.361765 0.003432 0.563725
0.541176 0.003432 0.563725
0.720588 0.003432 0.563725
0.897059 0.003432 0.563725
1.000000 0.003432 0.563725
1.000000 0.003432 0.563725
0.000000 0.162745 0.563725
0.006863 0.162745 0.563725
0.182353 0.162745 0.563725
0.361765 0.162745 0.563725
0.541177 0.162745 0.563725
0.720588 0.162745 0.563725
0.897059 0.162745 0.563725
1.000000 0.162745 0.563725
1.000000 0.162745 0.563725
0.000000 0.322549 0.563725
0.006863 0.322549 0.563725
0.182353 0.322549 0.563725
0.361765 0.322549 0.563725
0.541177 0.322549 0.563725
0.720588 0.322549 0.563725
0.897059 0.322549 0.563725
1.000000 0.322549 0.563725
1.000000 0.322549 0.563725
0.000000 0.482353 0.563725
0.006863 0.482353 0.563725
0.182353 0.482353 0.563725
0.361765 0.482353 0.563725
0.541176 0.482353 0.563725
0.720588 0.482353 0.563725
0.897059 0.482353 0.563725
1.000000 0.482353 0.563725
1.000000 0.482353 0.563725
0.000000 0.642157 0.563725
0.006863 0.642157 0.563725
0.182353 0.642157 0.563725
0.361765 0.642157 0.563725
0.541176 0.642157 0.563725
0.720588 0.642157 0.563725
0.897059 0.642157 0.563725
1.000000 0.642157 0.563725
1.000000 0.642157 0.563725
0.000000 0.801961 0.563725
0.006863 0.801961 0.563725
0.182353 0.801961 0.563725
0.361765 0.801961 0.563725
0.541176 0.801961 0.563725
0.720588 0.801961 0.563725
0.897059 0.801961 0.563725
1.000000 0.801961 0.563725
1.000000 0.801961 0.563725
0.000000 0.958333 0.563725
0.006863 0.958333 0.563725
0.182353 0.958333 0.563725
0.361765 0.958333 0.563725
0.541177 0.958333 0.563725
0.720588 0.958333 0.563725
0.897059 0.958334 0.563725
1.000000 0.958333 0.563725
1.000000 0.958333 0.563725
0.000000 1.000000 0.563725
0.006863 1.000000 0.563725
0.182353 1.000000 0.563725
0.361765 1.000000 0.563725
0.541176 1.000000 0.563725
0.720588 1.000000 0.563725
0.897059 1.000000 0.563725
1.000000 1.000000 0.563725
1.000000 1.000000 0.563725
0.000000 0.000000 0.703922
0.006863 0.000000 0.703922
0.182353 0.000000 0.703922
0.361765 0.000000 0.703922
0.541176 0.000000 0.703922
0.720588 0.000000 0.703922
0.897059 0.000000 0.703922
1.000000 0.000000 0.703922
1.000000 0.000000 0.703922
0.000000 0.003432 0.703922
0.006863 0.003432 0.703922
0.182353 0.003432 0.703922
0.361765 0.003432 0.703922
0.541176 0.003432 0.703922
0.720588 0.003432 0.703922
0.897059 0.003432 0.703922
1.000000 0.003432 0.703922
1.000000 0.003432 0.703922
0.000000 0.162745 0.703922
0.006863 0.162745 0.703922
0.182353 0.162745 0.703922
0.361765 0.162745 0.703922
0.541176 0.162745 0.703922
0.720588 0.162745 0.703922
0.897059 0.162745 0.703922
1.000000 0.162745 0.703922
1.000000 0.162745 0.703922
0.000000 0.322549 0.703922
0.006863 0.322549 0.703922
0.182353 0.322549 0.703922
0.361765 0.322549 0.703922
0.541177 0.322549 0.703922
0.720588 0.322549 0.703922
0.897059 0.322549 0.703922
1.000000 0.322549 0.703922
1.000000 0.322549 0.703922
0.000000 0.482353 0.703922
0.006863 0.482353 0.703922
0.182353 0.482353 0.703922
0.361765 0.482353 0.703922
0.541176 0.482353 0.703922
0.720588 0.482353 0.703922
0.897059 0.482353 0.703922
1.000000 0.482353 0.703922
1.000000 0.482353 0.703922
0.000000 0.642157 0.703922
0.006863 0.642157 0.703922
0.182353 0.642157 0.703922
0.361765 0.642157 0.703922
0.541176 0.642157 0.703922
0.720588 0.642157 0.703922
0.897059 0.642157 0.703922
1.000000 0.642157 0.703922
1.000000 0.642157 0.703922
0.000000 0.801961 0.703922
0.006863 0.801961 0.703922
0.182353 0.801961 0.703922
0.361765 0.801961 0.703922
0.541176 0.801961 0.703922
0.720588 0.801961 0.703922
0.897059 0.801961 0.703922
1.000000 0.801961 0.703922
1.000000 0.801961 0.703922
0.000000 0.958333 0.703922
0.006863 0.958334 0.703922
0.182353 0.958333 0.703922
0.361765 0.958333 0.703922
0.541176 0.958333 0.703922
0.720588 0.958334 0.703922
0.897059 0.958333 0.703922
1.000000 0.958333 0.703922
1.000000 0.958333 0.703922
0.000000 1.000000 0.703922
0.006863 1.000000 0.703922
0.182353 1.000000 0.703922
0.361765 1.000000 0.703922
0.541176 1.000000 0.703922
0.720588 1.000000 0.703922
0.897059 1.000000 0.703922
1.000000 1.000000 0.703922
1.000000 1.000000 0.703922
0.000000 0.000000 0.844117
0.006863 0.000000 0.844117
0.182353 0.000000 0.844117
0.361765 0.000000 0.844117
0.541177 0.000000 0.844117
0.720588 0.000000 0.844117
0.897059 0.000000 0.844117
1.000000 0.000000 0.844117
1.000000 0.000000 0.844117
0.000000 0.003432 0.844117
0.006863 0.003432 0.844117
0.182353 0.003432 0.844117
0.361765 0.003432 0.844117
0.541177 0.003432 0.844117
0.720588 0.003432 0.844117
0.897059 0.003432 0.844117
1.000000 0.003432 0.844117
1.000000 0.003432 0.844117
0.000000 0.162745 0.844117
0.006863 0.162745 0.844117
0.182353 0.162745 0.844117
0.361765 0.162745 0.844117
0.541177 0.162745 0.844117
0.720588 0.162745 0.844117
0.897059 0.162745 0.844117
1.000000 0.162745 0.844117
1.000000 0.162745 0.844117
0.000000 0.322549 0.844117
0.006863 0.322549 0.844117
0.182353 0.322549 0.844117
0.361765 0.322549 0.844117
0.541177 0.322549 0.844117
0.720588 0.322549 0.844117
0.897059 0.322549 0.844117
1.000000 0.322549 0.844117
1.000000 0.322549 0.844117
0.000000 0.482353 0.844117
0.006863 0.482353 0.844117
0.182353 0.482353 0.844117
0.361765 0.482353 0.844117
0.541177 0.482353 0.844117
0.720588 0.482353 0.844117
0.897059 0.482353 0.844117
1.000000 0.482353 0.844117
1.000000 0.482353 0.844117
0.000000 0.642157 0.844117
0.006863 0.642157 0.844117
0.182353 0.642157 0.844117
0.361765 0.642157 0.844117
0.541177 0.642157 0.844117
0.720588 0.642157 0.844117
0.897059 0.642157 0.844117
1.000000 0.642157 0.844117
1.000000 0.642157 0.844117
0.000000 0.801961 0.844117
0.006863 0.801961 0.844117
0.182353 0.801961 0.844117
0.361765 0.801961 0.844117
0.541177 0.801961 0.844117
0.720588 0.801961 0.844117
0.897059 0.801961 0.844117
1.000000 0.801961 0.844117
1.000000 0.801961 0.844117
0.000000 0.958333 0.844117
0.006863 0.958333 0.844117
0.182353 0.958333 0.844117
0.361765 0.958333 0.844117
0.541177 0.958333 0.844117
0.720588 0.958333 0.844117
0.897059 0.958333 0.844117
1.000000 0.958333 0.844117
1.000000 0.958333 0.844117
0.000000 1.000000 0.844117
0.006863 1.000000 0.844117
0.182353 1.000000 0.844117
0.361765 1.000000 0.844117
0.541177 1.000000 0.844117
0.720588 1.000000 0.844117
0.897059 1.000000 0.844117
1.000000 1.000000 0.844117
1.000000 1.000000 0.844117
0.000000 0.000000 0.980392
0.006863 0.000000 0.980392
0.182353 0.000000 0.980392
0.361765 0.000000 0.980392
0.541176 0.000000 0.980392
0.720588 0.000000 0.980392
0.897059 0.000000 0.980392
1.000000 0.000000 0.980392
1.000000 0.000000 0.980392
0.000000 0.003432 0.980392
0.006863 0.003432 0.980392
0.182353 0.003432 0.980392
0.361765 0.003432 0.980392
0.541176 0.003432 0.980392
0.720588 0.003432 0.980392
0.897059 0.003432 0.980392
1.000000 0.003432 0.980392
1.000000 0.003432 0.980392
0.000000 0.162745 0.980392
0.006863 0.162745 0.980392
0.182353 0.162745 0.980392
0.361765 0.162745 0.980392
0.541177 0.162745 0.980392
0.720588 0.162745 0.980392
0.897059 0.162745 0.980392
1.000000 0.162745 0.980392
1.000000 0.162745 0.980392
0.000000 0.322549 0.980392
0.006863 0.322549 0.980392
0.182353 0.322549 0.980392
0.361765 0.322549 0.980392
0.541176 0.322549 0.980392
0.720588 0.322549 0.980392
0.897059 0.322549 0.980392
1.000000 0.322549 0.980392
1.000000 0.322549 0.980392
0.000000 0.482353 0.980392
0.006863 0.482353 0.980392
0.182353 0.482353 0.980392
0.361765 0.482353 0.980392
0.541176 0.482353 0.980392
0.720588 0.482353 0.980392
0.897059 0.482353 0.980392
1.000000 0.482353 0.980392
1.000000 0.482353 0.980392
0.000000 0.642157 0.980392
0.006863 0.642157 0.980392
0.182353 0.642157 0.980392
0.361765 0.642157 0.980392
0.541176 0.642157 0.980392
0.720588 0.642157 0.980392
0.897059 0.642157 0.980392
1.000000 0.642157 0.980392
1.000000 0.642157 0.980392
0.000000 0.801961 0.980392
0.006863 0.801961 0.980392
0.182353 0.801961 0.980392
0.361765 0.801961 0.980392
0.541176 0.801961 0.980392
0.720588 0.801961 0.980392
0.897059 0.801961 0.980392
1.000000 0.801961 0.980392
1.000000 0.801961 0.980392
0.000000 0.958333 0.980392
0.006863 0.958334 0.980392
0.182353 0.958333 0.980392
0.361765 0.958333 0.980392
0.541176 0.958333 0.980392
0.720588 0.958333 0.980392
0.897059 0.958334 0.980392
1.000000 0.958333 0.980392
1.000000 0.958333 0.980392
0.000000 1.000000 0.980392
0.006863 1.000000 0.980392
0.182353 1.000000 0.980392
0.361765 1.000000 0.980392
0.541176 1.000000 0.980392
0.720588 1.000000 0.980392
0.897059 1.000000 0.980392
1.000000 1.000000 0.980392
1.000000 1.000000 0.980392
