Color/CreativePack-1/CrispWinter 65x.cube
TITLE "CrispWinter"
LUT_3D_SIZE 5
DOMAIN_MIN 0.000000 0.000000 0.000000
DOMAIN_MAX 1.000000 1.000000 1.000000
0.000000 0.000000 0.000000
0.267647 0.000000 0.000000
0.568628 0.000000 0.000000
0.849020 0.000000 0.000000
1.000000 0.000000 0.000000
0.000000 0.338235 0.000000
0.245098 0.326471 0.000000
0.549019 0.311765 0.000000
0.829412 0.299020 0.000000
1.000000 0.284314 0.000000
0.000000 0.680392 0.000000
0.221568 0.668628 0.000000
0.529411 0.656863 0.000000
0.809804 0.643138 0.000000
1.000000 0.631373 0.000000
0.000000 0.994118 0.000000
0.198039 0.983333 0.000000
0.505883 0.974510 0.000000
0.790196 0.962745 0.000000
1.000000 0.950981 0.000000
0.000000 1.000000 0.000000
0.174510 1.000000 0.000000
0.486274 1.000000 0.000000
0.770588 1.000000 0.000000
1.000000 1.000000 0.000000
0.000000 0.000000 0.467647
0.263726 0.000000 0.451961
0.564705 0.000000 0.436275
0.845098 0.000000 0.420588
1.000000 0.000000 0.404902
0.000000 0.334314 0.436275
0.241176 0.319608 0.424510
0.545098 0.306863 0.408824
0.825490 0.292157 0.393137
1.000000 0.279412 0.377451
0.000000 0.676470 0.408824
0.217647 0.662745 0.393137
0.525490 0.650980 0.377451
0.805883 0.639215 0.361765
1.000000 0.627451 0.346079
0.000000 0.990196 0.377451
0.194117 0.978432 0.361765
0.502941 0.969608 0.346079
0.786275 0.958824 0.330392
1.000000 0.947059 0.313725
0.000000 1.000000 0.346079
0.170588 1.000000 0.330392
0.482353 1.000000 0.314706
0.766667 1.000000 0.298039
1.000000 1.000000 0.279412
0.000000 0.000000 0.872549
0.259804 0.000000 0.858823
0.560785 0.000000 0.845098
0.841177 0.000000 0.832353
1.000000 0.000000 0.817647
0.000000 0.328431 0.845098
0.237255 0.315686 0.833333
0.541176 0.302941 0.818627
0.821569 0.287255 0.805882
1.000000 0.275490 0.791176
0.000000 0.670589 0.819608
0.213725 0.658824 0.805883
0.521568 0.647058 0.792156
0.801961 0.635294 0.778431
1.000000 0.623530 0.764706
0.000000 0.986275 0.793137
0.190196 0.974510 0.778431
0.499020 0.963725 0.766667
0.782353 0.954902 0.750981
1.000000 0.943137 0.739216
0.000000 1.000000 0.766667
0.165686 1.000000 0.751961
0.478432 1.000000 0.739216
0.762745 1.000000 0.723529
1.000000 1.000000 0.711765
0.000000 0.000000 1.000000
0.252941 0.000000 1.000000
0.556863 0.000000 1.000000
0.837255 0.000000 1.000000
1.000000 0.000000 1.000000
0.000000 0.323529 1.000000
0.233333 0.310785 1.000000
0.537254 0.296078 1.000000
0.817647 0.283334 1.000000
1.000000 0.267647 1.000000
0.000000 0.666667 1.000000
0.210785 0.654902 1.000000
0.517648 0.643138 1.000000
0.798039 0.631373 1.000000
1.000000 0.619607 1.000000
0.000000 0.982353 1.000000
0.186274 0.970588 1.000000
0.495098 0.958824 1.000000
0.778432 0.948039 1.000000
1.000000 0.939216 1.000000
0.000000 1.000000 1.000000
0.161765 1.000000 1.000000
0.474510 1.000000 1.000000
0.758824 1.000000 1.000000
1.000000 1.000000 1.000000
0.000000 0.000000 1.000000
0.249019 0.000000 1.000000
0.552941 0.000000 1.000000
0.833334 0.000000 1.000000
1.000000 0.000000 1.000000
0.000000 0.318628 1.000000
0.228432 0.303921 1.000000
0.533334 0.291177 1.000000
0.813726 0.276470 1.000000
1.000000 0.263726 1.000000
0.000000 0.662745 1.000000
0.204902 0.650981 1.000000
0.513726 0.639215 1.000000
0.794118 0.628431 1.000000
1.000000 0.613726 1.000000
0.000000 0.978432 1.000000
0.181373 0.966667 1.000000
0.490197 0.954902 1.000000
0.774510 0.943137 1.000000
1.000000 0.932353 1.000000
0.000000 1.000000 1.000000
0.154902 1.000000 1.000000
0.470588 1.000000 1.000000
0.757843 1.000000 1.000000
1.000000 1.000000 1.000000
