Color/CreativePack-1/CrispWinter 65x.cube
TITLE "CrispWinter"
LUT_3D_SIZE 9
DOMAIN_MIN 0.000000 0.000000 0.000000
DOMAIN_MAX 1.000000 1.000000 1.000000
0.000000 0.000000 0.000000
0.112745 0.000000 0.000000
0.267647 0.000000 0.000000
0.420588 0.000000 0.000000
0.568628 0.000000 0.000000
0.708824 0.000000 0.000000
0.849020 0.000000 0.000000
0.981372 0.000000 0.000000
1.000000 0.000000 0.000000
0.000000 0.155883 0.000000
0.100981 0.148040 0.000000
0.256863 0.144118 0.000000
0.412745 0.136275 0.000000
0.556863 0.130392 0.000000
0.700980 0.124510 0.000000
0.837255 0.116667 0.000000
0.973529 0.109314 0.000000
1.000000 0.104902 0.000000
0.000000 0.338235 0.000000
0.089216 0.330882 0.000000
0.245098 0.326471 0.000000
0.400980 0.318628 0.000000
0.549019 0.311765 0.000000
0.689216 0.303921 0.000000
0.829412 0.299020 0.000000
0.965686 0.291177 0.000000
1.000000 0.284314 0.000000
0.000000 0.514706 0.000000
0.077941 0.505882 0.000000
0.233333 0.502941 0.000000
0.389216 0.495098 0.000000
0.537254 0.489706 0.000000
0.681372 0.483333 0.000000
0.819117 0.475490 0.000000
0.953921 0.470098 0.000000
1.000000 0.463726 0.000000
0.000000 0.680392 0.000000
0.066177 0.674509 0.000000
0.221568 0.668628 0.000000
0.381863 0.662745 0.000000
0.529411 0.656863 0.000000
0.669608 0.650980 0.000000
0.809804 0.643138 0.000000
0.946078 0.639215 0.000000
1.000000 0.631373 0.000000
0.000000 0.839706 0.000000
0.054412 0.834314 0.000000
0.209804 0.830392 0.000000
0.369608 0.822549 0.000000
0.517648 0.818627 0.000000
0.661765 0.810784 0.000000
0.800490 0.806863 0.000000
0.936765 0.799019 0.000000
1.000000 0.795098 0.000000
0.000000 0.994118 0.000000
0.043137 0.990196 0.000000
0.198039 0.983333 0.000000
0.357843 0.978432 0.000000
0.505883 0.974510 0.000000
0.650000 0.966667 0.000000
0.790196 0.962745 0.000000
0.926470 0.954902 0.000000
1.000000 0.950981 0.000000
0.000000 1.000000 0.000000
0.031373 1.000000 0.000000
0.186274 1.000000 0.000000
0.346078 1.000000 0.000000
0.498040 1.000000 0.000000
0.642157 1.000000 0.000000
0.782353 1.000000 0.000000
0.918627 1.000000 0.000000
1.000000 1.000000 0.000000
0.000000 1.000000 0.000000
0.019608 1.000000 0.000000
0.174510 1.000000 0.000000
0.338235 1.000000 0.000000
0.486274 1.000000 0.000000
0.630392 1.000000 0.000000
0.770588 1.000000 0.000000
0.906862 1.000000 0.000000
1.000000 1.000000 0.000000
0.000000 0.000000 0.241667
0.108824 0.000000 0.233823
0.264706 0.000000 0.226471
0.420588 0.000000 0.221568
0.564705 0.000000 0.214215
0.708824 0.000000 0.206372
0.845098 0.000000 0.198529
0.981372 0.000000 0.191177
1.000000 0.000000 0.183334
0.000000 0.151961 0.225980
0.097059 0.147549 0.218137
0.252941 0.140196 0.210294
0.408824 0.132353 0.203922
0.556863 0.128432 0.198529
0.697059 0.120589 0.190686
0.837255 0.113235 0.182843
0.973529 0.108824 0.175000
1.000000 0.100981 0.167647
0.000000 0.335294 0.214215
0.085785 0.330392 0.203432
0.244118 0.323039 0.198529
0.397059 0.315686 0.190686
0.545098 0.310785 0.182843
0.689216 0.302941 0.175490
0.826470 0.295098 0.167647
0.961764 0.288235 0.159804
1.000000 0.283334 0.152451
0.000000 0.510784 0.198529
0.075000 0.505882 0.190686
0.232353 0.499020 0.182843
0.389216 0.493627 0.175490
0.537254 0.487255 0.167647
0.677451 0.480392 0.160784
0.817647 0.474020 0.152941
0.953921 0.467647 0.145098
1.000000 0.462255 0.137255
0.000000 0.678432 0.184804
0.064216 0.672549 0.175490
0.221078 0.666667 0.168137
0.377451 0.660784 0.160784
0.525490 0.654902 0.153431
0.669608 0.647549 0.145588
0.808823 0.643138 0.138235
0.944118 0.635294 0.130392
1.000000 0.631373 0.122549
0.000000 0.838235 0.171078
0.054412 0.832353 0.161765
0.209314 0.826470 0.153922
0.365686 0.821569 0.146079
0.517648 0.814706 0.138725
0.657843 0.810784 0.130882
0.798039 0.802941 0.123529
0.934313 0.799019 0.115196
1.000000 0.791176 0.107353
0.000000 0.994118 0.155883
0.042647 0.986275 0.147059
0.197059 0.982353 0.139215
0.357843 0.976961 0.131372
0.505883 0.970588 0.123529
0.650000 0.966667 0.115686
0.790196 0.958824 0.107843
0.926470 0.954902 0.100000
1.000000 0.947059 0.092157
0.000000 1.000000 0.140196
0.030392 1.000000 0.132353
0.185294 1.000000 0.124510
0.346079 1.000000 0.116176
0.494118 1.000000 0.108333
0.638235 1.000000 0.100490
0.778432 1.000000 0.092157
0.914706 1.000000 0.081863
1.000000 1.000000 0.074020
0.000000 1.000000 0.124510
0.015686 1.000000 0.116667
0.173530 1.000000 0.108824
0.334314 1.000000 0.100981
0.486274 1.000000 0.093138
0.630392 1.000000 0.083824
0.770588 1.000000 0.074020
0.906862 1.000000 0.066177
1.000000 1.000000 0.058334
0.000000 0.000000 0.467647
0.105882 0.000000 0.459804
0.263726 0.000000 0.451961
0.416667 0.000000 0.444118
0.564705 0.000000 0.436275
0.704902 0.000000 0.428432
0.845098 0.000000 0.420588
0.980882 0.000000 0.412745
1.000000 0.000000 0.404902
0.000000 0.151961 0.451961
0.093628 0.144118 0.444118
0.252941 0.136275 0.436275
0.407843 0.132353 0.428432
0.552941 0.124510 0.421078
0.697059 0.117157 0.414706
0.833824 0.112745 0.407353
0.969608 0.104902 0.400000
1.000000 0.097549 0.392647
0.000000 0.334314 0.436275
0.085295 0.326961 0.428922
0.241176 0.319608 0.424510
0.397059 0.314706 0.416667
0.545098 0.306863 0.408824
0.685294 0.300000 0.400981
0.825490 0.292157 0.393137
0.961764 0.287255 0.385294
1.000000 0.279412 0.377451
0.000000 0.509314 0.424510
0.074020 0.502941 0.416667
0.229412 0.497549 0.408824
0.385294 0.491177 0.400981
0.533334 0.483824 0.393137
0.677451 0.478922 0.385294
0.815196 0.471569 0.377451
0.950981 0.466176 0.369608
1.000000 0.459804 0.361765
0.000000 0.676470 0.408824
0.062255 0.670589 0.400981
0.217647 0.662745 0.393137
0.376961 0.658824 0.385294
0.525490 0.650980 0.377451
0.665686 0.647058 0.369608
0.805883 0.639215 0.361765
0.942156 0.634314 0.353922
1.000000 0.627451 0.346079
0.000000 0.835784 0.393137
0.050490 0.830392 0.385294
0.205882 0.824020 0.377451
0.365686 0.818627 0.369608
0.513725 0.813235 0.361765
0.657843 0.806863 0.353922
0.798039 0.802941 0.346079
0.933823 0.795098 0.338235
1.000000 0.791176 0.330392
0.000000 0.990196 0.377451
0.039216 0.986275 0.369608
0.194117 0.978432 0.361765
0.353922 0.974510 0.353922
0.502941 0.969608 0.346079
0.646078 0.962745 0.338235
0.786275 0.958824 0.330392
0.922549 0.950981 0.322549
1.000000 0.947059 0.313725
0.000000 1.000000 0.361765
0.027451 1.000000 0.353922
0.182353 1.000000 0.346079
0.342157 1.000000 0.338235
0.494118 1.000000 0.330392
0.638235 1.000000 0.322549
0.778432 1.000000 0.313725
0.914705 1.000000 0.305392
1.000000 1.000000 0.297549
0.000000 1.000000 0.346079
0.015196 1.000000 0.338235
0.170588 1.000000 0.330392
0.333824 1.000000 0.322549
0.482353 1.000000 0.314706
0.626470 1.000000 0.305883
0.766667 1.000000 0.298039
0.902941 1.000000 0.290196
1.000000 1.000000 0.279412
0.000000 0.000000 0.674019
0.104902 0.000000 0.667647
0.260784 0.000000 0.662255
0.416667 0.000000 0.654412
0.560785 0.000000 0.646568
0.704902 0.000000 0.638725
0.841177 0.000000 0.633824
0.977451 0.000000 0.626961
1.000000 0.000000 0.619117
0.000000 0.148040 0.662255
0.093138 0.140196 0.654412
0.249019 0.136275 0.647549
0.404902 0.128432 0.640196
0.552941 0.121079 0.634804
0.693137 0.116667 0.626961
0.833334 0.108824 0.619117
0.969607 0.101471 0.611274
1.000000 0.097059 0.603921
0.000000 0.331372 0.646568
0.081863 0.323039 0.639216
0.237255 0.318628 0.634804
0.393137 0.310785 0.626961
0.541176 0.303921 0.619117
0.685294 0.297549 0.611274
0.822549 0.291177 0.604412
0.957843 0.283334 0.599020
1.000000 0.276470 0.591666
0.000000 0.506863 0.634804
0.070098 0.501471 0.626961
0.228432 0.495098 0.619117
0.385294 0.487255 0.612745
0.533334 0.483333 0.605392
0.673529 0.475490 0.599510
0.813726 0.470098 0.591666
0.950000 0.463726 0.583823
1.000000 0.455882 0.575980
0.000000 0.674509 0.619117
0.060294 0.666667 0.612745
0.216667 0.662745 0.605392
0.373529 0.654902 0.599510
0.521568 0.650980 0.591666
0.665686 0.643138 0.583823
0.804902 0.637255 0.575980
0.940196 0.631373 0.570098
1.000000 0.625490 0.564215
0.000000 0.834314 0.605882
0.049019 0.826470 0.599510
0.204902 0.822549 0.591666
0.361765 0.816176 0.583823
0.513725 0.810784 0.577451
0.653922 0.804412 0.570588
0.794118 0.799019 0.563235
0.930392 0.792647 0.556372
1.000000 0.787255 0.548529
0.000000 0.990196 0.591666
0.037745 0.982353 0.583823
0.193137 0.978432 0.576961
0.353922 0.970588 0.571079
0.501961 0.966667 0.564215
0.646078 0.962255 0.556372
0.786275 0.954902 0.548529
0.922549 0.950981 0.540686
1.000000 0.943137 0.532843
0.000000 1.000000 0.575980
0.023529 1.000000 0.571569
0.181373 1.000000 0.564215
0.342157 1.000000 0.556372
0.490196 1.000000 0.548529
0.634314 1.000000 0.540686
0.774510 1.000000 0.532843
0.910784 1.000000 0.528431
1.000000 1.000000 0.520588
0.000000 1.000000 0.564215
0.011765 1.000000 0.556372
0.169608 1.000000 0.548529
0.330392 1.000000 0.540686
0.482353 1.000000 0.533333
0.626470 1.000000 0.528922
0.766667 1.000000 0.521079
0.902941 1.000000 0.513235
1.000000 1.000000 0.505392
0.000000 0.000000 0.872549
0.101471 0.000000 0.864706
0.259804 0.000000 0.858823
0.412745 0.000000 0.852942
0.560785 0.000000 0.845098
0.700980 0.000000 0.839215
0.841177 0.000000 0.832353
0.976961 0.000000 0.825491
1.000000 0.000000 0.817647
0.000000 0.148039 0.858823
0.089706 0.140196 0.852942
0.249019 0.132353 0.845098
0.404902 0.125980 0.837745
0.549019 0.120589 0.833333
0.693137 0.112745 0.825490
0.829902 0.105392 0.818137
0.965686 0.100981 0.811765
1.000000 0.093628 0.805883
0.000000 0.328431 0.845098
0.081373 0.322549 0.839216
0.237255 0.315686 0.833333
0.393137 0.307843 0.825490
0.541176 0.302941 0.818627
0.682353 0.295098 0.812255
0.821569 0.287255 0.805882
0.957843 0.280392 0.798040
1.000000 0.275490 0.791176
0.000000 0.505392 0.833333
0.070098 0.499020 0.825490
0.225490 0.490687 0.818627
0.381373 0.487255 0.813725
0.529411 0.479412 0.805883
0.673529 0.474020 0.799510
0.812745 0.467647 0.792157
0.947549 0.459804 0.786274
1.000000 0.454412 0.778431
0.000000 0.670589 0.819608
0.058334 0.666667 0.813725
0.213725 0.658824 0.805883
0.370098 0.654412 0.800000
0.521568 0.647058 0.792156
0.661765 0.641177 0.786274
0.801961 0.635294 0.778431
0.938235 0.629412 0.772549
1.000000 0.623530 0.764706
0.000000 0.830392 0.805883
0.046569 0.826470 0.800000
0.201961 0.818627 0.792647
0.361765 0.814706 0.786274
0.509804 0.806863 0.778431
0.653922 0.802941 0.772549
0.794118 0.796569 0.765686
0.930392 0.791176 0.758823
1.000000 0.784804 0.750981
0.000000 0.986275 0.793137
0.034804 0.982353 0.786274
0.190196 0.974510 0.778431
0.350000 0.970588 0.772549
0.499020 0.963725 0.766667
0.642157 0.958824 0.758823
0.782353 0.954902 0.750981
0.918627 0.947059 0.745098
1.000000 0.943137 0.739216
0.000000 1.000000 0.778431
0.023039 1.000000 0.772549
0.178431 1.000000 0.766666
0.338235 1.000000 0.758824
0.490196 1.000000 0.752942
0.634314 1.000000 0.745588
0.774510 1.000000 0.739216
0.910784 1.000000 0.731372
1.000000 1.000000 0.723529
0.000000 1.000000 0.766667
0.007843 1.000000 0.758823
0.165686 1.000000 0.751961
0.328921 1.000000 0.747058
0.478432 1.000000 0.739216
0.622549 1.000000 0.731372
0.762745 1.000000 0.723529
0.902451 1.000000 0.719118
1.000000 1.000000 0.711765
0.000000 0.000000 1.000000
0.100981 0.000000 1.000000
0.256863 0.000000 1.000000
0.412745 0.000000 1.000000
0.556863 0.000000 1.000000
0.700980 0.000000 1.000000
0.837255 0.000000 1.000000
0.973529 0.000000 1.000000
1.000000 0.000000 1.000000
0.000000 0.144118 1.000000
0.089216 0.136275 1.000000
0.245098 0.129412 1.000000
0.400980 0.124510 1.000000
0.549019 0.116667 1.000000
0.689706 0.109314 1.000000
0.829412 0.104902 1.000000
0.965686 0.097549 1.000000
1.000000 0.089706 0.995098
0.000000 0.326471 1.000000
0.077941 0.319608 1.000000
0.233333 0.311765 1.000000
0.388726 0.306863 1.000000
0.537254 0.299020 1.000000
0.681372 0.292157 1.000000
0.820098 0.285784 0.996078
0.954902 0.279412 0.991176
1.000000 0.271569 0.984804
0.000000 0.502941 1.000000
0.066177 0.494117 1.000000
0.221568 0.491177 1.000000
0.381373 0.483333 1.000000
0.529411 0.477941 0.997059
0.671079 0.471569 0.991176
0.809804 0.463726 0.984804
0.946078 0.458333 0.978432
1.000000 0.451961 0.971569
0.000000 0.668628 1.000000
0.054412 0.662745 1.000000
0.209804 0.656862 0.997059
0.369608 0.650980 0.991176
0.517648 0.645098 0.984804
0.661765 0.639215 0.978922
0.801961 0.633333 0.971569
0.937745 0.627451 0.965196
1.000000 0.621568 0.959314
0.000000 0.830392 0.997549
0.043137 0.822549 0.991176
0.199510 0.818627 0.984804
0.357843 0.810784 0.979412
0.509804 0.806863 0.971569
0.650000 0.799019 0.965196
0.790196 0.795098 0.959804
0.926470 0.788235 0.951961
1.000000 0.783333 0.945588
0.000000 0.986275 0.984804
0.031373 0.978432 0.979412
0.188235 0.974510 0.972059
0.347549 0.966667 0.965196
0.498039 0.962745 0.959804
0.642157 0.955882 0.952451
0.782353 0.950981 0.945588
0.918627 0.947059 0.940196
1.000000 0.939216 0.932843
0.000000 1.000000 0.972549
0.019608 1.000000 0.965196
0.175980 1.000000 0.959804
0.338235 1.000000 0.952941
0.486274 1.000000 0.945588
0.630392 1.000000 0.940196
0.770588 1.000000 0.933333
0.909314 1.000000 0.925980
1.000000 1.000000 0.920588
0.000000 1.000000 0.959804
0.007843 1.000000 0.953431
0.162745 1.000000 0.945588
0.326471 1.000000 0.940196
0.478431 1.000000 0.933823
0.622549 1.000000 0.925980
0.762745 1.000000 0.920588
0.899019 1.000000 0.914216
1.000000 1.000000 0.906373
0.000000 0.000000 1.000000
0.097549 0.000000 1.000000
0.252941 0.000000 1.000000
0.408824 0.000000 1.000000
0.556863 0.000000 1.000000
0.697059 0.000000 1.000000
0.837255 0.000000 1.000000
0.973529 0.000000 1.000000
1.000000 0.000000 1.000000
0.000000 0.140196 1.000000
0.085785 0.132843 1.000000
0.244118 0.128432 1.000000
0.400000 0.120588 1.000000
0.543628 0.113235 1.000000
0.689216 0.108824 1.000000
0.825980 0.101471 1.000000
0.961764 0.093628 1.000000
1.000000 0.089216 1.000000
0.000000 0.323529 1.000000
0.074020 0.315196 1.000000
0.233333 0.310785 1.000000
0.389216 0.302941 1.000000
0.537254 0.296078 1.000000
0.678431 0.290196 1.000000
0.817647 0.283334 1.000000
0.953921 0.275490 1.000000
1.000000 0.267647 1.000000
0.000000 0.499020 1.000000
0.067157 0.493627 1.000000
0.222058 0.487255 1.000000
0.377451 0.481863 1.000000
0.525490 0.475490 1.000000
0.669608 0.467647 1.000000
0.809804 0.462255 1.000000
0.943627 0.455882 1.000000
1.000000 0.450490 1.000000
0.000000 0.666667 1.000000
0.054412 0.660784 1.000000
0.210785 0.654902 1.000000
0.365686 0.649019 1.000000
0.517648 0.643138 1.000000
0.659804 0.637255 1.000000
0.798039 0.631373 1.000000
0.934313 0.625000 1.000000
1.000000 0.619607 1.000000
0.000000 0.826470 1.000000
0.042647 0.822549 1.000000
0.199510 0.814706 1.000000
0.357843 0.810784 1.000000
0.505883 0.802941 1.000000
0.650000 0.799019 1.000000
0.790196 0.791176 1.000000
0.926470 0.787255 1.000000
1.000000 0.779412 1.000000
0.000000 0.982353 1.000000
0.030883 0.978432 1.000000
0.186274 0.970588 1.000000
0.346078 0.966667 1.000000
0.495098 0.958824 1.000000
0.638235 0.954902 1.000000
0.778432 0.948039 1.000000
0.914706 0.943137 1.000000
1.000000 0.939216 1.000000
0.000000 1.000000 1.000000
0.015686 1.000000 1.000000
0.173530 1.000000 1.000000
0.334314 1.000000 1.000000
0.486274 1.000000 1.000000
0.630392 1.000000 1.000000
0.770588 1.000000 1.000000
0.906862 1.000000 1.000000
1.000000 1.000000 1.000000
0.000000 1.000000 1.000000
0.003922 1.000000 1.000000
0.161765 1.000000 1.000000
0.325000 1.000000 1.000000
0.474510 1.000000 1.000000
0.618627 1.000000 1.000000
0.758824 1.000000 1.000000
0.899019 1.000000 1.000000
1.000000 1.000000 1.000000
0.000000 0.000000 1.000000
0.097059 0.000000 1.000000
0.252941 0.000000 1.000000
0.408824 0.000000 1.000000
0.552941 0.000000 1.000000
0.697059 0.000000 1.000000
0.833334 0.000000 1.000000
0.969608 0.000000 1.000000
1.000000 0.000000 1.000000
0.000000 0.140196 1.000000
0.085295 0.132353 1.000000
0.241176 0.124510 1.000000
0.397059 0.117157 1.000000
0.545098 0.112745 1.000000
0.685784 0.107353 1.000000
0.825490 0.097549 1.000000
0.961764 0.093138 1.000000
1.000000 0.085785 1.000000
0.000000 0.322549 1.000000
0.074020 0.314706 1.000000
0.229412 0.307843 1.000000
0.385294 0.300000 1.000000
0.533334 0.295098 1.000000
0.677451 0.287255 1.000000
0.817157 0.279412 1.000000
0.950981 0.272549 1.000000
1.000000 0.267647 1.000000
0.000000 0.497549 1.000000
0.062255 0.491177 1.000000
0.217647 0.485784 1.000000
0.377451 0.479412 1.000000
0.525490 0.471569 1.000000
0.667157 0.466176 1.000000
0.805883 0.459804 1.000000
0.942156 0.453922 1.000000
1.000000 0.446568 1.000000
0.000000 0.664706 1.000000
0.050490 0.658824 1.000000
0.205882 0.652942 1.000000
0.365686 0.647058 1.000000
0.513726 0.639216 1.000000
0.657843 0.635294 1.000000
0.798039 0.627451 1.000000
0.934313 0.623529 1.000000
1.000000 0.615687 1.000000
0.000000 0.824020 1.000000
0.041177 0.818627 1.000000
0.194117 0.814706 1.000000
0.353922 0.806863 1.000000
0.505883 0.802941 1.000000
0.648529 0.795098 1.000000
0.786275 0.791176 1.000000
0.922549 0.783333 1.000000
1.000000 0.779412 1.000000
0.000000 0.979412 1.000000
0.029902 0.974510 1.000000
0.182353 0.970588 1.000000
0.342157 0.962745 1.000000
0.494117 0.958824 1.000000
0.638235 0.950491 1.000000
0.778432 0.947059 1.000000
0.914706 0.940196 1.000000
1.000000 0.935294 1.000000
0.000000 1.000000 1.000000
0.015686 1.000000 1.000000
0.170588 1.000000 1.000000
0.334314 1.000000 1.000000
0.482353 1.000000 1.000000
0.626470 1.000000 1.000000
0.766667 1.000000 1.000000
0.906372 1.000000 1.000000
1.000000 1.000000 1.000000
0.000000 1.000000 1.000000
0.000000 1.000000 1.000000
0.157843 1.000000 1.000000
0.322549 1.000000 1.000000
0.474509 1.000000 1.000000
0.618627 1.000000 1.000000
0.758824 1.000000 1.000000
0.895098 1.000000 1.000000
1.000000 1.000000 1.000000
0.000000 0.000000 1.000000
0.093628 0.000000 1.000000
0.249019 0.000000 1.000000
0.404902 0.000000 1.000000
0.552941 0.000000 1.000000
0.693137 0.000000 1.000000
0.833334 0.000000 1.000000
0.969608 0.000000 1.000000
1.000000 0.000000 1.000000
0.000000 0.136275 1.000000
0.081863 0.128432 1.000000
0.236765 0.124510 1.000000
0.392156 0.116667 1.000000
0.539706 0.110784 1.000000
0.685294 0.101471 1.000000
0.822058 0.097059 1.000000
0.961274 0.089706 1.000000
1.000000 0.081863 1.000000
0.000000 0.318628 1.000000
0.070098 0.311765 1.000000
0.228432 0.303921 1.000000
0.385294 0.299020 1.000000
0.533334 0.291177 1.000000
0.674510 0.285784 1.000000
0.813726 0.276470 1.000000
0.950000 0.271569 1.000000
1.000000 0.263726 1.000000
0.000000 0.495098 1.000000
0.059805 0.489706 1.000000
0.216667 0.483333 1.000000
0.373529 0.475490 1.000000
0.521568 0.470098 1.000000
0.665686 0.463726 1.000000
0.805883 0.458333 1.000000
0.939705 0.453922 1.000000
1.000000 0.444118 1.000000
0.000000 0.662745 1.000000
0.050490 0.656863 1.000000
0.204902 0.650981 1.000000
0.361765 0.642647 1.000000
0.513726 0.639215 1.000000
0.655883 0.631373 1.000000
0.794118 0.628431 1.000000
0.930392 0.619607 1.000000
1.000000 0.613726 1.000000
0.000000 0.822549 1.000000
0.035294 0.818627 1.000000
0.193137 0.810784 1.000000
0.354902 0.806863 1.000000
0.501961 0.799019 1.000000
0.646078 0.795098 1.000000
0.786275 0.787255 1.000000
0.922549 0.783333 1.000000
1.000000 0.775490 1.000000
0.000000 0.978432 1.000000
0.023529 0.974510 1.000000
0.181373 0.966667 1.000000
0.342157 0.962745 1.000000
0.490197 0.954902 1.000000
0.634314 0.950981 1.000000
0.774510 0.943137 1.000000
0.914215 0.939216 1.000000
1.000000 0.932353 1.000000
0.000000 1.000000 1.000000
0.011765 1.000000 1.000000
0.169608 1.000000 1.000000
0.330392 1.000000 1.000000
0.482353 1.000000 1.000000
0.626471 1.000000 1.000000
0.766667 1.000000 1.000000
0.902941 1.000000 1.000000
1.000000 1.000000 1.000000
0.000000 1.000000 1.000000
0.000000 1.000000 1.000000
0.154902 1.000000 1.000000
0.321079 1.000000 1.000000
0.470588 1.000000 1.000000
0.614706 1.000000 1.000000
0.757843 1.000000 1.000000
0.895098 1.000000 1.000000
1.000000 1.000000 1.000000
