Color/CreativePack-1/CrispWinter 65x.cube
TITLE "CrispWinter"
LUT_3D_SIZE 65
DOMAIN_MIN 0.000000 0.000000 0.000000
DOMAIN_MAX 1.000000 1.000000 1.000000
0.000000 0.000000 0.000000
0.012684 0.000000 0.000000
0.027206 0.000000 0.000000
0.040809 0.000000 0.000000
0.054412 0.000000 0.000000
0.068015 0.000000 0.000000
0.083946 0.000000 0.000000
0.096630 0.000000 0.000000
0.112745 0.000000 0.000000
0.126348 0.000000 0.000000
0.145220 0.000000 0.000000
0.165318 0.000000 0.000000
0.186764 0.000000 0.000000
0.204473 0.000000 0.000000
0.225735 0.000000 0.000000
0.247181 0.000000 0.000000
0.267647 0.000000 0.000000
0.286152 0.000000 0.000000
0.307598 0.000000 0.000000
0.329044 0.000000 0.000000
0.346569 0.000000 0.000000
0.364093 0.000000 0.000000
0.385539 0.000000 0.000000
0.403064 0.000000 0.000000
0.420588 0.000000 0.000000
0.441483 0.000000 0.000000
0.459559 0.000000 0.000000
0.477083 0.000000 0.000000
0.494608 0.000000 0.000000
0.515257 0.000000 0.000000
0.533578 0.000000 0.000000
0.551103 0.000000 0.000000
0.568628 0.000000 0.000000
0.586152 0.000000 0.000000
0.603677 0.000000 0.000000
0.621201 0.000000 0.000000
0.638725 0.000000 0.000000
0.656250 0.000000 0.000000
0.673775 0.000000 0.000000
0.691299 0.000000 0.000000
0.708824 0.000000 0.000000
0.726348 0.000000 0.000000
0.743873 0.000000 0.000000
0.761397 0.000000 0.000000
0.778922 0.000000 0.000000
0.796446 0.000000 0.000000
0.813970 0.000000 0.000000
0.831496 0.000000 0.000000
0.849020 0.000000 0.000000
0.866544 0.000000 0.000000
0.880147 0.000000 0.000000
0.897671 0.000000 0.000000
0.915196 0.000000 0.000000
0.932721 0.000000 0.000000
0.950245 0.000000 0.000000
0.967769 0.000000 0.000000
0.981372 0.000000 0.000000
0.997487 0.000000 0.000000
1.000000 0.000000 0.000000
1.000000 0.000000 0.000000
1.000000 0.000000 0.000000
1.000000 0.000000 0.000000
1.000000 0.000000 0.000000
1.000000 0.000000 0.000000
1.000000 0.000000 0.000000
0.000000 0.017524 0.000000
0.009681 0.017524 0.000000
0.026286 0.017524 0.000000
0.038052 0.017524 0.000000
0.054412 0.017524 0.000000
0.067096 0.017524 0.000000
0.081618 0.017524 0.000000
0.095220 0.017524 0.000000
0.111826 0.017524 0.000000
0.125429 0.017524 0.000000
0.143872 0.017524 0.000000
0.166666 0.017524 0.000000
0.182843 0.017524 0.000000
0.203554 0.017524 0.000000
0.225735 0.017524 0.000000
0.245282 0.017524 0.000000
0.264706 0.017524 0.000000
0.286152 0.017524 0.000000
0.307598 0.017524 0.000000
0.325123 0.012745 0.000000
0.348345 0.013603 0.000000
0.364093 0.013603 0.000000
0.381617 0.013603 0.000000
0.403676 0.013603 0.000000
0.420588 0.013603 0.000000
0.438113 0.013603 0.000000
0.459559 0.013603 0.000000
0.477083 0.013603 0.000000
0.494608 0.013603 0.000000
0.512133 0.013603 0.000000
0.529657 0.013603 0.000000
0.547181 0.013603 0.000000
0.567708 0.013603 0.000000
0.586152 0.013603 0.000000
0.603677 0.013603 0.000000
0.621201 0.013603 0.000000
0.638725 0.013603 0.000000
0.656250 0.013603 0.000000
0.673775 0.013603 0.000000
0.691299 0.013603 0.000000
0.708823 0.013603 0.000000
0.726348 0.013603 0.000000
0.743873 0.013603 0.000000
0.761397 0.013603 0.000000
0.778922 0.013603 0.000000
0.796446 0.013603 0.000000
0.813970 0.013603 0.000000
0.830576 0.012684 0.000000
0.845098 0.012684 0.000000
0.862623 0.012684 0.000000
0.880147 0.012684 0.000000
0.897671 0.012684 0.000000
0.915196 0.012684 0.000000
0.932721 0.012684 0.000000
0.949326 0.012684 0.000000
0.963848 0.012684 0.000000
0.981372 0.012684 0.000000
0.997487 0.012684 0.000000
1.000000 0.012684 0.000000
1.000000 0.012684 0.000000
1.000000 0.012684 0.000000
1.000000 0.012684 0.000000
1.000000 0.012684 0.000000
1.000000 0.012684 0.000000
1.000000 0.012684 0.000000
0.000000 0.038970 0.000000
0.009681 0.035049 0.000000
0.023284 0.035049 0.000000
0.038971 0.035049 0.000000
0.050735 0.035049 0.000000
0.067341 0.035049 0.000000
0.080024 0.035049 0.000000
0.095220 0.035049 0.000000
0.108824 0.035049 0.000000
0.122427 0.035049 0.000000
0.143872 0.035049 0.000000
0.161397 0.035049 0.000000
0.182843 0.035049 0.000000
0.204290 0.035049 0.000000
0.225735 0.035049 0.000000
0.243260 0.035049 0.000000
0.264706 0.035049 0.000000
0.286091 0.035049 0.000000
0.304535 0.035049 0.000000
0.325123 0.035111 0.000000
0.342647 0.031127 0.000000
0.365870 0.031127 0.000000
0.381617 0.031127 0.000000
0.399142 0.031127 0.000000
0.421201 0.031127 0.000000
0.438113 0.031127 0.000000
0.455637 0.031127 0.000000
0.477083 0.031127 0.000000
0.494608 0.031127 0.000000
0.512133 0.031127 0.000000
0.529657 0.031127 0.000000
0.547181 0.031127 0.000000
0.564705 0.031127 0.000000
0.582231 0.031127 0.000000
0.599755 0.031127 0.000000
0.621201 0.031127 0.000000
0.638725 0.031127 0.000000
0.656250 0.031127 0.000000
0.673775 0.029289 0.000000
0.691299 0.027206 0.000000
0.708824 0.027206 0.000000
0.726348 0.027206 0.000000
0.743873 0.027206 0.000000
0.759559 0.027206 0.000000
0.777084 0.027206 0.000000
0.794608 0.027206 0.000000
0.812132 0.027206 0.000000
0.827574 0.027206 0.000000
0.845098 0.027206 0.000000
0.862623 0.027206 0.000000
0.880147 0.027206 0.000000
0.897671 0.027206 0.000000
0.913357 0.027206 0.000000
0.928799 0.027206 0.000000
0.946324 0.027206 0.000000
0.963848 0.027206 0.000000
0.981372 0.025367 0.000000
0.997487 0.025367 0.000000
1.000000 0.025367 0.000000
1.000000 0.025367 0.000000
1.000000 0.025367 0.000000
1.000000 0.025367 0.000000
1.000000 0.025367 0.000000
1.000000 0.025367 0.000000
1.000000 0.025367 0.000000
0.000000 0.056495 0.000000
0.009681 0.056495 0.000000
0.023284 0.056495 0.000000
0.036888 0.055331 0.000000
0.050490 0.055331 0.000000
0.064093 0.055331 0.000000
0.077696 0.055331 0.000000
0.092709 0.055331 0.000000
0.105392 0.055331 0.000000
0.122427 0.055331 0.000000
0.138542 0.052574 0.000000
0.161397 0.052574 0.000000
0.183272 0.052574 0.000000
0.204290 0.052574 0.000000
0.220159 0.052574 0.000000
0.243260 0.052574 0.000000
0.264890 0.052574 0.000000
0.282230 0.052574 0.000000
0.303677 0.052574 0.000000
0.325123 0.052574 0.000000
0.342647 0.048652 0.000000
0.360171 0.048652 0.000000
0.381617 0.048652 0.000000
0.399142 0.048652 0.000000
0.416667 0.048652 0.000000
0.438726 0.048652 0.000000
0.455637 0.048652 0.000000
0.473161 0.048652 0.000000
0.491851 0.048652 0.000000
0.512500 0.048652 0.000000
0.529657 0.045895 0.000000
0.547181 0.045895 0.000000
0.564705 0.045895 0.000000
0.582231 0.045895 0.000000
0.599755 0.045895 0.000000
0.617279 0.045895 0.000000
0.634804 0.045895 0.000000
0.653493 0.044731 0.000000
0.671017 0.044731 0.000000
0.687378 0.044731 0.000000
0.704902 0.044731 0.000000
0.722426 0.044731 0.000000
0.739951 0.044731 0.000000
0.757476 0.044731 0.000000
0.775000 0.044731 0.000000
0.792524 0.044731 0.000000
0.810049 0.044731 0.000000
0.827574 0.044669 0.000000
0.845098 0.040809 0.000000
0.862623 0.040809 0.000000
0.877328 0.040809 0.000000
0.894914 0.040809 0.000000
0.911275 0.040809 0.000000
0.928799 0.040809 0.000000
0.946324 0.040809 0.000000
0.963848 0.040809 0.000000
0.978615 0.038052 0.000000
0.994976 0.038052 0.000000
1.000000 0.038052 0.000000
1.000000 0.038052 0.000000
1.000000 0.038052 0.000000
1.000000 0.038052 0.000000
1.000000 0.038052 0.000000
1.000000 0.038052 0.000000
1.000000 0.038052 0.000000
0.000000 0.077941 0.000000
0.009681 0.077696 0.000000
0.023284 0.074020 0.000000
0.036888 0.074020 0.000000
0.050490 0.074020 0.000000
0.060417 0.074020 0.000000
0.077696 0.074020 0.000000
0.091299 0.074020 0.000000
0.105392 0.074020 0.000000
0.115257 0.074020 0.000000
0.139951 0.076349 0.000000
0.161397 0.070098 0.000000
0.178431 0.070098 0.000000
0.196875 0.070098 0.000000
0.221814 0.070098 0.000000
0.243260 0.070098 0.000000
0.260049 0.070098 0.000000
0.282230 0.070098 0.000000
0.303677 0.070098 0.000000
0.321201 0.070098 0.000000
0.342647 0.071078 0.000000
0.360171 0.066177 0.000000
0.374633 0.066177 0.000000
0.399142 0.066177 0.000000
0.416667 0.066177 0.000000
0.434191 0.066177 0.000000
0.455637 0.066177 0.000000
0.473161 0.066177 0.000000
0.490687 0.066177 0.000000
0.508211 0.066177 0.000000
0.525980 0.062255 0.000000
0.547181 0.062255 0.000000
0.564706 0.062255 0.000000
0.582231 0.062255 0.000000
0.599755 0.062255 0.000000
0.617279 0.062255 0.000000
0.634804 0.062255 0.000000
0.652329 0.062255 0.000000
0.669853 0.062255 0.000000
0.687378 0.058579 0.000000
0.704902 0.058334 0.000000
0.722426 0.058334 0.000000
0.739951 0.058334 0.000000
0.757476 0.058334 0.000000
0.775000 0.058334 0.000000
0.792524 0.058334 0.000000
0.810049 0.058334 0.000000
0.827574 0.058334 0.000000
0.841422 0.054657 0.000000
0.860723 0.056434 0.000000
0.876225 0.054412 0.000000
0.893750 0.054412 0.000000
0.911275 0.054412 0.000000
0.928799 0.054412 0.000000
0.946324 0.054412 0.000000
0.960171 0.054412 0.000000
0.977451 0.054412 0.000000
0.994976 0.050735 0.000000
1.000000 0.050735 0.000000
1.000000 0.050735 0.000000
1.000000 0.050735 0.000000
1.000000 0.050735 0.000000
1.000000 0.050735 0.000000
1.000000 0.050735 0.000000
1.000000 0.050735 0.000000
0.000000 0.096140 0.000000
0.009681 0.095466 0.000000
0.023284 0.095466 0.000000
0.036888 0.095466 0.000000
0.050490 0.095466 0.000000
0.060172 0.091544 0.000000
0.077022 0.091544 0.000000
0.088787 0.091544 0.000000
0.104902 0.091544 0.000000
0.118505 0.091544 0.000000
0.137377 0.091544 0.000000
0.157475 0.091544 0.000000
0.178921 0.091544 0.000000
0.200368 0.087623 0.000000
0.218995 0.087623 0.000000
0.239338 0.087623 0.000000
0.260784 0.087623 0.000000
0.282169 0.087623 0.000000
0.300613 0.087623 0.000000
0.321201 0.087623 0.000000
0.338725 0.087623 0.000000
0.356250 0.084007 0.000000
0.377696 0.083701 0.000000
0.395221 0.083701 0.000000
0.418444 0.083701 0.000000
0.434191 0.083701 0.000000
0.451715 0.083701 0.000000
0.473774 0.083701 0.000000
0.490687 0.083701 0.000000
0.508211 0.080576 0.000000
0.525735 0.079779 0.000000
0.543260 0.079779 0.000000
0.560785 0.079779 0.000000
0.578309 0.079779 0.000000
0.595833 0.079779 0.000000
0.617279 0.079779 0.000000
0.634804 0.079779 0.000000
0.652329 0.077144 0.000000
0.669853 0.075858 0.000000
0.687378 0.075858 0.000000
0.704902 0.075858 0.000000
0.722426 0.073468 0.000000
0.739951 0.075184 0.000000
0.757476 0.075184 0.000000
0.774326 0.075184 0.000000
0.791850 0.075184 0.000000
0.809375 0.075184 0.000000
0.823652 0.071936 0.000000
0.841177 0.071936 0.000000
0.858701 0.070037 0.000000
0.876225 0.071262 0.000000
0.893750 0.068015 0.000000
0.910539 0.068015 0.000000
0.928125 0.068015 0.000000
0.942402 0.068015 0.000000
0.959926 0.068015 0.000000
0.977451 0.068015 0.000000
0.994976 0.067341 0.000000
1.000000 0.067341 0.000000
1.000000 0.064093 0.000000
1.000000 0.064093 0.000000
1.000000 0.064093 0.000000
1.000000 0.064093 0.000000
1.000000 0.064093 0.000000
1.000000 0.064093 0.000000
0.000000 0.116912 0.000000
0.009681 0.116912 0.000000
0.023284 0.114584 0.000000
0.036888 0.111826 0.000000
0.050490 0.112990 0.000000
0.060172 0.112990 0.000000
0.073774 0.112990 0.000000
0.089706 0.112990 0.000000
0.101471 0.112990 0.000000
0.116912 0.114155 0.000000
0.136029 0.109068 0.000000
0.157475 0.109068 0.000000
0.178186 0.109068 0.000000
0.196629 0.109068 0.000000
0.217892 0.105147 0.000000
0.239338 0.105147 0.000000
0.259804 0.105147 0.000000
0.278308 0.105147 0.000000
0.299755 0.105147 0.000000
0.321385 0.105147 0.000000
0.338725 0.105147 0.000000
0.356250 0.105147 0.000000
0.377696 0.101225 0.000000
0.395221 0.101225 0.000000
0.412745 0.101225 0.000000
0.435968 0.101225 0.000000
0.451715 0.101225 0.000000
0.469240 0.101225 0.000000
0.489093 0.101225 0.000000
0.509743 0.097304 0.000000
0.525735 0.097304 0.000000
0.543260 0.097304 0.000000
0.560785 0.097304 0.000000
0.578309 0.095711 0.000000
0.595833 0.093382 0.000000
0.613358 0.093382 0.000000
0.630882 0.093382 0.000000
0.650735 0.093382 0.000000
0.668260 0.093382 0.000000
0.683456 0.093382 0.000000
0.700980 0.091912 0.000000
0.718505 0.089461 0.000000
0.736030 0.089461 0.000000
0.753554 0.089461 0.000000
0.771078 0.089461 0.000000
0.788603 0.089461 0.000000
0.806127 0.089461 0.000000
0.823652 0.087868 0.000000
0.841177 0.085539 0.000000
0.858701 0.085539 0.000000
0.876225 0.085539 0.000000
0.892157 0.081802 0.000000
0.907353 0.083946 0.000000
0.924878 0.083946 0.000000
0.942402 0.083946 0.000000
0.959926 0.083946 0.000000
0.975858 0.081618 0.000000
0.993566 0.081618 0.000000
1.000000 0.080024 0.000000
1.000000 0.080024 0.000000
1.000000 0.077696 0.000000
1.000000 0.077696 0.000000
1.000000 0.077696 0.000000
1.000000 0.077696 0.000000
1.000000 0.077696 0.000000
0.000000 0.136948 0.000000
0.009681 0.134436 0.000000
0.023284 0.134436 0.000000
0.036888 0.134436 0.000000
0.050490 0.134436 0.000000
0.060172 0.130514 0.000000
0.073774 0.130514 0.000000
0.087377 0.130514 0.000000
0.100981 0.130514 0.000000
0.114583 0.130514 0.000000
0.136029 0.130514 0.000000
0.153309 0.129105 0.000000
0.175000 0.126593 0.000000
0.196446 0.126593 0.000000
0.217892 0.126593 0.000000
0.237439 0.127084 0.000000
0.256863 0.122671 0.000000
0.278308 0.122671 0.000000
0.299755 0.122671 0.000000
0.317280 0.122671 0.000000
0.338909 0.122671 0.000000
0.356250 0.122671 0.000000
0.373774 0.118750 0.000000
0.395221 0.118750 0.000000
0.412745 0.118750 0.000000
0.430270 0.118750 0.000000
0.451715 0.118750 0.000000
0.469240 0.118750 0.000000
0.486765 0.116544 0.000000
0.504289 0.114828 0.000000
0.519425 0.114828 0.000000
0.543260 0.114828 0.000000
0.560785 0.112316 0.000000
0.578309 0.110906 0.000000
0.595833 0.110906 0.000000
0.613358 0.110906 0.000000
0.630882 0.110906 0.000000
0.648407 0.110906 0.000000
0.665932 0.110906 0.000000
0.683456 0.106985 0.000000
0.700980 0.106985 0.000000
0.718505 0.106985 0.000000
0.736030 0.106985 0.000000
0.753554 0.106679 0.000000
0.771078 0.103063 0.000000
0.788603 0.103063 0.000000
0.806127 0.103063 0.000000
0.823652 0.103063 0.000000
0.841177 0.103063 0.000000
0.856189 0.100552 0.000000
0.872304 0.099142 0.000000
0.889828 0.099142 0.000000
0.907353 0.099142 0.000000
0.924878 0.096630 0.000000
0.942402 0.096630 0.000000
0.959926 0.096630 0.000000
0.973529 0.098652 0.000000
0.991054 0.095220 0.000000
1.000000 0.095220 0.000000
1.000000 0.092709 0.000000
1.000000 0.094975 0.000000
1.000000 0.091299 0.000000
1.000000 0.091299 0.000000
1.000000 0.091299 0.000000
1.000000 0.091299 0.000000
0.000000 0.155883 0.000000
0.009681 0.155883 0.000000
0.023284 0.157476 0.000000
0.036888 0.151961 0.000000
0.050490 0.151961 0.000000
0.060172 0.151961 0.000000
0.073774 0.153799 0.000000
0.087377 0.151470 0.000000
0.100981 0.148040 0.000000
0.114583 0.148040 0.000000
0.130025 0.148040 0.000000
0.153554 0.148040 0.000000
0.175000 0.148285 0.000000
0.196446 0.144118 0.000000
0.215074 0.144118 0.000000
0.235417 0.144118 0.000000
0.256863 0.144118 0.000000
0.278247 0.139767 0.000000
0.296691 0.140196 0.000000
0.317280 0.140196 0.000000
0.334804 0.140196 0.000000
0.356434 0.140196 0.000000
0.373774 0.139583 0.000000
0.391299 0.136275 0.000000
0.412745 0.136275 0.000000
0.430270 0.136275 0.000000
0.444730 0.136275 0.000000
0.469240 0.136275 0.000000
0.486765 0.132353 0.000000
0.504289 0.132353 0.000000
0.521814 0.132353 0.000000
0.539338 0.132353 0.000000
0.556863 0.130392 0.000000
0.574878 0.128432 0.000000
0.596201 0.128432 0.000000
0.613358 0.128432 0.000000
0.630882 0.128432 0.000000
0.648407 0.125000 0.000000
0.665932 0.124510 0.000000
0.683456 0.124510 0.000000
0.700980 0.124510 0.000000
0.718505 0.121079 0.000000
0.736030 0.121201 0.000000
0.753554 0.120588 0.000000
0.771078 0.120589 0.000000
0.788603 0.120588 0.000000
0.806127 0.120588 0.000000
0.820220 0.120526 0.000000
0.837255 0.116667 0.000000
0.854779 0.116667 0.000000
0.872304 0.116667 0.000000
0.889828 0.113235 0.000000
0.907353 0.112745 0.000000
0.924878 0.112745 0.000000
0.938970 0.112745 0.000000
0.956005 0.112745 0.000000
0.973529 0.109314 0.000000
0.991054 0.111336 0.000000
1.000000 0.108824 0.000000
1.000000 0.108824 0.000000
1.000000 0.105392 0.000000
1.000000 0.107659 0.000000
1.000000 0.104902 0.000000
1.000000 0.104902 0.000000
1.000000 0.104902 0.000000
0.000000 0.177329 0.000000
0.009681 0.177329 0.000000
0.023284 0.173836 0.000000
0.036888 0.171078 0.000000
0.046814 0.173407 0.000000
0.060172 0.173407 0.000000
0.073774 0.169914 0.000000
0.087377 0.169914 0.000000
0.097549 0.169485 0.000000
0.110662 0.169485 0.000000
0.132108 0.165993 0.000000
0.151900 0.165993 0.000000
0.171078 0.162806 0.000000
0.192280 0.165564 0.000000
0.213971 0.165564 0.000000
0.237010 0.162071 0.000000
0.252941 0.159129 0.000000
0.274387 0.161642 0.000000
0.295834 0.161642 0.000000
0.313358 0.158150 0.000000
0.334804 0.158150 0.000000
0.352328 0.157721 0.000000
0.373958 0.157721 0.000000
0.391299 0.154228 0.000000
0.408824 0.154228 0.000000
0.426348 0.153799 0.000000
0.447794 0.153799 0.000000
0.465318 0.150307 0.000000
0.482843 0.150307 0.000000
0.506985 0.149878 0.000000
0.521814 0.149878 0.000000
0.539338 0.149878 0.000000
0.556863 0.146385 0.000000
0.574387 0.143505 0.000000
0.591912 0.145956 0.000000
0.609436 0.145956 0.000000
0.626961 0.142463 0.000000
0.647978 0.139828 0.000000
0.665503 0.142034 0.000000
0.683027 0.142034 0.000000
0.697059 0.138542 0.000000
0.714583 0.136152 0.000000
0.732108 0.138113 0.000000
0.749633 0.138113 0.000000
0.767157 0.134620 0.000000
0.784681 0.134620 0.000000
0.802206 0.134191 0.000000
0.819731 0.134191 0.000000
0.837255 0.134191 0.000000
0.854779 0.130699 0.000000
0.872304 0.130270 0.000000
0.886091 0.130270 0.000000
0.903432 0.130270 0.000000
0.920956 0.126777 0.000000
0.938480 0.126348 0.000000
0.956005 0.126348 0.000000
0.973529 0.126348 0.000000
0.990625 0.122856 0.000000
1.000000 0.122427 0.000000
1.000000 0.122427 0.000000
1.000000 0.122427 0.000000
1.000000 0.118934 0.000000
1.000000 0.118505 0.000000
1.000000 0.118505 0.000000
1.000000 0.118505 0.000000
0.000000 0.200122 0.000000
0.008333 0.198774 0.000000
0.021446 0.196201 0.000000
0.034130 0.196201 0.000000
0.046814 0.196201 0.000000
0.058824 0.194853 0.000000
0.072181 0.194853 0.000000
0.084866 0.192279 0.000000
0.097549 0.192279 0.000000
0.110662 0.190931 0.000000
0.129534 0.190931 0.000000
0.149632 0.188358 0.000000
0.171078 0.188358 0.000000
0.192525 0.187010 0.000000
0.213971 0.187010 0.000000
0.231495 0.184436 0.000000
0.252941 0.184436 0.000000
0.276900 0.184436 0.000000
0.295834 0.183088 0.000000
0.313358 0.183088 0.000000
0.330882 0.180515 0.000000
0.352328 0.180515 0.000000
0.369853 0.179167 0.000000
0.391482 0.179167 0.000000
0.408824 0.176593 0.000000
0.426348 0.176593 0.000000
0.447794 0.175245 0.000000
0.465318 0.175245 0.000000
0.482843 0.172671 0.000000
0.500368 0.172671 0.000000
0.516666 0.171323 0.000000
0.537990 0.171323 0.000000
0.556862 0.168750 0.000000
0.574387 0.168750 0.000000
0.591912 0.168750 0.000000
0.609436 0.167402 0.000000
0.626961 0.164828 0.000000
0.644486 0.164828 0.000000
0.662010 0.164828 0.000000
0.679534 0.163480 0.000000
0.697059 0.163480 0.000000
0.714583 0.160907 0.000000
0.732108 0.160907 0.000000
0.749633 0.159559 0.000000
0.767157 0.159682 0.000000
0.784681 0.156985 0.000000
0.802206 0.156985 0.000000
0.819731 0.155637 0.000000
0.837255 0.156005 0.000000
0.852880 0.153064 0.000000
0.870956 0.153064 0.000000
0.885907 0.153064 0.000000
0.903432 0.151716 0.000000
0.920956 0.149142 0.000000
0.938480 0.149142 0.000000
0.956005 0.149142 0.000000
0.973039 0.147794 0.000000
0.987133 0.145220 0.000000
1.000000 0.145220 0.000000
1.000000 0.145220 0.000000
1.000000 0.143872 0.000000
1.000000 0.141299 0.000000
1.000000 0.141299 0.000000
1.000000 0.141299 0.000000
1.000000 0.139951 0.000000
0.000000 0.222488 0.000000
0.008762 0.222488 0.000000
0.021446 0.220220 0.000000
0.034620 0.220220 0.000000
0.046569 0.218566 0.000000
0.059498 0.218566 0.000000
0.072181 0.216299 0.000000
0.085111 0.216299 0.000000
0.097059 0.214645 0.000000
0.110662 0.214645 0.000000
0.128186 0.214645 0.000000
0.149632 0.212377 0.000000
0.171998 0.212377 0.000000
0.192525 0.210723 0.000000
0.208884 0.210723 0.000000
0.231495 0.208456 0.000000
0.253615 0.208456 0.000000
0.274326 0.206802 0.000000
0.292770 0.206802 0.000000
0.313358 0.204534 0.000000
0.330882 0.204534 0.000000
0.348407 0.202880 0.000000
0.369853 0.202880 0.000000
0.387378 0.202880 0.000000
0.409008 0.200613 0.000000
0.426348 0.200613 0.000000
0.441973 0.198959 0.000000
0.465318 0.198959 0.000000
0.482843 0.196691 0.000000
0.500368 0.196691 0.000000
0.517892 0.195037 0.000000
0.535416 0.195037 0.000000
0.552941 0.192769 0.000000
0.572120 0.192769 0.000000
0.593444 0.191115 0.000000
0.609436 0.191115 0.000000
0.626961 0.191115 0.000000
0.644486 0.188848 0.000000
0.662010 0.188848 0.000000
0.679534 0.187194 0.000000
0.697059 0.187194 0.000000
0.714583 0.184926 0.000000
0.732108 0.184926 0.000000
0.749633 0.183272 0.000000
0.767157 0.183272 0.000000
0.784681 0.181005 0.000000
0.802206 0.181005 0.000000
0.817463 0.179351 0.000000
0.836274 0.179351 0.000000
0.850858 0.179351 0.000000
0.868382 0.177083 0.000000
0.885907 0.175429 0.000000
0.903432 0.175429 0.000000
0.920956 0.175429 0.000000
0.935907 0.173162 0.000000
0.953738 0.171508 0.000000
0.969608 0.171508 0.000000
0.987133 0.171508 0.000000
1.000000 0.169240 0.000000
1.000000 0.169240 0.000000
1.000000 0.167586 0.000000
1.000000 0.167586 0.000000
1.000000 0.165318 0.000000
1.000000 0.165318 0.000000
1.000000 0.163664 0.000000
0.000000 0.245588 0.000000
0.008762 0.244853 0.000000
0.021446 0.244853 0.000000
0.029780 0.244853 0.000000
0.042892 0.241666 0.000000
0.056250 0.240931 0.000000
0.069853 0.240931 0.000000
0.080269 0.240931 0.000000
0.093628 0.237745 0.000000
0.106740 0.237010 0.000000
0.128186 0.237010 0.000000
0.147978 0.237010 0.000000
0.167156 0.237010 0.000000
0.185600 0.233823 0.000000
0.210049 0.233088 0.000000
0.231495 0.233088 0.000000
0.248774 0.233088 0.000000
0.270465 0.229902 0.000000
0.291912 0.229167 0.000000
0.313358 0.229167 0.000000
0.330882 0.229167 0.000000
0.348407 0.225551 0.000000
0.369853 0.228554 0.000000
0.387378 0.225245 0.000000
0.404902 0.225245 0.000000
0.426532 0.225245 0.000000
0.443872 0.222058 0.000000
0.459498 0.221323 0.000000
0.482843 0.221323 0.000000
0.500368 0.221323 0.000000
0.517892 0.218137 0.000000
0.535416 0.220282 0.000000
0.552941 0.217402 0.000000
0.570466 0.217402 0.000000
0.587990 0.213603 0.000000
0.606250 0.216605 0.000000
0.626961 0.213480 0.000000
0.644486 0.213480 0.000000
0.662010 0.213480 0.000000
0.679534 0.210294 0.000000
0.697059 0.209559 0.000000
0.711398 0.209559 0.000000
0.728922 0.209559 0.000000
0.746446 0.206372 0.000000
0.763970 0.205637 0.000000
0.781495 0.205637 0.000000
0.799142 0.205637 0.000000
0.815809 0.202451 0.000000
0.833334 0.204657 0.000000
0.850858 0.201716 0.000000
0.868382 0.201716 0.000000
0.885907 0.201716 0.000000
0.900245 0.200981 0.000000
0.919302 0.197794 0.000000
0.934559 0.197794 0.000000
0.952083 0.197794 0.000000
0.969608 0.194607 0.000000
0.987133 0.193872 0.000000
1.000000 0.193872 0.000000
1.000000 0.193872 0.000000
1.000000 0.190686 0.000000
1.000000 0.189951 0.000000
1.000000 0.189951 0.000000
1.000000 0.189951 0.000000
1.000000 0.186764 0.000000
0.000000 0.267218 0.000000
0.008762 0.267218 0.000000
0.021446 0.267218 0.000000
0.030209 0.267218 0.000000
0.042892 0.267035 0.000000
0.055576 0.263296 0.000000
0.068260 0.263296 0.000000
0.083272 0.263296 0.000000
0.096875 0.263113 0.000000
0.106740 0.259375 0.000000
0.124265 0.259375 0.000000
0.145711 0.259375 0.000000
0.167156 0.259375 0.000000
0.188603 0.259192 0.000000
0.207231 0.255453 0.000000
0.227574 0.255453 0.000000
0.249019 0.255453 0.000000
0.274141 0.251593 0.000000
0.292586 0.251531 0.000000
0.309436 0.251531 0.000000
0.326961 0.251531 0.000000
0.348407 0.251531 0.000000
0.365931 0.251348 0.000000
0.388726 0.247610 0.000000
0.404902 0.247610 0.000000
0.422426 0.247610 0.000000
0.444056 0.247427 0.000000
0.461397 0.243688 0.000000
0.478922 0.243688 0.000000
0.496446 0.243688 0.000000
0.513910 0.243505 0.000000
0.536274 0.243505 0.000000
0.552941 0.239767 0.000000
0.570466 0.239767 0.000000
0.587990 0.239767 0.000000
0.605515 0.239584 0.000000
0.623039 0.235845 0.000000
0.640564 0.235845 0.000000
0.658089 0.235845 0.000000
