Color/CreativePack-1/CrispWarm 65x.cube
TITLE "CrispWarm"
LUT_3D_SIZE 5
DOMAIN_MIN 0.000000 0.000000 0.000000
DOMAIN_MAX 1.000000 1.000000 1.000000
0.000000 0.000000 0.000000
0.182353 0.000000 0.000000
0.541176 0.000000 0.000000
0.897059 0.000000 0.000000
1.000000 0.000000 0.000000
0.000000 0.162745 0.000000
0.182353 0.162745 0.000000
0.541177 0.162745 0.000000
0.897059 0.162745 0.000000
1.000000 0.162745 0.000000
0.000000 0.482353 0.000000
0.182353 0.482353 0.000000
0.541176 0.482353 0.000000
0.897059 0.482353 0.000000
1.000000 0.482353 0.000000
0.000000 0.801961 0.000000
0.182353 0.801961 0.000000
0.541176 0.801961 0.000000
0.897059 0.801961 0.000000
1.000000 0.801961 0.000000
0.000000 1.000000 0.000000
0.182353 1.000000 0.000000
0.541176 1.000000 0.000000
0.897059 1.000000 0.000000
1.000000 1.000000 0.000000
0.000000 0.000000 0.143137
0.182353 0.000000 0.143137
0.541176 0.000000 0.143137
0.897059 0.000000 0.143137
1.000000 0.000000 0.143137
0.000000 0.162745 0.143137
0.182353 0.162745 0.143137
0.541176 0.162745 0.143137
0.897059 0.162745 0.143137
1.000000 0.162745 0.143137
0.000000 0.482353 0.143137
0.182353 0.482353 0.143137
0.541176 0.482353 0.143137
0.897059 0.482353 0.143137
1.000000 0.482353 0.143137
0.000000 0.801961 0.143137
0.182353 0.801961 0.143137
0.541176 0.801961 0.143137
0.897059 0.801961 0.143137
1.000000 0.801961 0.143137
0.000000 1.000000 0.143137
0.182353 1.000000 0.143137
0.541176 1.000000 0.143137
0.897059 1.000000 0.143137
1.000000 1.000000 0.143137
0.000000 0.000000 0.423530
0.182353 0.000000 0.423530
0.541176 0.000000 0.423530
0.897059 0.000000 0.423530
1.000000 0.000000 0.423530
0.000000 0.162745 0.423530
0.182353 0.162745 0.423530
0.541176 0.162745 0.423530
0.897059 0.162745 0.423530
1.000000 0.162745 0.423530
0.000000 0.482353 0.423530
0.182353 0.482353 0.423530
0.541176 0.482353 0.423530
0.897059 0.482353 0.423530
1.000000 0.482353 0.423530
0.000000 0.801961 0.423530
0.182353 0.801961 0.423530
0.541176 0.801961 0.423530
0.897059 0.801961 0.423530
1.000000 0.801961 0.423530
0.000000 1.000000 0.423530
0.182353 1.000000 0.423530
0.541176 1.000000 0.423530
0.897059 1.000000 0.423530
1.000000 1.000000 0.423530
0.000000 0.000000 0.703922
0.182353 0.000000 0.703922
0.541176 0.000000 0.703922
0.897059 0.000000 0.703922
1.000000 0.000000 0.703922
0.000000 0.162745 0.703922
0.182353 0.162745 0.703922
0.541176 0.162745 0.703922
0.897059 0.162745 0.703922
1.000000 0.162745 0.703922
0.000000 0.482353 0.703922
0.182353 0.482353 0.703922
0.541176 0.482353 0.703922
0.897059 0.482353 0.703922
1.000000 0.482353 0.703922
0.000000 0.801961 0.703922
0.182353 0.801961 0.703922
0.541176 0.801961 0.703922
0.897059 0.801961 0.703922
1.000000 0.801961 0.703922
0.000000 1.000000 0.703922
0.182353 1.000000 0.703922
0.541176 1.000000 0.703922
0.897059 1.000000 0.703922
1.000000 1.000000 0.703922
0.000000 0.000000 0.980392
0.182353 0.000000 0.980392
0.541176 0.000000 0.980392
0.897059 0.000000 0.980392
1.000000 0.000000 0.980392
0.000000 0.162745 0.980392
0.182353 0.162745 0.980392
0.541177 0.162745 0.980392
0.897059 0.162745 0.980392
1.000000 0.162745 0.980392
0.000000 0.482353 0.980392
0.182353 0.482353 0.980392
0.541176 0.482353 0.980392
0.897059 0.482353 0.980392
1.000000 0.482353 0.980392
0.000000 0.801961 0.980392
0.182353 0.801961 0.980392
0.541176 0.801961 0.980392
0.897059 0.801961 0.980392
1.000000 0.801961 0.980392
0.000000 1.000000 0.980392
0.182353 1.000000 0.980392
0.541176 1.000000 0.980392
0.897059 1.000000 0.980392
1.000000 1.000000 0.980392
