Color/CreativePack-1/CrispWarm 65x.cube
TITLE "CrispWarm"
LUT_3D_SIZE 65
DOMAIN_MIN 0.000000 0.000000 0.000000
DOMAIN_MAX 1.000000 1.000000 1.000000
0.000000 0.000000 0.000000
0.000000 0.000000 0.000000
0.000000 0.000000 0.000000
0.000000 0.000000 0.000000
0.000000 0.000000 0.000000
0.000000 0.000000 0.000000
0.000000 0.000000 0.000000
0.000000 0.000000 0.000000
0.006863 0.000000 0.000000
0.028309 0.000000 0.000000
0.049755 0.000000 0.000000
0.071201 0.000000 0.000000
0.095833 0.000000 0.000000
0.118015 0.000000 0.000000
0.139461 0.000000 0.000000
0.160907 0.000000 0.000000
0.182353 0.000000 0.000000
0.207659 0.000000 0.000000
0.229167 0.000000 0.000000
0.250613 0.000000 0.000000
0.272059 0.000000 0.000000
0.297120 0.000000 0.000000
0.318872 0.000000 0.000000
0.340319 0.000000 0.000000
0.361765 0.000000 0.000000
0.383211 0.000000 0.000000
0.408578 0.000000 0.000000
0.430024 0.000000 0.000000
0.451471 0.000000 0.000000
0.472917 0.000000 0.000000
0.494486 0.000000 0.000000
0.519730 0.000000 0.000000
0.541176 0.000000 0.000000
0.562623 0.000000 0.000000
0.584069 0.000000 0.000000
0.606312 0.000000 0.000000
0.630882 0.000000 0.000000
0.652329 0.000000 0.000000
0.673775 0.000000 0.000000
0.695772 0.000000 0.000000
0.720588 0.000000 0.000000
0.742034 0.000000 0.000000
0.763481 0.000000 0.000000
0.785233 0.000000 0.000000
0.807598 0.000000 0.000000
0.831740 0.000000 0.000000
0.853186 0.000000 0.000000
0.874694 0.000000 0.000000
0.897059 0.000000 0.000000
0.919424 0.000000 0.000000
0.942892 0.000000 0.000000
0.964338 0.000000 0.000000
0.986520 0.000000 0.000000
1.000000 0.000000 0.000000
1.000000 0.000000 0.000000
1.000000 0.000000 0.000000
1.000000 0.000000 0.000000
1.000000 0.000000 0.000000
1.000000 0.000000 0.000000
1.000000 0.000000 0.000000
1.000000 0.000000 0.000000
1.000000 0.000000 0.000000
1.000000 0.000000 0.000000
1.000000 0.000000 0.000000
1.000000 0.000000 0.000000
0.000000 0.000000 0.000000
0.000000 0.000000 0.000000
0.000000 0.000000 0.000000
0.000000 0.000000 0.000000
0.000000 0.000000 0.000000
0.000000 0.000000 0.000000
0.000000 0.000000 0.000000
0.000000 0.000000 0.000000
0.006863 0.000000 0.000000
0.028309 0.000000 0.000000
0.049755 0.000000 0.000000
0.071201 0.000000 0.000000
0.095833 0.000000 0.000000
0.118015 0.000000 0.000000
0.139461 0.000000 0.000000
0.160907 0.000000 0.000000
0.182353 0.000000 0.000000
0.207659 0.000000 0.000000
0.229167 0.000000 0.000000
0.250613 0.000000 0.000000
0.272059 0.000000 0.000000
0.297120 0.000000 0.000000
0.318872 0.000000 0.000000
0.340319 0.000000 0.000000
0.361765 0.000000 0.000000
0.383211 0.000000 0.000000
0.408578 0.000000 0.000000
0.430024 0.000000 0.000000
0.451471 0.000000 0.000000
0.472917 0.000000 0.000000
0.494486 0.000000 0.000000
0.519730 0.000000 0.000000
0.541176 0.000000 0.000000
0.562623 0.000000 0.000000
0.584069 0.000000 0.000000
0.606312 0.000000 0.000000
0.630882 0.000000 0.000000
0.652329 0.000000 0.000000
0.673775 0.000000 0.000000
0.695772 0.000000 0.000000
0.720588 0.000000 0.000000
0.742034 0.000000 0.000000
0.763481 0.000000 0.000000
0.785233 0.000000 0.000000
0.807598 0.000000 0.000000
0.831740 0.000000 0.000000
0.853186 0.000000 0.000000
0.874694 0.000000 0.000000
0.897059 0.000000 0.000000
0.919424 0.000000 0.000000
0.942892 0.000000 0.000000
0.964338 0.000000 0.000000
0.986520 0.000000 0.000000
1.000000 0.000000 0.000000
1.000000 0.000000 0.000000
1.000000 0.000000 0.000000
1.000000 0.000000 0.000000
1.000000 0.000000 0.000000
1.000000 0.000000 0.000000
1.000000 0.000000 0.000000
1.000000 0.000000 0.000000
1.000000 0.000000 0.000000
1.000000 0.000000 0.000000
1.000000 0.000000 0.000000
1.000000 0.000000 0.000000
0.000000 0.000000 0.000000
0.000000 0.000000 0.000000
0.000000 0.000000 0.000000
0.000000 0.000000 0.000000
0.000000 0.000000 0.000000
0.000000 0.000000 0.000000
0.000000 0.000000 0.000000
0.000000 0.000000 0.000000
0.006863 0.000000 0.000000
0.028309 0.000000 0.000000
0.049755 0.000000 0.000000
0.071201 0.000000 0.000000
0.095833 0.000000 0.000000
0.118015 0.000000 0.000000
0.139461 0.000000 0.000000
0.160907 0.000000 0.000000
0.182353 0.000000 0.000000
0.207659 0.000000 0.000000
0.229167 0.000000 0.000000
0.250613 0.000000 0.000000
0.272059 0.000000 0.000000
0.297120 0.000000 0.000000
0.318872 0.000000 0.000000
0.340319 0.000000 0.000000
0.361765 0.000000 0.000000
0.383211 0.000000 0.000000
0.408578 0.000000 0.000000
0.430024 0.000000 0.000000
0.451471 0.000000 0.000000
0.472917 0.000000 0.000000
0.494486 0.000000 0.000000
0.519730 0.000000 0.000000
0.541176 0.000000 0.000000
0.562623 0.000000 0.000000
0.584069 0.000000 0.000000
0.606312 0.000000 0.000000
0.630882 0.000000 0.000000
0.652329 0.000000 0.000000
0.673775 0.000000 0.000000
0.695772 0.000000 0.000000
0.720588 0.000000 0.000000
0.742034 0.000000 0.000000
0.763481 0.000000 0.000000
0.785233 0.000000 0.000000
0.807598 0.000000 0.000000
0.831740 0.000000 0.000000
0.853186 0.000000 0.000000
0.874694 0.000000 0.000000
0.897059 0.000000 0.000000
0.919424 0.000000 0.000000
0.942892 0.000000 0.000000
0.964338 0.000000 0.000000
0.986520 0.000000 0.000000
1.000000 0.000000 0.000000
1.000000 0.000000 0.000000
1.000000 0.000000 0.000000
1.000000 0.000000 0.000000
1.000000 0.000000 0.000000
1.000000 0.000000 0.000000
1.000000 0.000000 0.000000
1.000000 0.000000 0.000000
1.000000 0.000000 0.000000
1.000000 0.000000 0.000000
1.000000 0.000000 0.000000
1.000000 0.000000 0.000000
0.000000 0.000000 0.000000
0.000000 0.000000 0.000000
0.000000 0.000000 0.000000
0.000000 0.000000 0.000000
0.000000 0.000000 0.000000
0.000000 0.000000 0.000000
0.000000 0.000000 0.000000
0.000000 0.000000 0.000000
0.006863 0.000000 0.000000
0.028309 0.000000 0.000000
0.049755 0.000000 0.000000
0.071201 0.000000 0.000000
0.095833 0.000000 0.000000
0.118015 0.000000 0.000000
0.139461 0.000000 0.000000
0.160907 0.000000 0.000000
0.182353 0.000000 0.000000
0.207659 0.000000 0.000000
0.229167 0.000000 0.000000
0.250613 0.000000 0.000000
0.272059 0.000000 0.000000
0.297120 0.000000 0.000000
0.318872 0.000000 0.000000
0.340319 0.000000 0.000000
0.361765 0.000000 0.000000
0.383211 0.000000 0.000000
0.408578 0.000000 0.000000
0.430024 0.000000 0.000000
0.451471 0.000000 0.000000
0.472917 0.000000 0.000000
0.494486 0.000000 0.000000
0.519730 0.000000 0.000000
0.541176 0.000000 0.000000
0.562623 0.000000 0.000000
0.584069 0.000000 0.000000
0.606312 0.000000 0.000000
0.630882 0.000000 0.000000
0.652329 0.000000 0.000000
0.673775 0.000000 0.000000
0.695772 0.000000 0.000000
0.720588 0.000000 0.000000
0.742034 0.000000 0.000000
0.763481 0.000000 0.000000
0.785233 0.000000 0.000000
0.807598 0.000000 0.000000
0.831740 0.000000 0.000000
0.853186 0.000000 0.000000
0.874694 0.000000 0.000000
0.897059 0.000000 0.000000
0.919424 0.000000 0.000000
0.942892 0.000000 0.000000
0.964338 0.000000 0.000000
0.986520 0.000000 0.000000
1.000000 0.000000 0.000000
1.000000 0.000000 0.000000
1.000000 0.000000 0.000000
1.000000 0.000000 0.000000
1.000000 0.000000 0.000000
1.000000 0.000000 0.000000
1.000000 0.000000 0.000000
1.000000 0.000000 0.000000
1.000000 0.000000 0.000000
1.000000 0.000000 0.000000
1.000000 0.000000 0.000000
1.000000 0.000000 0.000000
0.000000 0.000000 0.000000
0.000000 0.000000 0.000000
0.000000 0.000000 0.000000
0.000000 0.000000 0.000000
0.000000 0.000000 0.000000
0.000000 0.000000 0.000000
0.000000 0.000000 0.000000
0.000000 0.000000 0.000000
0.006863 0.000000 0.000000
0.028309 0.000000 0.000000
0.049755 0.000000 0.000000
0.071201 0.000000 0.000000
0.095833 0.000000 0.000000
0.118015 0.000000 0.000000
0.139461 0.000000 0.000000
0.160907 0.000000 0.000000
0.182353 0.000000 0.000000
0.207659 0.000000 0.000000
0.229167 0.000000 0.000000
0.250613 0.000000 0.000000
0.272059 0.000000 0.000000
0.297120 0.000000 0.000000
0.318872 0.000000 0.000000
0.340319 0.000000 0.000000
0.361765 0.000000 0.000000
0.383211 0.000000 0.000000
0.408578 0.000000 0.000000
0.430024 0.000000 0.000000
0.451471 0.000000 0.000000
0.472917 0.000000 0.000000
0.494486 0.000000 0.000000
0.519730 0.000000 0.000000
0.541177 0.000000 0.000000
0.562623 0.000000 0.000000
0.584069 0.000000 0.000000
0.606312 0.000000 0.000000
0.630882 0.000000 0.000000
0.652329 0.000000 0.000000
0.673775 0.000000 0.000000
0.695772 0.000000 0.000000
0.720588 0.000000 0.000000
0.742034 0.000000 0.000000
0.763481 0.000000 0.000000
0.785233 0.000000 0.000000
0.807598 0.000000 0.000000
0.831740 0.000000 0.000000
0.853186 0.000000 0.000000
0.874694 0.000000 0.000000
0.897059 0.000000 0.000000
0.919424 0.000000 0.000000
0.942892 0.000000 0.000000
0.964338 0.000000 0.000000
0.986520 0.000000 0.000000
1.000000 0.000000 0.000000
1.000000 0.000000 0.000000
1.000000 0.000000 0.000000
1.000000 0.000000 0.000000
1.000000 0.000000 0.000000
1.000000 0.000000 0.000000
1.000000 0.000000 0.000000
1.000000 0.000000 0.000000
1.000000 0.000000 0.000000
1.000000 0.000000 0.000000
1.000000 0.000000 0.000000
1.000000 0.000000 0.000000
0.000000 0.000000 0.000000
0.000000 0.000000 0.000000
0.000000 0.000000 0.000000
0.000000 0.000000 0.000000
0.000000 0.000000 0.000000
0.000000 0.000000 0.000000
0.000000 0.000000 0.000000
0.000000 0.000000 0.000000
0.006863 0.000000 0.000000
0.028309 0.000000 0.000000
0.049755 0.000000 0.000000
0.071201 0.000000 0.000000
0.095833 0.000000 0.000000
0.118015 0.000000 0.000000
0.139461 0.000000 0.000000
0.160907 0.000000 0.000000
0.182353 0.000000 0.000000
0.207659 0.000000 0.000000
0.229167 0.000000 0.000000
0.250613 0.000000 0.000000
0.272059 0.000000 0.000000
0.297120 0.000000 0.000000
0.318872 0.000000 0.000000
0.340319 0.000000 0.000000
0.361765 0.000000 0.000000
0.383211 0.000000 0.000000
0.408578 0.000000 0.000000
0.430024 0.000000 0.000000
0.451471 0.000000 0.000000
0.472917 0.000000 0.000000
0.494486 0.000000 0.000000
0.519730 0.000000 0.000000
0.541176 0.000000 0.000000
0.562623 0.000000 0.000000
0.584069 0.000000 0.000000
0.606312 0.000000 0.000000
0.630882 0.000000 0.000000
0.652329 0.000000 0.000000
0.673775 0.000000 0.000000
0.695772 0.000000 0.000000
0.720588 0.000000 0.000000
0.742034 0.000000 0.000000
0.763481 0.000000 0.000000
0.785233 0.000000 0.000000
0.807598 0.000000 0.000000
0.831740 0.000000 0.000000
0.853186 0.000000 0.000000
0.874694 0.000000 0.000000
0.897059 0.000000 0.000000
0.919424 0.000000 0.000000
0.942892 0.000000 0.000000
0.964338 0.000000 0.000000
0.986520 0.000000 0.000000
1.000000 0.000000 0.000000
1.000000 0.000000 0.000000
1.000000 0.000000 0.000000
1.000000 0.000000 0.000000
1.000000 0.000000 0.000000
1.000000 0.000000 0.000000
1.000000 0.000000 0.000000
1.000000 0.000000 0.000000
1.000000 0.000000 0.000000
1.000000 0.000000 0.000000
1.000000 0.000000 0.000000
1.000000 0.000000 0.000000
0.000000 0.000000 0.000000
0.000000 0.000000 0.000000
0.000000 0.000000 0.000000
0.000000 0.000000 0.000000
0.000000 0.000000 0.000000
0.000000 0.000000 0.000000
0.000000 0.000000 0.000000
0.000000 0.000000 0.000000
0.006863 0.000000 0.000000
0.028309 0.000000 0.000000
0.049755 0.000000 0.000000
0.071201 0.000000 0.000000
0.095833 0.000000 0.000000
0.118015 0.000000 0.000000
0.139461 0.000000 0.000000
0.160907 0.000000 0.000000
0.182353 0.000000 0.000000
0.207659 0.000000 0.000000
0.229167 0.000000 0.000000
0.250613 0.000000 0.000000
0.272059 0.000000 0.000000
0.297120 0.000000 0.000000
0.318872 0.000000 0.000000
0.340319 0.000000 0.000000
0.361765 0.000000 0.000000
0.383211 0.000000 0.000000
0.408578 0.000000 0.000000
0.430024 0.000000 0.000000
0.451471 0.000000 0.000000
0.472917 0.000000 0.000000
0.494486 0.000000 0.000000
0.519730 0.000000 0.000000
0.541176 0.000000 0.000000
0.562623 0.000000 0.000000
0.584069 0.000000 0.000000
0.606312 0.000000 0.000000
0.630882 0.000000 0.000000
0.652329 0.000000 0.000000
0.673775 0.000000 0.000000
0.695772 0.000000 0.000000
0.720588 0.000000 0.000000
0.742034 0.000000 0.000000
0.763481 0.000000 0.000000
0.785233 0.000000 0.000000
0.807598 0.000000 0.000000
0.831740 0.000000 0.000000
0.853186 0.000000 0.000000
0.874694 0.000000 0.000000
0.897059 0.000000 0.000000
0.919424 0.000000 0.000000
0.942892 0.000000 0.000000
0.964338 0.000000 0.000000
0.986520 0.000000 0.000000
1.000000 0.000000 0.000000
1.000000 0.000000 0.000000
1.000000 0.000000 0.000000
1.000000 0.000000 0.000000
1.000000 0.000000 0.000000
1.000000 0.000000 0.000000
1.000000 0.000000 0.000000
1.000000 0.000000 0.000000
1.000000 0.000000 0.000000
1.000000 0.000000 0.000000
1.000000 0.000000 0.000000
1.000000 0.000000 0.000000
0.000000 0.000000 0.000000
0.000000 0.000000 0.000000
0.000000 0.000000 0.000000
0.000000 0.000000 0.000000
0.000000 0.000000 0.000000
0.000000 0.000000 0.000000
0.000000 0.000000 0.000000
0.000000 0.000000 0.000000
0.006863 0.000000 0.000000
0.028309 0.000000 0.000000
0.049755 0.000000 0.000000
0.071201 0.000000 0.000000
0.095833 0.000000 0.000000
0.118015 0.000000 0.000000
0.139461 0.000000 0.000000
0.160907 0.000000 0.000000
0.182353 0.000000 0.000000
0.207659 0.000000 0.000000
0.229167 0.000000 0.000000
0.250613 0.000000 0.000000
0.272059 0.000000 0.000000
0.297120 0.000000 0.000000
0.318872 0.000000 0.000000
0.340319 0.000000 0.000000
0.361765 0.000000 0.000000
0.383211 0.000000 0.000000
0.408578 0.000000 0.000000
0.430024 0.000000 0.000000
0.451471 0.000000 0.000000
0.472917 0.000000 0.000000
0.494486 0.000000 0.000000
0.519730 0.000000 0.000000
0.541176 0.000000 0.000000
0.562623 0.000000 0.000000
0.584069 0.000000 0.000000
0.606312 0.000000 0.000000
0.630882 0.000000 0.000000
0.652329 0.000000 0.000000
0.673775 0.000000 0.000000
0.695772 0.000000 0.000000
0.720588 0.000000 0.000000
0.742034 0.000000 0.000000
0.763481 0.000000 0.000000
0.785233 0.000000 0.000000
0.807598 0.000000 0.000000
0.831740 0.000000 0.000000
0.853186 0.000000 0.000000
0.874694 0.000000 0.000000
0.897059 0.000000 0.000000
0.919424 0.000000 0.000000
0.942892 0.000000 0.000000
0.964338 0.000000 0.000000
0.986520 0.000000 0.000000
1.000000 0.000000 0.000000
1.000000 0.000000 0.000000
1.000000 0.000000 0.000000
1.000000 0.000000 0.000000
1.000000 0.000000 0.000000
1.000000 0.000000 0.000000
1.000000 0.000000 0.000000
1.000000 0.000000 0.000000
1.000000 0.000000 0.000000
1.000000 0.000000 0.000000
1.000000 0.000000 0.000000
1.000000 0.000000 0.000000
0.000000 0.003432 0.000000
0.000000 0.003432 0.000000
0.000000 0.003432 0.000000
0.000000 0.003432 0.000000
0.000000 0.003432 0.000000
0.000000 0.003432 0.000000
0.000000 0.003432 0.000000
0.000000 0.003432 0.000000
0.006863 0.003432 0.000000
0.028309 0.003432 0.000000
0.049755 0.003432 0.000000
0.071201 0.003432 0.000000
0.095833 0.003432 0.000000
0.118015 0.003432 0.000000
0.139461 0.003432 0.000000
0.160907 0.003432 0.000000
0.182353 0.003432 0.000000
0.207659 0.003432 0.000000
0.229167 0.003432 0.000000
0.250613 0.003432 0.000000
0.272059 0.003432 0.000000
0.297120 0.003432 0.000000
0.318872 0.003432 0.000000
0.340319 0.003432 0.000000
0.361765 0.003432 0.000000
0.383211 0.003432 0.000000
0.408578 0.003432 0.000000
0.430024 0.003432 0.000000
0.451471 0.003432 0.000000
0.472917 0.003432 0.000000
0.494486 0.003432 0.000000
0.519730 0.003432 0.000000
0.541176 0.003432 0.000000
0.562623 0.003432 0.000000
0.584069 0.003432 0.000000
0.606312 0.003432 0.000000
0.630882 0.003432 0.000000
0.652329 0.003432 0.000000
0.673775 0.003432 0.000000
0.695772 0.003432 0.000000
0.720588 0.003432 0.000000
0.742034 0.003432 0.000000
0.763481 0.003432 0.000000
0.785233 0.003432 0.000000
0.807598 0.003432 0.000000
0.831740 0.003432 0.000000
0.853186 0.003432 0.000000
0.874694 0.003432 0.000000
0.897059 0.003432 0.000000
0.919424 0.003432 0.000000
0.942892 0.003432 0.000000
0.964338 0.003432 0.000000
0.986520 0.003432 0.000000
1.000000 0.003432 0.000000
1.000000 0.003432 0.000000
1.000000 0.003432 0.000000
1.000000 0.003432 0.000000
1.000000 0.003432 0.000000
1.000000 0.003432 0.000000
1.000000 0.003432 0.000000
1.000000 0.003432 0.000000
1.000000 0.003432 0.000000
1.000000 0.003432 0.000000
1.000000 0.003432 0.000000
1.000000 0.003432 0.000000
0.000000 0.024387 0.000000
0.000000 0.024387 0.000000
0.000000 0.024387 0.000000
0.000000 0.024387 0.000000
0.000000 0.024387 0.000000
0.000000 0.024387 0.000000
0.000000 0.024387 0.000000
0.000000 0.024387 0.000000
0.006863 0.024387 0.000000
0.028309 0.024387 0.000000
0.049755 0.024387 0.000000
0.071201 0.024387 0.000000
0.095833 0.024387 0.000000
0.118015 0.024387 0.000000
0.139461 0.024387 0.000000
0.160907 0.024387 0.000000
0.182353 0.024387 0.000000
0.207659 0.024387 0.000000
0.229167 0.024387 0.000000
0.250613 0.024387 0.000000
0.272059 0.024387 0.000000
0.297120 0.024387 0.000000
0.318872 0.024387 0.000000
0.340319 0.024387 0.000000
0.361765 0.024387 0.000000
0.383211 0.024387 0.000000
0.408578 0.024387 0.000000
0.430024 0.024387 0.000000
0.451471 0.024387 0.000000
0.472917 0.024387 0.000000
0.494486 0.024387 0.000000
0.519730 0.024387 0.000000
0.541176 0.024387 0.000000
0.562623 0.024387 0.000000
0.584069 0.024387 0.000000
0.606312 0.024387 0.000000
0.630882 0.024387 0.000000
0.652329 0.024387 0.000000
0.673775 0.024387 0.000000
0.695772 0.024387 0.000000
0.720588 0.024387 0.000000
0.742034 0.024387 0.000000
0.763481 0.024387 0.000000
0.785233 0.024387 0.000000
0.807598 0.024387 0.000000
0.831740 0.024387 0.000000
0.853186 0.024387 0.000000
0.874694 0.024387 0.000000
0.897059 0.024387 0.000000
0.919424 0.024387 0.000000
0.942892 0.024387 0.000000
0.964338 0.024387 0.000000
0.986520 0.024387 0.000000
1.000000 0.024387 0.000000
1.000000 0.024387 0.000000
1.000000 0.024387 0.000000
1.000000 0.024387 0.000000
1.000000 0.024387 0.000000
1.000000 0.024387 0.000000
1.000000 0.024387 0.000000
1.000000 0.024387 0.000000
1.000000 0.024387 0.000000
1.000000 0.024387 0.000000
1.000000 0.024387 0.000000
1.000000 0.024387 0.000000
0.000000 0.043260 0.000000
0.000000 0.043260 0.000000
0.000000 0.043260 0.000000
0.000000 0.043260 0.000000
0.000000 0.043260 0.000000
0.000000 0.043260 0.000000
0.000000 0.043260 0.000000
0.000000 0.043260 0.000000
0.006863 0.043260 0.000000
0.028309 0.043260 0.000000
0.049755 0.043260 0.000000
0.071201 0.043260 0.000000
0.095833 0.043260 0.000000
0.118015 0.043260 0.000000
0.139461 0.043260 0.000000
0.160907 0.043260 0.000000
0.182353 0.043260 0.000000
0.207659 0.043260 0.000000
0.229167 0.043260 0.000000
0.250613 0.043260 0.000000
0.272059 0.043260 0.000000
0.297120 0.043260 0.000000
0.318872 0.043260 0.000000
0.340319 0.043260 0.000000
0.361765 0.043260 0.000000
0.383211 0.043260 0.000000
0.408578 0.043260 0.000000
0.430024 0.043260 0.000000
0.451471 0.043260 0.000000
0.472917 0.043260 0.000000
0.494486 0.043260 0.000000
0.519730 0.043260 0.000000
0.541176 0.043260 0.000000
0.562623 0.043260 0.000000
0.584069 0.043260 0.000000
0.606312 0.043260 0.000000
0.630882 0.043260 0.000000
0.652329 0.043260 0.000000
0.673775 0.043260 0.000000
0.695772 0.043260 0.000000
0.720588 0.043260 0.000000
0.742034 0.043260 0.000000
0.763481 0.043260 0.000000
0.785233 0.043260 0.000000
0.807598 0.043260 0.000000
0.831740 0.043260 0.000000
0.853186 0.043260 0.000000
0.874694 0.043260 0.000000
0.897059 0.043260 0.000000
0.919424 0.043260 0.000000
0.942892 0.043260 0.000000
0.964338 0.043260 0.000000
0.986520 0.043260 0.000000
1.000000 0.043260 0.000000
1.000000 0.043260 0.000000
1.000000 0.043260 0.000000
1.000000 0.043260 0.000000
1.000000 0.043260 0.000000
1.000000 0.043260 0.000000
1.000000 0.043260 0.000000
1.000000 0.043260 0.000000
1.000000 0.043260 0.000000
1.000000 0.043260 0.000000
1.000000 0.043260 0.000000
1.000000 0.043260 0.000000
0.000000 0.063358 0.000000
0.000000 0.063358 0.000000
0.000000 0.063358 0.000000
0.000000 0.063358 0.000000
0.000000 0.063358 0.000000
0.000000 0.063358 0.000000
0.000000 0.063358 0.000000
0.000000 0.063358 0.000000
0.006863 0.063358 0.000000
0.028309 0.063358 0.000000
0.049755 0.063358 0.000000
0.071201 0.063358 0.000000
0.095833 0.063358 0.000000
0.118015 0.063358 0.000000
0.139461 0.063358 0.000000
0.160907 0.063358 0.000000
0.182353 0.063358 0.000000
0.207659 0.063358 0.000000
0.229167 0.063358 0.000000
0.250613 0.063358 0.000000
0.272059 0.063358 0.000000
0.297120 0.063358 0.000000
0.318872 0.063358 0.000000
0.340319 0.063358 0.000000
0.361765 0.063358 0.000000
0.383211 0.063358 0.000000
0.408578 0.063358 0.000000
0.430024 0.063358 0.000000
0.451471 0.063358 0.000000
0.472917 0.063358 0.000000
0.494486 0.063358 0.000000
0.519730 0.063358 0.000000
0.541176 0.063358 0.000000
0.562623 0.063358 0.000000
0.584069 0.063358 0.000000
0.606312 0.063358 0.000000
0.630882 0.063358 0.000000
0.652329 0.063358 0.000000
0.673775 0.063358 0.000000
0.695772 0.063358 0.000000
0.720588 0.063358 0.000000
0.742034 0.063358 0.000000
0.763481 0.063358 0.000000
0.785233 0.063358 0.000000
0.807598 0.063358 0.000000
0.831740 0.063358 0.000000
0.853186 0.063358 0.000000
0.874694 0.063358 0.000000
0.897059 0.063358 0.000000
0.919424 0.063358 0.000000
0.942892 0.063358 0.000000
0.964338 0.063358 0.000000
0.986520 0.063358 0.000000
1.000000 0.063358 0.000000
1.000000 0.063358 0.000000
1.000000 0.063358 0.000000
1.000000 0.063358 0.000000
1.000000 0.063358 0.000000
1.000000 0.063358 0.000000
1.000000 0.063358 0.000000
1.000000 0.063358 0.000000
1.000000 0.063358 0.000000
1.000000 0.063358 0.000000
1.000000 0.063358 0.000000
1.000000 0.063358 0.000000
0.000000 0.084804 0.000000
0.000000 0.084804 0.000000
0.000000 0.084804 0.000000
0.000000 0.084804 0.000000
0.000000 0.084804 0.000000
0.000000 0.084804 0.000000
0.000000 0.084804 0.000000
0.000000 0.084804 0.000000
0.006863 0.084804 0.000000
0.028309 0.084804 0.000000
0.049755 0.084804 0.000000
0.071201 0.084804 0.000000
0.095833 0.084804 0.000000
0.118015 0.084804 0.000000
0.139461 0.084804 0.000000
0.160907 0.084804 0.000000
0.182353 0.084804 0.000000
0.207659 0.084804 0.000000
0.229167 0.084804 0.000000
0.250613 0.084804 0.000000
0.272059 0.084804 0.000000
0.297120 0.084804 0.000000
0.318872 0.084804 0.000000
0.340319 0.084804 0.000000
0.361765 0.084804 0.000000
0.383211 0.084804 0.000000
0.408578 0.084804 0.000000
0.430024 0.084804 0.000000
0.451471 0.084804 0.000000
0.472917 0.084804 0.000000
0.494486 0.084804 0.000000
0.519730 0.084804 0.000000
0.541176 0.084804 0.000000
0.562623 0.084804 0.000000
0.584069 0.084804 0.000000
0.606312 0.084804 0.000000
0.630882 0.084804 0.000000
0.652329 0.084804 0.000000
0.673775 0.084804 0.000000
0.695772 0.084804 0.000000
0.720588 0.084804 0.000000
0.742034 0.084804 0.000000
0.763481 0.084804 0.000000
0.785233 0.084804 0.000000
0.807598 0.084804 0.000000
0.831740 0.084804 0.000000
0.853186 0.084804 0.000000
0.874694 0.084804 0.000000
0.897059 0.084804 0.000000
0.919424 0.084804 0.000000
0.942892 0.084804 0.000000
0.964338 0.084804 0.000000
0.986520 0.084804 0.000000
1.000000 0.084804 0.000000
1.000000 0.084804 0.000000
1.000000 0.084804 0.000000
1.000000 0.084804 0.000000
1.000000 0.084804 0.000000
1.000000 0.084804 0.000000
1.000000 0.084804 0.000000
1.000000 0.084804 0.000000
1.000000 0.084804 0.000000
1.000000 0.084804 0.000000
1.000000 0.084804 0.000000
1.000000 0.084804 0.000000
0.000000 0.102512 0.000000
0.000000 0.102512 0.000000
0.000000 0.102512 0.000000
0.000000 0.102512 0.000000
0.000000 0.102512 0.000000
0.000000 0.102512 0.000000
0.000000 0.102512 0.000000
0.000000 0.102512 0.000000
0.006863 0.102512 0.000000
0.028309 0.102512 0.000000
0.049755 0.102512 0.000000
0.071201 0.102512 0.000000
0.095833 0.102512 0.000000
0.118015 0.102512 0.000000
0.139461 0.102512 0.000000
0.160907 0.102512 0.000000
0.182353 0.102512 0.000000
0.207659 0.102512 0.000000
0.229167 0.102512 0.000000
0.250613 0.102512 0.000000
0.272059 0.102512 0.000000
0.297120 0.102512 0.000000
0.318872 0.102512 0.000000
0.340319 0.102512 0.000000
0.361765 0.102512 0.000000
0.383211 0.102512 0.000000
0.408578 0.102512 0.000000
0.430024 0.102512 0.000000
0.451471 0.102512 0.000000
0.472917 0.102512 0.000000
0.494486 0.102512 0.000000
0.519730 0.102512 0.000000
0.541176 0.102512 0.000000
0.562623 0.102512 0.000000
0.584069 0.102512 0.000000
0.606312 0.102512 0.000000
0.630882 0.102512 0.000000
0.652329 0.102512 0.000000
0.673775 0.102512 0.000000
