Color/CreativePack-1/LateSunset 65x.cube
TITLE "LateSunset"
LUT_3D_SIZE 65
DOMAIN_MIN 0.000000 0.000000 0.000000
DOMAIN_MAX 1.000000 1.000000 1.000000
0.000000 0.000000 0.000000
0.004841 0.000000 0.000000
0.009681 0.000000 0.000000
0.015686 0.000000 0.000000
0.023284 0.000000 0.000000
0.028125 0.000000 0.000000
0.036887 0.000000 0.000000
0.045650 0.000000 0.000000
0.054412 0.000000 0.000000
0.067096 0.000000 0.000429
0.079779 0.000000 0.005270
0.092463 0.000000 0.010110
0.104411 0.000000 0.014951
0.106066 0.000000 0.023713
0.109804 0.000000 0.032476
0.113725 0.000000 0.041238
0.116667 0.000000 0.050000
0.125429 0.000000 0.058763
0.130270 0.000858 0.067525
0.139032 0.003922 0.080208
0.147794 0.006618 0.088971
0.156557 0.007843 0.097733
0.161397 0.007843 0.106495
0.168627 0.007843 0.115257
0.175000 0.007843 0.124020
0.183762 0.007843 0.128860
0.196446 0.003922 0.133333
0.205209 0.000000 0.137255
0.213971 0.000000 0.139461
0.225858 0.000000 0.141176
0.235417 0.000000 0.145098
0.244179 0.000000 0.145098
0.252941 0.000000 0.149020
0.261703 0.000000 0.149020
0.270465 0.000000 0.152818
0.278431 0.000000 0.152941
0.284069 0.000000 0.156863
0.292831 0.000000 0.156863
0.298039 0.000000 0.156863
0.306434 0.000000 0.156863
0.311275 0.000000 0.156863
0.320037 0.000000 0.156863
0.328799 0.000000 0.160171
0.337561 0.000000 0.160784
0.346324 0.000000 0.164706
0.359007 0.000000 0.164706
0.367769 0.000000 0.164706
0.376532 0.000000 0.164767
0.385294 0.000000 0.168627
0.394056 0.000000 0.168627
0.402819 0.000000 0.168627
0.411581 0.000000 0.168627
0.420343 0.000000 0.172549
0.429106 0.000000 0.172549
0.437868 0.002574 0.172549
0.446630 0.003922 0.172549
0.455392 0.004412 0.176471
0.468076 0.013174 0.176471
0.480760 0.021936 0.180392
0.493444 0.030699 0.180392
0.506127 0.039461 0.184314
0.516054 0.048223 0.184314
0.527574 0.054902 0.184314
0.539338 0.061826 0.184314
0.549020 0.070588 0.184314
0.000000 0.000919 0.000000
0.000919 0.000919 0.000000
0.007843 0.000919 0.000000
0.014522 0.000919 0.000000
0.019363 0.000919 0.000000
0.028125 0.000919 0.000919
0.036887 0.000919 0.000919
0.045650 0.000919 0.000919
0.054412 0.000919 0.000919
0.062684 0.000919 0.009191
0.075858 0.000919 0.014032
0.088542 0.000919 0.018872
0.101226 0.000919 0.023714
0.109804 0.000919 0.028554
0.113725 0.000919 0.037316
0.115747 0.000919 0.046078
0.120589 0.000919 0.054841
0.125429 0.003922 0.063604
0.130270 0.004780 0.072365
0.139032 0.007843 0.084130
0.147794 0.008762 0.092892
0.156557 0.008762 0.098653
0.165625 0.008456 0.106495
0.170159 0.011765 0.115257
0.178922 0.011765 0.124020
0.187684 0.005392 0.129412
0.196446 0.003922 0.133333
0.205209 0.002635 0.137255
0.213971 0.000000 0.141176
0.222733 0.000000 0.144301
0.235417 0.000000 0.145098
0.244179 0.000000 0.146140
0.252941 0.000000 0.149020
0.261703 0.000000 0.149020
0.266667 0.000000 0.149020
0.275306 0.000000 0.152941
0.284069 0.000000 0.152941
0.292831 0.000000 0.158579
0.298039 0.000000 0.156863
0.306434 0.000000 0.156863
0.311275 0.000000 0.156863
0.320037 0.000000 0.156863
0.328799 0.000000 0.160171
0.337561 0.000000 0.160784
0.346324 0.000000 0.164706
0.355086 0.000000 0.164706
0.367769 0.000000 0.167769
0.376532 0.000000 0.168627
0.385294 0.000000 0.168627
0.394056 0.000919 0.168627
0.402819 0.000919 0.171446
0.411581 0.000919 0.172549
0.420343 0.000735 0.172549
0.429106 0.005576 0.172549
0.437868 0.004841 0.172549
0.446630 0.011336 0.172549
0.455392 0.012684 0.176471
0.465564 0.016605 0.176471
0.479167 0.025858 0.180392
0.492770 0.034620 0.180392
0.506127 0.044301 0.184314
0.518811 0.053064 0.184314
0.528492 0.059743 0.184314
0.540257 0.069669 0.184314
0.549939 0.075429 0.184314
0.000000 0.003922 0.000000
0.000919 0.003922 0.000000
0.005760 0.003922 0.000000
0.012684 0.003922 0.000000
0.015686 0.003922 0.000000
0.028125 0.005760 0.000674
0.036887 0.005760 0.005760
0.045650 0.005760 0.005760
0.054412 0.005760 0.005760
0.063174 0.003922 0.014032
0.075858 0.003922 0.022794
0.088971 0.003922 0.027635
0.102573 0.003922 0.032475
0.106066 0.003922 0.037316
0.115563 0.003922 0.042157
0.117647 0.003922 0.053002
0.119485 0.003922 0.061765
0.123407 0.005760 0.068443
0.130270 0.009681 0.077206
0.139032 0.011765 0.085907
0.147794 0.013603 0.096814
0.156557 0.009988 0.099877
0.165319 0.011765 0.108333
0.174387 0.011765 0.117095
0.178922 0.011152 0.125490
0.187684 0.011765 0.129412
0.196446 0.003922 0.133701
0.207047 0.004474 0.139093
0.217892 0.000000 0.141176
0.226654 0.000000 0.143014
0.231496 0.000000 0.145098
0.244179 0.000000 0.149020
0.252941 0.000000 0.149020
0.258824 0.000000 0.149020
0.266544 0.000000 0.149020
0.275306 0.000000 0.149020
0.284069 0.000000 0.152941
0.290196 0.000000 0.152941
0.297671 0.000000 0.158579
0.306434 0.000000 0.156863
0.311275 0.000000 0.156863
0.320037 0.000000 0.156863
0.328799 0.000000 0.160171
0.337561 0.000000 0.160784
0.346324 0.000000 0.164706
0.355086 0.000000 0.164706
0.366911 0.003064 0.167769
0.376532 0.001838 0.168627
0.385294 0.000981 0.168627
0.394056 0.003922 0.170527
0.402819 0.006740 0.172549
0.411581 0.005760 0.172549
0.420343 0.004657 0.172549
0.429106 0.009681 0.172549
0.437868 0.011765 0.172549
0.446630 0.013603 0.172549
0.455392 0.017524 0.176471
0.465564 0.022856 0.176471
0.479167 0.029780 0.180392
0.489522 0.038542 0.180392
0.502451 0.047304 0.184314
0.518811 0.057904 0.184314
0.531495 0.066666 0.188235
0.543260 0.072426 0.188235
0.552941 0.080269 0.188235
0.000000 0.007843 0.000000
0.000919 0.007843 0.000000
0.005760 0.007843 0.000000
0.010601 0.007843 0.000000
0.016605 0.007843 0.000000
0.022120 0.007843 0.000674
0.036887 0.007843 0.005515
0.045650 0.010601 0.010601
0.054412 0.010601 0.010601
0.063174 0.007843 0.018872
0.075858 0.007843 0.027635
0.084130 0.007843 0.036397
0.097304 0.007843 0.041237
0.106066 0.007843 0.046078
0.113725 0.007843 0.050919
0.120405 0.007843 0.059681
0.121569 0.007843 0.068443
0.129351 0.011704 0.074449
0.134191 0.014522 0.082047
0.139032 0.015686 0.090809
0.147794 0.018444 0.100735
0.156557 0.015686 0.104718
0.165319 0.015686 0.110417
0.174081 0.015686 0.119179
0.183150 0.015686 0.127941
0.190441 0.011765 0.132782
0.200368 0.010232 0.133701
0.209130 0.003922 0.138542
0.217892 0.000000 0.143934
0.226654 0.000000 0.145098
0.231496 0.000000 0.145221
0.240258 0.000000 0.149020
0.250183 0.000000 0.149020
0.257782 0.000000 0.149020
0.266544 0.000000 0.149020
0.275306 0.000000 0.149020
0.281311 0.000000 0.149020
0.288909 0.000000 0.152941
0.297671 0.000000 0.152941
0.306434 0.000000 0.156863
0.311275 0.000000 0.156863
0.320037 0.000000 0.156863
0.328799 0.000000 0.160171
0.337561 0.000000 0.160784
0.346324 0.000000 0.164706
0.355086 0.000000 0.164706
0.363848 0.003064 0.167769
0.376532 0.003922 0.168627
0.385294 0.003922 0.171385
0.394056 0.006679 0.172549
0.402819 0.007843 0.172549
0.411581 0.011581 0.172549
0.420343 0.010601 0.172549
0.429106 0.014522 0.172549
0.437868 0.014338 0.172549
0.446630 0.018444 0.172549
0.455392 0.020098 0.176471
0.465564 0.027696 0.176471
0.479167 0.033701 0.180392
0.489522 0.041299 0.180392
0.502451 0.051225 0.184314
0.516054 0.059988 0.184314
0.531495 0.068750 0.188235
0.544179 0.080270 0.188235
0.555699 0.086275 0.188235
0.000000 0.011520 0.000000
0.000919 0.011520 0.000000
0.005760 0.011520 0.000000
0.010601 0.011520 0.000000
0.015441 0.011520 0.000000
0.024203 0.008517 0.000674
0.032966 0.011765 0.005515
0.045650 0.011765 0.010356
0.054412 0.015441 0.015441
0.063174 0.011765 0.023714
0.075858 0.011765 0.032475
0.084620 0.011520 0.041237
0.097304 0.011520 0.050000
0.105882 0.011520 0.054841
0.110907 0.011520 0.059681
0.117647 0.011520 0.066422
0.124510 0.011520 0.073285
0.129167 0.011765 0.082047
0.134191 0.015686 0.087133
0.144853 0.017463 0.095895
0.147794 0.019608 0.104411
0.156557 0.019608 0.109498
0.165319 0.022672 0.114338
0.174081 0.019363 0.122855
0.182843 0.015686 0.127941
0.191605 0.012316 0.132782
0.200368 0.007843 0.137255
0.209130 0.003922 0.138542
0.217892 0.001716 0.143382
0.226654 0.000000 0.145098
0.235417 0.000000 0.149020
0.240258 0.000000 0.149020
0.249019 0.000000 0.152696
0.257782 0.000000 0.149020
0.266544 0.000000 0.149020
0.271631 0.000000 0.149020
0.280147 0.000000 0.149020
0.288909 0.000000 0.149020
0.297671 0.000000 0.152941
0.306434 0.000000 0.149816
0.311275 0.000000 0.156863
0.320037 0.000000 0.156863
0.328799 0.000000 0.160171
0.337561 0.000000 0.160784
0.346324 0.000000 0.164706
0.355086 0.000000 0.164706
0.363848 0.003064 0.167769
0.368996 0.003922 0.168627
0.385294 0.007598 0.172549
0.394056 0.007843 0.172549
0.402819 0.011520 0.172549
0.411581 0.011765 0.172549
0.420343 0.015441 0.176471
0.429106 0.015686 0.176471
0.437868 0.018260 0.176471
0.446630 0.023284 0.176471
0.455392 0.024019 0.176471
0.465564 0.032536 0.176471
0.479167 0.037623 0.180392
0.489522 0.046814 0.180392
0.498774 0.054902 0.184314
0.516054 0.061152 0.184314
0.529657 0.072672 0.188235
0.543260 0.081434 0.188235
0.556863 0.093873 0.191912
0.000000 0.020282 0.009191
0.004841 0.016115 0.008517
0.008517 0.016360 0.008517
0.012439 0.016360 0.008517
0.019363 0.016360 0.008517
0.028125 0.016360 0.013113
0.036887 0.021201 0.017034
0.048161 0.020282 0.020956
0.055086 0.020282 0.024877
0.063174 0.020282 0.032476
0.073284 0.020282 0.041238
0.084620 0.018015 0.050000
0.093383 0.016360 0.058762
0.106066 0.016360 0.063603
0.110478 0.016360 0.068444
0.119669 0.016360 0.075184
0.128432 0.016360 0.082047
0.133272 0.016360 0.086887
0.138113 0.020466 0.094792
0.141850 0.023529 0.103738
0.151716 0.024203 0.109252
0.160478 0.023529 0.110478
0.169240 0.020282 0.118260
0.178003 0.019608 0.127022
0.186765 0.019608 0.131863
0.195527 0.012990 0.130086
0.204964 0.011765 0.137255
0.213726 0.007230 0.141176
0.220282 0.004596 0.143382
0.227328 0.004596 0.145098
0.235417 0.004596 0.149020
0.244179 0.003922 0.149020
0.252941 0.003922 0.152941
0.255576 0.000674 0.152941
0.266544 0.000674 0.145895
0.275306 0.000674 0.149020
0.284069 0.000674 0.149020
0.288909 0.000674 0.151654
0.297671 0.000674 0.152941
0.306434 0.000674 0.156863
0.315196 0.000674 0.156863
0.323958 0.003922 0.157537
0.332720 0.003922 0.160784
0.337561 0.003922 0.161090
0.346324 0.003922 0.164706
0.357230 0.004596 0.164706
0.364521 0.010907 0.167769
0.376532 0.007904 0.168627
0.385294 0.011459 0.172549
0.394056 0.011765 0.172549
0.402819 0.014583 0.172549
0.411581 0.012439 0.172549
0.420343 0.016421 0.176471
0.429106 0.025184 0.176471
0.437868 0.026777 0.176471
0.446630 0.028125 0.176471
0.456066 0.031863 0.176471
0.468076 0.035968 0.180392
0.480760 0.042219 0.180392
0.490197 0.047733 0.181066
0.502451 0.055821 0.184314
0.515564 0.063909 0.184314
0.528247 0.072672 0.188235
0.544179 0.082108 0.188235
0.556863 0.094118 0.192157
0.000000 0.029044 0.021201
0.004841 0.029718 0.021875
0.013603 0.025122 0.017279
0.018444 0.025122 0.017279
0.023284 0.025122 0.017279
0.029718 0.025122 0.025796
0.038480 0.025122 0.030637
0.049571 0.025122 0.034559
0.058334 0.030883 0.038480
0.068260 0.029044 0.046323
0.071936 0.029044 0.050000
0.084620 0.025122 0.058762
0.093383 0.025122 0.067524
0.106066 0.025122 0.072365
0.114828 0.025122 0.077206
0.119240 0.025122 0.082047
0.128432 0.025122 0.087868
0.131005 0.025122 0.095649
0.138113 0.025122 0.100490
0.146875 0.025122 0.109252
0.151716 0.029044 0.116421
0.160478 0.027451 0.119240
0.170833 0.023529 0.122182
0.179596 0.023529 0.127022
0.188358 0.018750 0.133333
0.199448 0.019608 0.134926
0.208211 0.016911 0.137255
0.218566 0.011765 0.141176
0.225122 0.007843 0.143382
0.229044 0.007843 0.145098
0.235417 0.009436 0.149020
0.244179 0.009436 0.149020
0.252941 0.007843 0.152941
0.261703 0.007843 0.152941
0.266544 0.005515 0.152941
0.275306 0.005515 0.149020
0.284069 0.005515 0.149020
0.292831 0.002880 0.152941
0.297671 0.003922 0.156495
0.306434 0.003922 0.156863
0.315196 0.003922 0.158333
0.323958 0.005515 0.160784
0.332720 0.007843 0.160784
0.341482 0.007843 0.164706
0.347917 0.009436 0.164706
0.359007 0.009436 0.166850
0.367769 0.013358 0.168627
0.378126 0.017279 0.168627
0.386275 0.017279 0.172549
0.397978 0.017279 0.172549
0.406740 0.015686 0.172549
0.415502 0.019424 0.172549
0.424264 0.021201 0.176471
0.430698 0.025122 0.176471
0.437868 0.033946 0.176471
0.446630 0.038787 0.176471
0.455882 0.040809 0.176471
0.469486 0.044730 0.180392
0.483088 0.047058 0.182721
0.493444 0.054228 0.184314
0.507720 0.060662 0.188235
0.518811 0.067831 0.188235
0.531495 0.074264 0.188235
0.544179 0.085356 0.188235
0.558456 0.094118 0.192157
0.000000 0.037807 0.033885
0.004841 0.037807 0.029964
0.013603 0.033885 0.029964
0.022365 0.033885 0.025796
0.027206 0.033885 0.029718
0.034559 0.033885 0.034559
0.043321 0.033885 0.041728
0.052083 0.033885 0.048161
0.062255 0.033885 0.053003
0.067096 0.033885 0.059926
0.075858 0.033885 0.063848
0.082966 0.033885 0.067524
0.093383 0.033885 0.076286
0.099816 0.033885 0.081127
0.114828 0.032782 0.085968
0.123591 0.029964 0.090809
0.128003 0.029964 0.097059
0.137194 0.029964 0.100552
0.142034 0.029964 0.109252
0.146875 0.029228 0.114093
0.155637 0.033885 0.122855
0.164400 0.031373 0.124081
0.173162 0.029351 0.126103
0.181924 0.023529 0.130944
0.193198 0.023529 0.135784
0.201961 0.018750 0.137255
0.212133 0.015686 0.139767
0.220895 0.016911 0.141176
0.229657 0.011765 0.143382
0.233885 0.011765 0.145098
0.239339 0.011765 0.149020
0.244179 0.014277 0.149020
0.252941 0.011765 0.152941
0.261703 0.011765 0.152941
0.270465 0.011765 0.152941
0.275306 0.010356 0.154656
0.284069 0.010356 0.151532
0.292831 0.007720 0.152941
0.301593 0.007843 0.155454
0.306434 0.007843 0.157414
0.315196 0.007843 0.160784
0.323958 0.007843 0.163297
0.332720 0.010356 0.163297
0.341482 0.011765 0.164706
0.350245 0.014277 0.167218
0.359007 0.013909 0.168627
0.370282 0.018199 0.168627
0.380453 0.022120 0.168627
0.389215 0.023529 0.172549
0.397978 0.022120 0.172549
0.406740 0.022120 0.172549
0.415502 0.022120 0.172549
0.424264 0.022856 0.176471
0.433027 0.029106 0.176471
0.441789 0.037868 0.176471
0.449142 0.042708 0.176471
0.459314 0.043627 0.176471
0.469486 0.048468 0.180392
0.483088 0.053493 0.182721
0.496691 0.057415 0.187561
0.506372 0.062990 0.188235
0.519975 0.071752 0.188235
0.533579 0.079106 0.188235
0.547182 0.085356 0.188235
0.560784 0.094118 0.192157
0.000000 0.050490 0.046079
0.004841 0.046569 0.042647
0.013603 0.048162 0.044240
0.022365 0.042647 0.038726
0.031128 0.042647 0.038726
0.039399 0.042647 0.043322
0.048161 0.042647 0.052084
0.056924 0.042647 0.056924
0.065687 0.042647 0.065687
0.071017 0.042647 0.073530
0.081863 0.042647 0.077451
0.084620 0.042647 0.081373
0.093383 0.042647 0.085049
0.102145 0.042464 0.089891
0.108578 0.038726 0.094730
0.123591 0.038726 0.099572
0.132353 0.038726 0.104411
0.136765 0.038726 0.109314
0.142034 0.038726 0.117157
0.152451 0.038726 0.122855
0.155637 0.038726 0.127696
0.164400 0.035294 0.129412
0.176593 0.034192 0.133333
0.185846 0.027451 0.134865
0.194608 0.026961 0.140686
0.203370 0.023590 0.141176
0.212500 0.022672 0.141176
0.224816 0.015686 0.144608
0.233579 0.015196 0.143382
0.238419 0.015196 0.145098
0.246569 0.015686 0.149020
0.248101 0.015686 0.149020
0.252941 0.019118 0.152941
0.261703 0.015686 0.152941
0.270465 0.015686 0.152941
0.275306 0.015196 0.152941
0.284069 0.015196 0.152941
0.292831 0.011765 0.152941
0.301593 0.011765 0.156863
0.313236 0.011275 0.160784
0.315196 0.011275 0.162255
0.323958 0.011765 0.164706
0.332720 0.015196 0.164706
0.341482 0.015686 0.168137
0.353677 0.019118 0.168627
0.361152 0.023039 0.168627
0.371691 0.022671 0.168627
0.380453 0.023590 0.172059
0.392646 0.030883 0.172549
0.401409 0.027451 0.172549
0.410172 0.028064 0.172549
0.418934 0.026961 0.172549
0.427696 0.024264 0.176471
0.433027 0.034804 0.176471
0.441789 0.037868 0.176471
0.450551 0.046630 0.176471
0.459314 0.054412 0.176471
0.471997 0.058334 0.180392
0.484682 0.062255 0.182721
0.496691 0.066177 0.187561
0.510049 0.066912 0.188480
0.522733 0.077941 0.192157
0.535417 0.083946 0.192157
0.547182 0.089277 0.192157
0.560784 0.097549 0.192157
0.004351 0.055331 0.059682
0.013113 0.054412 0.059682
0.021875 0.051409 0.059682
0.030637 0.048651 0.056924
0.035723 0.047488 0.055760
0.043566 0.047488 0.059682
0.052573 0.047488 0.063603
0.061336 0.047488 0.073529
0.070098 0.047488 0.078800
0.074939 0.047488 0.083211
0.083701 0.047488 0.088052
0.088971 0.047488 0.092892
0.097304 0.047488 0.097733
0.106066 0.047488 0.098652
0.114828 0.046385 0.103493
0.123591 0.047059 0.106740
0.132782 0.043566 0.114154
0.137684 0.043566 0.114154
0.146385 0.043137 0.118934
0.154718 0.043137 0.127267
0.157292 0.043137 0.129841
0.168750 0.039645 0.136949
0.181005 0.039216 0.137255
0.189767 0.034191 0.137684
0.198529 0.031802 0.141605
0.207292 0.031802 0.141605
0.216054 0.027880 0.145098
0.224816 0.026593 0.145098
0.233579 0.023958 0.145098
0.239216 0.020833 0.145527
0.247059 0.023958 0.149449
0.250980 0.023958 0.152941
0.256863 0.023958 0.152941
0.265625 0.023958 0.152941
0.270895 0.023958 0.152941
0.279228 0.023958 0.152941
0.287990 0.020037 0.152941
0.296752 0.020037 0.153370
0.302021 0.020037 0.156863
0.310356 0.020037 0.160784
0.319118 0.017585 0.162255
0.327880 0.020037 0.164706
0.336642 0.023346 0.168014
0.345404 0.023958 0.168627
0.354167 0.027880 0.168627
0.362929 0.027880 0.168627
0.371691 0.031802 0.168627
0.380453 0.035723 0.168627
0.393137 0.035723 0.169608
0.401900 0.039645 0.172549
0.410662 0.039645 0.172549
0.419424 0.035723 0.172549
0.428186 0.035723 0.176471
0.438603 0.041299 0.178125
0.446139 0.046139 0.176900
0.451409 0.054902 0.176900
0.463235 0.059743 0.176900
0.472426 0.063174 0.175491
0.487010 0.068995 0.180392
0.500613 0.073836 0.184314
0.510294 0.074755 0.188235
0.523162 0.083517 0.192892
0.537500 0.088787 0.192157
0.551103 0.097120 0.192157
0.564706 0.102390 0.192157
0.013113 0.064093 0.073284
0.021875 0.060172 0.075858
0.030637 0.058334 0.077206
0.036642 0.056250 0.074448
0.044241 0.056250 0.073284
0.052328 0.056250 0.077206
0.057843 0.056250 0.078799
0.066605 0.056250 0.086213
0.075367 0.056250 0.092402
0.080208 0.056250 0.096814
0.087623 0.056250 0.096814
0.093811 0.056250 0.105576
0.101226 0.056250 0.110416
0.107414 0.056066 0.112500
0.116176 0.052328 0.115073
0.127512 0.052328 0.118995
0.136274 0.052328 0.122917
0.145037 0.050980 0.122917
0.151226 0.047059 0.122427
0.158640 0.047059 0.131189
0.162132 0.047059 0.134681
0.173591 0.047059 0.137255
0.181617 0.043137 0.137868
0.193689 0.040564 0.142524
0.202451 0.039216 0.145098
0.211213 0.036642 0.145098
0.216054 0.036642 0.145098
0.224816 0.035355 0.146446
0.233579 0.032721 0.149020
0.239216 0.029596 0.149020
0.247059 0.028799 0.152941
0.252328 0.031373 0.152941
0.256863 0.032721 0.154289
0.265625 0.032721 0.156863
0.274387 0.032721 0.156863
0.280576 0.031925 0.156863
0.287990 0.028799 0.156863
0.296752 0.028799 0.156863
0.305514 0.028799 0.156863
0.315074 0.028248 0.160784
0.320466 0.024877 0.162255
0.327880 0.028799 0.164706
0.336642 0.032108 0.168014
0.345404 0.032721 0.168627
0.354167 0.036642 0.168627
0.362929 0.036642 0.168627
0.371691 0.040564 0.168627
0.380453 0.040625 0.168627
0.393137 0.044485 0.168627
0.401900 0.044485 0.172549
0.410662 0.048407 0.172549
0.419424 0.048407 0.172549
0.428186 0.045220 0.176471
0.440870 0.050061 0.178125
0.449632 0.054902 0.180392
0.458395 0.060172 0.180392
0.467157 0.068015 0.180392
0.477267 0.071936 0.180392
0.488603 0.071936 0.180392
0.498714 0.075858 0.183640
0.515319 0.080024 0.188235
0.526654 0.087439 0.188235
0.539338 0.093627 0.192892
0.552022 0.099387 0.192157
0.564706 0.107230 0.192157
0.017953 0.068934 0.086887
0.026716 0.066667 0.088542
0.035478 0.065012 0.090809
0.044240 0.065012 0.092463
0.053003 0.062745 0.090809
0.057843 0.061091 0.094730
0.065012 0.061091 0.096324
0.071446 0.061091 0.098652
0.080209 0.061091 0.107660
0.085049 0.061091 0.110416
0.091544 0.061091 0.114338
0.096385 0.061091 0.114338
0.105147 0.061091 0.118260
0.112255 0.061091 0.123836
0.118750 0.061091 0.124939
0.127512 0.058824 0.129779
0.136274 0.057169 0.134620
0.145037 0.057169 0.135600
0.153799 0.053247 0.135600
0.163051 0.053247 0.135600
0.167402 0.050551 0.139951
0.179779 0.050980 0.141176
0.187194 0.047059 0.141789
0.197610 0.047794 0.147365
0.206373 0.042953 0.149020
0.213480 0.043137 0.149020
0.218321 0.043137 0.149020
0.224816 0.044117 0.149020
0.233579 0.041483 0.149020
0.239216 0.038358 0.151287
0.247059 0.037561 0.152941
0.252022 0.037561 0.153983
0.256863 0.037561 0.156863
0.265625 0.037561 0.156863
0.274387 0.037561 0.156863
0.283150 0.037561 0.156863
0.291912 0.037561 0.156863
0.300674 0.037561 0.159497
0.304228 0.034007 0.159130
0.314277 0.033640 0.160784
0.323039 0.033640 0.162255
0.331801 0.037684 0.164706
0.338909 0.037561 0.168014
0.345404 0.041483 0.168627
0.354167 0.045404 0.168627
0.362929 0.045404 0.168627
0.371691 0.049326 0.168627
0.380453 0.049388 0.168627
0.393137 0.053247 0.168627
0.401900 0.053247 0.170527
0.410662 0.053247 0.172549
0.419424 0.057169 0.172549
0.428922 0.053983 0.176471
0.440870 0.058823 0.178125
0.452206 0.065012 0.180392
0.462316 0.068934 0.184314
0.471078 0.076777 0.184314
0.482108 0.078187 0.185172
0.492525 0.080698 0.182659
0.504534 0.083946 0.180392
0.514216 0.088542 0.182292
0.527818 0.093627 0.188235
0.541422 0.100123 0.188235
0.555025 0.107231 0.192892
0.566973 0.113725 0.192157
0.026716 0.077696 0.100490
0.035479 0.076777 0.104411
0.044241 0.073775 0.103063
0.053003 0.071017 0.105147
0.061765 0.069853 0.108333
0.066605 0.069853 0.112254
0.073775 0.069853 0.113848
0.077022 0.069853 0.116176
0.085049 0.069853 0.120098
0.093383 0.069853 0.124019
0.095466 0.069853 0.124755
0.103492 0.069853 0.127022
0.109069 0.069853 0.131862
0.117095 0.066667 0.132782
0.122672 0.065932 0.136520
0.131434 0.065932 0.140441
0.140196 0.065932 0.143382
0.148959 0.062745 0.144363
0.156985 0.062010 0.144363
0.162561 0.060233 0.144363
0.171323 0.058089 0.144363
0.180086 0.054902 0.145098
0.192034 0.054167 0.148285
0.199142 0.052634 0.149020
0.210294 0.050245 0.152206
0.214951 0.050245 0.152206
0.219976 0.050245 0.152206
0.230638 0.050245 0.152206
0.233579 0.050245 0.151226
0.242402 0.047120 0.152941
0.250245 0.046324 0.153064
0.252022 0.046324 0.156863
0.256863 0.046324 0.160049
0.265625 0.046324 0.160049
0.274387 0.046324 0.160049
0.283150 0.046324 0.160049
0.291912 0.046324 0.158578
0.300674 0.046324 0.160784
0.309436 0.042402 0.160784
0.317464 0.042402 0.163971
0.323039 0.042402 0.162255
0.331801 0.044792 0.164706
0.340563 0.046324 0.168014
0.352206 0.050245 0.168627
0.357352 0.054167 0.172549
0.366115 0.054167 0.168627
0.374878 0.058089 0.168627
0.380515 0.058089 0.168627
0.393137 0.062010 0.168627
0.401900 0.062010 0.168627
0.410662 0.062010 0.172549
0.423161 0.062745 0.172549
0.432108 0.065932 0.176471
0.440870 0.069853 0.178125
0.453554 0.073775 0.180392
0.462316 0.081189 0.184314
0.471568 0.085540 0.187500
0.486948 0.083762 0.184314
0.494853 0.089461 0.184314
0.508456 0.089461 0.184314
0.517892 0.090441 0.184314
0.530576 0.101226 0.182292
0.543260 0.107231 0.188235
0.555944 0.112806 0.188235
0.568627 0.120834 0.192157
0.039584 0.082353 0.113909
0.043505 0.082353 0.110172
0.053002 0.078615 0.113909
0.061765 0.078431 0.113909
0.070528 0.074694 0.117831
0.074694 0.074694 0.117831
0.080024 0.074694 0.121753
0.085049 0.074694 0.124265
0.089891 0.074694 0.125674
0.098468 0.074510 0.125674
0.103493 0.074510 0.130760
0.108333 0.074510 0.133333
0.113909 0.074510 0.133517
0.121753 0.074510 0.137439
0.130515 0.070772 0.141176
0.135539 0.070772 0.141360
0.144301 0.070588 0.148039
0.152880 0.070588 0.141421
0.161642 0.066851 0.145098
0.166667 0.066667 0.145098
0.172733 0.062929 0.145098
0.184008 0.062929 0.145282
0.192770 0.062745 0.149020
0.201532 0.059008 0.150552
0.210294 0.056557 0.152941
0.219056 0.058824 0.156311
0.223713 0.058824 0.156863
0.232660 0.058824 0.156863
0.235478 0.058824 0.156863
0.246262 0.055086 0.156863
0.251164 0.055086 0.157047
0.255086 0.055086 0.160784
0.260969 0.053125 0.160784
0.269546 0.054902 0.160784
0.278308 0.054902 0.160784
0.287071 0.054902 0.160784
0.295833 0.056618 0.160784
0.304595 0.055086 0.160784
0.309620 0.055086 0.164338
