Color/CreativePack-1/LateSunset 65x.cube
TITLE "LateSunset"
LUT_3D_SIZE 9
DOMAIN_MIN 0.000000 0.000000 0.000000
DOMAIN_MAX 1.000000 1.000000 1.000000
0.000000 0.000000 0.000000
0.054412 0.000000 0.000000
0.116667 0.000000 0.050000
0.175000 0.007843 0.124020
0.252941 0.000000 0.149020
0.311275 0.000000 0.156863
0.385294 0.000000 0.168627
0.455392 0.004412 0.176471
0.549020 0.070588 0.184314
0.000000 0.050490 0.046079
0.065687 0.042647 0.065687
0.132353 0.038726 0.104411
0.194608 0.026961 0.140686
0.252941 0.019118 0.152941
0.315196 0.011275 0.162255
0.392646 0.030883 0.172549
0.459314 0.054412 0.176471
0.560784 0.097549 0.192157
0.088235 0.097059 0.148039
0.108824 0.093137 0.148040
0.159804 0.085295 0.155883
0.210294 0.081372 0.155392
0.272549 0.077451 0.166666
0.333824 0.085295 0.168627
0.401961 0.089216 0.176471
0.486765 0.120588 0.188235
0.580392 0.140196 0.196078
0.147549 0.147549 0.172549
0.159314 0.147549 0.175000
0.202451 0.147549 0.175000
0.241667 0.147549 0.182843
0.294608 0.143627 0.180392
0.364705 0.151471 0.188235
0.442647 0.167157 0.192157
0.528922 0.189216 0.201961
0.645588 0.225980 0.206373
0.209804 0.209804 0.188235
0.221569 0.213726 0.184314
0.259804 0.213725 0.188235
0.302451 0.217647 0.200000
0.352942 0.223529 0.196078
0.426961 0.235295 0.203922
0.506863 0.254902 0.212746
0.597059 0.280882 0.200000
0.711765 0.325491 0.205882
0.316667 0.312745 0.207843
0.324510 0.312745 0.211765
0.355882 0.316667 0.207843
0.399019 0.316667 0.207843
0.459804 0.328431 0.211765
0.533824 0.348039 0.206373
0.617157 0.379412 0.209314
0.733333 0.419117 0.158823
0.853921 0.469608 0.094118
0.470589 0.446078 0.205882
0.497059 0.453921 0.205882
0.532353 0.461765 0.194117
0.566176 0.465686 0.182353
0.628431 0.477451 0.158823
0.710784 0.508823 0.118137
0.792157 0.541177 0.084314
0.884314 0.587745 0.116666
0.969607 0.646078 0.202941
0.714216 0.660295 0.119118
0.717648 0.660294 0.103922
0.732844 0.660295 0.111765
0.761764 0.675981 0.141667
0.804412 0.699510 0.176471
0.847549 0.719118 0.215197
0.898529 0.750491 0.289216
0.957353 0.797549 0.371078
1.000000 0.848039 0.464706
0.780392 0.886275 0.419608
0.784314 0.882353 0.415686
0.800000 0.886275 0.435294
0.822059 0.900490 0.458824
0.856863 0.911764 0.482353
0.891667 0.934804 0.533333
0.930392 0.950000 0.560784
0.980882 0.969117 0.588725
1.000000 0.992157 0.639216
0.000000 0.000000 0.054412
0.054412 0.000000 0.054412
0.120589 0.000000 0.096569
0.171078 0.004412 0.155392
0.245098 0.000000 0.183824
0.305392 0.000000 0.183824
0.381373 0.000000 0.199510
0.451470 0.008333 0.203432
0.549020 0.070588 0.207843
0.000000 0.046569 0.085295
0.065687 0.042647 0.108824
0.120589 0.042647 0.144118
0.186765 0.034804 0.183334
0.249020 0.015196 0.183824
0.315196 0.019118 0.195588
0.388725 0.019118 0.199510
0.467157 0.050490 0.203432
0.560784 0.097549 0.215196
0.073529 0.093137 0.175000
0.100981 0.093137 0.182843
0.155392 0.089216 0.183334
0.206373 0.077451 0.187745
0.268628 0.081372 0.195588
0.325981 0.085294 0.199510
0.403922 0.093137 0.207353
0.486765 0.112745 0.211275
0.588235 0.151961 0.215196
0.139706 0.151471 0.195588
0.155392 0.151471 0.199510
0.191176 0.147549 0.203432
0.245588 0.147549 0.203432
0.298530 0.143627 0.203432
0.364706 0.151471 0.203432
0.438725 0.167157 0.215196
0.525000 0.187255 0.215196
0.633824 0.229902 0.223039
0.209804 0.213726 0.207353
0.219608 0.213726 0.211275
0.248039 0.211764 0.211275
0.294608 0.215687 0.215196
0.352942 0.223529 0.211275
0.419117 0.234804 0.219118
0.501961 0.254902 0.219118
0.604412 0.282353 0.222549
0.725981 0.333334 0.217157
0.312745 0.312745 0.219608
0.324510 0.312745 0.223039
0.355882 0.312745 0.226961
0.396078 0.316667 0.226961
0.459804 0.332353 0.226961
0.533824 0.351961 0.221569
0.612745 0.379412 0.228432
0.729411 0.411274 0.178431
0.853921 0.469608 0.121569
0.470589 0.450000 0.232843
0.494117 0.457843 0.221568
0.519608 0.457843 0.213725
0.566176 0.465686 0.198039
0.628431 0.482353 0.178431
0.717157 0.520588 0.141176
0.788236 0.537255 0.100000
0.884804 0.591666 0.143137
0.965686 0.642647 0.211764
0.706863 0.660295 0.130392
0.710294 0.655882 0.114706
0.730392 0.656373 0.127451
0.761274 0.678431 0.153431
0.804412 0.695589 0.196078
0.848529 0.726471 0.253921
0.902941 0.762255 0.316667
0.953921 0.801471 0.390686
1.000000 0.848039 0.475000
0.784314 0.878921 0.427451
0.792157 0.894118 0.446569
0.800000 0.890196 0.446569
0.819608 0.901961 0.466667
0.856863 0.919608 0.505882
0.891667 0.934804 0.534804
0.942157 0.950000 0.572549
0.977451 0.969607 0.603922
1.000000 0.992157 0.647059
0.010784 0.000000 0.112745
0.062255 0.000000 0.116667
0.112745 0.002942 0.155883
0.163235 0.009314 0.214216
0.241177 0.000000 0.230393
0.300490 0.000000 0.230392
0.377451 0.000000 0.238236
0.451470 0.016176 0.246079
0.549020 0.061765 0.250000
0.019608 0.042647 0.151471
0.054412 0.050000 0.175000
0.108823 0.046079 0.206373
0.178922 0.026961 0.222549
0.245098 0.019118 0.230393
0.315196 0.019118 0.242157
0.381373 0.026961 0.246079
0.459314 0.054412 0.242157
0.556863 0.105392 0.253922
0.065687 0.093137 0.218627
0.093137 0.093137 0.222549
0.144118 0.085295 0.230392
0.202451 0.085294 0.238235
0.260784 0.077451 0.238235
0.324510 0.085294 0.242157
0.396078 0.093137 0.246079
0.478921 0.112745 0.250000
0.592157 0.148039 0.246078
0.127941 0.147549 0.234314
0.151471 0.151471 0.238235
0.183333 0.143627 0.234314
0.237745 0.147549 0.242157
0.294608 0.151471 0.242157
0.360784 0.151471 0.246079
0.434804 0.171078 0.253922
0.528922 0.195098 0.250000
0.644118 0.233824 0.261765
0.203922 0.213726 0.242157
0.225490 0.217647 0.246078
0.248039 0.211764 0.242157
0.290687 0.215687 0.242157
0.349020 0.227451 0.250000
0.419117 0.238725 0.253922
0.505883 0.254902 0.257844
0.599019 0.282353 0.253922
0.723529 0.333334 0.251960
0.316667 0.312745 0.253922
0.320588 0.312745 0.253922
0.359804 0.320588 0.257844
0.397549 0.320588 0.253922
0.459804 0.332353 0.261765
0.525980 0.348039 0.252451
0.620588 0.383333 0.256373
0.733334 0.415196 0.210294
0.852941 0.465686 0.160784
0.486274 0.457843 0.249019
0.504902 0.465686 0.245098
0.525490 0.461765 0.241176
0.579412 0.473529 0.218627
0.624510 0.478432 0.202941
0.717157 0.520588 0.170098
0.791176 0.537255 0.161765
0.883824 0.591666 0.189706
0.977451 0.653921 0.261765
0.706372 0.656373 0.169117
0.714216 0.664216 0.176961
0.737745 0.668137 0.188725
0.765196 0.675981 0.193137
0.804412 0.699510 0.231373
0.852451 0.726961 0.284804
0.902941 0.758333 0.340196
0.953921 0.801471 0.416667
1.000000 0.851961 0.510294
0.772549 0.886275 0.450980
0.780392 0.882353 0.454902
0.796078 0.901961 0.485295
0.818137 0.900490 0.490196
0.852941 0.923530 0.529412
0.891667 0.934804 0.558333
0.926471 0.950000 0.593137
0.981863 0.969117 0.627941
1.000000 0.991177 0.670588
0.061275 0.000000 0.163235
0.077941 0.000000 0.182843
0.100981 0.014216 0.210785
0.159314 0.009314 0.269118
0.229412 0.000000 0.269118
0.307353 0.000000 0.276961
0.369607 0.000000 0.280882
0.451470 0.035784 0.292647
0.552941 0.078431 0.292647
0.020098 0.042647 0.209804
0.043137 0.046569 0.229412
0.097059 0.046569 0.260294
0.171078 0.026961 0.273039
0.241177 0.023039 0.276961
0.303431 0.025980 0.280882
0.377451 0.034804 0.284804
0.467157 0.057353 0.292647
0.560784 0.101471 0.296569
0.053921 0.089216 0.269608
0.092647 0.093137 0.276961
0.139215 0.089216 0.273039
0.202451 0.081373 0.276961
0.260784 0.081373 0.276961
0.322059 0.085294 0.284804
0.403922 0.100981 0.288726
0.485785 0.120589 0.292647
0.592157 0.155882 0.300490
0.135784 0.151471 0.276961
0.151471 0.143627 0.270098
0.179412 0.143627 0.276961
0.229902 0.147549 0.284804
0.298530 0.151471 0.284804
0.352941 0.155392 0.288726
0.434804 0.171078 0.292647
0.528922 0.195098 0.296569
0.637745 0.233824 0.296569
0.207844 0.217647 0.284804
0.219608 0.213726 0.284804
0.251471 0.221569 0.288726
0.294608 0.221569 0.296569
0.352942 0.223529 0.288726
0.426961 0.239215 0.292647
0.502941 0.258823 0.296569
0.612255 0.294118 0.304412
0.737745 0.341176 0.294608
0.320588 0.312745 0.292647
0.324510 0.308824 0.292647
0.359804 0.316667 0.292647
0.397549 0.320588 0.292647
0.463726 0.332353 0.296569
0.533824 0.351961 0.295098
0.609314 0.376471 0.295098
0.741176 0.419117 0.261275
0.869608 0.481372 0.215686
0.501961 0.461765 0.289216
0.508823 0.461765 0.288235
0.536274 0.465686 0.277451
0.577941 0.473529 0.261765
0.644118 0.486275 0.246078
0.718138 0.516667 0.224510
0.795098 0.545098 0.211275
0.891667 0.595588 0.244118
0.973530 0.653921 0.317648
0.714706 0.660295 0.227451
0.718627 0.660295 0.227451
0.734313 0.668138 0.239706
0.773039 0.687745 0.263235
0.816176 0.701961 0.290686
0.852451 0.723040 0.329902
0.902941 0.762255 0.389216
0.953431 0.809314 0.475000
1.000000 0.851961 0.549020
0.780392 0.890196 0.509804
0.788235 0.890196 0.513726
0.796078 0.898039 0.517647
0.814216 0.912255 0.546078
0.849020 0.915686 0.570588
0.891667 0.942647 0.605392
0.934313 0.960784 0.643137
0.980882 0.976471 0.667157
1.000000 0.992157 0.705882
0.060784 0.000000 0.225490
0.056863 0.005882 0.249020
0.089216 0.011765 0.275490
0.163235 0.000000 0.312255
0.223529 0.000000 0.317647
0.299510 0.000000 0.325490
0.373530 0.000000 0.329412
0.451470 0.035784 0.333333
0.560784 0.080392 0.345098
0.009804 0.046569 0.276470
0.019608 0.046569 0.291667
0.093137 0.042647 0.313236
0.171078 0.030883 0.317157
0.237255 0.019118 0.321569
0.302941 0.026961 0.321569
0.380882 0.040196 0.327451
0.463235 0.071078 0.333333
0.564706 0.115686 0.341176
0.053921 0.089216 0.312746
0.084314 0.089216 0.321079
0.140196 0.085294 0.320588
0.186765 0.085294 0.317647
0.257844 0.081372 0.321569
0.322059 0.085294 0.325490
0.396078 0.097059 0.329412
0.483333 0.117157 0.336274
0.584314 0.159804 0.344118
0.124020 0.151471 0.327451
0.143627 0.143627 0.321569
0.178922 0.147549 0.327941
0.231863 0.147549 0.325490
0.290687 0.151471 0.327451
0.360784 0.155392 0.329412
0.434804 0.172059 0.333333
0.536765 0.199020 0.341176
0.655392 0.245588 0.350981
0.211764 0.217647 0.325490
0.227451 0.217647 0.325490
0.254902 0.219608 0.324510
0.302451 0.227451 0.331863
0.356862 0.231372 0.333333
0.426961 0.239215 0.341176
0.502941 0.258823 0.341176
0.616667 0.294118 0.349020
0.741177 0.341176 0.325490
0.332353 0.312745 0.339216
0.344117 0.316667 0.337255
0.360294 0.320588 0.337255
0.401470 0.320588 0.337255
0.463726 0.340196 0.343137
0.541667 0.351961 0.341176
0.636275 0.388235 0.335784
0.734314 0.415196 0.294608
0.873529 0.475000 0.272059
0.512745 0.461765 0.324510
0.528431 0.469608 0.320588
0.542157 0.462745 0.320588
0.589216 0.477451 0.308824
0.651961 0.497059 0.287255
0.722059 0.517157 0.268628
0.818627 0.556863 0.268628
0.895589 0.596569 0.290687
0.973530 0.669608 0.383333
0.725980 0.668138 0.289706
0.725980 0.664216 0.289706
0.745588 0.675981 0.294118
0.769117 0.683824 0.306373
0.812255 0.707353 0.341176
0.867157 0.740196 0.399509
0.902941 0.770098 0.451471
0.957353 0.817157 0.529412
1.000000 0.859804 0.606863
0.780392 0.892157 0.550980
0.788235 0.898039 0.570098
0.796078 0.901961 0.570588
0.816176 0.912255 0.590196
0.845098 0.923530 0.613725
0.887745 0.939215 0.652941
0.926471 0.961765 0.684314
0.976961 0.974510 0.707843
1.000000 0.988235 0.743137
0.006373 0.015686 0.315196
0.025490 0.015686 0.326961
0.081372 0.014216 0.358333
0.163235 0.000000 0.359314
0.229412 0.000000 0.364706
0.295588 0.000000 0.368627
0.376961 0.008823 0.368627
0.463235 0.032843 0.376471
0.556863 0.095588 0.384314
0.000000 0.046569 0.346569
0.015196 0.045098 0.354412
0.103921 0.034804 0.359804
0.178922 0.026961 0.363235
0.237255 0.030883 0.368627
0.303431 0.023039 0.368627
0.388235 0.042647 0.372549
0.467157 0.072059 0.380392
0.576471 0.113235 0.384314
0.073529 0.089216 0.364706
0.096568 0.089216 0.359804
0.143137 0.089216 0.367647
0.190686 0.085294 0.364706
0.255883 0.085294 0.364706
0.328431 0.089216 0.368627
0.400000 0.104902 0.378922
0.493628 0.128432 0.380392
0.596078 0.167647 0.384314
0.135784 0.143627 0.368627
0.155392 0.147549 0.371078
0.182843 0.147549 0.373039
0.235294 0.147549 0.368627
0.294608 0.155392 0.376961
0.372549 0.163235 0.380392
0.442647 0.178922 0.380392
0.540686 0.202941 0.388235
0.660294 0.249510 0.388235
0.215687 0.219117 0.376471
0.238725 0.219117 0.376471
0.263726 0.223039 0.376961
0.310294 0.226961 0.380392
0.356862 0.235295 0.376471
0.428431 0.243138 0.384314
0.522549 0.266667 0.380392
0.616667 0.301961 0.392157
0.748529 0.349020 0.372059
0.348039 0.316667 0.380392
0.351961 0.320588 0.376471
0.376961 0.320588 0.376471
0.427941 0.328431 0.380392
0.479412 0.340196 0.384314
0.549510 0.359804 0.384314
0.651961 0.392157 0.379412
0.768628 0.430882 0.345098
0.881373 0.482843 0.319118
0.529412 0.465686 0.363725
0.537255 0.465686 0.355882
0.569118 0.473529 0.359804
0.609314 0.481862 0.345098
0.659804 0.494118 0.333333
0.740686 0.528922 0.323039
0.826470 0.560785 0.325000
0.907353 0.611274 0.360784
0.977451 0.670098 0.435785
0.737745 0.675981 0.351961
0.745588 0.675981 0.351961
0.757353 0.675981 0.356372
0.784804 0.701961 0.379902
0.816176 0.707843 0.403922
0.864216 0.746569 0.459314
0.914705 0.770588 0.501961
0.957353 0.821079 0.587745
1.000000 0.863725 0.657843
0.780392 0.894118 0.613235
0.788235 0.903431 0.621078
0.800000 0.905882 0.632843
0.819608 0.919118 0.656373
0.851470 0.931372 0.672059
0.879902 0.942647 0.691667
0.926471 0.961765 0.734314
0.980882 0.976961 0.758333
1.000000 0.992157 0.813235
0.000000 0.014706 0.397058
0.000981 0.015686 0.400000
0.103921 0.002942 0.407843
0.175000 0.000000 0.403922
0.229412 0.000000 0.415686
0.300000 0.001471 0.411765
0.377451 0.012745 0.411765
0.467157 0.047059 0.423529
0.568627 0.105882 0.424509
0.023039 0.038726 0.407353
0.075000 0.030883 0.403922
0.112745 0.030883 0.411765
0.178922 0.023039 0.411765
0.237255 0.030883 0.415686
0.315196 0.030883 0.415686
0.390196 0.034804 0.419608
0.478921 0.074020 0.419608
0.584314 0.121079 0.427451
0.081373 0.085294 0.411765
0.105392 0.093137 0.411765
0.144118 0.093137 0.415686
0.210294 0.089216 0.419608
0.257843 0.093137 0.411765
0.335784 0.097059 0.419608
0.419608 0.112745 0.419608
0.509314 0.128922 0.427451
0.611765 0.167647 0.427451
0.151471 0.147549 0.411765
0.175981 0.151471 0.412745
0.199510 0.147549 0.412745
0.244118 0.151471 0.416666
0.306373 0.155392 0.415686
0.372549 0.171078 0.427451
0.459314 0.179902 0.427451
0.556373 0.206863 0.427941
0.669118 0.253431 0.431373
0.242157 0.218627 0.416666
0.256373 0.222549 0.423529
0.270589 0.226471 0.423529
0.322059 0.227941 0.420588
0.384313 0.239215 0.424509
0.455392 0.254902 0.427451
0.534314 0.273529 0.439216
0.636275 0.305883 0.434314
0.771568 0.352941 0.406863
0.363725 0.320588 0.423529
0.372549 0.324510 0.427451
0.403922 0.336274 0.428432
0.444608 0.344117 0.435294
0.499020 0.351961 0.430393
0.566176 0.371568 0.430883
0.671569 0.400000 0.415196
0.784313 0.438725 0.376961
0.908823 0.501961 0.377451
0.564706 0.473529 0.400000
0.568628 0.469608 0.396078
0.592157 0.481372 0.392157
0.639216 0.493137 0.376471
0.691177 0.508823 0.369607
0.760294 0.537255 0.370588
0.834314 0.568628 0.379412
0.911274 0.615196 0.420098
0.985294 0.685294 0.505883
0.749510 0.679902 0.406863
0.753431 0.675981 0.406373
0.769117 0.698529 0.430392
0.800490 0.703432 0.442157
0.828432 0.728921 0.478922
0.868137 0.754412 0.528922
0.906863 0.793628 0.579902
0.961274 0.832844 0.642157
1.000000 0.875490 0.720588
0.788235 0.909804 0.679412
0.796078 0.906862 0.679411
0.800981 0.909804 0.683334
0.823529 0.916176 0.702941
0.852941 0.939215 0.730392
0.883824 0.950000 0.765686
0.930392 0.965686 0.789215
0.976961 0.977451 0.816666
1.000000 0.993137 0.867647
0.019608 0.007843 0.451470
0.085785 0.000000 0.451470
0.124510 0.000000 0.451470
0.186765 0.000000 0.455392
0.249019 0.000000 0.455392
0.311765 0.005392 0.459314
0.393137 0.024510 0.467157
0.475490 0.055882 0.467157
0.588235 0.113725 0.474510
0.062255 0.030883 0.455392
0.085785 0.034804 0.454902
0.136765 0.030883 0.462745
0.179412 0.030883 0.455392
0.256863 0.030883 0.459314
0.316667 0.043627 0.462745
0.397059 0.062255 0.463235
0.483333 0.086275 0.467157
0.592157 0.140686 0.471078
0.097059 0.085294 0.455392
0.132843 0.089216 0.462745
0.167647 0.089216 0.458824
0.210784 0.093137 0.458824
0.267647 0.093137 0.463235
0.341667 0.104902 0.463235
0.427451 0.112745 0.467157
0.517647 0.140686 0.471078
0.627941 0.183334 0.475000
0.171078 0.147549 0.462745
0.183333 0.151471 0.463235
0.218137 0.151471 0.459314
0.259804 0.155392 0.463235
0.322059 0.159314 0.463235
0.388236 0.169608 0.467157
0.469118 0.191176 0.471078
0.575981 0.222549 0.471078
0.696569 0.265196 0.486275
0.258823 0.222059 0.467157
0.274509 0.223530 0.467157
0.290197 0.227451 0.467157
0.337745 0.235295 0.467157
0.392647 0.247058 0.475000
0.470589 0.262745 0.471078
0.549510 0.286274 0.478431
0.663726 0.322059 0.484314
0.798529 0.364706 0.443137
0.395588 0.332353 0.475000
0.399510 0.332353 0.475000
0.419117 0.332353 0.475000
0.477941 0.348039 0.478431
0.518628 0.363725 0.476961
0.586274 0.383823 0.480882
0.698530 0.412255 0.446078
0.811764 0.454412 0.424019
0.915686 0.502451 0.429412
0.587745 0.477451 0.438726
0.599510 0.481372 0.434804
0.626961 0.485294 0.434804
0.666176 0.497059 0.424019
0.709314 0.516667 0.416176
0.795589 0.555882 0.421079
0.857843 0.584314 0.445588
0.926961 0.634804 0.490196
0.997059 0.693137 0.572059
0.776961 0.695589 0.480392
0.780882 0.699510 0.483823
0.788725 0.699510 0.484314
0.804412 0.707843 0.496569
0.843627 0.744608 0.545098
0.879902 0.771568 0.587745
0.918627 0.801471 0.650000
0.957353 0.844608 0.724020
1.000000 0.887255 0.793137
0.792647 0.910294 0.737745
0.800000 0.918137 0.753431
0.815686 0.916666 0.753431
0.827941 0.937745 0.780882
0.856863 0.945588 0.792647
0.891667 0.964706 0.824019
0.926471 0.969607 0.843627
0.969117 0.980882 0.863725
1.000000 0.996078 0.925980
0.090196 0.000000 0.490196
0.105392 0.000000 0.494118
0.148039 0.002942 0.501961
0.206373 0.000000 0.498039
0.249020 0.011765 0.501961
0.323039 0.028922 0.501961
0.404902 0.031373 0.505882
0.494608 0.071078 0.517647
0.603922 0.129412 0.521569
0.105392 0.038726 0.498039
0.117157 0.030883 0.498039
0.159804 0.030883 0.498039
0.202451 0.034804 0.501961
0.264706 0.038726 0.501961
0.334314 0.058334 0.505882
0.413726 0.062255 0.509804
0.510294 0.098529 0.509804
0.611765 0.136765 0.521569
0.132353 0.089216 0.501961
0.151961 0.085295 0.498039
0.179412 0.089216 0.494118
0.237745 0.093137 0.501961
0.283333 0.104902 0.505882
0.357352 0.104902 0.509804
0.433334 0.128432 0.513726
0.541177 0.149510 0.513726
0.661765 0.202941 0.521569
0.198529 0.151471 0.505882
0.218137 0.151471 0.505882
0.237745 0.151471 0.505882
0.279412 0.159314 0.509804
0.341667 0.167157 0.509804
0.407844 0.175000 0.513726
0.489707 0.198529 0.513726
0.591667 0.230392 0.517647
0.716177 0.280882 0.529412
0.290196 0.231372 0.513726
0.303431 0.231372 0.509804
0.313725 0.231372 0.513726
0.365196 0.239215 0.513726
0.423530 0.254902 0.521569
0.491667 0.266667 0.521569
0.580392 0.293137 0.525490
0.691177 0.331863 0.519608
0.821568 0.380393 0.474510
0.426470 0.336274 0.521569
0.426471 0.336274 0.513726
0.468628 0.348039 0.521569
0.486765 0.355882 0.521569
0.550000 0.371568 0.524020
0.631863 0.395098 0.512255
0.718628 0.415686 0.486275
0.831373 0.466176 0.468137
0.950490 0.528431 0.495588
0.634314 0.493137 0.474510
0.630392 0.489216 0.474510
0.661765 0.497059 0.469608
0.700980 0.520588 0.465196
0.749020 0.534314 0.467647
0.807353 0.557353 0.464706
0.876471 0.611765 0.515687
0.945588 0.658333 0.572059
1.000000 0.712745 0.647059
0.792647 0.703432 0.542647
0.796568 0.699510 0.543137
0.800490 0.703432 0.547059
0.833824 0.726961 0.578432
0.856863 0.742647 0.615196
0.883824 0.782843 0.660785
0.930392 0.817647 0.727941
0.965196 0.848530 0.785784
1.000000 0.899019 0.859804
0.807843 0.921569 0.803922
0.807843 0.933333 0.815686
0.819608 0.937255 0.831373
0.839216 0.941176 0.843137
0.860785 0.949020 0.854902
0.899510 0.962255 0.882353
0.930392 0.973530 0.899020
0.969117 0.992157 0.937745
1.000000 1.000000 0.984314
