Color/CreativePack-1/LateSunset 65x.cube
TITLE "LateSunset"
LUT_3D_SIZE 5
DOMAIN_MIN 0.000000 0.000000 0.000000
DOMAIN_MAX 1.000000 1.000000 1.000000
0.000000 0.000000 0.000000
0.116667 0.000000 0.050000
0.252941 0.000000 0.149020
0.385294 0.000000 0.168627
0.549020 0.070588 0.184314
0.088235 0.097059 0.148039
0.159804 0.085295 0.155883
0.272549 0.077451 0.166666
0.401961 0.089216 0.176471
0.580392 0.140196 0.196078
0.209804 0.209804 0.188235
0.259804 0.213725 0.188235
0.352942 0.223529 0.196078
0.506863 0.254902 0.212746
0.711765 0.325491 0.205882
0.470589 0.446078 0.205882
0.532353 0.461765 0.194117
0.628431 0.477451 0.158823
0.792157 0.541177 0.084314
0.969607 0.646078 0.202941
0.780392 0.886275 0.419608
0.800000 0.886275 0.435294
0.856863 0.911764 0.482353
0.930392 0.950000 0.560784
1.000000 0.992157 0.639216
0.010784 0.000000 0.112745
0.112745 0.002942 0.155883
0.241177 0.000000 0.230393
0.377451 0.000000 0.238236
0.549020 0.061765 0.250000
0.065687 0.093137 0.218627
0.144118 0.085295 0.230392
0.260784 0.077451 0.238235
0.396078 0.093137 0.246079
0.592157 0.148039 0.246078
0.203922 0.213726 0.242157
0.248039 0.211764 0.242157
0.349020 0.227451 0.250000
0.505883 0.254902 0.257844
0.723529 0.333334 0.251960
0.486274 0.457843 0.249019
0.525490 0.461765 0.241176
0.624510 0.478432 0.202941
0.791176 0.537255 0.161765
0.977451 0.653921 0.261765
0.772549 0.886275 0.450980
0.796078 0.901961 0.485295
0.852941 0.923530 0.529412
0.926471 0.950000 0.593137
1.000000 0.991177 0.670588
0.060784 0.000000 0.225490
0.089216 0.011765 0.275490
0.223529 0.000000 0.317647
0.373530 0.000000 0.329412
0.560784 0.080392 0.345098
0.053921 0.089216 0.312746
0.140196 0.085294 0.320588
0.257844 0.081372 0.321569
0.396078 0.097059 0.329412
0.584314 0.159804 0.344118
0.211764 0.217647 0.325490
0.254902 0.219608 0.324510
0.356862 0.231372 0.333333
0.502941 0.258823 0.341176
0.741177 0.341176 0.325490
0.512745 0.461765 0.324510
0.542157 0.462745 0.320588
0.651961 0.497059 0.287255
0.818627 0.556863 0.268628
0.973530 0.669608 0.383333
0.780392 0.892157 0.550980
0.796078 0.901961 0.570588
0.845098 0.923530 0.613725
0.926471 0.961765 0.684314
1.000000 0.988235 0.743137
0.000000 0.014706 0.397058
0.103921 0.002942 0.407843
0.229412 0.000000 0.415686
0.377451 0.012745 0.411765
0.568627 0.105882 0.424509
0.081373 0.085294 0.411765
0.144118 0.093137 0.415686
0.257843 0.093137 0.411765
0.419608 0.112745 0.419608
0.611765 0.167647 0.427451
0.242157 0.218627 0.416666
0.270589 0.226471 0.423529
0.384313 0.239215 0.424509
0.534314 0.273529 0.439216
0.771568 0.352941 0.406863
0.564706 0.473529 0.400000
0.592157 0.481372 0.392157
0.691177 0.508823 0.369607
0.834314 0.568628 0.379412
0.985294 0.685294 0.505883
0.788235 0.909804 0.679412
0.800981 0.909804 0.683334
0.852941 0.939215 0.730392
0.930392 0.965686 0.789215
1.000000 0.993137 0.867647
0.090196 0.000000 0.490196
0.148039 0.002942 0.501961
0.249020 0.011765 0.501961
0.404902 0.031373 0.505882
0.603922 0.129412 0.521569
0.132353 0.089216 0.501961
0.179412 0.089216 0.494118
0.283333 0.104902 0.505882
0.433334 0.128432 0.513726
0.661765 0.202941 0.521569
0.290196 0.231372 0.513726
0.313725 0.231372 0.513726
0.423530 0.254902 0.521569
0.580392 0.293137 0.525490
0.821568 0.380393 0.474510
0.634314 0.493137 0.474510
0.661765 0.497059 0.469608
0.749020 0.534314 0.467647
0.876471 0.611765 0.515687
1.000000 0.712745 0.647059
0.807843 0.921569 0.803922
0.819608 0.937255 0.831373
0.860785 0.949020 0.854902
0.930392 0.973530 0.899020
1.000000 1.000000 0.984314
