Color/CreativePack-1/Moonlight 65x.cube
TITLE "Moonlight"
LUT_3D_SIZE 9
DOMAIN_MIN 0.000000 0.000000 0.000000
DOMAIN_MAX 1.000000 1.000000 1.000000
0.000000 0.000000 0.000000
0.026961 0.000000 0.007353
0.081372 0.003922 0.030392
0.131863 0.014216 0.047059
0.174510 0.035294 0.056863
0.209314 0.052451 0.072059
0.254902 0.054902 0.083333
0.294118 0.074510 0.105882
0.345098 0.086275 0.121569
0.000000 0.034804 0.026961
0.026961 0.026961 0.026961
0.085295 0.030883 0.038726
0.131863 0.050490 0.047059
0.168627 0.054412 0.050980
0.207843 0.064216 0.075980
0.250980 0.074020 0.097549
0.294118 0.085785 0.109804
0.337255 0.097549 0.128922
0.000000 0.093137 0.050000
0.026961 0.089216 0.053921
0.081372 0.089216 0.061765
0.120098 0.093137 0.073529
0.166666 0.097059 0.077451
0.207843 0.100981 0.087745
0.250980 0.100981 0.099020
0.298039 0.112745 0.117647
0.337255 0.116667 0.140196
0.018137 0.131863 0.088726
0.029902 0.131863 0.088726
0.077451 0.131863 0.096569
0.124020 0.127941 0.096569
0.158824 0.135784 0.100000
0.203922 0.131863 0.111274
0.254902 0.139706 0.122549
0.298039 0.147549 0.139706
0.345098 0.159314 0.151471
0.005882 0.174510 0.123529
0.038726 0.170588 0.119608
0.081372 0.174510 0.119608
0.116176 0.174510 0.125490
0.162745 0.174510 0.127451
0.203922 0.176471 0.134804
0.250980 0.182353 0.150000
0.301961 0.188725 0.161274
0.341176 0.194117 0.176471
0.025000 0.221078 0.158333
0.031373 0.221078 0.158333
0.081373 0.217157 0.154412
0.124020 0.221078 0.166176
0.166176 0.221078 0.158333
0.213235 0.228922 0.174020
0.258824 0.232843 0.189706
0.307353 0.240686 0.192647
0.356863 0.248529 0.209314
0.027451 0.270588 0.192157
0.044117 0.272059 0.200000
0.089216 0.275490 0.200000
0.127941 0.275490 0.200981
0.169608 0.275490 0.208823
0.225000 0.283334 0.216666
0.270588 0.283334 0.220588
0.314706 0.294118 0.235294
0.364706 0.305882 0.247059
0.050980 0.337745 0.247059
0.077941 0.333823 0.239706
0.097059 0.337745 0.243627
0.135784 0.337745 0.250980
0.184804 0.347059 0.258824
0.227941 0.345588 0.260294
0.290196 0.345588 0.267157
0.333823 0.353431 0.282843
0.388235 0.365196 0.298529
0.086275 0.400000 0.298039
0.105392 0.403922 0.298039
0.124510 0.403922 0.301961
0.163235 0.403922 0.298039
0.207843 0.407843 0.305882
0.252451 0.411765 0.317647
0.305882 0.419608 0.333333
0.357353 0.431373 0.337255
0.415686 0.443137 0.352941
0.000000 0.000000 0.054412
0.019118 0.000000 0.062255
0.077451 0.000000 0.081372
0.127941 0.018137 0.097549
0.162745 0.041177 0.105392
0.205392 0.047059 0.113235
0.247059 0.058334 0.121079
0.290196 0.078431 0.132843
0.341176 0.086275 0.148530
0.000000 0.038726 0.077451
0.011275 0.034804 0.085295
0.069608 0.034804 0.093628
0.124020 0.049510 0.097549
0.166666 0.060784 0.109314
0.205882 0.062255 0.117157
0.247059 0.074020 0.125000
0.298039 0.085785 0.140686
0.333333 0.097549 0.148530
0.000000 0.093137 0.101471
0.006863 0.093137 0.108823
0.077451 0.089216 0.104902
0.120098 0.093137 0.105392
0.158824 0.097059 0.117157
0.202451 0.100981 0.121079
0.247059 0.100981 0.136765
0.294118 0.112745 0.148530
0.337255 0.120589 0.160294
0.000000 0.131863 0.121079
0.015196 0.131863 0.113235
0.069608 0.127941 0.125000
0.116176 0.131863 0.127941
0.158824 0.135784 0.128922
0.205392 0.135784 0.140686
0.250980 0.139706 0.144608
0.294118 0.147549 0.160294
0.341176 0.159314 0.172059
0.000000 0.174510 0.139215
0.003922 0.174510 0.140686
0.061765 0.174510 0.148039
0.116176 0.174510 0.150981
0.158824 0.174510 0.152451
0.198529 0.176471 0.160294
0.247059 0.182353 0.172059
0.301961 0.190196 0.183824
0.341176 0.198039 0.199510
0.000000 0.221078 0.172059
0.015686 0.221078 0.172059
0.065686 0.217157 0.175490
0.120098 0.221078 0.175981
0.158824 0.225000 0.187745
0.205882 0.228922 0.193627
0.252941 0.232843 0.201471
0.305882 0.235294 0.203432
0.352941 0.248529 0.226961
0.000000 0.274510 0.211275
0.003922 0.274510 0.211275
0.081373 0.277941 0.211275
0.120098 0.278431 0.215196
0.170588 0.280392 0.219118
0.217157 0.281863 0.226961
0.266667 0.286275 0.234804
0.314216 0.294118 0.246569
0.360784 0.302941 0.258824
0.024510 0.333823 0.258334
0.059314 0.333823 0.250490
0.089216 0.337745 0.255392
0.139706 0.337745 0.254902
0.186274 0.337745 0.266177
0.236765 0.349510 0.277941
0.283824 0.349510 0.285785
0.329902 0.353431 0.294118
0.384314 0.361274 0.302451
0.094118 0.403922 0.305882
0.105882 0.407843 0.309804
0.140196 0.403922 0.309804
0.167157 0.403922 0.313726
0.201961 0.407843 0.313726
0.250980 0.411765 0.321569
0.305882 0.423529 0.333333
0.360784 0.431373 0.352941
0.415686 0.447059 0.368627
0.000000 0.000000 0.116667
0.007353 0.002942 0.124510
0.065687 0.006863 0.136274
0.113235 0.018627 0.148040
0.154902 0.042157 0.151961
0.201471 0.053431 0.163725
0.243137 0.062745 0.171569
0.286275 0.074510 0.175491
0.333333 0.089216 0.199020
0.000000 0.030883 0.128432
0.000000 0.038726 0.140196
0.061765 0.042647 0.151961
0.108823 0.050490 0.148040
0.154902 0.062255 0.163725
0.198039 0.069608 0.167647
0.243137 0.077941 0.175490
0.290196 0.089706 0.191176
0.333333 0.105392 0.199020
0.000000 0.089216 0.144118
0.000000 0.089216 0.148039
0.050000 0.089216 0.155883
0.097549 0.089216 0.159804
0.148039 0.097059 0.167647
0.190686 0.097059 0.175490
0.243137 0.100981 0.171569
0.286275 0.116667 0.199019
0.329412 0.120589 0.199020
0.000000 0.135784 0.167647
0.000000 0.135784 0.171569
0.038235 0.131863 0.167647
0.104412 0.131863 0.171569
0.148039 0.139706 0.175490
0.197549 0.139706 0.179412
0.242647 0.143627 0.199020
0.282353 0.147549 0.206863
0.333333 0.163235 0.222549
0.000000 0.174510 0.179412
0.000000 0.174510 0.183333
0.026471 0.174510 0.179412
0.104412 0.172549 0.183333
0.148039 0.174510 0.195098
0.191176 0.178431 0.202941
0.243137 0.190196 0.210784
0.290196 0.186274 0.214706
0.341176 0.195098 0.230393
0.000000 0.221078 0.206863
0.000000 0.221078 0.202942
0.030392 0.221078 0.210785
0.096569 0.221078 0.210784
0.151961 0.225000 0.222549
0.201471 0.228922 0.226470
0.243137 0.232843 0.230393
0.298039 0.236765 0.250000
0.345098 0.248529 0.250000
0.000000 0.277451 0.242157
0.003922 0.277941 0.246079
0.031373 0.274510 0.246079
0.097549 0.274510 0.242157
0.162745 0.281373 0.257844
0.205392 0.283824 0.261765
0.258824 0.286275 0.265686
0.302451 0.295098 0.277941
0.364706 0.303921 0.285295
0.000000 0.337745 0.277941
0.012745 0.341666 0.285295
0.042647 0.337745 0.285785
0.120098 0.341666 0.289216
0.171569 0.341666 0.293628
0.221078 0.349510 0.304902
0.275000 0.349510 0.309314
0.322059 0.357353 0.321079
0.380392 0.369117 0.336765
0.024510 0.403922 0.329412
0.059314 0.403922 0.329412
0.101961 0.411765 0.340196
0.140686 0.407843 0.333333
0.184314 0.407843 0.345098
0.248529 0.407843 0.341176
0.290196 0.419608 0.364706
0.349510 0.427451 0.375491
0.411765 0.443137 0.392157
0.000000 0.006373 0.178922
0.000000 0.010294 0.190686
0.046078 0.010784 0.198529
0.096569 0.029902 0.202451
0.143137 0.045098 0.202451
0.191176 0.054902 0.210294
0.229902 0.069118 0.225980
0.274510 0.080882 0.237745
0.325490 0.094118 0.245588
0.000000 0.038726 0.194608
0.000000 0.042647 0.194608
0.027941 0.050490 0.202451
0.096569 0.054412 0.202451
0.143137 0.066177 0.206373
0.183334 0.074020 0.218137
0.231373 0.077941 0.225980
0.274510 0.085785 0.233824
0.325490 0.101471 0.249510
0.000000 0.089216 0.202451
0.000000 0.089216 0.202451
0.003922 0.093137 0.206373
0.084804 0.093137 0.206373
0.140196 0.093137 0.214216
0.183334 0.100981 0.225980
0.229902 0.104902 0.229902
0.282353 0.116667 0.245588
0.325490 0.128431 0.253431
0.000000 0.135784 0.214216
0.000000 0.131863 0.206373
0.008333 0.135784 0.218137
0.076961 0.135784 0.222059
0.131373 0.135784 0.233824
0.175490 0.139706 0.233824
0.225980 0.143627 0.241667
0.274510 0.147549 0.249510
0.325490 0.155392 0.261275
0.000000 0.175981 0.233824
0.000000 0.178431 0.233824
0.000000 0.178431 0.237745
0.073039 0.175981 0.237745
0.132843 0.175000 0.237745
0.183334 0.186275 0.253431
0.229902 0.186275 0.253431
0.275000 0.190686 0.273039
0.329412 0.198529 0.284804
0.000000 0.221078 0.253431
0.000000 0.218627 0.245588
0.000000 0.221078 0.257353
0.054902 0.221078 0.249510
0.139215 0.228922 0.265196
0.193627 0.232843 0.273039
0.234314 0.232843 0.274019
0.286275 0.240686 0.292647
0.337255 0.244608 0.300490
0.000000 0.279411 0.288726
0.000000 0.279411 0.280882
0.000000 0.280882 0.284804
0.061275 0.274510 0.284804
0.132843 0.282353 0.300490
0.193627 0.281373 0.293627
0.249510 0.286275 0.305392
0.294608 0.294608 0.320588
0.349020 0.305882 0.328921
0.000000 0.341666 0.316667
0.000000 0.337745 0.321079
0.002942 0.333823 0.318137
0.096569 0.341666 0.324510
0.152451 0.341666 0.324510
0.205392 0.349510 0.336274
0.262745 0.353431 0.351961
0.322059 0.357353 0.355882
0.368627 0.373039 0.375490
0.000000 0.407843 0.372549
0.000000 0.403922 0.364706
0.067157 0.407843 0.372549
0.120098 0.407843 0.376471
0.172059 0.407843 0.380392
0.238236 0.415686 0.380392
0.296569 0.431373 0.400000
0.352941 0.435294 0.406373
0.400000 0.443137 0.427451
0.000000 0.009804 0.233333
0.000000 0.013725 0.245098
0.008823 0.018627 0.247059
0.073039 0.041667 0.256863
0.123529 0.050980 0.256863
0.172059 0.062745 0.264706
0.222549 0.071569 0.272549
0.270588 0.082353 0.282353
0.313726 0.101961 0.300000
0.000000 0.038726 0.242647
0.000000 0.046569 0.249020
0.000000 0.054412 0.250490
0.061275 0.062255 0.253431
0.120098 0.070098 0.260784
0.172059 0.076470 0.264706
0.222549 0.085785 0.280392
0.266667 0.097549 0.282353
0.313726 0.109314 0.303921
0.000000 0.093137 0.253922
0.000000 0.097059 0.260784
0.000000 0.097059 0.264706
0.041176 0.097059 0.261765
0.116667 0.097059 0.265686
0.171078 0.100981 0.268628
0.214706 0.112745 0.280392
0.266667 0.112745 0.289216
0.313726 0.124510 0.304902
0.000000 0.135784 0.272549
0.000000 0.135784 0.268628
0.000000 0.135784 0.269118
0.027941 0.139706 0.273039
0.111765 0.135784 0.276961
0.167647 0.139706 0.276961
0.218628 0.143627 0.288726
0.269118 0.151471 0.300980
0.317647 0.159314 0.313726
0.000000 0.178431 0.276470
0.000000 0.178431 0.272549
0.000000 0.178431 0.276470
0.049510 0.175000 0.276470
0.107843 0.178431 0.288235
0.162255 0.178431 0.298040
0.207843 0.186275 0.311765
0.270588 0.194117 0.323529
0.325490 0.201961 0.327451
0.000000 0.221078 0.297549
0.000000 0.221078 0.297549
0.000000 0.225000 0.311765
0.008823 0.225490 0.301961
0.092157 0.228922 0.313235
0.170098 0.228922 0.321078
0.222549 0.233333 0.321078
0.277941 0.240686 0.328921
0.325490 0.245098 0.347059
0.000000 0.278431 0.324510
0.000000 0.278431 0.325980
0.000000 0.278431 0.329412
0.002941 0.278431 0.332353
0.103921 0.282353 0.339216
0.177941 0.283334 0.340196
0.234314 0.287255 0.351961
0.285785 0.295098 0.359804
0.345098 0.309804 0.379412
0.000000 0.341666 0.361274
0.000000 0.337745 0.361274
0.000000 0.337745 0.365196
0.037745 0.341666 0.369117
0.123530 0.345588 0.373039
0.201471 0.349510 0.380882
0.243627 0.357353 0.390686
0.312745 0.361274 0.404412
0.360784 0.369117 0.416176
0.000000 0.403922 0.411765
0.000000 0.407843 0.415196
0.000000 0.407843 0.415686
0.050000 0.407843 0.411765
0.143137 0.415686 0.415686
0.211275 0.419608 0.427451
0.277451 0.431373 0.444117
0.329412 0.431373 0.450980
0.392157 0.443137 0.462745
0.000000 0.017157 0.299510
0.000000 0.028922 0.307353
0.000000 0.038236 0.304902
0.022059 0.049510 0.304412
0.100000 0.054902 0.315196
0.162255 0.064216 0.315196
0.203922 0.075980 0.326961
0.257844 0.086275 0.338725
0.301961 0.101961 0.349020
0.000000 0.054412 0.301961
0.000000 0.058334 0.305392
0.000000 0.066177 0.304902
0.001471 0.074020 0.311275
0.094118 0.074020 0.315196
0.154412 0.077941 0.321079
0.203432 0.091176 0.329412
0.258824 0.093628 0.334804
0.301961 0.105882 0.345098
0.000000 0.100981 0.312746
0.000000 0.100981 0.315196
0.000000 0.100981 0.313726
0.000000 0.100981 0.316177
0.078921 0.108823 0.326961
0.148039 0.108823 0.326961
0.203432 0.112745 0.334804
0.258824 0.124510 0.340196
0.301961 0.128432 0.355882
0.000000 0.139706 0.327941
0.000000 0.135784 0.324020
0.000000 0.135784 0.324510
0.000000 0.139706 0.324020
0.051470 0.139706 0.331863
0.144118 0.143627 0.333333
0.199510 0.151471 0.343627
0.250980 0.159314 0.351961
0.313726 0.163235 0.360784
0.000000 0.178431 0.331372
0.000000 0.180392 0.335294
0.000000 0.182353 0.339216
0.000000 0.182353 0.343137
0.064706 0.186275 0.343137
0.138725 0.186275 0.348529
0.207353 0.190196 0.355882
0.262745 0.190196 0.367157
0.317647 0.205882 0.385784
0.000000 0.225000 0.350490
0.000000 0.225000 0.347059
0.000000 0.222549 0.350490
0.000000 0.225000 0.351471
0.084314 0.228922 0.359804
0.142647 0.232843 0.371568
0.199510 0.236765 0.381863
0.262745 0.244608 0.394118
0.309804 0.256373 0.409314
0.000000 0.281863 0.382843
0.000000 0.278431 0.377451
0.000000 0.278431 0.380392
0.000000 0.283824 0.390686
0.053431 0.284314 0.389215
0.138725 0.290196 0.394608
0.219118 0.291176 0.400980
0.273529 0.301961 0.414216
0.325490 0.313236 0.429902
0.000000 0.341666 0.413726
0.000000 0.337745 0.416176
0.000000 0.341666 0.412255
0.000000 0.345588 0.425490
0.065196 0.349510 0.425980
0.162255 0.357353 0.433334
0.227451 0.353431 0.443627
0.293628 0.365196 0.456863
0.349020 0.369117 0.463235
0.000000 0.407843 0.458824
0.000000 0.407843 0.456373
0.000000 0.411765 0.460294
0.000981 0.415686 0.470588
0.112255 0.415686 0.472059
0.181863 0.423529 0.474510
0.254412 0.431373 0.487255
0.318137 0.435294 0.502451
0.380392 0.447059 0.517647
0.000000 0.040196 0.364706
0.000000 0.043137 0.352941
0.000000 0.050980 0.356863
0.000000 0.058824 0.360784
0.052941 0.067647 0.369607
0.123039 0.070588 0.373530
0.192157 0.083333 0.377451
0.242647 0.090196 0.388725
0.290196 0.101961 0.400981
0.000000 0.066177 0.360294
0.000000 0.070098 0.360784
0.000000 0.070098 0.368137
0.000000 0.074020 0.368627
0.028431 0.081863 0.372549
0.130882 0.079902 0.377451
0.184314 0.089706 0.388235
0.235294 0.101471 0.389215
0.286275 0.113235 0.403432
0.000000 0.100981 0.364706
0.000000 0.100981 0.368627
0.000000 0.100981 0.365686
0.000000 0.104902 0.375491
0.018627 0.104902 0.369607
0.119118 0.116667 0.391176
0.180392 0.120589 0.391177
0.242647 0.124510 0.397058
0.294118 0.136274 0.412745
0.000000 0.139706 0.377451
0.000000 0.143627 0.377451
0.000000 0.139706 0.381373
0.000000 0.143627 0.388235
0.001961 0.143627 0.381373
0.103922 0.147549 0.393137
0.172549 0.147549 0.397058
0.238726 0.155392 0.400981
0.294118 0.167157 0.412745
0.000000 0.180392 0.385294
0.000000 0.182353 0.393137
0.000000 0.178431 0.393137
0.000000 0.182353 0.389216
0.000000 0.182353 0.400981
0.095098 0.185784 0.400981
0.181372 0.190196 0.412745
0.235294 0.198039 0.424019
0.294118 0.205882 0.424509
0.000000 0.225000 0.397058
0.000000 0.225000 0.404902
0.000000 0.232843 0.414216
0.000000 0.232843 0.418137
0.000000 0.232843 0.425000
0.096079 0.236765 0.425980
0.179902 0.240686 0.436275
0.246569 0.244608 0.436275
0.301961 0.252451 0.455882
0.000000 0.278431 0.420588
0.000000 0.279411 0.420588
0.000000 0.285295 0.435294
0.000000 0.286275 0.436275
0.000981 0.289216 0.444117
0.111765 0.287255 0.440196
0.189216 0.295098 0.455882
0.247549 0.298529 0.463726
0.309804 0.310785 0.487255
0.000000 0.341666 0.471078
0.000000 0.345588 0.471078
0.000000 0.345588 0.467157
0.000000 0.345588 0.478921
0.002941 0.353431 0.475490
0.111765 0.353431 0.490686
0.196078 0.365196 0.495098
0.278431 0.365196 0.506862
0.325490 0.376961 0.518137
0.000000 0.411765 0.510785
0.000000 0.411765 0.510784
0.000000 0.415686 0.517647
0.000000 0.411765 0.514706
0.057843 0.411765 0.518628
0.146569 0.423529 0.526471
0.231373 0.435294 0.538235
0.294608 0.435294 0.549510
0.356863 0.450980 0.564706
0.000000 0.054902 0.415686
0.000000 0.058824 0.416176
0.000000 0.061765 0.412255
0.000000 0.069118 0.423529
0.000000 0.076471 0.424019
0.080882 0.082843 0.435784
0.161765 0.086275 0.435784
0.215686 0.098039 0.435784
0.274510 0.109804 0.455392
0.000000 0.074020 0.420098
0.000000 0.077941 0.416176
0.000000 0.077941 0.423529
0.000000 0.081863 0.420098
0.000000 0.089706 0.427941
0.073039 0.097549 0.431863
0.153921 0.097549 0.435784
0.219608 0.105882 0.450980
0.274510 0.121569 0.459314
0.000000 0.104902 0.420098
0.000000 0.104902 0.423529
0.000000 0.104902 0.420098
0.000000 0.112745 0.427941
0.000000 0.116667 0.440687
0.061275 0.116667 0.435784
0.161765 0.124510 0.439706
0.222549 0.128432 0.451470
0.281863 0.144117 0.471078
0.000000 0.143627 0.435784
0.000000 0.147549 0.431863
0.000000 0.147549 0.435784
0.000000 0.143627 0.435784
0.000000 0.151471 0.443627
0.041667 0.146569 0.443627
0.153921 0.155392 0.447549
0.219608 0.163235 0.459314
0.281863 0.171078 0.475000
0.000000 0.180392 0.439706
0.000000 0.182353 0.443627
0.000000 0.182353 0.443627
0.000000 0.186274 0.451470
0.000000 0.186274 0.451470
0.005883 0.194117 0.463235
0.142647 0.193137 0.459314
0.219608 0.201961 0.475000
0.289706 0.213725 0.486765
0.000000 0.228922 0.467157
0.000000 0.228922 0.455392
0.000000 0.232843 0.471078
0.000000 0.232843 0.471078
0.000000 0.232843 0.471078
0.000981 0.236765 0.478921
0.142647 0.244608 0.482843
0.223529 0.248529 0.498529
0.278431 0.252451 0.510294
0.000000 0.282353 0.478921
0.000000 0.286275 0.482843
0.000000 0.282353 0.482843
0.000000 0.287255 0.494608
0.000000 0.287255 0.494608
0.063725 0.291177 0.506372
0.146569 0.299019 0.510294
0.227451 0.306863 0.518137
0.298039 0.314216 0.529902
0.000000 0.345588 0.514216
0.000000 0.349510 0.522059
0.000000 0.345588 0.514216
0.000000 0.345588 0.518137
0.000000 0.353431 0.525980
0.079902 0.361274 0.533823
0.166667 0.361274 0.541666
0.247549 0.369117 0.561274
0.309804 0.380882 0.584804
0.000000 0.411765 0.565196
0.000000 0.415686 0.565196
0.000000 0.411765 0.565196
0.000000 0.419608 0.569117
0.000000 0.423529 0.580882
0.103431 0.435294 0.592647
0.193137 0.435294 0.600490
0.267157 0.439216 0.604412
0.352941 0.454902 0.620098
0.000000 0.066667 0.470588
0.000000 0.070588 0.470588
0.000000 0.074510 0.470588
0.000000 0.078431 0.470588
0.000000 0.084314 0.482353
0.000000 0.087745 0.482353
0.115686 0.098039 0.494118
0.200000 0.105882 0.498039
0.254902 0.121569 0.509804
0.000000 0.085785 0.474510
0.000000 0.085785 0.470588
0.000000 0.085785 0.474510
0.000000 0.089706 0.482353
0.000000 0.093628 0.474510
0.001471 0.099510 0.482353
0.122549 0.102941 0.494118
0.196568 0.117157 0.505882
0.254902 0.125490 0.509804
0.000000 0.108823 0.478431
0.000000 0.112745 0.478431
0.000000 0.116667 0.478431
0.000000 0.116667 0.482353
0.000000 0.120589 0.482353
0.000000 0.124510 0.490196
0.100980 0.128432 0.501961
0.192647 0.136274 0.505882
0.258824 0.144118 0.513726
0.000000 0.147549 0.486275
0.000000 0.151471 0.486275
0.000000 0.147549 0.486275
0.000000 0.147549 0.490196
0.000000 0.151471 0.494118
0.000000 0.155392 0.498039
0.084314 0.163235 0.501961
0.192647 0.165196 0.513726
0.254902 0.175000 0.529412
0.000000 0.188235 0.498039
0.000000 0.190196 0.501961
0.000000 0.190196 0.501961
0.000000 0.190196 0.509804
0.000000 0.190196 0.509804
0.000000 0.198039 0.513726
0.092157 0.200981 0.517647
0.190686 0.204412 0.533333
0.262745 0.217647 0.541176
0.000000 0.232843 0.513726
0.000000 0.235294 0.517647
0.000000 0.232843 0.517647
0.000000 0.236765 0.521569
0.000000 0.236765 0.529412
0.000000 0.244608 0.529412
0.092157 0.248039 0.537255
0.184804 0.256373 0.552941
0.266667 0.262745 0.560784
0.000000 0.286275 0.541176
0.000000 0.290196 0.545098
0.000000 0.290196 0.545098
0.000000 0.290196 0.552941
0.000000 0.290196 0.552941
0.000000 0.291177 0.550000
0.073529 0.305882 0.568627
0.193137 0.314706 0.584314
0.270588 0.321569 0.592157
0.000000 0.349510 0.569117
0.000000 0.345588 0.561274
0.000000 0.345588 0.569117
0.000000 0.353431 0.580882
0.000000 0.357353 0.588235
0.001471 0.362255 0.592157
0.143627 0.369117 0.604902
0.208333 0.373039 0.620098
0.294118 0.388725 0.631863
0.000000 0.415686 0.611765
0.000000 0.419608 0.615686
0.000000 0.415686 0.615686
0.000000 0.423529 0.623529
0.000000 0.427451 0.623529
0.056373 0.431373 0.639216
0.150000 0.439216 0.643137
0.251470 0.450980 0.658824
0.329412 0.458824 0.678431
