Color/CreativePack-1/Moonlight 65x.cube
TITLE "Moonlight"
LUT_3D_SIZE 65
DOMAIN_MIN 0.000000 0.000000 0.000000
DOMAIN_MAX 1.000000 1.000000 1.000000
0.000000 0.000000 0.000000
0.000919 0.000000 0.000000
0.003922 0.000000 0.000000
0.007843 0.000000 0.000000
0.011520 0.000000 0.000000
0.012439 0.000000 0.000000
0.017279 0.000000 0.001593
0.022120 0.000000 0.003922
0.026961 0.000000 0.007353
0.031802 0.000000 0.011765
0.036642 0.000000 0.015686
0.043137 0.000000 0.021875
0.050245 0.003187 0.026716
0.058824 0.003922 0.027451
0.063848 0.003922 0.027451
0.072610 0.003922 0.027451
0.081372 0.003922 0.030392
0.090135 0.003922 0.035233
0.094976 0.003922 0.036152
0.103738 0.003922 0.040993
0.112500 0.003922 0.045833
0.117341 0.003922 0.047059
0.122182 0.007843 0.047059
0.127022 0.011765 0.047059
0.131863 0.014216 0.047059
0.136703 0.019056 0.047059
0.141544 0.019976 0.047059
0.146385 0.024816 0.047059
0.151226 0.029657 0.047059
0.156863 0.031373 0.047059
0.164706 0.031373 0.050980
0.169669 0.031373 0.054902
0.174510 0.035294 0.056863
0.179350 0.035294 0.058824
0.184191 0.039093 0.062622
0.188235 0.039216 0.062745
0.189951 0.040931 0.064461
0.196078 0.043137 0.066667
0.200000 0.047059 0.070220
0.204473 0.050980 0.070588
0.209314 0.052451 0.072059
0.215686 0.050980 0.070588
0.219608 0.050980 0.070588
0.223835 0.050980 0.070588
0.231373 0.050980 0.070588
0.237439 0.050980 0.072733
0.242279 0.050980 0.077573
0.247120 0.050980 0.082353
0.254902 0.054902 0.083333
0.258824 0.054902 0.086275
0.262745 0.058824 0.089093
0.270404 0.062561 0.090196
0.274510 0.063480 0.094118
0.278431 0.066667 0.095772
0.282353 0.069240 0.098039
0.289767 0.070588 0.101961
0.294118 0.074510 0.105882
0.299448 0.074510 0.105882
0.304289 0.074510 0.109804
0.309804 0.074510 0.109804
0.317892 0.078431 0.113725
0.322733 0.078431 0.113725
0.331495 0.080515 0.117647
0.336336 0.082353 0.117647
0.345098 0.086275 0.121569
0.000000 0.000919 0.000919
0.000919 0.000919 0.000919
0.003922 0.000919 0.000919
0.007843 0.000919 0.000919
0.011520 0.000919 0.000919
0.012439 0.000919 0.003922
0.017279 0.000919 0.005515
0.022120 0.000919 0.007843
0.026961 0.000919 0.011275
0.036213 0.000429 0.012684
0.040564 0.003922 0.017034
0.044056 0.003922 0.021875
0.054167 0.003922 0.026716
0.059008 0.003922 0.027451
0.067770 0.003922 0.027451
0.072610 0.004841 0.028370
0.081372 0.007843 0.031373
0.090135 0.007843 0.031373
0.094976 0.007843 0.036152
0.103738 0.004841 0.039216
0.112500 0.004841 0.043137
0.117647 0.011459 0.043137
0.122182 0.012684 0.047059
0.126409 0.015686 0.047059
0.133333 0.016605 0.047059
0.137255 0.019608 0.047059
0.141544 0.024448 0.047059
0.146385 0.028738 0.047059
0.151226 0.031373 0.047059
0.156066 0.031373 0.047059
0.160907 0.031496 0.050980
0.168750 0.035294 0.050980
0.172549 0.035294 0.054902
0.179350 0.036213 0.060785
0.184191 0.039216 0.058824
0.188235 0.040012 0.062745
0.189951 0.043137 0.062745
0.196078 0.044056 0.066667
0.203554 0.047059 0.070588
0.207843 0.050980 0.071507
0.211765 0.054902 0.074510
0.215686 0.054902 0.074510
0.222916 0.052512 0.072121
0.227451 0.054902 0.074510
0.231373 0.054902 0.074510
0.235294 0.051899 0.074510
0.242279 0.051899 0.075429
0.247120 0.054902 0.082353
0.251960 0.054902 0.086275
0.258824 0.058824 0.088174
0.262745 0.061642 0.090196
0.270404 0.062745 0.091115
0.274510 0.066667 0.094118
0.278431 0.068321 0.095037
0.282353 0.070588 0.100613
0.289767 0.070588 0.101961
0.294118 0.074510 0.105882
0.299448 0.074510 0.105882
0.304289 0.074510 0.109804
0.309804 0.075429 0.109804
0.317647 0.078431 0.113725
0.321569 0.079595 0.113725
0.327574 0.082353 0.117647
0.336336 0.082353 0.117647
0.341176 0.086275 0.121569
0.000000 0.003922 0.003922
0.000919 0.003922 0.003922
0.003922 0.003922 0.003922
0.007843 0.003922 0.003922
0.011520 0.003922 0.003922
0.012439 0.005760 0.004596
0.017279 0.005760 0.007843
0.022120 0.005760 0.009681
0.026961 0.005760 0.011765
0.035723 0.005760 0.015686
0.044975 0.005760 0.017034
0.049326 0.007843 0.021446
0.052818 0.007843 0.027451
0.059008 0.009497 0.027451
0.067770 0.005025 0.028554
0.076532 0.007843 0.031373
0.081372 0.007843 0.031373
0.090135 0.007843 0.035233
0.094976 0.009681 0.035294
0.103738 0.007843 0.039216
0.112500 0.007843 0.043137
0.117647 0.009681 0.043137
0.125490 0.017524 0.047059
0.129412 0.017218 0.047059
0.133333 0.021446 0.047059
0.137255 0.023529 0.047059
0.141544 0.023897 0.047059
0.146385 0.028738 0.047059
0.151226 0.033579 0.047059
0.156066 0.035294 0.047059
0.160784 0.035294 0.045344
0.165748 0.037132 0.050980
0.172672 0.037132 0.055025
0.176471 0.039216 0.054902
0.184191 0.043014 0.058824
0.188235 0.043137 0.062745
0.189951 0.044853 0.062745
0.196078 0.047059 0.066667
0.203554 0.050612 0.070588
0.207843 0.051532 0.071140
0.213603 0.054902 0.074510
0.218076 0.057292 0.076899
0.222916 0.058824 0.078431
0.229289 0.058824 0.078431
0.233211 0.056740 0.076348
0.235294 0.056740 0.078431
0.239216 0.054902 0.078431
0.247059 0.056740 0.084191
0.251960 0.055883 0.086275
0.256802 0.060723 0.090196
0.262745 0.062745 0.093015
0.270404 0.064583 0.094118
0.274510 0.067402 0.094853
0.278431 0.070588 0.098039
0.282353 0.070588 0.099877
0.289767 0.074081 0.101961
0.294118 0.074510 0.105882
0.299448 0.074510 0.107720
0.304289 0.076348 0.109804
0.309804 0.078431 0.109804
0.317647 0.078431 0.113725
0.321569 0.079595 0.113725
0.327574 0.082353 0.117647
0.334497 0.085356 0.117647
0.341176 0.086275 0.121569
0.000000 0.007843 0.007843
0.000919 0.007843 0.007843
0.003922 0.007843 0.007843
0.007843 0.007843 0.007843
0.011520 0.007843 0.007843
0.012439 0.007843 0.010601
0.017279 0.007843 0.009436
0.022120 0.010601 0.011765
0.026961 0.010601 0.014522
0.035723 0.010601 0.016115
0.044485 0.010601 0.022365
0.053738 0.010601 0.023529
0.058089 0.010601 0.027451
0.062929 0.007843 0.027635
0.067770 0.007843 0.031373
0.076532 0.007843 0.031373
0.085295 0.007843 0.031373
0.090135 0.011704 0.035294
0.100797 0.011765 0.038052
0.103738 0.011765 0.039216
0.112500 0.011765 0.043137
0.117647 0.015380 0.043137
0.125490 0.016299 0.043137
0.132169 0.021140 0.047059
0.135784 0.026287 0.047059
0.140625 0.027451 0.047059
0.141544 0.030209 0.047059
0.146385 0.031373 0.047059
0.151226 0.035294 0.047059
0.156066 0.035294 0.047059
0.160784 0.035417 0.047059
0.164706 0.039216 0.048101
0.170588 0.039216 0.050980
0.175429 0.042095 0.054902
0.181434 0.043137 0.058701
0.188235 0.043934 0.056864
0.189951 0.047059 0.062745
0.196078 0.049816 0.066667
0.203554 0.050980 0.070220
0.208395 0.051532 0.074510
0.213235 0.054902 0.074510
0.218076 0.058824 0.078431
0.222365 0.058824 0.078431
0.227757 0.065196 0.084804
0.232598 0.061581 0.081189
0.237439 0.058824 0.080576
0.242279 0.058824 0.082353
0.247059 0.058824 0.082414
0.249203 0.058824 0.089032
0.256802 0.060723 0.090196
0.262806 0.065564 0.094118
0.266667 0.066667 0.097855
0.274510 0.070588 0.098039
0.278431 0.070588 0.099694
0.282353 0.073346 0.101961
0.289767 0.074510 0.105453
0.294118 0.074510 0.108640
0.299448 0.075919 0.109804
0.304289 0.078431 0.109804
0.309804 0.078431 0.109804
0.317647 0.081189 0.113725
0.321569 0.082353 0.113725
0.327574 0.082353 0.117647
0.332414 0.086275 0.117647
0.337255 0.086275 0.121569
0.000000 0.011520 0.011520
0.000919 0.011520 0.011520
0.003922 0.011520 0.011520
0.007843 0.011520 0.011520
0.011520 0.011520 0.011520
0.012439 0.008517 0.011765
0.017279 0.011765 0.015441
0.022120 0.011765 0.015686
0.026961 0.015441 0.019363
0.035723 0.015441 0.023284
0.044485 0.015441 0.023529
0.053247 0.015441 0.025796
0.062500 0.015441 0.031128
0.070343 0.011765 0.031373
0.071691 0.011765 0.031373
0.076532 0.011520 0.031373
0.085294 0.011520 0.034314
0.089951 0.011765 0.035294
0.098897 0.011765 0.036152
0.103738 0.011765 0.039216
0.112500 0.015441 0.041912
0.117647 0.019363 0.043137
0.125490 0.020221 0.043137
0.130944 0.027206 0.043137
0.135784 0.031128 0.047059
0.140625 0.030821 0.047059
0.145098 0.035049 0.047059
0.146385 0.035294 0.047059
0.151226 0.038971 0.047059
0.156066 0.039216 0.047059
0.160784 0.039216 0.047059
0.164706 0.039216 0.047059
0.168627 0.042892 0.050980
0.171752 0.043137 0.050183
0.180269 0.046936 0.054902
0.185110 0.047059 0.058824
0.189951 0.050735 0.062745
0.196078 0.050980 0.065380
0.203554 0.054657 0.070220
0.208395 0.054902 0.074510
0.213235 0.056373 0.075980
0.218076 0.058824 0.078431
0.223529 0.062500 0.082108
0.227757 0.062745 0.082353
0.232598 0.066422 0.086030
0.237439 0.062745 0.086030
0.242279 0.062745 0.086275
0.247059 0.062500 0.086275
0.250980 0.059804 0.087255
0.256802 0.062745 0.090196
0.261642 0.066667 0.094118
0.266667 0.070404 0.097794
0.274510 0.074265 0.098774
0.278431 0.074510 0.101961
0.282353 0.074510 0.105637
0.289767 0.074510 0.105882
0.294118 0.075000 0.106372
0.299448 0.078431 0.109804
0.304289 0.078431 0.109804
0.309804 0.078431 0.109804
0.317647 0.078676 0.113725
0.321569 0.082353 0.113725
0.327574 0.084437 0.117647
0.332414 0.086275 0.117647
0.337255 0.089951 0.121569
0.000000 0.016360 0.012439
0.000000 0.016360 0.012439
0.003922 0.016360 0.012439
0.006679 0.016360 0.012439
0.007843 0.016360 0.012439
0.012439 0.012439 0.012439
0.017279 0.015686 0.015686
0.022120 0.015686 0.016360
0.026961 0.019118 0.019608
0.031802 0.020282 0.020037
0.040564 0.020282 0.023529
0.049326 0.020282 0.027451
0.058089 0.020282 0.030638
0.066851 0.016360 0.031373
0.071691 0.016360 0.031373
0.078431 0.014338 0.032047
0.085294 0.015686 0.035294
0.090196 0.016360 0.035294
0.098897 0.020466 0.035294
0.105882 0.020282 0.039216
0.112500 0.020282 0.039216
0.117341 0.020282 0.043137
0.122182 0.028125 0.043137
0.129412 0.032905 0.043137
0.135784 0.032047 0.047059
0.140625 0.038664 0.047059
0.145098 0.035662 0.047059
0.149020 0.040503 0.047059
0.151226 0.039890 0.047059
0.156066 0.039890 0.047059
0.160784 0.043137 0.047059
0.164706 0.043137 0.047059
0.168627 0.043811 0.050980
0.172549 0.047059 0.053860
0.180269 0.050857 0.058701
0.185110 0.050980 0.059620
0.189951 0.052696 0.062745
0.194791 0.051654 0.063419
0.202880 0.054902 0.070220
0.207843 0.055454 0.071140
0.211765 0.058824 0.075980
0.218076 0.059498 0.078431
0.223529 0.062745 0.082353
0.227757 0.066667 0.083027
0.235294 0.066667 0.086275
0.239216 0.066667 0.088419
0.242279 0.066667 0.086949
0.247059 0.067280 0.090196
0.250980 0.063419 0.090196
0.256802 0.063419 0.090196
0.261642 0.066667 0.096263
0.266667 0.070588 0.097855
0.274510 0.074510 0.098774
0.278431 0.076164 0.101961
0.282353 0.075184 0.104534
0.289767 0.078431 0.105882
0.294118 0.078431 0.109804
0.299448 0.079840 0.109804
0.305882 0.079105 0.112132
0.313052 0.082353 0.113725
0.318321 0.082353 0.113725
0.321569 0.083027 0.117647
0.327574 0.086275 0.117647
0.332414 0.086949 0.118321
0.337255 0.090196 0.121569
0.000000 0.021201 0.017279
0.000000 0.021201 0.017279
0.001838 0.021201 0.017279
0.003922 0.021201 0.017279
0.007843 0.021201 0.017279
0.012439 0.019608 0.017279
0.017279 0.017279 0.017279
0.022120 0.019608 0.019608
0.026961 0.019608 0.023039
0.031802 0.023529 0.023529
0.040564 0.025122 0.023529
0.049326 0.025122 0.027451
0.058089 0.025122 0.030638
0.065258 0.023529 0.031373
0.071691 0.021201 0.032476
0.078431 0.021201 0.035294
0.085294 0.019608 0.035294
0.090196 0.021201 0.035294
0.098897 0.025122 0.035294
0.105882 0.025122 0.039400
0.112500 0.030147 0.039216
0.117341 0.029044 0.042831
0.122182 0.032966 0.043137
0.127022 0.036887 0.043137
0.133333 0.039216 0.047059
0.137255 0.040809 0.047059
0.145098 0.039584 0.047059
0.149020 0.043137 0.047059
0.151226 0.044730 0.047059
0.156066 0.044730 0.047059
0.160784 0.043260 0.047059
0.164706 0.047059 0.047059
0.168627 0.047059 0.050980
0.172549 0.048652 0.053860
0.180269 0.050980 0.058824
0.185110 0.051777 0.062745
0.189951 0.054902 0.064338
0.194791 0.057537 0.066667
0.199632 0.056495 0.070220
0.204473 0.058824 0.071140
0.211765 0.060294 0.075980
0.218076 0.062745 0.078431
0.225244 0.064338 0.082353
0.227757 0.066667 0.082659
0.235294 0.068260 0.086275
0.239216 0.068260 0.087868
0.242279 0.068260 0.090196
0.247059 0.066667 0.091789
0.250980 0.066667 0.091789
0.256802 0.068566 0.091789
0.261642 0.068260 0.091789
0.266667 0.070588 0.094118
0.274510 0.074510 0.098039
0.278431 0.076103 0.101961
0.282353 0.078431 0.104534
0.289767 0.078431 0.105882
0.294118 0.078921 0.109804
0.299448 0.082353 0.109804
0.308211 0.082353 0.113725
0.313052 0.082353 0.113725
0.317892 0.082598 0.115318
0.322733 0.086275 0.117647
0.327574 0.087868 0.119240
0.332414 0.090196 0.121569
0.337255 0.091789 0.125490
0.000000 0.027451 0.022120
0.000000 0.027451 0.022120
0.001838 0.027451 0.022120
0.003922 0.027451 0.022120
0.009007 0.027451 0.022120
0.009927 0.026042 0.022120
0.017279 0.024448 0.022120
0.022120 0.022120 0.022120
0.026961 0.022120 0.023529
0.031802 0.023958 0.023529
0.040564 0.029964 0.026042
0.045404 0.031373 0.027451
0.054167 0.031373 0.030638
0.062929 0.029964 0.031373
0.071691 0.028860 0.032476
0.078431 0.026042 0.035294
0.085295 0.026042 0.035294
0.090196 0.026042 0.035294
0.098897 0.028309 0.035294
0.105882 0.033885 0.034559
0.112500 0.033885 0.039216
0.117341 0.038910 0.039216
0.122182 0.035907 0.043137
0.127022 0.041728 0.043137
0.133333 0.045650 0.047059
0.137255 0.045650 0.047059
0.141544 0.043505 0.047059
0.149020 0.047059 0.047059
0.151226 0.049571 0.047059
0.156066 0.049571 0.047059
0.160784 0.049571 0.047059
0.164706 0.049571 0.047059
0.168627 0.050980 0.050980
0.172549 0.053860 0.053860
0.180269 0.053493 0.058824
0.185110 0.057415 0.065258
0.189951 0.058824 0.066667
0.194791 0.058824 0.069301
0.199632 0.058824 0.070588
0.203922 0.059375 0.071140
0.209314 0.062745 0.075980
0.215686 0.065135 0.078431
0.222916 0.066667 0.082353
0.227757 0.066973 0.086275
0.235294 0.070588 0.088787
0.239216 0.070588 0.090196
0.242279 0.070588 0.090196
0.247059 0.070588 0.094118
0.250980 0.070588 0.094118
0.256802 0.070588 0.094118
0.261642 0.070588 0.094118
0.266667 0.073101 0.094118
0.274510 0.077022 0.098039
0.278431 0.078431 0.101961
0.282353 0.078431 0.101961
0.289767 0.082353 0.105882
0.294118 0.082353 0.109804
0.299448 0.082353 0.109804
0.308211 0.084866 0.113725
0.313052 0.086275 0.113725
0.317892 0.086275 0.113970
0.322733 0.087439 0.117647
0.327574 0.090196 0.121569
0.332414 0.093199 0.124571
0.337255 0.094118 0.125490
0.000000 0.034804 0.026961
0.000000 0.034804 0.026961
0.001838 0.034804 0.026961
0.003922 0.034804 0.026961
0.007598 0.034804 0.026961
0.011765 0.034131 0.026961
0.015686 0.030883 0.026961
0.018689 0.028370 0.026961
0.026961 0.026961 0.026961
0.031802 0.030883 0.027451
0.040564 0.031373 0.027451
0.045404 0.033640 0.027451
0.054167 0.038726 0.030638
0.059497 0.034804 0.031373
0.070588 0.034804 0.032476
0.076532 0.032782 0.035294
0.085295 0.030883 0.038726
0.090196 0.030883 0.038726
0.098897 0.032231 0.038726
0.105882 0.037071 0.038726
0.112500 0.042647 0.039216
0.117341 0.042647 0.039216
0.122182 0.046569 0.043137
0.127022 0.044669 0.043137
0.131863 0.050490 0.047059
0.137255 0.050490 0.047059
0.141544 0.050980 0.047059
0.146385 0.050980 0.047059
0.151226 0.054412 0.047059
0.156066 0.054412 0.047059
0.160784 0.054412 0.047059
0.164706 0.054412 0.047059
0.168627 0.054412 0.050980
0.172549 0.054902 0.053860
0.180269 0.058701 0.058824
0.185110 0.058824 0.063542
0.189951 0.062255 0.070098
0.194791 0.061458 0.070588
0.199632 0.062745 0.074142
0.203922 0.062745 0.074510
0.207843 0.064216 0.075980
0.214154 0.066667 0.078431
0.219485 0.070098 0.082353
0.227757 0.070588 0.086275
0.235294 0.074020 0.087500
0.239216 0.074020 0.090196
0.242279 0.074020 0.093260
0.247059 0.074020 0.094118
0.250980 0.074020 0.097549
0.256802 0.072488 0.097549
0.261642 0.074510 0.097549
0.266667 0.074510 0.097549
0.274510 0.075245 0.098039
0.278431 0.078431 0.099694
0.282353 0.081005 0.101961
0.289767 0.082353 0.105882
0.294118 0.085785 0.109804
0.299448 0.086275 0.109804
0.308211 0.086275 0.113725
0.313052 0.086275 0.113725
0.321569 0.086520 0.117647
0.325490 0.090196 0.118811
0.329412 0.093628 0.121569
0.332414 0.094118 0.125490
0.337255 0.097549 0.128922
0.000000 0.039645 0.027880
0.000000 0.039645 0.027880
0.000000 0.039645 0.027880
0.000000 0.039645 0.027880
0.003922 0.039645 0.027880
0.008517 0.039645 0.032047
0.016850 0.039645 0.031802
0.019608 0.037133 0.031802
0.023529 0.035723 0.031802
0.031802 0.035723 0.027451
0.040564 0.040564 0.027451
0.045404 0.039645 0.027880
0.054167 0.043566 0.031373
0.062745 0.043566 0.035294
0.067770 0.043566 0.035723
0.076532 0.041544 0.039216
0.085295 0.039645 0.042157
0.090135 0.039645 0.039645
0.098039 0.039645 0.039645
0.103738 0.043566 0.039645
0.109804 0.049755 0.039645
0.117341 0.047488 0.039645
0.121569 0.051593 0.043137
0.125490 0.051409 0.043566
0.131863 0.054902 0.047059
0.136703 0.058272 0.050429
0.141176 0.055331 0.047488
0.145098 0.055331 0.047488
0.151226 0.058824 0.047488
0.156066 0.061949 0.050980
0.160784 0.059253 0.051409
0.164706 0.059253 0.051409
0.168627 0.059253 0.051409
0.172549 0.059253 0.057782
0.180269 0.059253 0.058824
0.185110 0.063542 0.063174
0.189951 0.063174 0.070588
0.198713 0.066667 0.073223
0.203554 0.066667 0.074510
0.204351 0.066667 0.078431
0.208272 0.067096 0.078431
0.211765 0.067096 0.080821
0.218995 0.070588 0.082353
0.223835 0.074510 0.086275
0.231373 0.074510 0.087500
0.237439 0.076654 0.090196
0.242279 0.074939 0.093260
0.247059 0.074939 0.094118
0.250980 0.074939 0.098039
0.254902 0.074939 0.098039
0.261642 0.078431 0.098039
0.266483 0.078431 0.098039
0.271323 0.078860 0.098774
0.280086 0.082353 0.101961
0.284927 0.084927 0.102390
0.289767 0.086275 0.109375
0.294608 0.086704 0.109804
0.299448 0.086704 0.109804
0.307781 0.086704 0.113725
0.313052 0.090196 0.113725
0.321569 0.090196 0.117647
0.325490 0.090625 0.118811
0.329412 0.094118 0.121569
0.332414 0.094547 0.125490
0.337255 0.098039 0.129412
0.000000 0.048407 0.031373
0.000000 0.048407 0.031373
0.000000 0.048407 0.031373
0.000000 0.048407 0.031373
0.000000 0.048407 0.031373
0.007169 0.048407 0.035294
0.013358 0.048407 0.036642
0.018199 0.048407 0.036642
0.025612 0.042402 0.036642
0.031802 0.044485 0.032721
0.040564 0.044485 0.028799
0.045404 0.048407 0.031373
0.054167 0.054167 0.031373
0.062745 0.052328 0.036642
0.067770 0.052328 0.039216
0.076532 0.052328 0.040564
0.085294 0.048407 0.043137
0.090135 0.048407 0.043137
0.094976 0.048407 0.043137
0.103738 0.048407 0.043137
0.109804 0.052328 0.043137
0.113725 0.054902 0.046753
0.121569 0.056250 0.043750
0.125490 0.056250 0.047059
0.129412 0.058824 0.048407
0.133333 0.060172 0.050980
0.141176 0.060172 0.050980
0.145098 0.062745 0.050980
0.149020 0.064951 0.050980
0.152941 0.064093 0.052328
0.160784 0.064093 0.054902
0.164706 0.064093 0.056250
0.168627 0.064093 0.056250
0.172549 0.064093 0.058824
0.180269 0.064093 0.060172
0.185110 0.068015 0.066667
0.189951 0.068015 0.070588
0.198713 0.068015 0.074510
0.203554 0.068015 0.078063
0.209191 0.070588 0.078431
0.213235 0.070588 0.079779
0.213113 0.072978 0.082353
0.215686 0.071936 0.082353
0.223835 0.074510 0.086275
0.231373 0.075735 0.087500
0.235294 0.078431 0.090196
0.242279 0.078431 0.093260
0.247059 0.078431 0.094118
0.250980 0.078431 0.098039
0.254902 0.080331 0.098039
0.258824 0.079779 0.100858
0.266483 0.082353 0.101961
0.271323 0.082353 0.101961
0.278431 0.083701 0.103615
0.284927 0.086275 0.105882
0.287623 0.087623 0.107230
0.294608 0.090196 0.113725
0.299448 0.090196 0.113725
0.303309 0.090196 0.113725
0.313052 0.090196 0.113725
0.317892 0.090441 0.117647
0.322733 0.094118 0.118811
0.330147 0.095466 0.121569
0.332414 0.098039 0.125490
0.337255 0.101961 0.129412
0.000000 0.057169 0.035294
0.000000 0.057169 0.035294
0.000000 0.054902 0.035294
0.000000 0.053247 0.035294
0.000000 0.053247 0.035294
0.007843 0.057169 0.035968
0.011091 0.057169 0.041483
0.018199 0.057169 0.043137
0.023039 0.057169 0.043137
0.031802 0.055515 0.041054
0.039216 0.055515 0.036213
0.045404 0.055515 0.031373
0.054167 0.057169 0.031373
0.062745 0.061091 0.035478
0.067770 0.061091 0.040319
0.076532 0.061091 0.045404
0.085295 0.061091 0.045404
0.090135 0.057169 0.047059
0.094976 0.057169 0.047059
0.103738 0.057169 0.047059
0.108578 0.057169 0.047059
0.113725 0.061091 0.047059
0.118260 0.061091 0.049326
0.125490 0.060356 0.048591
0.129412 0.065196 0.050980
0.133333 0.065012 0.050980
0.137623 0.066667 0.051348
0.145098 0.066667 0.054902
0.149020 0.068934 0.054902
0.152941 0.068934 0.058027
0.160784 0.070588 0.058824
0.164706 0.070588 0.061091
0.168627 0.070588 0.061091
0.172549 0.070588 0.062745
0.180269 0.070588 0.065012
0.185110 0.070588 0.068934
0.189951 0.072855 0.072855
0.198713 0.072855 0.074510
0.203554 0.072855 0.076777
0.211765 0.072855 0.078983
0.215686 0.074510 0.082353
0.218076 0.074510 0.082353
0.219608 0.074510 0.084620
0.219914 0.074816 0.086275
0.228677 0.078431 0.087500
0.233517 0.078431 0.090196
0.239216 0.080698 0.093260
0.247059 0.082353 0.094118
0.250980 0.082353 0.098039
0.254902 0.082353 0.098039
0.258824 0.082353 0.100858
0.266483 0.084620 0.101961
0.271323 0.086275 0.101961
0.276164 0.088542 0.105882
0.284927 0.088542 0.108456
0.290196 0.090196 0.113296
0.294608 0.094118 0.113725
0.301961 0.094118 0.113725
0.305882 0.094118 0.113725
0.309804 0.094118 0.113725
0.317892 0.094118 0.117647
0.322733 0.095282 0.118811
0.327574 0.098039 0.121569
0.332414 0.100306 0.125490
0.337255 0.101961 0.129412
0.000000 0.065932 0.038481
0.000000 0.062745 0.038481
0.000000 0.062010 0.038481
0.000000 0.062010 0.038481
0.000000 0.062010 0.038481
0.004596 0.062010 0.042402
0.009436 0.060417 0.043137
0.015686 0.065932 0.045650
0.023039 0.065932 0.050490
0.031373 0.065932 0.043137
0.036642 0.065932 0.039216
0.045404 0.065932 0.035294
0.054167 0.065932 0.034559
0.062745 0.065932 0.035478
0.067770 0.063848 0.040319
0.076532 0.066667 0.045159
0.085294 0.069853 0.050245
0.090135 0.065993 0.050245
0.094976 0.065932 0.050245
0.100552 0.065932 0.050245
0.108578 0.065932 0.050245
0.113419 0.065932 0.050245
0.118260 0.066667 0.050980
0.123101 0.069853 0.054167
0.127941 0.069853 0.054167
0.133517 0.069853 0.054902
0.137623 0.070588 0.054902
0.142463 0.070588 0.054902
0.147304 0.073775 0.058089
0.152941 0.073775 0.058824
0.156986 0.074510 0.058947
0.161826 0.077696 0.062745
0.168627 0.077696 0.065932
0.172549 0.077696 0.066667
0.180269 0.077696 0.070465
0.185110 0.077696 0.070588
0.189951 0.077696 0.072304
0.198713 0.077696 0.074510
0.203554 0.077696 0.078431
0.212316 0.077696 0.082353
0.217157 0.077696 0.085540
0.219608 0.076899 0.086275
0.222794 0.078431 0.086275
0.223529 0.081618 0.086275
0.227451 0.081618 0.087500
0.233517 0.082353 0.090196
0.238358 0.082353 0.093260
0.243198 0.085540 0.094118
0.250980 0.085540 0.098039
0.254902 0.084253 0.098039
0.258824 0.086275 0.100858
0.266483 0.086275 0.101961
0.270588 0.089461 0.102696
0.276164 0.090196 0.109069
0.284927 0.093383 0.109804
0.289767 0.094118 0.112990
0.298039 0.097304 0.116912
0.301961 0.097304 0.116912
0.309069 0.097304 0.116912
0.313052 0.097304 0.116912
0.317647 0.094363 0.117647
0.319547 0.098039 0.118811
0.327574 0.100123 0.121569
0.332414 0.101961 0.125490
0.337255 0.105147 0.129412
0.000000 0.070772 0.039400
0.000000 0.070772 0.039400
0.000000 0.070772 0.039400
0.000000 0.070772 0.039400
0.000000 0.067095 0.039400
0.004596 0.066851 0.043137
0.008027 0.070588 0.044730
0.018199 0.073101 0.047059
0.023039 0.070772 0.050980
0.031802 0.070588 0.050980
0.040564 0.070588 0.045895
0.049326 0.070588 0.041053
0.051164 0.070588 0.036214
0.059008 0.070772 0.039400
0.067770 0.070772 0.043321
0.076532 0.074510 0.049081
0.082353 0.074510 0.053921
0.090135 0.074510 0.051164
0.094118 0.074510 0.054902
0.099816 0.070772 0.054902
0.108394 0.070772 0.054902
0.109804 0.070772 0.058518
0.118076 0.074510 0.055086
0.122917 0.076042 0.058824
0.125490 0.074694 0.058824
0.132782 0.071324 0.058824
0.137623 0.074694 0.059008
0.142463 0.074694 0.059008
0.147304 0.078431 0.062745
0.152145 0.081556 0.062745
0.156986 0.078615 0.062868
0.161826 0.082353 0.066667
0.166666 0.082353 0.066851
0.172549 0.082353 0.066851
0.176471 0.082353 0.070588
0.184314 0.082353 0.074510
0.189951 0.082353 0.074510
0.194791 0.084988 0.074694
0.203370 0.082537 0.078431
