Color/CreativePack-1/Moonlight 65x.cube
TITLE "Moonlight"
LUT_3D_SIZE 5
DOMAIN_MIN 0.000000 0.000000 0.000000
DOMAIN_MAX 1.000000 1.000000 1.000000
0.000000 0.000000 0.000000
0.081372 0.003922 0.030392
0.174510 0.035294 0.056863
0.254902 0.054902 0.083333
0.345098 0.086275 0.121569
0.000000 0.093137 0.050000
0.081372 0.089216 0.061765
0.166666 0.097059 0.077451
0.250980 0.100981 0.099020
0.337255 0.116667 0.140196
0.005882 0.174510 0.123529
0.081372 0.174510 0.119608
0.162745 0.174510 0.127451
0.250980 0.182353 0.150000
0.341176 0.194117 0.176471
0.027451 0.270588 0.192157
0.089216 0.275490 0.200000
0.169608 0.275490 0.208823
0.270588 0.283334 0.220588
0.364706 0.305882 0.247059
0.086275 0.400000 0.298039
0.124510 0.403922 0.301961
0.207843 0.407843 0.305882
0.305882 0.419608 0.333333
0.415686 0.443137 0.352941
0.000000 0.000000 0.116667
0.065687 0.006863 0.136274
0.154902 0.042157 0.151961
0.243137 0.062745 0.171569
0.333333 0.089216 0.199020
0.000000 0.089216 0.144118
0.050000 0.089216 0.155883
0.148039 0.097059 0.167647
0.243137 0.100981 0.171569
0.329412 0.120589 0.199020
0.000000 0.174510 0.179412
0.026471 0.174510 0.179412
0.148039 0.174510 0.195098
0.243137 0.190196 0.210784
0.341176 0.195098 0.230393
0.000000 0.277451 0.242157
0.031373 0.274510 0.246079
0.162745 0.281373 0.257844
0.258824 0.286275 0.265686
0.364706 0.303921 0.285295
0.024510 0.403922 0.329412
0.101961 0.411765 0.340196
0.184314 0.407843 0.345098
0.290196 0.419608 0.364706
0.411765 0.443137 0.392157
0.000000 0.009804 0.233333
0.008823 0.018627 0.247059
0.123529 0.050980 0.256863
0.222549 0.071569 0.272549
0.313726 0.101961 0.300000
0.000000 0.093137 0.253922
0.000000 0.097059 0.264706
0.116667 0.097059 0.265686
0.214706 0.112745 0.280392
0.313726 0.124510 0.304902
0.000000 0.178431 0.276470
0.000000 0.178431 0.276470
0.107843 0.178431 0.288235
0.207843 0.186275 0.311765
0.325490 0.201961 0.327451
0.000000 0.278431 0.324510
0.000000 0.278431 0.329412
0.103921 0.282353 0.339216
0.234314 0.287255 0.351961
0.345098 0.309804 0.379412
0.000000 0.403922 0.411765
0.000000 0.407843 0.415686
0.143137 0.415686 0.415686
0.277451 0.431373 0.444117
0.392157 0.443137 0.462745
0.000000 0.040196 0.364706
0.000000 0.050980 0.356863
0.052941 0.067647 0.369607
0.192157 0.083333 0.377451
0.290196 0.101961 0.400981
0.000000 0.100981 0.364706
0.000000 0.100981 0.365686
0.018627 0.104902 0.369607
0.180392 0.120589 0.391177
0.294118 0.136274 0.412745
0.000000 0.180392 0.385294
0.000000 0.178431 0.393137
0.000000 0.182353 0.400981
0.181372 0.190196 0.412745
0.294118 0.205882 0.424509
0.000000 0.278431 0.420588
0.000000 0.285295 0.435294
0.000981 0.289216 0.444117
0.189216 0.295098 0.455882
0.309804 0.310785 0.487255
0.000000 0.411765 0.510785
0.000000 0.415686 0.517647
0.057843 0.411765 0.518628
0.231373 0.435294 0.538235
0.356863 0.450980 0.564706
0.000000 0.066667 0.470588
0.000000 0.074510 0.470588
0.000000 0.084314 0.482353
0.115686 0.098039 0.494118
0.254902 0.121569 0.509804
0.000000 0.108823 0.478431
0.000000 0.116667 0.478431
0.000000 0.120589 0.482353
0.100980 0.128432 0.501961
0.258824 0.144118 0.513726
0.000000 0.188235 0.498039
0.000000 0.190196 0.501961
0.000000 0.190196 0.509804
0.092157 0.200981 0.517647
0.262745 0.217647 0.541176
0.000000 0.286275 0.541176
0.000000 0.290196 0.545098
0.000000 0.290196 0.552941
0.073529 0.305882 0.568627
0.270588 0.321569 0.592157
0.000000 0.415686 0.611765
0.000000 0.415686 0.615686
0.000000 0.427451 0.623529
0.150000 0.439216 0.643137
0.329412 0.458824 0.678431
