Color/CreativePack-1/NightFromDay 65x.cube
TITLE "NightFromDay"
LUT_3D_SIZE 65
DOMAIN_MIN 0.000000 0.000000 0.000000
DOMAIN_MAX 1.000000 1.000000 1.000000
0.000000 0.000000 0.000000
0.000919 0.000000 0.000000
0.003922 0.000000 0.000000
0.007843 0.000000 0.000000
0.011520 0.000000 0.000000
0.016360 0.000000 0.000674
0.023529 0.000000 0.003922
0.029964 0.000000 0.007843
0.038726 0.000000 0.011275
0.043566 0.000000 0.011765
0.052328 0.000000 0.011765
0.057169 0.000000 0.011765
0.065932 0.000000 0.014951
0.070772 0.000000 0.019608
0.079534 0.000000 0.020711
0.084375 0.000000 0.025551
0.093137 0.000000 0.030392
0.101900 0.000000 0.031373
0.110662 0.000858 0.031373
0.119424 0.003922 0.031373
0.128186 0.006618 0.034069
0.133027 0.007843 0.031373
0.137868 0.007843 0.031373
0.142708 0.007843 0.031373
0.147549 0.010294 0.028922
0.152390 0.011765 0.027451
0.157231 0.015686 0.027451
0.162071 0.019608 0.027451
0.166912 0.021814 0.027451
0.171752 0.023529 0.027451
0.176594 0.023529 0.027451
0.181434 0.023529 0.027451
0.186275 0.025490 0.029412
0.195036 0.027451 0.034252
0.199877 0.031250 0.039093
0.208640 0.031373 0.040012
0.213480 0.033088 0.044853
0.219608 0.035294 0.047059
0.227083 0.035294 0.047059
0.231924 0.035294 0.047059
0.236765 0.039216 0.050980
0.243137 0.039216 0.053370
0.247059 0.042524 0.058211
0.251286 0.043137 0.062745
0.258824 0.044363 0.063971
0.264890 0.047059 0.066667
0.269730 0.047059 0.066667
0.274571 0.047059 0.066667
0.282353 0.050980 0.070588
0.286275 0.050980 0.070588
0.290196 0.050980 0.070588
0.297855 0.050980 0.070588
0.301961 0.050980 0.074510
0.307537 0.050980 0.076164
0.316299 0.053554 0.081005
0.321140 0.054902 0.085846
0.329412 0.058824 0.090196
0.334742 0.060233 0.090196
0.339583 0.062745 0.092525
0.345098 0.066667 0.094118
0.352941 0.070343 0.098039
0.358027 0.066667 0.098039
0.364706 0.064583 0.098039
0.371630 0.062745 0.098039
0.376471 0.062745 0.098039
0.000000 0.000919 0.000000
0.000919 0.000919 0.000000
0.005760 0.000919 0.000000
0.007843 0.000919 0.000000
0.008762 0.000919 0.000000
0.015686 0.000919 0.000000
0.021201 0.000919 0.003922
0.027451 0.000919 0.006434
0.034804 0.000919 0.007843
0.043566 0.000919 0.011765
0.052328 0.000919 0.011765
0.058824 0.000919 0.012684
0.065932 0.000919 0.015686
0.074510 0.000919 0.019608
0.079534 0.000919 0.020711
0.088297 0.000919 0.025551
0.093137 0.000919 0.030392
0.101900 0.000919 0.027451
0.110662 0.003922 0.030454
0.119424 0.004841 0.031373
0.125490 0.007843 0.031373
0.133027 0.008762 0.031373
0.137255 0.011765 0.031373
0.141176 0.012684 0.031373
0.147549 0.012684 0.028922
0.152390 0.015686 0.027451
0.157231 0.016054 0.027083
0.162071 0.020895 0.023529
0.166912 0.023529 0.023529
0.172549 0.024448 0.023529
0.176594 0.027451 0.027451
0.184314 0.027451 0.027451
0.188235 0.029412 0.027451
0.192157 0.028370 0.031373
0.199877 0.031373 0.038173
0.207843 0.032169 0.039216
0.213480 0.035294 0.043137
0.221324 0.037929 0.048775
0.223529 0.036213 0.047059
0.231005 0.039216 0.047059
0.236765 0.039216 0.050980
0.244607 0.041605 0.050980
0.247059 0.043137 0.054902
0.251286 0.044056 0.059130
0.258824 0.047059 0.062745
0.264890 0.047059 0.066667
0.267586 0.047059 0.066667
0.274571 0.050980 0.070588
0.283334 0.050980 0.070588
0.288174 0.050980 0.070588
0.293015 0.050980 0.070588
0.297855 0.050980 0.071507
0.302880 0.050980 0.074510
0.307537 0.051899 0.076164
0.315381 0.054902 0.078431
0.321140 0.055821 0.082353
0.329412 0.058824 0.086275
0.333333 0.058824 0.090686
0.339583 0.062745 0.090196
0.347427 0.065993 0.090196
0.352941 0.066912 0.093444
0.356863 0.071752 0.098039
0.362868 0.070588 0.098039
0.368627 0.067586 0.098039
0.376471 0.066667 0.098039
0.000000 0.005760 0.001838
0.000919 0.003922 0.000000
0.005760 0.003922 0.000000
0.007843 0.003922 0.000000
0.011765 0.003922 0.000000
0.015686 0.005760 0.000000
0.019363 0.005760 0.001593
0.026042 0.005760 0.003922
0.034804 0.005760 0.007843
0.043566 0.003922 0.011765
0.052328 0.003922 0.013113
0.061091 0.003922 0.015686
0.065932 0.003922 0.015686
0.074694 0.005760 0.019608
0.079534 0.005760 0.020711
0.088297 0.005760 0.025551
0.092034 0.005760 0.030392
0.101900 0.005760 0.027451
0.106740 0.004780 0.027451
0.115502 0.007843 0.027451
0.124265 0.010539 0.029535
0.129412 0.011765 0.031373
0.137255 0.015686 0.031373
0.141176 0.017524 0.031373
0.145098 0.017524 0.028922
0.152390 0.017524 0.027451
0.157231 0.019608 0.023529
0.162071 0.023529 0.023529
0.166912 0.025735 0.023897
0.172549 0.027451 0.023529
0.180392 0.029289 0.027451
0.184314 0.031373 0.027451
0.190196 0.031373 0.027451
0.195036 0.031373 0.032415
0.199877 0.033211 0.031373
0.204718 0.035294 0.039216
0.213480 0.037010 0.040931
0.218321 0.039216 0.043137
0.223529 0.039216 0.047059
0.231373 0.041054 0.047059
0.236765 0.040686 0.050980
0.241605 0.043137 0.050980
0.247059 0.043137 0.054902
0.251286 0.043443 0.057292
0.258824 0.047059 0.062745
0.264890 0.047059 0.066667
0.270588 0.048897 0.069730
0.280269 0.050980 0.070588
0.283334 0.050980 0.070588
0.288174 0.050980 0.070588
0.293015 0.050980 0.072426
0.295956 0.050980 0.074510
0.302696 0.050980 0.074510
0.307537 0.054902 0.076164
0.311642 0.057476 0.078431
0.321140 0.058824 0.082353
0.325980 0.060662 0.086275
0.333333 0.060662 0.086275
0.339583 0.060662 0.090686
0.344424 0.062745 0.090196
0.349265 0.065074 0.094118
0.356863 0.070588 0.098039
0.362868 0.074510 0.100123
0.367708 0.072426 0.101961
0.372549 0.070588 0.101961
0.000000 0.010601 0.003922
0.000919 0.007843 0.000000
0.005760 0.007843 0.000000
0.010601 0.007843 0.000000
0.011765 0.007843 0.000000
0.016360 0.007843 0.000000
0.022365 0.007843 0.001593
0.023284 0.010601 0.003922
0.032047 0.010601 0.008517
0.040808 0.007843 0.011765
0.052328 0.007843 0.010356
0.061091 0.007843 0.015686
0.069853 0.007843 0.015686
0.074694 0.007843 0.019608
0.082353 0.007843 0.023529
0.088297 0.010601 0.025551
0.097059 0.010601 0.030392
0.101900 0.010601 0.027451
0.112561 0.010601 0.027451
0.115502 0.010601 0.027451
0.124265 0.011765 0.027451
0.129412 0.014522 0.027451
0.133946 0.016299 0.031373
0.141176 0.019608 0.031373
0.145098 0.022365 0.028922
0.149020 0.022365 0.027451
0.154474 0.023529 0.023529
0.162071 0.026287 0.019608
0.166912 0.027451 0.019608
0.172549 0.030576 0.023897
0.180392 0.031373 0.023529
0.185356 0.034130 0.027451
0.190196 0.033334 0.027451
0.195036 0.035294 0.030331
0.199877 0.035294 0.031373
0.204718 0.036091 0.033333
0.211765 0.039216 0.039216
0.218321 0.039216 0.043137
0.223161 0.041973 0.046691
0.228003 0.043137 0.047059
0.235294 0.043137 0.050980
0.241605 0.043137 0.050980
0.247611 0.045895 0.054902
0.251286 0.047059 0.058824
0.258824 0.047059 0.062745
0.264890 0.049203 0.064890
0.270588 0.050980 0.066667
0.278492 0.050980 0.070588
0.283334 0.050980 0.070588
0.288174 0.050980 0.072488
0.294118 0.050980 0.074510
0.298039 0.050980 0.074510
0.302696 0.051715 0.077267
0.307537 0.054902 0.078431
0.313726 0.058824 0.078431
0.317647 0.062316 0.082353
0.325980 0.062745 0.086275
0.330821 0.062745 0.086275
0.337255 0.062745 0.086275
0.344424 0.062745 0.090686
0.349265 0.066667 0.087683
0.354105 0.070588 0.092525
0.360110 0.074510 0.098039
0.367708 0.078676 0.101961
0.372549 0.074510 0.101961
0.000000 0.015441 0.007598
0.000919 0.011765 0.003922
0.005760 0.011765 0.000000
0.010601 0.011520 0.000000
0.015441 0.011520 0.000000
0.016360 0.008517 0.000000
0.021201 0.011765 0.001593
0.026042 0.011765 0.003922
0.030883 0.015441 0.007353
0.039645 0.011765 0.008272
0.046078 0.011765 0.011765
0.061091 0.011520 0.015686
0.069853 0.011520 0.019363
0.074694 0.008027 0.023284
0.083456 0.011765 0.023529
0.088297 0.011765 0.027451
0.097059 0.015441 0.026716
0.101716 0.015441 0.027451
0.110662 0.015441 0.027451
0.115502 0.015441 0.027451
0.124265 0.015441 0.027451
0.129106 0.015686 0.027451
0.133946 0.019608 0.027451
0.138787 0.021140 0.025306
0.143627 0.027206 0.028922
0.149020 0.027206 0.027451
0.156863 0.027451 0.023529
0.162071 0.027451 0.019608
0.166912 0.031128 0.019608
0.172549 0.031373 0.019608
0.180392 0.031496 0.023529
0.185356 0.035294 0.023529
0.190196 0.038971 0.027451
0.195036 0.038174 0.027451
0.200000 0.039216 0.031373
0.204718 0.039216 0.035294
0.209559 0.042892 0.039216
0.214644 0.043137 0.038174
0.223161 0.043137 0.043137
0.228003 0.043137 0.047059
0.235294 0.046814 0.050980
0.237929 0.047059 0.050980
0.246446 0.047059 0.054902
0.251286 0.047059 0.058824
0.258824 0.048284 0.062745
0.264890 0.050980 0.061213
0.270588 0.050980 0.066667
0.278492 0.050980 0.070588
0.286275 0.054657 0.071569
0.290196 0.054657 0.074510
0.294118 0.054657 0.074510
0.301777 0.054657 0.074510
0.305882 0.051715 0.075245
0.309804 0.058579 0.078431
0.317402 0.058824 0.081005
0.321140 0.062316 0.082353
0.322303 0.066422 0.086275
0.330821 0.066422 0.086275
0.337255 0.066422 0.086275
0.340747 0.066422 0.086275
0.345589 0.066667 0.090196
0.354105 0.070588 0.094118
0.360784 0.072672 0.098039
0.367708 0.077512 0.101042
0.372549 0.082108 0.105637
0.000000 0.020282 0.008517
0.000000 0.020282 0.008517
0.000000 0.019608 0.007843
0.003922 0.016360 0.004596
0.007843 0.016360 0.003922
0.019608 0.015686 0.004596
0.023529 0.015686 0.004596
0.024203 0.016360 0.007843
0.030883 0.016360 0.008517
0.039645 0.020282 0.007843
0.048407 0.019608 0.011765
0.057169 0.016360 0.014032
0.065932 0.016360 0.015686
0.078431 0.016360 0.019608
0.083456 0.020711 0.020711
0.092218 0.020282 0.023529
0.097059 0.020282 0.027451
0.101961 0.020282 0.027451
0.110662 0.020282 0.026777
0.117647 0.020282 0.023529
0.124265 0.020282 0.023529
0.129412 0.020282 0.023529
0.133946 0.024203 0.027451
0.137929 0.028983 0.027451
0.145098 0.028125 0.027451
0.149020 0.032047 0.027451
0.156863 0.031741 0.027083
0.162071 0.035294 0.023529
0.166912 0.035968 0.019608
0.171752 0.035968 0.020282
0.176594 0.035417 0.023529
0.184314 0.040258 0.024203
0.190196 0.039890 0.027451
0.196078 0.043137 0.028125
0.203799 0.043137 0.031373
0.207843 0.043811 0.035294
0.211765 0.043811 0.039216
0.215686 0.043811 0.041850
0.219608 0.047059 0.043137
0.227328 0.047059 0.047059
0.232843 0.047733 0.050980
0.240932 0.047733 0.054902
0.246446 0.050980 0.058211
0.251286 0.050980 0.059130
0.256128 0.051654 0.062745
0.262745 0.051654 0.063419
0.269730 0.054902 0.066667
0.278431 0.054902 0.071262
0.283334 0.055576 0.074510
0.291421 0.058824 0.074510
0.294118 0.058824 0.074510
0.301777 0.058824 0.075184
0.305882 0.058824 0.078431
0.309804 0.058824 0.079105
0.316299 0.059498 0.082353
0.321140 0.066238 0.083027
0.325980 0.067341 0.086949
0.333333 0.070588 0.090196
0.339583 0.070588 0.092525
0.344424 0.070588 0.090870
0.349265 0.070588 0.094547
0.353615 0.070588 0.090870
0.362868 0.072672 0.094118
0.367708 0.077512 0.098039
0.372549 0.082353 0.101961
0.000000 0.025122 0.011765
0.000000 0.025122 0.011765
0.000000 0.025122 0.011765
0.000000 0.025122 0.009436
0.003922 0.021445 0.005759
0.014767 0.021201 0.009436
0.023529 0.019608 0.009436
0.027451 0.022120 0.011765
0.031373 0.021201 0.013358
0.039645 0.023529 0.011765
0.048407 0.025122 0.009191
0.057169 0.025122 0.011765
0.065932 0.025122 0.015686
0.074694 0.025122 0.019608
0.083456 0.025122 0.019608
0.092218 0.025122 0.023958
0.095711 0.030392 0.023529
0.105821 0.029044 0.023529
0.110662 0.029044 0.023529
0.117647 0.029044 0.023529
0.124265 0.029044 0.021936
0.129412 0.029044 0.023529
0.137255 0.028064 0.027451
0.141176 0.032966 0.027451
0.145098 0.035294 0.027451
0.152390 0.036887 0.027451
0.156863 0.040809 0.027451
0.162071 0.040809 0.023529
0.166912 0.040809 0.023529
0.171752 0.040809 0.023529
0.176594 0.039339 0.023652
0.184314 0.043137 0.027451
0.190196 0.044730 0.029044
0.195036 0.047059 0.031373
0.203799 0.047059 0.035171
0.207843 0.048652 0.036091
0.213480 0.048652 0.039216
0.215686 0.048652 0.043137
0.219608 0.048652 0.046691
0.227451 0.050980 0.047610
0.232843 0.050980 0.050980
0.237684 0.053370 0.054902
0.243137 0.052573 0.058824
0.250980 0.054902 0.062745
0.256128 0.054902 0.063971
0.260968 0.057047 0.066667
0.266667 0.056495 0.068260
0.274571 0.058824 0.070649
0.282353 0.058824 0.074510
0.288174 0.060417 0.074510
0.294118 0.062745 0.076103
0.301777 0.062745 0.078431
0.305882 0.062745 0.078431
0.309804 0.062745 0.082353
0.316299 0.062745 0.084927
0.321140 0.064338 0.086275
0.325980 0.067157 0.086765
0.333333 0.072181 0.091789
0.339583 0.074510 0.094118
0.348346 0.074510 0.095711
0.354534 0.074510 0.095711
0.358456 0.074510 0.095711
0.362868 0.072181 0.094118
0.367708 0.077512 0.098039
0.372549 0.082353 0.101961
0.000000 0.031373 0.015686
0.000000 0.031373 0.015686
0.000000 0.031373 0.015686
0.000000 0.031373 0.015686
0.000000 0.029964 0.010601
0.009927 0.027451 0.014277
0.018689 0.026042 0.014277
0.027451 0.023529 0.015686
0.031373 0.026042 0.019118
0.039645 0.027451 0.015686
0.048407 0.029964 0.014277
0.057169 0.031618 0.011765
0.065932 0.029964 0.016360
0.074694 0.031373 0.013357
0.083456 0.033885 0.019608
0.092218 0.033885 0.019118
0.100981 0.033885 0.023529
0.105821 0.033885 0.023529
0.110662 0.037807 0.021017
0.117647 0.037807 0.019608
0.124265 0.037807 0.019608
0.129412 0.037807 0.019608
0.137255 0.037807 0.023529
0.143689 0.037807 0.027451
0.147549 0.041728 0.027451
0.152390 0.041728 0.027451
0.156863 0.045650 0.027451
0.162071 0.045650 0.028677
0.166912 0.047059 0.023529
0.171752 0.047059 0.026654
0.176594 0.047059 0.027451
0.181434 0.047059 0.028493
0.188235 0.049571 0.031373
0.195036 0.049571 0.034252
0.200000 0.050980 0.035294
0.208640 0.053493 0.036091
0.213480 0.053493 0.041728
0.218321 0.053493 0.043137
0.223161 0.053493 0.045650
0.224081 0.053493 0.047610
0.231373 0.054902 0.052451
0.237684 0.054902 0.057415
0.243933 0.054902 0.058824
0.250980 0.057415 0.065258
0.253615 0.058824 0.066667
0.260968 0.058824 0.068811
0.267219 0.058824 0.070588
0.274510 0.061336 0.074510
0.279411 0.062745 0.074510
0.285662 0.065258 0.076409
0.293015 0.065258 0.078431
0.301777 0.066667 0.078431
0.305882 0.069179 0.079166
0.309804 0.069179 0.082353
0.316299 0.069179 0.086275
0.321140 0.069179 0.089767
0.325980 0.070588 0.090196
0.333333 0.074510 0.094118
0.339583 0.076838 0.096446
0.348346 0.078431 0.098039
0.353186 0.078431 0.100552
0.358027 0.078431 0.098039
0.362868 0.078860 0.098039
0.368627 0.077022 0.098039
0.376471 0.082353 0.101961
0.000000 0.038726 0.019118
0.000000 0.038726 0.019118
0.000000 0.038726 0.019118
0.000000 0.038726 0.019118
0.000000 0.038726 0.019118
0.008517 0.034804 0.019118
0.017279 0.034804 0.017279
0.026042 0.030883 0.019608
0.034804 0.030883 0.023039
0.039645 0.031373 0.022611
0.048407 0.034804 0.015686
0.057169 0.035294 0.015686
0.065932 0.038726 0.014951
0.074694 0.038726 0.015686
0.083456 0.038726 0.019608
0.092218 0.039216 0.019608
0.100981 0.042647 0.022549
0.105821 0.042647 0.020098
0.110662 0.042647 0.019608
0.117647 0.043137 0.019608
0.124265 0.046569 0.019608
0.129596 0.046569 0.019608
0.137255 0.046569 0.023529
0.142708 0.046569 0.023529
0.147549 0.046569 0.027451
0.152390 0.046507 0.027451
0.157231 0.050490 0.027451
0.162071 0.048346 0.027451
0.166912 0.054412 0.028677
0.171752 0.054412 0.027451
0.176594 0.054412 0.027574
0.181434 0.054412 0.031373
0.186275 0.054412 0.034804
0.195036 0.054412 0.035294
0.200368 0.054902 0.039093
0.208640 0.054902 0.039216
0.213480 0.058334 0.040931
0.218321 0.058334 0.043137
0.223161 0.058334 0.047059
0.227451 0.058334 0.050980
0.231373 0.058334 0.052451
0.237684 0.057292 0.057292
0.242524 0.058824 0.062132
0.247365 0.058824 0.063051
0.254902 0.062255 0.067892
0.260968 0.060968 0.070588
0.265809 0.062745 0.074020
0.270649 0.062745 0.074510
0.275980 0.066177 0.075490
0.284253 0.066667 0.078431
0.293015 0.070098 0.078431
0.297855 0.070588 0.078431
0.305882 0.074020 0.079166
0.309804 0.074020 0.085785
0.316299 0.074020 0.086275
0.321140 0.074020 0.089706
0.325980 0.071078 0.090686
0.333333 0.077941 0.097549
0.339583 0.078431 0.098039
0.348346 0.081679 0.101287
0.356863 0.085785 0.105392
0.364216 0.082353 0.101961
0.368137 0.082353 0.101961
0.371630 0.081863 0.102390
0.376471 0.082353 0.101961
0.000000 0.047488 0.019608
0.000000 0.047488 0.020527
0.000000 0.047488 0.020037
0.000000 0.047488 0.020037
0.000000 0.047488 0.020037
0.004596 0.047488 0.019608
0.013358 0.043566 0.019608
0.022120 0.043566 0.020037
0.030883 0.036642 0.023529
0.043566 0.039645 0.023529
0.047488 0.043566 0.023529
0.057169 0.043566 0.017770
0.065932 0.047488 0.019608
0.070772 0.047488 0.016115
0.079534 0.047488 0.019608
0.088297 0.047488 0.019608
0.097059 0.047488 0.023529
0.105821 0.047488 0.023529
0.110662 0.047488 0.023529
0.118995 0.050980 0.023529
0.121569 0.051409 0.020037
0.129106 0.051409 0.020037
0.133946 0.051409 0.023529
0.138787 0.051409 0.023958
0.145098 0.051409 0.027451
0.152390 0.051409 0.027451
0.157231 0.051348 0.027451
0.162071 0.056189 0.027451
0.166912 0.055331 0.027451
0.171752 0.061949 0.031373
0.176471 0.059253 0.031496
0.180392 0.059253 0.036336
0.186275 0.059253 0.035723
0.192157 0.058824 0.035723
0.199877 0.058824 0.039216
0.208211 0.058824 0.039645
0.213480 0.059253 0.043137
0.219608 0.059253 0.047059
0.223529 0.062745 0.050612
0.228003 0.062745 0.051532
0.232843 0.062745 0.054902
0.237684 0.062745 0.057292
0.239645 0.062745 0.058824
0.247365 0.062745 0.063051
0.254902 0.063174 0.066667
0.260968 0.066667 0.070588
0.265809 0.066667 0.070588
0.270649 0.067096 0.074510
0.278431 0.067096 0.075490
0.284253 0.072488 0.080331
0.289093 0.071017 0.082353
0.297855 0.074510 0.082353
0.302696 0.074939 0.082782
0.309804 0.078431 0.082782
0.316299 0.078431 0.086275
0.321140 0.078431 0.090196
0.325980 0.078431 0.094118
0.330821 0.078431 0.095527
0.339583 0.078860 0.098039
0.348346 0.085601 0.101961
0.356863 0.086275 0.105882
0.361948 0.086704 0.105882
0.366789 0.084621 0.105882
0.369056 0.086275 0.105882
0.376471 0.086275 0.102390
0.000000 0.056250 0.019608
0.000000 0.056250 0.020527
0.000000 0.056250 0.023529
0.000000 0.056250 0.023529
0.000000 0.056250 0.023529
0.004596 0.056250 0.023529
0.013358 0.056250 0.020956
0.022120 0.051164 0.023529
0.030883 0.052328 0.023529
0.038726 0.052328 0.023529
0.052328 0.052328 0.024877
0.061091 0.052328 0.023529
0.065932 0.056250 0.023529
0.074510 0.056250 0.019608
0.079534 0.056250 0.019608
0.088297 0.056250 0.021630
0.097059 0.056250 0.023529
0.104474 0.056250 0.023529
0.110662 0.056250 0.024877
0.115502 0.056250 0.023100
0.121569 0.056250 0.023529
0.125490 0.056250 0.027145
0.133333 0.060172 0.024142
0.137255 0.060172 0.027451
0.143627 0.060172 0.028799
0.149020 0.058824 0.028799
0.157231 0.055270 0.028799
0.162071 0.060172 0.028799
0.166912 0.060172 0.028799
0.171752 0.062745 0.034498
0.176471 0.064093 0.035417
0.180392 0.064093 0.040564
0.186275 0.064093 0.040564
0.191115 0.061213 0.040564
0.199877 0.062745 0.040564
0.204718 0.062745 0.043137
0.213480 0.062745 0.044485
0.218321 0.065380 0.049693
0.227083 0.064093 0.050980
0.231373 0.064093 0.054902
0.232721 0.064093 0.056250
0.239216 0.064093 0.058824
0.243137 0.064093 0.058824
0.250980 0.066667 0.061703
0.256128 0.066667 0.066667
0.260968 0.068015 0.068811
0.265809 0.070588 0.070588
0.270649 0.071936 0.074510
0.278431 0.071569 0.074142
0.284253 0.074510 0.080331
0.289093 0.075858 0.085172
0.297855 0.078431 0.086275
0.302696 0.079166 0.086275
0.310110 0.082353 0.086275
0.313726 0.082353 0.086275
0.321140 0.082353 0.090196
0.325980 0.082353 0.094118
0.330821 0.082353 0.095527
0.339583 0.082353 0.098039
0.345098 0.083701 0.101961
0.353186 0.086520 0.105882
0.361948 0.090196 0.105882
0.366789 0.090196 0.107966
0.372549 0.090196 0.107230
0.376471 0.087623 0.105882
0.000000 0.065012 0.019608
0.000000 0.065012 0.023529
0.000000 0.065012 0.023529
0.000000 0.065012 0.027451
0.000000 0.065012 0.027451
0.004596 0.065012 0.025796
0.013358 0.065012 0.023529
0.022120 0.065012 0.023529
0.030883 0.059926 0.023529
0.039645 0.061091 0.023958
0.047488 0.061091 0.027451
0.061091 0.061091 0.027451
0.066667 0.065012 0.025796
0.076777 0.065012 0.023529
0.079534 0.065012 0.023529
0.084375 0.065012 0.023529
0.093137 0.065012 0.023529
0.101900 0.065012 0.027390
0.109804 0.064154 0.027451
0.115502 0.061091 0.027451
0.120343 0.062745 0.027451
0.125490 0.065012 0.027451
0.130025 0.065012 0.029718
0.137255 0.065012 0.028983
0.141176 0.065012 0.031373
0.148468 0.065012 0.031373
0.154964 0.065012 0.031373
0.162071 0.062745 0.031373
0.166912 0.065012 0.031373
0.171752 0.066667 0.035294
0.176471 0.066790 0.041483
0.180392 0.070588 0.043137
0.184314 0.070588 0.045404
0.191115 0.068934 0.045404
0.196078 0.065135 0.045404
0.204718 0.065012 0.043934
0.211765 0.066667 0.047059
0.218321 0.066667 0.049326
0.227083 0.066667 0.054534
0.233640 0.068934 0.057169
0.237561 0.068934 0.058824
0.241605 0.068934 0.058824
0.246446 0.068934 0.061091
0.251286 0.068934 0.062745
0.256128 0.070588 0.066667
0.260968 0.072855 0.066667
0.266667 0.072855 0.070588
0.270649 0.076777 0.070649
0.278431 0.076777 0.074510
0.284253 0.078431 0.078431
0.289093 0.080698 0.082353
0.294118 0.082353 0.090012
0.302696 0.084620 0.090196
0.307537 0.086275 0.090196
0.313726 0.086275 0.090196
0.321140 0.089767 0.090196
0.325980 0.088542 0.094118
0.330821 0.088542 0.095527
0.339583 0.088542 0.098039
0.344424 0.088542 0.101961
0.353186 0.090196 0.105882
0.360784 0.092463 0.105882
0.366789 0.092280 0.107966
0.375552 0.094118 0.109804
0.380392 0.092463 0.109804
0.000000 0.073775 0.022794
0.000000 0.073775 0.023529
0.000000 0.073775 0.025367
0.000000 0.073775 0.027451
0.000000 0.073775 0.031128
0.004596 0.073775 0.027451
0.013358 0.073775 0.027451
0.022120 0.073775 0.028125
0.030883 0.073775 0.026716
0.039645 0.073775 0.027451
0.048407 0.073775 0.027451
0.061091 0.073775 0.027451
0.069853 0.073775 0.030638
0.074694 0.073775 0.027451
0.079534 0.073775 0.027451
0.086275 0.073775 0.026716
0.093137 0.073775 0.026716
0.098039 0.069914 0.027451
0.106740 0.069853 0.027451
0.113725 0.069853 0.027451
0.120343 0.069853 0.030638
0.125184 0.069853 0.030638
0.130025 0.070588 0.031373
0.134865 0.073775 0.031373
0.139706 0.073775 0.034559
0.145098 0.070404 0.034559
0.153309 0.069853 0.034559
0.158884 0.069853 0.034559
0.166912 0.069853 0.033579
0.171752 0.070588 0.038481
0.176471 0.073775 0.039339
0.180392 0.074510 0.044179
0.182353 0.077696 0.050245
0.191115 0.074816 0.050245
0.196691 0.073775 0.050245
0.204718 0.072977 0.050245
0.209559 0.069853 0.048774
0.218321 0.069301 0.050980
0.223897 0.070588 0.054902
0.231924 0.073775 0.058824
0.236765 0.073775 0.062010
0.241605 0.073775 0.062745
0.247059 0.073775 0.062745
0.251286 0.073775 0.062745
0.256128 0.073775 0.066667
0.262745 0.074510 0.066667
0.266667 0.077696 0.069730
0.270649 0.078431 0.070588
0.278431 0.081618 0.074510
0.284253 0.082353 0.078431
0.289093 0.085540 0.082353
0.294118 0.086275 0.086275
0.301961 0.089461 0.093383
0.307537 0.087929 0.093383
0.312378 0.090196 0.093383
0.317647 0.090196 0.093383
0.322794 0.093383 0.094118
0.330821 0.093383 0.095527
0.339583 0.093383 0.098039
0.344424 0.093383 0.101961
0.353186 0.090441 0.105882
0.358027 0.094118 0.105882
0.366789 0.094118 0.107966
0.372549 0.094118 0.109804
0.380392 0.097304 0.112990
0.000000 0.078615 0.027451
0.000919 0.078615 0.027451
0.000184 0.078615 0.027635
0.000184 0.078615 0.031373
0.000184 0.078615 0.035049
0.004596 0.078431 0.031373
0.013174 0.078431 0.031373
0.018199 0.078431 0.025122
0.026961 0.078431 0.027451
0.039645 0.078431 0.027880
0.048407 0.078431 0.027635
0.059436 0.078431 0.031373
0.069853 0.078431 0.031373
0.074694 0.078431 0.035294
0.079534 0.078431 0.031557
0.086275 0.078431 0.031557
0.093137 0.078431 0.031373
0.097978 0.078431 0.031373
0.102819 0.078431 0.031373
0.111581 0.074694 0.031373
0.120160 0.074694 0.031557
0.121569 0.074694 0.035294
0.129412 0.078431 0.035907
0.133333 0.079963 0.035478
0.139706 0.078615 0.035478
0.144546 0.078615 0.039216
0.153309 0.078247 0.039216
0.158150 0.078431 0.039216
0.166912 0.074694 0.039216
0.171752 0.074694 0.042341
0.176471 0.078431 0.043321
0.180392 0.079473 0.048101
0.182353 0.078615 0.050980
0.188235 0.082353 0.054902
0.195955 0.082353 0.054902
0.200797 0.077818 0.054902
0.207843 0.074694 0.054902
0.214399 0.074694 0.054902
0.223161 0.074694 0.058456
