Color/CreativePack-1/NightFromDay 65x.cube
TITLE "NightFromDay"
LUT_3D_SIZE 5
DOMAIN_MIN 0.000000 0.000000 0.000000
DOMAIN_MAX 1.000000 1.000000 1.000000
0.000000 0.000000 0.000000
0.093137 0.000000 0.030392
0.186275 0.025490 0.029412
0.282353 0.050980 0.070588
0.376471 0.062745 0.098039
0.000000 0.100981 0.042157
0.093137 0.093137 0.046079
0.182353 0.093137 0.056863
0.278431 0.100981 0.079411
0.376471 0.112745 0.117647
0.013725 0.186275 0.103921
0.081372 0.186275 0.103921
0.174510 0.186275 0.111765
0.278431 0.194117 0.131373
0.384314 0.201961 0.150981
0.036275 0.298039 0.172549
0.097059 0.298039 0.173529
0.190196 0.301961 0.185294
0.295098 0.306862 0.197059
0.403922 0.322549 0.219608
0.109804 0.443137 0.278431
0.148039 0.443137 0.282353
0.223529 0.443137 0.282353
0.341176 0.458824 0.309804
0.462745 0.482353 0.337255
0.000000 0.000000 0.132353
0.081372 0.000000 0.148039
0.174510 0.034314 0.151961
0.270588 0.058824 0.171569
0.368627 0.066667 0.179412
0.000000 0.097059 0.140196
0.061765 0.093137 0.151961
0.166666 0.097059 0.159804
0.270588 0.097059 0.171569
0.368627 0.116667 0.187255
0.000000 0.186275 0.175490
0.038235 0.186275 0.167647
0.174510 0.190196 0.187255
0.272549 0.194117 0.195098
0.376471 0.205882 0.218627
0.000000 0.299019 0.226470
0.026471 0.300000 0.226470
0.182353 0.302941 0.230393
0.290196 0.306862 0.250000
0.400000 0.322549 0.269608
0.012745 0.443137 0.316667
0.101961 0.447059 0.317647
0.217647 0.450980 0.328431
0.330392 0.458824 0.344117
0.466667 0.482353 0.379412
0.000000 0.003922 0.252941
0.010784 0.017647 0.260784
0.141176 0.041177 0.268628
0.250980 0.058824 0.272549
0.352941 0.070588 0.296079
0.000000 0.097059 0.265686
0.000000 0.100981 0.265686
0.139215 0.097059 0.268628
0.250000 0.108824 0.280392
0.352941 0.120588 0.300000
0.000000 0.186275 0.276470
0.000000 0.190196 0.280392
0.131373 0.190196 0.292157
0.242157 0.198039 0.311765
0.368627 0.209804 0.325491
0.000000 0.299019 0.320588
0.000000 0.299019 0.324510
0.135294 0.305882 0.332353
0.266667 0.313726 0.348039
0.384314 0.326470 0.367647
0.000000 0.447059 0.407843
0.014706 0.447059 0.407843
0.170588 0.450980 0.415686
0.316667 0.462745 0.432353
0.443137 0.482353 0.458824
0.000000 0.032353 0.385294
0.000000 0.048039 0.389216
0.061765 0.059804 0.397058
0.227451 0.066667 0.393137
0.329412 0.090196 0.412745
0.000000 0.104902 0.393137
0.000000 0.104902 0.396078
0.038235 0.108824 0.393137
0.219608 0.112745 0.400981
0.333333 0.124510 0.412745
0.000000 0.190196 0.404902
0.000000 0.190196 0.408824
0.010784 0.194117 0.412745
0.216666 0.201961 0.430392
0.345098 0.213726 0.444117
0.000000 0.302941 0.436275
0.000000 0.302941 0.440196
0.038235 0.309804 0.444117
0.227451 0.314706 0.467647
0.352941 0.330392 0.487255
0.000000 0.450980 0.518628
0.000000 0.450980 0.522549
0.100000 0.450980 0.526471
0.274510 0.470588 0.553921
0.411765 0.486275 0.576471
0.000000 0.058824 0.505882
0.000000 0.070588 0.509804
0.000000 0.078431 0.513726
0.150981 0.082353 0.521569
0.301961 0.109804 0.537255
0.000000 0.112745 0.509804
0.000000 0.112745 0.505882
0.000000 0.120589 0.517647
0.158824 0.124510 0.529412
0.301961 0.140196 0.545098
0.000000 0.198039 0.529412
0.000000 0.198039 0.529412
0.000000 0.198039 0.525490
0.139216 0.209804 0.549020
0.309804 0.221569 0.568627
0.000000 0.313726 0.572549
0.000000 0.309804 0.568627
0.000000 0.313726 0.576471
0.131373 0.326470 0.596078
0.325490 0.346078 0.615686
0.000000 0.458824 0.635294
0.000000 0.454902 0.631373
0.000000 0.462745 0.647059
0.216666 0.478431 0.662745
0.384314 0.498039 0.698039
