Color/CreativePack-1/NightFromDay 65x.cube
TITLE "NightFromDay"
LUT_3D_SIZE 9
DOMAIN_MIN 0.000000 0.000000 0.000000
DOMAIN_MAX 1.000000 1.000000 1.000000
0.000000 0.000000 0.000000
0.038726 0.000000 0.011275
0.093137 0.000000 0.030392
0.147549 0.010294 0.028922
0.186275 0.025490 0.029412
0.236765 0.039216 0.050980
0.282353 0.050980 0.070588
0.329412 0.058824 0.090196
0.376471 0.062745 0.098039
0.000000 0.038726 0.019118
0.034804 0.030883 0.023039
0.100981 0.042647 0.022549
0.147549 0.046569 0.027451
0.186275 0.054412 0.034804
0.231373 0.058334 0.052451
0.275980 0.066177 0.075490
0.325980 0.071078 0.090686
0.376471 0.082353 0.101961
0.000000 0.100981 0.042157
0.023039 0.093137 0.034314
0.093137 0.093137 0.046079
0.135784 0.097059 0.050000
0.182353 0.093137 0.056863
0.231373 0.097059 0.068137
0.278431 0.100981 0.079411
0.329412 0.112745 0.094118
0.376471 0.112745 0.117647
0.006373 0.139706 0.069118
0.038726 0.139706 0.073039
0.085294 0.135784 0.073039
0.135784 0.139706 0.080882
0.174510 0.135784 0.084804
0.227451 0.135784 0.087745
0.278431 0.147549 0.102941
0.329412 0.147549 0.114215
0.384314 0.159314 0.131863
0.013725 0.186275 0.103921
0.030883 0.186275 0.100000
0.081372 0.186275 0.103921
0.131863 0.186275 0.107843
0.174510 0.186275 0.111765
0.228922 0.186275 0.119608
0.278431 0.194117 0.131373
0.329412 0.198039 0.137745
0.384314 0.201961 0.150981
0.007843 0.232843 0.130882
0.046569 0.235294 0.134804
0.077451 0.235294 0.129412
0.135784 0.236765 0.142647
0.182353 0.236765 0.137255
0.232843 0.240686 0.150490
0.282353 0.244118 0.157843
0.338725 0.251470 0.173039
0.396078 0.264216 0.185784
0.036275 0.298039 0.172549
0.036275 0.298039 0.172549
0.097059 0.298039 0.173529
0.134314 0.300490 0.176471
0.190196 0.301961 0.185294
0.244608 0.302941 0.188235
0.295098 0.306862 0.197059
0.349510 0.318628 0.211765
0.403922 0.322549 0.219608
0.043137 0.361274 0.219608
0.070098 0.361274 0.219608
0.112745 0.365196 0.227451
0.155392 0.361274 0.224019
0.196568 0.369117 0.235294
0.252941 0.369117 0.235784
0.318628 0.376961 0.248039
0.369117 0.384804 0.259314
0.435294 0.400490 0.278431
0.109804 0.443137 0.278431
0.105882 0.443137 0.278431
0.148039 0.443137 0.282353
0.186765 0.447059 0.282353
0.223529 0.443137 0.282353
0.283824 0.447059 0.286275
0.341176 0.458824 0.309804
0.392647 0.470588 0.317647
0.462745 0.482353 0.337255
0.000000 0.000000 0.066177
0.030883 0.000000 0.062255
0.093137 0.000000 0.084804
0.147549 0.018137 0.093628
0.178922 0.029412 0.097549
0.232843 0.035294 0.105392
0.274510 0.050980 0.113235
0.325490 0.058824 0.121079
0.376471 0.062745 0.125000
0.000000 0.038726 0.077451
0.019118 0.038726 0.081373
0.085295 0.042647 0.089706
0.139706 0.053431 0.093628
0.182353 0.058334 0.097549
0.232843 0.062255 0.105392
0.274510 0.070098 0.117157
0.325980 0.066667 0.117157
0.372549 0.085785 0.136765
0.000000 0.100981 0.097549
0.000000 0.100981 0.100981
0.081372 0.089216 0.093628
0.131863 0.097059 0.101471
0.178431 0.097059 0.105392
0.223529 0.093137 0.105392
0.274510 0.100981 0.121079
0.325490 0.112745 0.136274
0.372549 0.112745 0.136765
0.000000 0.143627 0.112255
0.015196 0.147549 0.109314
0.073529 0.139706 0.109314
0.127941 0.139706 0.120098
0.174510 0.143627 0.117157
0.225490 0.139706 0.121079
0.274510 0.147549 0.128922
0.325490 0.147549 0.136765
0.376471 0.155392 0.152451
0.000000 0.186275 0.135294
0.000000 0.186275 0.131373
0.069608 0.186275 0.128922
0.124020 0.182353 0.132353
0.175000 0.182353 0.139215
0.225490 0.186275 0.143137
0.270588 0.190196 0.148530
0.333333 0.198039 0.160294
0.384314 0.205882 0.178431
0.000000 0.240686 0.156373
0.009804 0.236765 0.156373
0.061765 0.235294 0.156373
0.131863 0.236765 0.160294
0.182353 0.240686 0.164216
0.228922 0.240686 0.168137
0.282353 0.248529 0.181863
0.337745 0.249019 0.187745
0.396078 0.264216 0.205392
0.000000 0.301471 0.191667
0.007843 0.301471 0.199510
0.085294 0.295098 0.187745
0.127941 0.298529 0.195588
0.186275 0.299019 0.195588
0.235294 0.305392 0.211275
0.295098 0.310785 0.212255
0.341666 0.314706 0.227451
0.396078 0.322549 0.234804
0.000981 0.365196 0.227941
0.058824 0.361274 0.227451
0.100980 0.361274 0.238726
0.155392 0.369117 0.239216
0.194608 0.365196 0.239706
0.252941 0.373039 0.254902
0.314216 0.380882 0.266177
0.373039 0.384804 0.278431
0.431373 0.400490 0.289706
0.094118 0.447059 0.294118
0.121079 0.447059 0.294118
0.140196 0.447059 0.297549
0.175490 0.443137 0.290196
0.229412 0.447059 0.301471
0.278431 0.447059 0.301961
0.341176 0.462745 0.321569
0.396568 0.466667 0.321569
0.466667 0.482353 0.349020
0.000000 0.000000 0.132353
0.011275 0.003432 0.136274
0.081372 0.000000 0.148039
0.135784 0.022059 0.151961
0.174510 0.034314 0.151961
0.228922 0.043137 0.159804
0.270588 0.058824 0.171569
0.317647 0.061765 0.171569
0.368627 0.066667 0.179412
0.000000 0.034804 0.140196
0.000000 0.042647 0.148039
0.081372 0.042647 0.148039
0.124020 0.050490 0.148040
0.171078 0.061765 0.155882
0.222059 0.062255 0.163725
0.270588 0.066177 0.163725
0.321569 0.077941 0.175491
0.368627 0.085785 0.179412
0.000000 0.097059 0.140196
0.003432 0.097059 0.148039
0.061765 0.093137 0.151961
0.116176 0.097059 0.159804
0.166666 0.097059 0.159804
0.218137 0.097059 0.167647
0.270588 0.097059 0.171569
0.321569 0.108823 0.183334
0.368627 0.116667 0.187255
0.000000 0.139706 0.155882
0.000000 0.139706 0.163725
0.050000 0.139706 0.159804
0.116176 0.135784 0.159804
0.163725 0.139706 0.163725
0.218137 0.147549 0.175490
0.270588 0.147549 0.187255
0.318137 0.151471 0.191176
0.376471 0.163235 0.206863
0.000000 0.186275 0.175490
0.000000 0.186275 0.175490
0.038235 0.186275 0.167647
0.112255 0.182353 0.175490
0.174510 0.190196 0.187255
0.218137 0.190196 0.183333
0.272549 0.194117 0.195098
0.325490 0.198039 0.199020
0.376471 0.205882 0.218627
0.000000 0.237745 0.187255
0.000000 0.236765 0.191176
0.022549 0.236765 0.199020
0.112255 0.237255 0.195098
0.174510 0.240686 0.206863
0.218137 0.240686 0.210785
0.280882 0.252451 0.214706
0.329902 0.252451 0.222549
0.388235 0.264216 0.234314
0.000000 0.299019 0.226470
0.000000 0.298039 0.230393
0.026471 0.300000 0.226470
0.124020 0.301961 0.226470
0.182353 0.302941 0.230393
0.229902 0.302941 0.238236
0.290196 0.306862 0.250000
0.333823 0.314706 0.258334
0.400000 0.322549 0.269608
0.000000 0.365196 0.261765
0.016667 0.365196 0.261765
0.063235 0.361274 0.269608
0.135784 0.369117 0.266177
0.187255 0.369117 0.277941
0.249020 0.373039 0.285785
0.311275 0.376961 0.293628
0.369117 0.384804 0.305392
0.423529 0.396568 0.313236
0.012745 0.443137 0.316667
0.054902 0.443137 0.316667
0.101961 0.447059 0.317647
0.171078 0.443137 0.317647
0.217647 0.450980 0.328431
0.279902 0.450980 0.329412
0.330392 0.458824 0.344117
0.388725 0.466667 0.355882
0.466667 0.482353 0.379412
0.000000 0.002451 0.194608
0.000000 0.007353 0.202451
0.065687 0.010294 0.206373
0.116176 0.025980 0.206373
0.162745 0.037745 0.214216
0.214706 0.045588 0.210294
0.262745 0.055883 0.222059
0.313726 0.062745 0.233824
0.360784 0.074510 0.245588
0.000000 0.046569 0.206373
0.000000 0.042647 0.210294
0.043627 0.050490 0.210294
0.112255 0.057353 0.214216
0.163235 0.062255 0.214216
0.210785 0.070098 0.222059
0.264706 0.070098 0.229902
0.309804 0.077941 0.229902
0.356863 0.093628 0.241667
0.000000 0.097059 0.214216
0.000000 0.100981 0.210294
0.020098 0.100981 0.214216
0.097549 0.097059 0.214216
0.155882 0.100981 0.218137
0.206373 0.100981 0.225980
0.261275 0.104902 0.225980
0.313726 0.108824 0.237745
0.368627 0.116667 0.245588
0.000000 0.143627 0.214216
0.000000 0.139706 0.210294
0.030392 0.139706 0.210294
0.096569 0.143627 0.222059
0.144608 0.143627 0.225980
0.202942 0.143627 0.233824
0.262745 0.147549 0.237745
0.313726 0.151471 0.241667
0.368627 0.167157 0.253431
0.000000 0.186275 0.225980
0.000000 0.190196 0.229902
0.010294 0.190196 0.229902
0.088726 0.186275 0.233824
0.154902 0.190196 0.237745
0.203432 0.190196 0.241667
0.262255 0.194117 0.245588
0.310294 0.198039 0.257353
0.364706 0.205882 0.269118
0.000000 0.236765 0.245588
0.000000 0.236765 0.245588
0.000000 0.238236 0.245588
0.069118 0.244608 0.253431
0.158824 0.244608 0.257353
0.214706 0.240686 0.261275
0.265686 0.244608 0.265196
0.322059 0.256373 0.273039
0.380392 0.260294 0.288726
0.000000 0.298039 0.269118
0.000000 0.298039 0.270098
0.000000 0.299019 0.270098
0.073039 0.302941 0.284804
0.158824 0.304412 0.280882
0.221078 0.302941 0.281863
0.278431 0.309804 0.293627
0.329902 0.318137 0.304902
0.388235 0.322549 0.313236
0.000000 0.365196 0.312745
0.000000 0.365196 0.312745
0.000981 0.365196 0.308824
0.100490 0.373039 0.312745
0.178431 0.373039 0.320588
0.236765 0.369117 0.320588
0.294608 0.376961 0.328431
0.353431 0.384804 0.340196
0.412255 0.400490 0.359804
0.000000 0.447059 0.360784
0.025000 0.447059 0.352941
0.065687 0.447059 0.356863
0.137255 0.450980 0.367157
0.205882 0.447059 0.367157
0.265686 0.458824 0.375000
0.331863 0.466667 0.386765
0.392647 0.474510 0.398529
0.458824 0.482353 0.410294
0.000000 0.003922 0.252941
0.000000 0.011765 0.268628
0.010784 0.017647 0.260784
0.084804 0.029902 0.268628
0.141176 0.041177 0.268628
0.203432 0.052451 0.272549
0.250980 0.058824 0.272549
0.298529 0.070588 0.284314
0.352941 0.070588 0.296079
0.000000 0.046569 0.264706
0.000000 0.046569 0.268628
0.000000 0.058334 0.264706
0.080882 0.064706 0.268628
0.139706 0.062255 0.268628
0.199510 0.066177 0.272549
0.247059 0.074020 0.276470
0.305882 0.081863 0.282353
0.352941 0.092157 0.296079
0.000000 0.097059 0.265686
0.000000 0.100981 0.272549
0.000000 0.100981 0.265686
0.073039 0.100981 0.272549
0.139215 0.097059 0.268628
0.198529 0.097059 0.269608
0.250000 0.108824 0.280392
0.301961 0.116667 0.292157
0.352941 0.120588 0.300000
0.000000 0.143627 0.272549
0.000000 0.143627 0.276470
0.000000 0.143627 0.276470
0.042157 0.147549 0.280392
0.139215 0.143627 0.276961
0.191667 0.143627 0.288236
0.250000 0.147549 0.292157
0.298039 0.151471 0.300490
0.360784 0.159314 0.312255
0.000000 0.186275 0.276470
0.000000 0.190196 0.280392
0.000000 0.190196 0.280392
0.061275 0.190196 0.284314
0.131373 0.190196 0.292157
0.181863 0.190196 0.297549
0.242157 0.198039 0.311765
0.305882 0.205882 0.319608
0.368627 0.209804 0.325491
0.000000 0.237255 0.297549
0.000000 0.237745 0.296079
0.000000 0.244608 0.307843
0.037745 0.240686 0.307843
0.127451 0.241177 0.307843
0.195588 0.240686 0.315686
0.248039 0.248529 0.320098
0.320098 0.252941 0.325000
0.372549 0.264216 0.347059
0.000000 0.299019 0.320588
0.000000 0.300980 0.324510
0.000000 0.299019 0.324510
0.049510 0.305882 0.332353
0.135294 0.305882 0.332353
0.205392 0.306862 0.336274
0.266667 0.313726 0.348039
0.325980 0.314706 0.348039
0.384314 0.326470 0.367647
0.000000 0.365196 0.355392
0.000000 0.365196 0.359314
0.000000 0.365196 0.356373
0.069118 0.369117 0.363235
0.131373 0.369117 0.367157
0.225000 0.373039 0.367157
0.279411 0.380882 0.382843
0.349510 0.392647 0.394608
0.407843 0.400490 0.410294
0.000000 0.447059 0.407843
0.000000 0.447059 0.400000
0.014706 0.447059 0.407843
0.097059 0.447059 0.415196
0.170588 0.450980 0.415686
0.246569 0.458824 0.429412
0.316667 0.462745 0.432353
0.380392 0.470588 0.445098
0.443137 0.482353 0.458824
0.000000 0.017157 0.323039
0.000000 0.028922 0.330882
0.000000 0.038236 0.326961
0.029902 0.041667 0.325490
0.123530 0.047059 0.326961
0.181863 0.060294 0.334804
0.238726 0.066177 0.338725
0.290196 0.077451 0.350490
0.349020 0.086275 0.352941
0.000000 0.054412 0.325000
0.000000 0.062255 0.330882
0.000000 0.066177 0.326961
0.040196 0.066177 0.329412
0.114215 0.070098 0.330882
0.176471 0.074020 0.334804
0.242157 0.081863 0.342647
0.294118 0.081863 0.341666
0.345098 0.093628 0.352451
0.000000 0.100981 0.327941
0.000000 0.104902 0.330882
0.000000 0.100981 0.332353
0.005882 0.100981 0.331863
0.102451 0.104902 0.333333
0.175000 0.104902 0.337255
0.238726 0.108824 0.342647
0.298039 0.112745 0.346569
0.349020 0.128432 0.363725
0.000000 0.139706 0.331863
0.000000 0.143627 0.334804
0.000000 0.143627 0.337255
0.000000 0.147549 0.337255
0.088726 0.151471 0.343627
0.167647 0.147549 0.343627
0.234804 0.151471 0.350000
0.290196 0.155392 0.358824
0.349020 0.167157 0.366176
0.000000 0.190196 0.347059
0.000000 0.186275 0.340686
0.000000 0.194117 0.350490
0.000000 0.190196 0.347059
0.088235 0.194117 0.348529
0.164706 0.190196 0.352451
0.234804 0.194117 0.359804
0.298039 0.201961 0.367157
0.349020 0.205882 0.381863
0.000000 0.240686 0.354412
0.000000 0.244608 0.355882
0.000000 0.244608 0.358333
0.000981 0.240686 0.355882
0.096078 0.244608 0.370098
0.166176 0.244608 0.371568
0.234804 0.252451 0.387255
0.294608 0.260294 0.395098
0.364706 0.266667 0.405392
0.000000 0.302941 0.386765
0.000000 0.302941 0.383333
0.000000 0.302941 0.385294
0.000000 0.305882 0.394608
0.096078 0.306862 0.393137
0.181863 0.310785 0.398529
0.254412 0.314706 0.406373
0.306372 0.322549 0.418137
0.368627 0.330392 0.425000
0.000000 0.365196 0.416176
0.000000 0.365196 0.419608
0.000000 0.365196 0.416176
0.009314 0.373039 0.420098
0.100980 0.369117 0.420098
0.201471 0.384804 0.433334
0.270588 0.384804 0.444117
0.333823 0.396568 0.455392
0.396078 0.404412 0.463235
0.000000 0.443137 0.460294
0.000000 0.450980 0.460294
0.000000 0.450980 0.464216
0.046568 0.450980 0.472059
0.154902 0.454902 0.468137
0.213235 0.462745 0.478431
0.293628 0.466667 0.479902
0.369117 0.474510 0.499510
0.431373 0.486275 0.515196
0.000000 0.032353 0.385294
0.000000 0.042647 0.389215
0.000000 0.048039 0.389216
0.000000 0.053431 0.393137
0.061765 0.059804 0.397058
0.150981 0.062745 0.393137
0.227451 0.066667 0.393137
0.281863 0.074510 0.400981
0.329412 0.090196 0.412745
0.000000 0.066177 0.389215
0.000000 0.066177 0.385294
0.000000 0.070098 0.389215
0.000000 0.070098 0.393137
0.076470 0.077941 0.396078
0.158333 0.081863 0.397549
0.219608 0.085785 0.404902
0.277941 0.093628 0.408824
0.333333 0.101471 0.412745
0.000000 0.104902 0.393137
0.000000 0.104902 0.396078
0.000000 0.104902 0.396078
0.000000 0.108824 0.398529
0.038235 0.108824 0.393137
0.145098 0.112745 0.404902
0.219608 0.112745 0.400981
0.281863 0.116667 0.412745
0.333333 0.124510 0.412745
0.000000 0.147549 0.397058
0.000000 0.151471 0.403432
0.000000 0.143627 0.393137
0.000000 0.143627 0.393137
0.044118 0.147549 0.400981
0.140196 0.151471 0.404902
0.211765 0.151471 0.412745
0.277941 0.163235 0.416667
0.337255 0.163235 0.428432
0.000000 0.190196 0.404902
0.000000 0.190196 0.404902
0.000000 0.190196 0.408824
0.000000 0.190196 0.404902
0.010784 0.194117 0.412745
0.131373 0.194117 0.412745
0.216666 0.201961 0.430392
0.278431 0.201961 0.424509
0.345098 0.213726 0.444117
0.000000 0.244608 0.416666
0.000000 0.244608 0.424509
0.000000 0.244608 0.424509
0.000000 0.244608 0.428432
0.014706 0.244608 0.428432
0.131373 0.248529 0.428432
0.213235 0.252451 0.440196
0.286275 0.260294 0.451961
0.356863 0.268137 0.467647
0.000000 0.302941 0.436275
0.000000 0.302941 0.436275
0.000000 0.302941 0.440196
0.000000 0.309804 0.448039
0.038235 0.309804 0.444117
0.147059 0.310785 0.459314
0.227451 0.314706 0.467647
0.294118 0.325980 0.483333
0.352941 0.330392 0.487255
0.000000 0.369117 0.471569
0.000000 0.369117 0.475000
0.000000 0.373039 0.478921
0.000000 0.373039 0.485294
0.064216 0.376961 0.487255
0.159314 0.388725 0.498529
0.235784 0.388725 0.495098
0.329412 0.400490 0.518137
0.380392 0.408333 0.526470
0.000000 0.450980 0.518628
0.000000 0.450980 0.518628
0.000000 0.450980 0.522549
0.000000 0.450980 0.526471
0.100000 0.450980 0.526471
0.190196 0.462745 0.534313
0.274510 0.470588 0.553921
0.352451 0.478431 0.557843
0.411765 0.486275 0.576471
0.000000 0.050980 0.447549
0.000000 0.054902 0.443627
0.000000 0.058824 0.443627
0.000000 0.062745 0.455392
0.001471 0.066667 0.447549
0.115196 0.071078 0.455392
0.189706 0.077941 0.459314
0.262745 0.082353 0.463235
0.317647 0.098039 0.475000
0.000000 0.074020 0.451470
0.000000 0.074020 0.447549
0.000000 0.077941 0.447549
0.000000 0.077941 0.451470
-0.001471 0.076471 0.447549
0.108333 0.093628 0.463235
0.197059 0.089706 0.463235
0.266177 0.097549 0.471078
0.321569 0.109314 0.475000
0.000000 0.108823 0.451470
0.000000 0.104902 0.451470
0.000000 0.108823 0.447549
0.000000 0.112745 0.455392
0.000000 0.116667 0.459314
0.107353 0.116667 0.459314
0.189706 0.124510 0.467157
0.258824 0.124510 0.471078
0.321569 0.136274 0.482843
0.000000 0.151471 0.455392
0.000000 0.155392 0.463235
0.000000 0.147549 0.447549
0.000000 0.151471 0.459314
0.000000 0.151471 0.463235
0.088726 0.155392 0.467157
0.192157 0.159314 0.471078
0.258824 0.163235 0.475000
0.325000 0.171078 0.490686
0.000000 0.194117 0.467157
0.000000 0.194117 0.471078
0.000000 0.194117 0.467157
0.000000 0.198039 0.471078
0.000000 0.198039 0.475000
0.089216 0.205882 0.482843
0.176961 0.209804 0.486765
0.255392 0.209804 0.486765
0.325490 0.217647 0.506372
0.000000 0.244608 0.478921
0.000000 0.244608 0.478921
0.000000 0.248529 0.486765
0.000000 0.248529 0.494608
0.000000 0.248529 0.486765
0.080882 0.260294 0.494608
0.181863 0.264216 0.506372
0.266667 0.260785 0.510294
0.333333 0.272059 0.518137
0.000000 0.302941 0.494608
0.000000 0.306372 0.502451
0.000000 0.306862 0.498529
0.000000 0.310785 0.510294
0.000000 0.310785 0.510294
0.100490 0.318628 0.522059
0.185294 0.318628 0.526470
0.267157 0.329902 0.537745
0.352941 0.338235 0.553431
0.000000 0.369117 0.529902
0.000000 0.373039 0.537745
0.000000 0.373039 0.533823
0.000000 0.373039 0.533823
0.000490 0.376961 0.537745
0.126961 0.388725 0.549510
0.225490 0.392647 0.553921
0.302451 0.404412 0.577451
0.372549 0.412255 0.596568
0.000000 0.447059 0.576961
0.000000 0.454902 0.576961
0.000000 0.450980 0.576961
0.000000 0.458824 0.584804
0.001961 0.462745 0.596568
0.170098 0.470588 0.604412
0.251960 0.474510 0.612255
0.322059 0.482353 0.620098
0.407843 0.490196 0.631863
0.000000 0.058824 0.505882
0.000000 0.066177 0.505882
0.000000 0.070588 0.509804
0.000000 0.066667 0.509804
0.000000 0.078431 0.513726
0.018627 0.078431 0.513726
0.150981 0.082353 0.521569
0.235784 0.094118 0.529412
0.301961 0.109804 0.537255
0.000000 0.081863 0.509804
0.000000 0.085785 0.517647
0.000000 0.085785 0.513726
0.000000 0.084804 0.513726
0.000000 0.089706 0.509804
0.026471 0.101471 0.521569
0.158824 0.097549 0.517647
0.235784 0.098529 0.525490
0.298039 0.109804 0.533333
0.000000 0.112745 0.509804
0.000000 0.112745 0.509804
0.000000 0.112745 0.505882
0.000000 0.112745 0.513726
0.000000 0.120589 0.517647
0.007843 0.124510 0.525490
0.158824 0.124510 0.529412
0.239216 0.128432 0.525490
0.301961 0.140196 0.545098
0.000000 0.151471 0.513726
0.000000 0.155392 0.517647
0.000000 0.151471 0.521569
0.000000 0.155392 0.521569
0.000000 0.155392 0.525490
0.001471 0.159314 0.529412
0.143137 0.159314 0.521569
0.241667 0.165196 0.537255
0.305882 0.182843 0.552941
0.000000 0.198039 0.529412
0.000000 0.201961 0.529412
0.000000 0.198039 0.529412
0.000000 0.196078 0.521569
0.000000 0.198039 0.525490
0.001471 0.201471 0.533333
0.139216 0.209804 0.549020
0.239706 0.213726 0.552941
0.309804 0.221569 0.568627
0.000000 0.248529 0.545098
0.000000 0.245099 0.535295
0.000000 0.248529 0.541176
0.000000 0.252451 0.549020
0.000000 0.252451 0.552941
0.001471 0.260294 0.556863
0.139216 0.259804 0.560784
0.235784 0.272059 0.580392
0.313726 0.275980 0.580392
0.000000 0.313726 0.572549
0.000000 0.307353 0.562255
0.000000 0.309804 0.568627
0.000000 0.313726 0.568627
0.000000 0.313726 0.576471
0.018137 0.314706 0.577451
0.131373 0.326470 0.596078
0.239706 0.330392 0.600981
0.325490 0.346078 0.615686
0.000000 0.373039 0.588725
0.000000 0.373039 0.588725
0.000000 0.373039 0.592647
0.000000 0.376961 0.600490
0.000000 0.384804 0.604412
0.068628 0.392647 0.615686
0.182353 0.400490 0.632353
0.263235 0.408333 0.643627
0.349020 0.420098 0.655392
0.000000 0.458824 0.635294
0.000000 0.458824 0.635294
0.000000 0.454902 0.631373
0.000000 0.458824 0.643137
0.000000 0.462745 0.647059
0.124510 0.466667 0.650980
0.216666 0.478431 0.662745
0.310294 0.486275 0.678431
0.384314 0.498039 0.698039
