Color/CreativePack-1/Smokey 65x.cube
TITLE "Smokey"
LUT_3D_SIZE 65
DOMAIN_MIN 0.000000 0.000000 0.000000
DOMAIN_MAX 1.000000 1.000000 1.000000
0.000000 0.000000 0.000000
0.017524 0.000000 0.000000
0.036887 0.000000 0.000000
0.056495 0.000000 0.000000
0.077696 0.000000 0.000000
0.091544 0.000000 0.000000
0.105147 0.000000 0.000000
0.120160 0.000000 0.000000
0.136275 0.000000 0.000000
0.149878 0.000000 0.000000
0.163480 0.000000 0.000000
0.177083 0.000000 0.000000
0.190686 0.000000 0.000000
0.204290 0.000000 0.000000
0.217892 0.000000 0.000000
0.231495 0.000000 0.000000
0.246078 0.000000 0.000000
0.258701 0.000000 0.000000
0.268383 0.000000 0.000000
0.281985 0.000000 0.000000
0.292892 0.000000 0.000000
0.305576 0.000000 0.000000
0.318872 0.000000 0.000000
0.330944 0.000000 0.000000
0.343627 0.000000 0.000000
0.356311 0.000000 0.000000
0.368995 0.000000 0.000000
0.379044 0.000000 0.000000
0.390441 0.000000 0.000000
0.403125 0.000000 0.000000
0.412010 0.000000 0.000000
0.424571 0.000000 0.000000
0.435295 0.000000 0.000000
0.446017 0.000000 0.000000
0.458701 0.000000 0.000000
0.471385 0.000000 0.000000
0.481863 0.000000 0.000000
0.492831 0.000000 0.000000
0.505514 0.000000 0.000000
0.518199 0.000000 0.000000
0.530882 0.000000 0.000000
0.542034 0.000000 0.000000
0.552328 0.000000 0.000000
0.565012 0.000000 0.000000
0.577696 0.000000 0.000000
0.586458 0.000000 0.000000
0.599142 0.000000 0.000000
0.607966 0.000000 0.000000
0.620588 0.000000 0.000000
0.633272 0.000000 0.000000
0.645956 0.000000 0.000000
0.658640 0.000000 0.000000
0.671323 0.000000 0.000000
0.684008 0.000000 0.000000
0.695343 0.000000 0.000000
0.705453 0.000000 0.000000
0.718137 0.000000 0.000000
0.730821 0.000000 0.000000
0.739583 0.000000 0.000000
0.751593 0.000000 0.000000
0.761274 0.000000 0.000000
0.773713 0.000000 0.000000
0.786397 0.000000 0.000000
0.798162 0.000000 0.000000
0.807843 0.000000 0.000000
0.000000 0.013603 0.000000
0.017524 0.013603 0.000000
0.036887 0.013603 0.000000
0.056495 0.013603 0.000000
0.077696 0.013603 0.000000
0.091544 0.013603 0.000000
0.105147 0.013603 0.000000
0.120160 0.013603 0.000000
0.136275 0.013603 0.000000
0.149878 0.013603 0.000000
0.163480 0.013603 0.000000
0.177083 0.013603 0.000000
0.190686 0.013603 0.000000
0.204290 0.013603 0.000000
0.217892 0.013603 0.000000
0.231495 0.013603 0.000000
0.246078 0.013603 0.000000
0.258701 0.013603 0.000000
0.268383 0.013603 0.000000
0.281985 0.013603 0.000000
0.292892 0.013603 0.000000
0.305576 0.013603 0.000000
0.318872 0.013603 0.000000
0.330944 0.013603 0.000000
0.343627 0.013603 0.000000
0.356311 0.017524 0.000000
0.368995 0.017524 0.000000
0.381679 0.017524 0.000000
0.392647 0.017524 0.000000
0.406250 0.017524 0.000000
0.415809 0.017524 0.000000
0.425490 0.017524 0.000000
0.437255 0.017524 0.000000
0.446936 0.017524 0.000000
0.462500 0.017524 0.000000
0.472181 0.017524 0.000000
0.484069 0.017524 0.000000
0.496752 0.017524 0.000000
0.509069 0.017524 0.000000
0.518750 0.017524 0.000000
0.532353 0.017524 0.000000
0.543566 0.017524 0.000000
0.553248 0.017524 0.000000
0.565319 0.017524 0.000000
0.578922 0.017524 0.000000
0.590380 0.017524 0.000000
0.600061 0.017524 0.000000
0.612745 0.017524 0.000000
0.621507 0.017524 0.000000
0.635172 0.017524 0.000000
0.645956 0.017524 0.000000
0.658640 0.017524 0.000000
0.672059 0.017524 0.000000
0.685662 0.017524 0.000000
0.696691 0.017524 0.000000
0.706373 0.017524 0.000000
0.718627 0.017524 0.000000
0.732231 0.017524 0.000000
0.743505 0.017524 0.000000
0.755515 0.017524 0.000000
0.765870 0.017524 0.000000
0.777635 0.017524 0.000000
0.787317 0.017524 0.000000
0.802084 0.017524 0.000000
0.811765 0.017524 0.000000
0.000000 0.031127 0.000000
0.017524 0.031127 0.000000
0.036887 0.031127 0.000000
0.056495 0.031127 0.000000
0.077696 0.031127 0.000000
0.091544 0.031127 0.000000
0.105147 0.031127 0.000000
0.120160 0.031127 0.000000
0.136275 0.031127 0.000000
0.149878 0.031127 0.000000
0.163480 0.031127 0.000000
0.177083 0.031127 0.000000
0.190686 0.031127 0.000000
0.204290 0.031127 0.000000
0.217892 0.031127 0.000000
0.231495 0.031127 0.000000
0.246078 0.031127 0.000000
0.258701 0.031127 0.000000
0.268383 0.031127 0.000000
0.281985 0.031127 0.000000
0.292892 0.031127 0.000000
0.305576 0.031127 0.000000
0.318872 0.031127 0.000000
0.330944 0.031127 0.000000
0.343627 0.031127 0.000000
0.356311 0.034498 0.000000
0.369362 0.035049 0.000000
0.381679 0.035049 0.000000
0.394363 0.035049 0.000000
0.406250 0.035049 0.000000
0.415931 0.035049 0.000000
0.428493 0.035049 0.000000
0.439215 0.035049 0.000000
0.449938 0.035049 0.000000
0.462622 0.035049 0.000000
0.475306 0.035049 0.000000
0.485784 0.035049 0.000000
0.499388 0.035049 0.000000
0.509436 0.035049 0.000000
0.522120 0.035049 0.000000
0.532353 0.035049 0.000000
0.545956 0.035049 0.000000
0.556250 0.035049 0.000000
0.568933 0.035049 0.000000
0.581618 0.035049 0.000000
0.592524 0.035049 0.000000
0.606127 0.035049 0.000000
0.615747 0.035049 0.000000
0.626348 0.035049 0.000000
0.637194 0.035049 0.000000
0.648774 0.035049 0.000000
0.662377 0.035049 0.000000
0.672059 0.035049 0.000000
0.685662 0.035049 0.000000
0.699265 0.035049 0.000000
0.709375 0.035049 0.000000
0.723898 0.035049 0.000000
0.734742 0.035049 0.000000
0.745343 0.035049 0.000000
0.756189 0.035049 0.000000
0.768872 0.035049 0.000000
0.778799 0.035049 0.000000
0.792402 0.035049 0.000000
0.803003 0.035049 0.000000
0.815686 0.035049 0.000000
0.000000 0.048652 0.000000
0.017524 0.048652 0.000000
0.036887 0.048652 0.000000
0.056495 0.048652 0.000000
0.077696 0.048652 0.000000
0.091544 0.048652 0.000000
0.105147 0.048652 0.000000
0.120160 0.048652 0.000000
0.136275 0.048652 0.000000
0.149878 0.048652 0.000000
0.163480 0.048652 0.000000
0.177083 0.048652 0.000000
0.190686 0.048652 0.000000
0.204290 0.048652 0.000000
0.217892 0.048652 0.000000
0.231495 0.048652 0.000000
0.246078 0.048652 0.000000
0.258701 0.048652 0.000000
0.268383 0.048652 0.000000
0.281985 0.048652 0.000000
0.292892 0.048652 0.000000
0.305576 0.048652 0.000000
0.318872 0.048652 0.000000
0.330944 0.048652 0.000000
0.343627 0.048652 0.000000
0.356311 0.048652 0.000000
0.369362 0.052574 0.000000
0.384436 0.052574 0.000000
0.394363 0.052574 0.000000
0.407047 0.052574 0.000000
0.419731 0.052574 0.000000
0.431250 0.052574 0.000000
0.441177 0.052574 0.000000
0.452696 0.052574 0.000000
0.466422 0.052574 0.000000
0.478064 0.052574 0.000000
0.487990 0.052574 0.000000
0.499388 0.052574 0.000000
0.512991 0.052574 0.000000
0.522672 0.052574 0.000000
0.534804 0.052574 0.000000
0.547488 0.052574 0.000000
0.559559 0.052574 0.000000
0.569240 0.052574 0.000000
0.584375 0.052574 0.000000
0.594301 0.052574 0.000000
0.605821 0.052574 0.000000
0.615809 0.052574 0.000000
0.628432 0.052574 0.000000
0.639093 0.052574 0.000000
0.649877 0.052574 0.000000
0.661397 0.052574 0.000000
0.675245 0.052574 0.000000
0.685662 0.052574 0.000000
0.699265 0.052574 0.000000
0.712868 0.052574 0.000000
0.722549 0.052574 0.000000
0.737499 0.052574 0.000000
0.747427 0.052574 0.000000
0.758946 0.052574 0.000000
0.769117 0.052574 0.000000
0.784313 0.052574 0.000000
0.794240 0.052574 0.000000
0.805760 0.052574 0.000000
0.818444 0.052574 0.000000
0.000000 0.066177 0.000000
0.017524 0.066177 0.000000
0.036887 0.066177 0.000000
0.056495 0.066177 0.000000
0.077696 0.066177 0.000000
0.091544 0.066177 0.000000
0.105147 0.066177 0.000000
0.120160 0.066177 0.000000
0.136275 0.066177 0.000000
0.149878 0.066177 0.000000
0.163480 0.066177 0.000000
0.177083 0.066177 0.000000
0.190686 0.066177 0.000000
0.204290 0.066177 0.000000
0.217892 0.066177 0.000000
0.231495 0.066177 0.000000
0.246078 0.066177 0.000000
0.258701 0.066177 0.000000
0.268383 0.066177 0.000000
0.281985 0.066177 0.000000
0.292892 0.066177 0.000000
0.305576 0.066177 0.000000
0.318872 0.066177 0.000000
0.330944 0.066177 0.000000
0.343627 0.066177 0.000000
0.356311 0.066177 0.000000
0.369362 0.070098 0.000000
0.382965 0.070098 0.000000
0.398039 0.074020 0.000000
0.407047 0.074020 0.000000
0.419731 0.074020 0.000000
0.429534 0.074020 0.000000
0.444853 0.074020 0.000000
0.453860 0.074020 0.000000
0.466299 0.074020 0.000000
0.476103 0.074020 0.000000
0.489706 0.074020 0.000000
0.500674 0.074020 0.000000
0.513358 0.074020 0.000000
0.526042 0.074020 0.000000
0.536274 0.074020 0.000000
0.551164 0.074020 0.000000
0.560171 0.074020 0.000000
0.572855 0.074020 0.000000
0.582843 0.074020 0.000000
0.597978 0.074020 0.000000
0.606985 0.074020 0.000000
0.619669 0.074020 0.000000
0.632353 0.074020 0.000000
0.644792 0.074020 0.000000
0.652696 0.074020 0.000000
0.662561 0.074020 0.000000
0.675245 0.074020 0.000000
0.687929 0.074020 0.000000
0.700613 0.074020 0.000000
0.713297 0.074020 0.000000
0.725980 0.074020 0.000000
0.738664 0.074020 0.000000
0.749755 0.074020 0.000000
0.763787 0.074020 0.000000
0.776470 0.074020 0.000000
0.785478 0.074020 0.000000
0.796324 0.074020 0.000000
0.810601 0.074020 0.000000
0.819608 0.074020 0.000000
0.000000 0.075858 0.000000
0.017524 0.075858 0.000000
0.036887 0.075858 0.000000
0.056495 0.075858 0.000000
0.077696 0.075858 0.000000
0.091544 0.075858 0.000000
0.105147 0.075858 0.000000
0.120160 0.075858 0.000000
0.136275 0.075858 0.000000
0.149878 0.079105 0.000000
0.163480 0.079105 0.000000
0.178738 0.079105 0.000000
0.191422 0.079105 0.000000
0.204290 0.079105 0.000000
0.220711 0.079105 0.000000
0.233395 0.079105 0.000000
0.246078 0.079105 0.000000
0.258763 0.079105 0.000000
0.272304 0.079105 0.000000
0.284130 0.079105 0.000000
0.293566 0.079105 0.000000
0.309191 0.079105 0.000000
0.322182 0.079105 0.000000
0.331618 0.079105 0.000000
0.344301 0.079105 0.000000
0.356985 0.079105 0.000000
0.372917 0.079473 0.000000
0.385601 0.083027 0.000000
0.398284 0.083701 0.000000
0.407721 0.083701 0.000000
0.419853 0.083701 0.000000
0.433456 0.083701 0.000000
0.445098 0.083701 0.000000
0.454534 0.086949 0.000000
0.470343 0.086949 0.000000
0.480024 0.086949 0.000000
0.491912 0.086949 0.000000
0.504595 0.086949 0.000000
0.516912 0.086949 0.000000
0.526593 0.086949 0.000000
0.540196 0.086949 0.000000
0.553799 0.086949 0.000000
0.564093 0.086949 0.000000
0.576777 0.086949 0.000000
0.586214 0.086949 0.000000
0.598223 0.087623 0.000000
0.610907 0.087623 0.000000
0.623590 0.087623 0.000000
0.633334 0.087623 0.000000
0.646936 0.087623 0.000000
0.654473 0.087623 0.000000
0.670220 0.087623 0.000000
0.679166 0.087623 0.000000
0.688604 0.087623 0.000000
0.703186 0.087623 0.000000
0.716789 0.087623 0.000000
0.729902 0.087623 0.000000
0.740074 0.087623 0.000000
0.751348 0.087623 0.000000
0.764032 0.087623 0.000000
0.776716 0.087623 0.000000
0.789399 0.087623 0.000000
0.798836 0.087623 0.000000
0.813848 0.087623 0.000000
0.823529 0.087623 0.000000
0.000000 0.087868 0.000000
0.017524 0.087868 0.000000
0.036887 0.087868 0.000000
0.056495 0.087868 0.000000
0.077696 0.087868 0.000000
0.091544 0.087868 0.000000
0.105147 0.087868 0.000000
0.120160 0.087868 0.000000
0.136275 0.087868 0.000000
0.149878 0.089461 0.000000
0.166054 0.091789 0.000000
0.178738 0.091789 0.000000
0.194607 0.091789 0.000000
0.208027 0.091789 0.000000
0.220711 0.091789 0.000000
0.235417 0.091789 0.000000
0.249019 0.091789 0.000000
0.262622 0.091789 0.000000
0.272304 0.091789 0.000000
0.285907 0.091789 0.000000
0.296814 0.091789 0.000000
0.309498 0.091789 0.000000
0.323775 0.093382 0.000000
0.336458 0.093382 0.000000
0.350000 0.093382 0.000000
0.360233 0.093382 0.000000
0.373284 0.093382 0.000000
0.386887 0.093076 0.000000
0.400490 0.095711 0.000000
0.410968 0.095711 0.000000
0.423652 0.095711 0.000000
0.433456 0.095711 0.000000
0.447059 0.097672 0.000000
0.457782 0.097304 0.000000
0.470465 0.099632 0.000000
0.483150 0.101225 0.000000
0.493505 0.101225 0.000000
0.507231 0.101225 0.000000
0.517279 0.101225 0.000000
0.529963 0.101225 0.000000
0.540196 0.101225 0.000000
0.553003 0.101225 0.000000
0.567402 0.101225 0.000000
0.577084 0.101225 0.000000
0.591054 0.101225 0.000000
0.602145 0.101225 0.000000
0.613970 0.101225 0.000000
0.625184 0.101225 0.000000
0.636275 0.101225 0.000000
0.646630 0.101225 0.000000
0.660539 0.101225 0.000000
0.670404 0.101225 0.000000
0.679902 0.101225 0.000000
0.693505 0.101225 0.000000
0.704534 0.101225 0.000000
0.717218 0.101225 0.000000
0.731495 0.101225 0.000000
0.742585 0.101225 0.000000
0.752942 0.101225 0.000000
0.767279 0.101225 0.000000
0.776961 0.101225 0.000000
0.790992 0.101225 0.000000
0.804167 0.101225 0.000000
0.814767 0.101225 0.000000
0.827451 0.101225 0.000000
0.000000 0.100552 0.000000
0.017524 0.100552 0.000000
0.036887 0.100552 0.000000
0.056495 0.100552 0.000000
0.077696 0.100552 0.000000
0.091544 0.100552 0.000000
0.105147 0.100552 0.000000
0.120160 0.100552 0.000000
0.136275 0.100552 0.000000
0.149878 0.100552 0.000000
0.166054 0.103063 0.000000
0.181005 0.103063 0.000000
0.194607 0.103063 0.000000
0.210539 0.103063 0.000000
0.221814 0.103063 0.000000
0.235417 0.103063 0.000000
0.249019 0.103063 0.000000
0.262622 0.103063 0.000000
0.275368 0.103063 0.000000
0.288052 0.103063 0.000000
0.299510 0.103063 0.000000
0.313113 0.104473 0.000000
0.322794 0.104473 0.000000
0.336397 0.106985 0.000000
0.350000 0.106985 0.000000
0.363603 0.106985 0.000000
0.376839 0.106985 0.000000
0.389522 0.106985 0.000000
0.400490 0.108395 0.000000
0.414093 0.108395 0.000000
0.423774 0.108395 0.000000
0.438848 0.108395 0.000000
0.449019 0.108395 0.000000
0.460294 0.111274 0.000000
0.474265 0.112316 0.000000
0.485662 0.114828 0.000000
0.495833 0.114828 0.000000
0.507108 0.114828 0.000000
0.520834 0.114828 0.000000
0.530515 0.114828 0.000000
0.545159 0.114828 0.000000
0.555331 0.114828 0.000000
0.568014 0.114828 0.000000
0.583210 0.114828 0.000000
0.593382 0.114828 0.000000
0.604657 0.114828 0.000000
0.614828 0.116238 0.000000
0.623652 0.116238 0.000000
0.637255 0.116238 0.000000
0.648958 0.116238 0.000000
0.661642 0.116238 0.000000
0.674142 0.116238 0.000000
0.685600 0.116238 0.000000
0.695772 0.116238 0.000000
0.707047 0.116238 0.000000
0.720711 0.116238 0.000000
0.730392 0.116238 0.000000
0.745098 0.116238 0.000000
0.755270 0.116238 0.000000
0.767953 0.116238 0.000000
0.780637 0.116238 0.000000
0.790563 0.116238 0.000000
0.804167 0.116238 0.000000
0.817280 0.116238 0.000000
0.829964 0.116238 0.000000
0.000000 0.112745 0.000000
0.017524 0.112745 0.000000
0.036887 0.112745 0.000000
0.056495 0.112745 0.000000
0.077696 0.112745 0.000000
0.091544 0.112745 0.000000
0.105147 0.112745 0.000000
0.123590 0.112745 0.000000
0.136275 0.112745 0.000000
0.149878 0.113235 0.000000
0.166054 0.113235 0.000000
0.181005 0.116667 0.000000
0.194607 0.116667 0.000000
0.208211 0.116667 0.000000
0.221814 0.116667 0.000000
0.235417 0.116667 0.000000
0.249019 0.116667 0.000000
0.262193 0.116667 0.000000
0.275368 0.116667 0.000000
0.288052 0.116667 0.000000
0.300735 0.116667 0.000000
0.313420 0.116667 0.000000
0.329534 0.117157 0.000000
0.342218 0.120588 0.000000
0.351471 0.120588 0.000000
0.364154 0.120588 0.000000
0.377206 0.120588 0.000000
0.392953 0.120588 0.000000
0.405637 0.120588 0.000000
0.414890 0.120588 0.000000
0.427574 0.120588 0.000000
0.437377 0.120589 0.000000
0.452451 0.119118 0.000000
0.461703 0.121079 0.000000
0.473897 0.124510 0.000000
0.487071 0.125000 0.000000
0.497549 0.128432 0.000000
0.508517 0.128432 0.000000
0.521201 0.128432 0.000000
0.533885 0.128432 0.000000
0.544118 0.128432 0.000000
0.557720 0.128432 0.000000
0.571324 0.128432 0.000000
0.584620 0.128432 0.000000
0.594608 0.128432 0.000000
0.606066 0.127145 0.000000
0.617892 0.128922 0.000000
0.630943 0.132353 0.000000
0.640196 0.132353 0.000000
0.650858 0.132353 0.000000
0.665074 0.132353 0.000000
0.674326 0.132353 0.000000
0.687010 0.132353 0.000000
0.697427 0.132353 0.000000
0.711888 0.132353 0.000000
0.721140 0.132353 0.000000
0.733823 0.132353 0.000000
0.746507 0.132353 0.000000
0.757598 0.132353 0.000000
0.771385 0.132353 0.000000
0.784068 0.132353 0.000000
0.796753 0.132353 0.000000
0.809437 0.132353 0.000000
0.818689 0.132353 0.000000
0.831373 0.132353 0.000000
0.000000 0.121998 0.000000
0.017524 0.125919 0.000000
0.036887 0.125919 0.000000
0.056495 0.125919 0.000000
0.077696 0.125919 0.000000
0.094792 0.125919 0.000000
0.109068 0.125919 0.000000
0.122671 0.125919 0.000000
0.140196 0.125919 0.000000
0.149878 0.126348 0.000000
0.167402 0.126348 0.000000
0.181005 0.126348 0.000000
0.195343 0.129841 0.000000
0.208211 0.129841 0.000000
0.224632 0.129841 0.000000
0.237316 0.129841 0.000000
0.250000 0.129841 0.000000
0.262684 0.129841 0.000000
0.276226 0.130270 0.000000
0.289829 0.130270 0.000000
0.303431 0.130270 0.000000
0.317034 0.130270 0.000000
0.330025 0.130270 0.000000
0.342708 0.130270 0.000000
0.351900 0.133762 0.000000
0.367524 0.133762 0.000000
0.377206 0.133762 0.000000
0.389951 0.133762 0.000000
0.404412 0.133762 0.000000
0.418015 0.133762 0.000000
0.428002 0.133762 0.000000
0.440258 0.133762 0.000000
0.452941 0.133762 0.000000
0.464584 0.133762 0.000000
0.474387 0.134191 0.000000
0.487071 0.138481 0.000000
0.499755 0.138113 0.000000
0.512439 0.141605 0.000000
0.524755 0.142034 0.000000
0.534313 0.142034 0.000000
0.548039 0.142034 0.000000
0.559252 0.142034 0.000000
0.571936 0.142034 0.000000
0.585049 0.142034 0.000000
0.597304 0.142034 0.000000
0.609988 0.142034 0.000000
0.621813 0.142034 0.000000
0.631434 0.145527 0.000000
0.640625 0.145956 0.000000
0.654779 0.145956 0.000000
0.668382 0.145956 0.000000
0.678247 0.145956 0.000000
0.690931 0.145956 0.000000
0.700122 0.145956 0.000000
0.714951 0.145956 0.000000
0.725061 0.145956 0.000000
0.738235 0.145956 0.000000
0.750429 0.145956 0.000000
0.759621 0.145956 0.000000
0.772304 0.145956 0.000000
0.784988 0.145956 0.000000
0.798407 0.145956 0.000000
0.812010 0.145956 0.000000
0.822610 0.145956 0.000000
0.835294 0.145956 0.000000
0.000000 0.134681 0.000000
0.017524 0.136029 0.000000
0.036887 0.138603 0.000000
0.056495 0.138603 0.000000
0.077696 0.138603 0.000000
0.094792 0.138603 0.000000
0.109068 0.138603 0.000000
0.126593 0.138603 0.000000
0.140196 0.138603 0.000000
0.154718 0.138603 0.000000
0.167402 0.139951 0.000000
0.180086 0.139951 0.000000
0.198529 0.142524 0.000000
0.211949 0.142524 0.000000
0.224632 0.142524 0.000000
0.239338 0.142524 0.000000
0.252941 0.142524 0.000000
0.266544 0.142524 0.000000
0.276226 0.143872 0.000000
0.289829 0.143872 0.000000
0.303431 0.143872 0.000000
0.317034 0.143872 0.000000
0.331373 0.143872 0.000000
0.344240 0.143872 0.000000
0.357843 0.146446 0.000000
0.368076 0.146446 0.000000
0.380760 0.146446 0.000000
0.393444 0.146446 0.000000
0.406128 0.146446 0.000000
0.418015 0.146446 0.000000
0.427696 0.146446 0.000000
0.441606 0.146446 0.000000
0.452941 0.146446 0.000000
0.463052 0.146446 0.000000
0.478186 0.147794 0.000000
0.487868 0.150368 0.000000
0.499755 0.152084 0.000000
0.512439 0.154289 0.000000
0.525122 0.157843 0.000000
0.537806 0.155637 0.000000
0.547917 0.155637 0.000000
0.561642 0.155637 0.000000
0.571936 0.155637 0.000000
0.584927 0.155637 0.000000
0.598652 0.155637 0.000000
0.609988 0.155637 0.000000
0.622671 0.158211 0.000000
0.631496 0.159559 0.000000
0.644118 0.159559 0.000000
0.656802 0.159559 0.000000
0.669485 0.159559 0.000000
0.679596 0.159559 0.000000
0.691667 0.159559 0.000000
0.705270 0.159559 0.000000
0.716299 0.162132 0.000000
0.726410 0.162132 0.000000
0.738235 0.162132 0.000000
0.751777 0.162132 0.000000
0.764460 0.162132 0.000000
0.779044 0.162132 0.000000
0.789828 0.162132 0.000000
0.802512 0.162132 0.000000
0.811274 0.162132 0.000000
0.823959 0.162132 0.000000
0.839216 0.162132 0.000000
0.000000 0.143443 0.000000
0.017524 0.147365 0.000000
0.036887 0.149632 0.000000
0.056495 0.151287 0.000000
0.077696 0.151287 0.000000
0.094792 0.151287 0.000000
0.109068 0.151287 0.000000
0.126593 0.151287 0.000000
0.140686 0.151287 0.000000
0.153799 0.151287 0.000000
0.169975 0.153554 0.000000
0.182659 0.153554 0.000000
0.198529 0.153554 0.000000
0.214216 0.155208 0.000000
0.225735 0.155208 0.000000
0.239338 0.155208 0.000000
0.252941 0.155208 0.000000
0.266544 0.155208 0.000000
0.279289 0.157475 0.000000
0.291973 0.157475 0.000000
0.303002 0.157475 0.000000
0.317341 0.157475 0.000000
0.330637 0.157475 0.000000
0.344240 0.157475 0.000000
0.357659 0.159130 0.000000
0.371446 0.159130 0.000000
0.383027 0.159130 0.000000
0.393444 0.159130 0.000000
0.406128 0.159130 0.000000
0.418811 0.159130 0.000000
0.431496 0.159130 0.000000
0.441299 0.159130 0.000000
0.452941 0.159130 0.000000
0.465625 0.159130 0.000000
0.478186 0.162929 0.000000
0.487868 0.159927 0.000000
0.501470 0.163051 0.000000
0.515074 0.165318 0.000000
0.525122 0.166973 0.000000
0.538358 0.169240 0.000000
0.550490 0.169240 0.000000
0.563174 0.169240 0.000000
0.574204 0.169240 0.000000
0.584927 0.169240 0.000000
0.598529 0.169240 0.000000
0.612255 0.169118 0.000000
0.622671 0.170894 0.000000
0.635355 0.173162 0.000000
0.645098 0.173162 0.000000
0.658701 0.173162 0.000000
0.672304 0.173162 0.000000
0.685907 0.173162 0.000000
0.697121 0.173162 0.000000
0.707537 0.172549 0.000000
0.718567 0.174816 0.000000
0.732475 0.178309 0.000000
0.742156 0.177083 0.000000
0.756617 0.177083 0.000000
0.769363 0.177083 0.000000
0.782966 0.177083 0.000000
0.794669 0.177083 0.000000
0.805086 0.177083 0.000000
0.815932 0.177083 0.000000
0.829535 0.177083 0.000000
0.841483 0.177083 0.000000
0.000000 0.156128 0.000000
0.017524 0.159313 0.000000
0.036887 0.160049 0.000000
0.056495 0.160049 0.000000
0.077206 0.163235 0.000000
0.094792 0.163235 0.000000
0.109068 0.163235 0.000000
0.126593 0.163235 0.000000
0.144118 0.163235 0.000000
0.160478 0.163971 0.000000
0.171323 0.163971 0.000000
0.184926 0.167156 0.000000
0.198529 0.167156 0.000000
0.212133 0.167156 0.000000
0.225735 0.167156 0.000000
0.239338 0.167156 0.000000
0.252941 0.166911 0.000000
0.265871 0.167892 0.000000
0.279289 0.171078 0.000000
0.291973 0.171078 0.000000
0.304657 0.171078 0.000000
0.317341 0.171078 0.000000
0.330637 0.171078 0.000000
0.346630 0.171078 0.000000
0.359314 0.171078 0.000000
0.371997 0.171078 0.000000
0.384682 0.171078 0.000000
0.394730 0.171078 0.000000
0.409314 0.171078 0.000000
0.418811 0.171078 0.000000
0.431496 0.171078 0.000000
0.441299 0.171078 0.000000
0.454902 0.169853 0.000000
0.465625 0.171814 0.000000
0.478308 0.171814 0.000000
0.490993 0.175000 0.000000
0.501470 0.173530 0.000000
0.515074 0.178921 0.000000
0.528677 0.178921 0.000000
0.538358 0.182843 0.000000
0.551961 0.182843 0.000000
0.566360 0.182843 0.000000
0.575858 0.182843 0.000000
0.588541 0.182843 0.000000
0.601226 0.182843 0.000000
0.612132 0.183579 0.000000
0.622671 0.183579 0.000000
0.635355 0.186764 0.000000
0.648039 0.186764 0.000000
0.660723 0.186764 0.000000
0.672304 0.186764 0.000000
0.685356 0.186764 0.000000
0.698774 0.184313 0.000000
0.709191 0.187500 0.000000
0.723407 0.190686 0.000000
0.732904 0.190686 0.000000
0.748774 0.190686 0.000000
0.758272 0.190686 0.000000
0.770956 0.190686 0.000000
0.783640 0.190686 0.000000
0.799510 0.190686 0.000000
0.809007 0.190686 0.000000
0.819853 0.190686 0.000000
0.833640 0.190686 0.000000
0.843137 0.190686 0.000000
0.000000 0.168811 0.000000
0.018443 0.168811 0.000000
0.038970 0.168995 0.000000
0.056678 0.172733 0.000000
0.077941 0.176409 0.000000
0.094792 0.176655 0.000000
0.109068 0.176655 0.000000
0.126593 0.176655 0.000000
0.144118 0.176655 0.000000
0.157721 0.176655 0.000000
0.171323 0.178003 0.000000
0.184926 0.176839 0.000000
0.198529 0.180576 0.000000
0.212133 0.180576 0.000000
0.228554 0.180576 0.000000
0.241238 0.180576 0.000000
0.253922 0.180576 0.000000
0.266606 0.180576 0.000000
0.280147 0.181434 0.000000
0.293750 0.180760 0.000000
0.307353 0.184498 0.000000
0.320956 0.184498 0.000000
0.333946 0.184498 0.000000
0.346630 0.184498 0.000000
0.359314 0.184498 0.000000
0.371997 0.184498 0.000000
0.384682 0.184498 0.000000
0.397365 0.184498 0.000000
0.406312 0.184498 0.000000
0.421936 0.184498 0.000000
0.431618 0.184498 0.000000
0.445220 0.184498 0.000000
0.456863 0.184498 0.000000
0.465808 0.184682 0.000000
0.482108 0.184682 0.000000
0.491789 0.188419 0.000000
0.505392 0.188419 0.000000
0.516360 0.188603 0.000000
0.529044 0.192341 0.000000
