Color/CreativePack-1/Smokey 65x.cube
TITLE "Smokey"
LUT_3D_SIZE 9
DOMAIN_MIN 0.000000 0.000000 0.000000
DOMAIN_MAX 1.000000 1.000000 1.000000
0.000000 0.000000 0.000000
0.136275 0.000000 0.000000
0.246078 0.000000 0.000000
0.343627 0.000000 0.000000
0.435295 0.000000 0.000000
0.530882 0.000000 0.000000
0.620588 0.000000 0.000000
0.718137 0.000000 0.000000
0.807843 0.000000 0.000000
0.000000 0.112745 0.000000
0.136275 0.112745 0.000000
0.249019 0.116667 0.000000
0.351471 0.120588 0.000000
0.452451 0.119118 0.000000
0.544118 0.128432 0.000000
0.640196 0.132353 0.000000
0.733823 0.132353 0.000000
0.831373 0.132353 0.000000
0.000000 0.206863 0.000000
0.144118 0.210785 0.000000
0.256863 0.214706 0.000000
0.359314 0.222549 0.000000
0.463726 0.222549 0.000000
0.559804 0.234314 0.000000
0.655882 0.238236 0.000000
0.757353 0.246079 0.000000
0.850980 0.246078 0.000000
0.000000 0.300490 0.000000
0.148040 0.304412 0.000000
0.261765 0.312255 0.000000
0.371078 0.324020 0.000000
0.474509 0.331863 0.000000
0.571568 0.339706 0.000000
0.675490 0.346078 0.000000
0.776961 0.353922 0.000000
0.869118 0.359314 0.000000
0.000000 0.396079 0.000000
0.151961 0.403921 0.000000
0.272549 0.416667 0.000000
0.381373 0.423530 0.000000
0.486274 0.431373 0.000000
0.587255 0.443137 0.000000
0.691176 0.450981 0.000000
0.794608 0.458823 0.000000
0.888235 0.466666 0.000000
0.000000 0.497059 0.000000
0.155883 0.504902 0.000000
0.280392 0.516667 0.000000
0.393137 0.528431 0.000000
0.498039 0.536274 0.000000
0.599020 0.548039 0.000000
0.706862 0.559314 0.000000
0.805883 0.566667 0.000000
0.907353 0.579412 0.000000
0.000000 0.604902 0.000000
0.155883 0.612745 0.000000
0.281373 0.624510 0.000000
0.397059 0.640196 0.000000
0.505883 0.648039 0.000000
0.613235 0.663725 0.000000
0.719608 0.676471 0.000000
0.825000 0.688236 0.000000
0.922549 0.699019 0.000000
0.000000 0.706863 0.000000
0.163726 0.718627 0.000000
0.289216 0.734313 0.000000
0.408824 0.750000 0.000000
0.513726 0.761764 0.000000
0.625000 0.777451 0.000000
0.731373 0.793137 0.000000
0.836274 0.804902 0.000000
0.941666 0.820588 0.000000
0.000000 0.819608 0.000000
0.167647 0.835294 0.000000
0.296078 0.850980 0.000000
0.416667 0.866667 0.000000
0.529411 0.882353 0.000000
0.640686 0.899510 0.000000
0.746079 0.910784 0.000000
0.851961 0.925980 0.000000
0.956863 0.941176 0.000000
0.000000 0.000000 0.054412
0.136275 0.000000 0.062255
0.246078 0.000000 0.062255
0.343627 0.000000 0.062255
0.435295 0.000000 0.066177
0.534804 0.000000 0.074020
0.624510 0.000000 0.077941
0.718137 0.000000 0.085295
0.811765 0.000000 0.085785
0.000000 0.112745 0.062255
0.144118 0.116667 0.062255
0.249509 0.116667 0.066177
0.351471 0.120588 0.074020
0.450981 0.120589 0.077941
0.550000 0.128432 0.085294
0.644117 0.132353 0.085294
0.737745 0.132353 0.089216
0.835294 0.132353 0.089706
0.000000 0.206863 0.066177
0.144118 0.214706 0.074020
0.256863 0.218627 0.077451
0.361765 0.222549 0.084804
0.466666 0.226470 0.085294
0.561274 0.234314 0.089216
0.663725 0.242157 0.089706
0.757843 0.246079 0.097059
0.854902 0.249019 0.100981
0.000000 0.300490 0.077941
0.148040 0.308333 0.077941
0.261765 0.320098 0.085294
0.375000 0.327941 0.089216
0.478432 0.331863 0.089706
0.576471 0.343627 0.097059
0.679412 0.348529 0.100981
0.777451 0.355882 0.105392
0.874510 0.359314 0.112745
0.000000 0.400000 0.085294
0.151961 0.407844 0.089216
0.272549 0.415686 0.089706
0.384804 0.427451 0.097059
0.486274 0.435295 0.101471
0.591666 0.447059 0.104902
0.691176 0.450980 0.112745
0.793137 0.462746 0.112745
0.892157 0.470588 0.116667
0.000000 0.500980 0.089706
0.155883 0.510784 0.097059
0.280392 0.522059 0.100981
0.392157 0.532353 0.104902
0.501961 0.540686 0.112745
0.602941 0.551961 0.112745
0.706863 0.559804 0.116667
0.808823 0.575490 0.128432
0.911274 0.583333 0.132353
0.000000 0.608823 0.100981
0.155883 0.616667 0.104902
0.284314 0.631863 0.112745
0.400980 0.640196 0.112745
0.505883 0.652941 0.116667
0.614706 0.667647 0.120589
0.722549 0.680392 0.132353
0.824509 0.695588 0.132353
0.926471 0.706863 0.136275
0.000000 0.714706 0.112745
0.163726 0.726470 0.112745
0.289216 0.738235 0.116667
0.410784 0.757843 0.120589
0.517648 0.769607 0.132353
0.630392 0.781372 0.132353
0.734804 0.797058 0.136275
0.840196 0.812745 0.144118
0.945588 0.824510 0.148039
0.000000 0.823529 0.117157
0.167647 0.839216 0.120588
0.296078 0.854902 0.132353
0.416667 0.870588 0.132353
0.529411 0.888235 0.136275
0.640686 0.905882 0.144118
0.750000 0.918627 0.148040
0.851961 0.933823 0.155883
0.956863 0.941176 0.155883
0.000000 0.000000 0.097059
0.136275 0.000000 0.100981
0.246078 0.000000 0.112745
0.343627 0.000000 0.116667
0.439215 0.000000 0.120588
0.537745 0.000000 0.128432
0.632353 0.000000 0.136274
0.722059 0.000000 0.144117
0.815686 0.000000 0.151961
0.000000 0.112745 0.112745
0.144118 0.116667 0.116667
0.250000 0.116667 0.120589
0.355392 0.120588 0.128431
0.450981 0.128432 0.136274
0.553432 0.128432 0.144118
0.648039 0.132353 0.151961
0.742156 0.132353 0.163725
0.839216 0.136275 0.167647
0.000000 0.210785 0.120589
0.148039 0.214706 0.128432
0.256863 0.222549 0.136274
0.363235 0.222549 0.144118
0.466666 0.226470 0.151961
0.565196 0.238236 0.163725
0.667647 0.242157 0.163725
0.761764 0.246079 0.171569
0.858824 0.249019 0.183334
0.000000 0.304412 0.136274
0.151961 0.308333 0.144118
0.261765 0.324020 0.151961
0.377451 0.327941 0.163725
0.478432 0.335784 0.163725
0.580392 0.343627 0.171569
0.683334 0.351471 0.183334
0.777451 0.359314 0.187255
0.878431 0.363235 0.195098
0.000000 0.400000 0.148039
0.155883 0.411764 0.155882
0.272549 0.419608 0.163725
0.384804 0.431373 0.171569
0.490197 0.439215 0.183333
0.591666 0.450981 0.187255
0.699019 0.454902 0.195098
0.797058 0.466666 0.206863
0.900000 0.474510 0.214706
0.000000 0.502451 0.163725
0.155883 0.516667 0.171568
0.280392 0.525980 0.183334
0.396078 0.536274 0.187255
0.501961 0.548529 0.195098
0.606863 0.555882 0.206863
0.710784 0.567647 0.214706
0.812745 0.579412 0.222549
0.915196 0.591176 0.226470
0.000000 0.608824 0.183334
0.163726 0.620588 0.187255
0.284314 0.636275 0.195098
0.400980 0.648039 0.206863
0.509804 0.656863 0.210784
0.617157 0.675490 0.222549
0.726471 0.684314 0.226470
0.828431 0.699510 0.242157
0.930392 0.710784 0.246079
0.000000 0.718627 0.195098
0.163726 0.730392 0.206863
0.293138 0.746078 0.210785
0.412745 0.761764 0.222549
0.521568 0.777451 0.226961
0.630392 0.793137 0.242157
0.738725 0.804902 0.246078
0.848039 0.816666 0.256863
0.949510 0.828431 0.261765
0.000000 0.827451 0.210785
0.167647 0.847059 0.222549
0.300000 0.862745 0.226470
0.420588 0.882353 0.242157
0.529411 0.896079 0.246078
0.644608 0.911274 0.253922
0.750000 0.922549 0.261765
0.855882 0.937745 0.272549
0.960784 0.949020 0.280392
0.000000 0.000000 0.135784
0.136275 0.000000 0.147549
0.246079 0.000000 0.151471
0.347549 0.000000 0.163235
0.443137 0.000000 0.171078
0.538725 0.000000 0.182843
0.632353 0.000000 0.190686
0.729902 0.000000 0.198529
0.823529 0.000000 0.214216
0.000000 0.112745 0.151471
0.144118 0.116667 0.163235
0.252941 0.120588 0.171078
0.359314 0.120588 0.182843
0.454902 0.128432 0.190686
0.553922 0.132353 0.198529
0.651960 0.132353 0.214216
0.749510 0.132353 0.222059
0.843137 0.136275 0.233824
0.000000 0.210785 0.171078
0.148040 0.218627 0.182843
0.260784 0.222549 0.190686
0.367157 0.226470 0.198529
0.466666 0.234314 0.214216
0.569117 0.242157 0.222059
0.667647 0.246079 0.233824
0.765686 0.246079 0.245588
0.862745 0.252941 0.253431
0.000000 0.304412 0.190686
0.151961 0.312255 0.198529
0.269608 0.327941 0.214216
0.381373 0.331863 0.222059
0.482353 0.339706 0.233824
0.584314 0.345098 0.245588
0.683334 0.352451 0.253431
0.781372 0.359804 0.269118
0.882353 0.367157 0.276961
0.000000 0.403922 0.214216
0.155883 0.415686 0.222059
0.276470 0.423530 0.233824
0.388726 0.431373 0.245588
0.494117 0.443137 0.253431
0.595588 0.450981 0.262745
0.699019 0.458823 0.276961
0.797058 0.466666 0.289216
0.900000 0.478432 0.300490
0.000000 0.505882 0.233824
0.155883 0.520588 0.245588
0.280392 0.529902 0.253431
0.396078 0.541176 0.262745
0.501961 0.551961 0.278431
0.606863 0.559804 0.290196
0.710784 0.567647 0.301470
0.816666 0.583333 0.309804
0.919118 0.595098 0.329412
0.000000 0.612745 0.253431
0.163726 0.624510 0.261275
0.284314 0.640196 0.277941
0.403431 0.651960 0.289706
0.513726 0.667647 0.301470
0.618627 0.676471 0.309314
0.730392 0.692157 0.328921
0.832353 0.703431 0.336764
0.938235 0.715687 0.348529
0.000000 0.722549 0.273529
0.167647 0.738235 0.289216
0.293137 0.753921 0.300980
0.412745 0.765686 0.308824
0.521568 0.781372 0.328431
0.632843 0.797059 0.336274
0.742647 0.808823 0.348039
0.848039 0.820588 0.359804
0.953431 0.836274 0.371569
0.000000 0.835294 0.296569
0.167647 0.854902 0.308333
0.300000 0.866667 0.327941
0.420588 0.888726 0.335784
0.529411 0.900000 0.347549
0.644608 0.915196 0.359314
0.757843 0.926471 0.372059
0.859804 0.941666 0.379412
0.964706 0.952941 0.390686
0.000000 0.000000 0.176471
0.136275 0.000000 0.186275
0.246078 0.000000 0.194117
0.347549 0.000000 0.209804
0.447059 0.000000 0.217647
0.542647 0.000000 0.233333
0.640196 0.000000 0.245098
0.729902 0.000000 0.256863
0.823529 0.000000 0.276470
0.000000 0.116667 0.194117
0.144118 0.116667 0.209804
0.252941 0.120589 0.217647
0.359314 0.128432 0.233333
0.458823 0.128432 0.245098
0.557843 0.132353 0.256863
0.651960 0.132353 0.276470
0.750000 0.136275 0.284314
0.847059 0.136275 0.296079
0.000000 0.214706 0.217647
0.148039 0.218627 0.234804
0.261765 0.222549 0.246078
0.369118 0.226471 0.257844
0.470588 0.237255 0.272549
0.569117 0.242157 0.284314
0.671569 0.246079 0.297059
0.769607 0.249019 0.309314
0.866667 0.252941 0.327451
0.000000 0.308333 0.245098
0.151961 0.320098 0.256863
0.269608 0.327941 0.273529
0.381373 0.335784 0.286765
0.482353 0.343627 0.298040
0.584314 0.349020 0.309804
0.687255 0.356372 0.328431
0.785294 0.359804 0.339706
0.884804 0.369118 0.353432
0.000000 0.407844 0.272549
0.155883 0.415686 0.284314
0.276470 0.427451 0.298040
0.388726 0.435295 0.309804
0.494117 0.447059 0.325491
0.599510 0.454902 0.336764
0.699019 0.462745 0.352941
0.804902 0.470589 0.364706
0.903922 0.482353 0.380393
0.000000 0.509314 0.297549
0.155883 0.521078 0.309314
0.280392 0.532843 0.325000
0.396078 0.544608 0.336764
0.501961 0.552451 0.352451
0.609314 0.563725 0.364215
0.715687 0.575490 0.379902
0.820588 0.583823 0.399510
0.923039 0.599020 0.415196
0.000000 0.620588 0.324510
0.163726 0.631863 0.336274
0.288235 0.644118 0.351961
0.407353 0.655883 0.363725
0.513726 0.668628 0.380393
0.622549 0.684314 0.399510
0.731373 0.696079 0.414706
0.836274 0.707353 0.430392
0.942157 0.719608 0.443137
0.000000 0.730392 0.347549
0.167647 0.742156 0.363235
0.293137 0.757843 0.380392
0.412745 0.773529 0.400000
0.525490 0.785294 0.415686
0.634804 0.800980 0.430882
0.742647 0.816666 0.443137
0.848039 0.824510 0.458823
0.953431 0.836274 0.470589
0.000000 0.843137 0.380393
0.171569 0.858824 0.400000
0.300000 0.874510 0.415686
0.420588 0.892157 0.431373
0.533334 0.907843 0.443137
0.644608 0.921569 0.458824
0.757843 0.934313 0.470588
0.863725 0.945588 0.482353
0.964706 0.956863 0.494117
0.000000 0.000000 0.217157
0.136275 0.000000 0.226961
0.250000 0.000000 0.242157
0.351471 0.000000 0.253431
0.447059 0.000000 0.272549
0.542647 0.000000 0.283824
0.640196 0.000000 0.300490
0.733823 0.000000 0.319608
0.827451 0.000000 0.337255
0.000000 0.116667 0.242647
0.144118 0.116667 0.254412
0.252941 0.120589 0.274020
0.359314 0.128432 0.285785
0.460294 0.132353 0.301471
0.561765 0.132353 0.322549
0.655882 0.132353 0.335784
0.757353 0.136275 0.352941
0.850980 0.144118 0.368137
0.000000 0.214706 0.273529
0.148039 0.222549 0.285785
0.261765 0.222549 0.300980
0.371078 0.233333 0.322059
0.474510 0.238236 0.337745
0.573039 0.246078 0.353432
0.675490 0.246078 0.368627
0.773529 0.250000 0.384804
0.868137 0.256863 0.396568
0.000000 0.312255 0.301961
0.151961 0.324020 0.321079
0.272549 0.327941 0.337745
0.381373 0.337255 0.352941
0.486274 0.343627 0.368627
0.584314 0.351471 0.380392
0.691176 0.359314 0.396078
0.789215 0.363725 0.411765
0.888726 0.372549 0.431373
0.000000 0.411764 0.336764
0.155883 0.419608 0.348529
0.275490 0.431372 0.364215
0.392157 0.439216 0.379902
0.498039 0.450981 0.391666
0.599510 0.458824 0.407353
0.702941 0.466667 0.426961
0.804902 0.474510 0.446568
0.907843 0.482353 0.466176
0.000000 0.516667 0.363725
0.155883 0.526471 0.379412
0.280392 0.536274 0.391176
0.397059 0.548039 0.407843
0.501961 0.556372 0.426961
0.610784 0.567647 0.446078
0.719608 0.579412 0.465686
0.820588 0.591176 0.485294
0.923039 0.599020 0.500980
0.000000 0.620588 0.390686
0.163726 0.636275 0.408824
0.289216 0.648039 0.427941
0.407353 0.660785 0.446078
0.513726 0.675490 0.466176
0.622549 0.684314 0.485294
0.731373 0.700000 0.500980
0.836274 0.711765 0.520588
0.942157 0.726470 0.536274
0.000000 0.730392 0.426470
0.167647 0.750000 0.446078
0.296078 0.761764 0.467157
0.416667 0.777451 0.486275
0.525490 0.793137 0.501470
0.638235 0.804902 0.520588
0.746569 0.820588 0.536274
0.851961 0.832353 0.552451
0.957353 0.844117 0.570098
0.000000 0.847059 0.468137
0.171569 0.866667 0.483333
0.300000 0.882353 0.502451
0.424510 0.898039 0.521569
0.537254 0.911274 0.536764
0.648529 0.923039 0.551961
0.757843 0.942157 0.567647
0.863725 0.949510 0.583333
0.964706 0.956863 0.597549
0.000000 0.000000 0.254902
0.136275 0.000000 0.274020
0.250000 0.000000 0.285295
0.351471 0.000000 0.304412
0.450980 0.000000 0.322549
0.548039 0.000000 0.341176
0.644118 0.000000 0.357843
0.737745 0.000000 0.376961
0.831373 0.000000 0.396078
0.000000 0.116667 0.285785
0.144118 0.120588 0.301471
0.256863 0.120098 0.322059
0.360294 0.128432 0.341666
0.464216 0.132353 0.357353
0.559804 0.132353 0.376961
0.659804 0.132353 0.396568
0.757843 0.136275 0.412255
0.854902 0.144118 0.431863
0.000000 0.218628 0.320588
0.148040 0.222549 0.337255
0.261765 0.226470 0.356863
0.372059 0.234314 0.376471
0.474510 0.242157 0.396078
0.575490 0.246079 0.410294
0.675490 0.249019 0.431373
0.777451 0.252941 0.447059
0.871568 0.256863 0.466667
0.000000 0.312255 0.356373
0.151961 0.327941 0.375981
0.272059 0.331863 0.395588
0.381373 0.340686 0.411274
0.486274 0.344608 0.430883
0.591176 0.353922 0.445588
0.691176 0.360294 0.466177
0.793137 0.367647 0.485785
0.891177 0.375981 0.505392
0.000000 0.415687 0.391176
0.155883 0.428922 0.410784
0.280392 0.431373 0.430392
0.393137 0.443137 0.446078
0.501961 0.450980 0.461765
0.599019 0.462745 0.484804
0.706863 0.470588 0.504902
0.804902 0.482353 0.525000
0.910784 0.490197 0.548039
0.000000 0.520588 0.432353
0.155883 0.532353 0.445588
0.284314 0.540196 0.461275
0.400980 0.551961 0.484804
0.505883 0.559804 0.500490
0.614706 0.567647 0.525000
0.722549 0.583333 0.548530
0.824509 0.595098 0.570098
0.926961 0.606863 0.593137
0.000000 0.628432 0.463726
0.163726 0.640196 0.482843
0.289216 0.651960 0.502941
0.408824 0.668628 0.525980
0.517648 0.676471 0.545098
0.626470 0.692157 0.570588
0.735294 0.703922 0.594118
0.840196 0.715687 0.613236
0.942157 0.730392 0.633334
0.000000 0.738235 0.502941
0.167647 0.753921 0.525980
0.296078 0.765686 0.545588
0.416667 0.781372 0.570098
0.529411 0.797058 0.591666
0.640686 0.808823 0.613236
0.750491 0.824510 0.632844
0.851961 0.836274 0.652451
0.957353 0.848039 0.668138
0.000000 0.854902 0.546079
0.171569 0.866667 0.569608
0.300000 0.886275 0.592157
0.426961 0.902941 0.612745
0.537254 0.914706 0.632353
0.648529 0.930882 0.648039
0.757843 0.942157 0.667647
0.867647 0.953431 0.683334
0.968627 0.961765 0.695098
0.000000 0.000000 0.298039
0.144118 0.000000 0.313726
0.250000 0.000000 0.336275
0.355392 0.000000 0.352941
0.450981 0.000000 0.369117
0.550490 0.000000 0.388725
0.648039 0.000000 0.412255
0.742156 0.000000 0.435784
0.839216 0.000000 0.455392
0.000000 0.116667 0.332843
0.148039 0.120589 0.352451
0.256863 0.128432 0.368137
0.363235 0.128432 0.388235
0.468137 0.132353 0.411765
0.563725 0.132353 0.429412
0.667647 0.136275 0.452451
0.761764 0.136275 0.474510
0.858824 0.144118 0.498039
0.000000 0.218627 0.368137
0.151961 0.222549 0.387745
0.261765 0.226470 0.411275
0.375000 0.238236 0.430392
0.479412 0.242157 0.453431
0.579412 0.246078 0.472549
0.679412 0.247058 0.497549
0.777451 0.253922 0.517157
0.875000 0.261765 0.536765
0.000000 0.320098 0.406863
0.155883 0.327941 0.430392
0.272059 0.335784 0.453921
0.385294 0.343627 0.473529
0.490196 0.348039 0.496569
0.591176 0.355882 0.515687
0.695098 0.361765 0.534804
0.797058 0.367647 0.560294
0.896569 0.379412 0.580882
0.000000 0.419607 0.455392
0.155883 0.432843 0.473039
0.280392 0.435294 0.496569
0.397059 0.447058 0.512255
0.501961 0.454902 0.531863
0.606863 0.466667 0.559314
0.707353 0.474509 0.582843
0.812745 0.482353 0.608823
0.911764 0.494118 0.632353
0.000000 0.520588 0.498529
0.163726 0.536274 0.511765
0.282843 0.544118 0.531373
0.400981 0.555882 0.559314
0.509804 0.563725 0.582843
0.617157 0.575490 0.609804
0.726471 0.586765 0.629412
0.828431 0.599019 0.655882
0.930882 0.606863 0.680392
0.000000 0.632353 0.533823
0.163726 0.644608 0.558334
0.290197 0.656373 0.580883
0.412745 0.672059 0.610784
0.517647 0.685294 0.629902
0.629902 0.699510 0.656863
0.738725 0.707843 0.679902
0.844117 0.719608 0.702941
0.946079 0.731373 0.723039
0.000000 0.742156 0.581372
0.167647 0.757843 0.604902
0.296078 0.777451 0.628431
0.418627 0.789215 0.655882
0.529412 0.800980 0.679412
0.642157 0.816666 0.702941
0.750491 0.828431 0.722549
0.855882 0.840196 0.746078
0.957353 0.848039 0.761764
0.000000 0.859314 0.627941
0.171569 0.875000 0.655392
0.300980 0.890686 0.678921
0.428431 0.906372 0.702451
0.541177 0.922059 0.722549
0.652451 0.934804 0.742156
0.758333 0.946079 0.761764
0.867647 0.957353 0.777451
0.969117 0.964706 0.792647
0.000000 0.000000 0.341176
0.144118 0.000000 0.360784
0.253922 0.000000 0.376471
0.359314 0.000000 0.400000
0.454902 0.000000 0.423529
0.554412 0.000000 0.443137
0.648039 0.000000 0.470588
0.745588 0.000000 0.494118
0.839216 0.000000 0.513726
0.000000 0.116667 0.375981
0.148040 0.120588 0.395588
0.260784 0.128432 0.423039
0.367157 0.132353 0.441667
0.466666 0.132353 0.470098
0.563725 0.132353 0.491667
0.667647 0.136275 0.510784
0.764705 0.144118 0.537745
0.862745 0.144118 0.560784
0.000000 0.222549 0.418627
0.151961 0.222549 0.442157
0.269608 0.233333 0.465687
0.378922 0.238236 0.492647
0.483334 0.246078 0.511765
0.579412 0.246078 0.538725
0.683333 0.252941 0.560784
0.783823 0.254412 0.587255
0.882353 0.261765 0.607843
0.000000 0.324020 0.466667
0.155883 0.331863 0.492647
0.276470 0.339706 0.512255
0.386765 0.343627 0.539706
0.494117 0.351471 0.558823
0.595098 0.359314 0.586765
0.699019 0.365686 0.610294
0.799019 0.373529 0.637745
0.898039 0.381373 0.662745
0.000000 0.423530 0.509804
0.155883 0.431373 0.535294
0.279412 0.439215 0.558823
0.397059 0.450981 0.582843
0.501961 0.458823 0.605882
0.606863 0.466667 0.633333
0.710784 0.478432 0.660784
0.818137 0.486275 0.684314
0.917647 0.498039 0.711765
0.000000 0.526961 0.556863
0.163726 0.536274 0.583824
0.282843 0.548039 0.606863
0.404902 0.559804 0.633824
0.509804 0.567647 0.656863
0.618627 0.579412 0.683824
0.726471 0.590686 0.711275
0.832353 0.601961 0.738725
0.934804 0.614706 0.770098
0.000000 0.640196 0.604902
0.167647 0.648039 0.634804
0.293137 0.663725 0.657844
0.412745 0.675490 0.683334
0.521568 0.689216 0.710784
0.632843 0.700490 0.738235
0.743137 0.711765 0.765686
0.848039 0.727451 0.793137
0.950000 0.735294 0.816667
0.000000 0.750000 0.655392
0.167647 0.761764 0.682843
0.300000 0.777451 0.710294
0.420588 0.793137 0.737745
0.529411 0.804902 0.765196
0.644608 0.820588 0.788725
0.753922 0.832353 0.812255
0.859804 0.844117 0.835784
0.961274 0.851961 0.855392
0.000000 0.866667 0.709804
0.171569 0.882353 0.737255
0.300980 0.898039 0.764706
0.428431 0.912255 0.788235
0.541176 0.923530 0.811765
0.652451 0.941176 0.836765
0.761764 0.950000 0.855883
0.867647 0.957353 0.871078
0.972549 0.964706 0.886275
