Color/CreativePack-1/Smokey 65x.cube
TITLE "Smokey"
LUT_3D_SIZE 5
DOMAIN_MIN 0.000000 0.000000 0.000000
DOMAIN_MAX 1.000000 1.000000 1.000000
0.000000 0.000000 0.000000
0.246078 0.000000 0.000000
0.435295 0.000000 0.000000
0.620588 0.000000 0.000000
0.807843 0.000000 0.000000
0.000000 0.206863 0.000000
0.256863 0.214706 0.000000
0.463726 0.222549 0.000000
0.655882 0.238236 0.000000
0.850980 0.246078 0.000000
0.000000 0.396079 0.000000
0.272549 0.416667 0.000000
0.486274 0.431373 0.000000
0.691176 0.450981 0.000000
0.888235 0.466666 0.000000
0.000000 0.604902 0.000000
0.281373 0.624510 0.000000
0.505883 0.648039 0.000000
0.719608 0.676471 0.000000
0.922549 0.699019 0.000000
0.000000 0.819608 0.000000
0.296078 0.850980 0.000000
0.529411 0.882353 0.000000
0.746079 0.910784 0.000000
0.956863 0.941176 0.000000
0.000000 0.000000 0.097059
0.246078 0.000000 0.112745
0.439215 0.000000 0.120588
0.632353 0.000000 0.136274
0.815686 0.000000 0.151961
0.000000 0.210785 0.120589
0.256863 0.222549 0.136274
0.466666 0.226470 0.151961
0.667647 0.242157 0.163725
0.858824 0.249019 0.183334
0.000000 0.400000 0.148039
0.272549 0.419608 0.163725
0.490197 0.439215 0.183333
0.699019 0.454902 0.195098
0.900000 0.474510 0.214706
0.000000 0.608824 0.183334
0.284314 0.636275 0.195098
0.509804 0.656863 0.210784
0.726471 0.684314 0.226470
0.930392 0.710784 0.246079
0.000000 0.827451 0.210785
0.300000 0.862745 0.226470
0.529411 0.896079 0.246078
0.750000 0.922549 0.261765
0.960784 0.949020 0.280392
0.000000 0.000000 0.176471
0.246078 0.000000 0.194117
0.447059 0.000000 0.217647
0.640196 0.000000 0.245098
0.823529 0.000000 0.276470
0.000000 0.214706 0.217647
0.261765 0.222549 0.246078
0.470588 0.237255 0.272549
0.671569 0.246079 0.297059
0.866667 0.252941 0.327451
0.000000 0.407844 0.272549
0.276470 0.427451 0.298040
0.494117 0.447059 0.325491
0.699019 0.462745 0.352941
0.903922 0.482353 0.380393
0.000000 0.620588 0.324510
0.288235 0.644118 0.351961
0.513726 0.668628 0.380393
0.731373 0.696079 0.414706
0.942157 0.719608 0.443137
0.000000 0.843137 0.380393
0.300000 0.874510 0.415686
0.533334 0.907843 0.443137
0.757843 0.934313 0.470588
0.964706 0.956863 0.494117
0.000000 0.000000 0.254902
0.250000 0.000000 0.285295
0.450980 0.000000 0.322549
0.644118 0.000000 0.357843
0.831373 0.000000 0.396078
0.000000 0.218628 0.320588
0.261765 0.226470 0.356863
0.474510 0.242157 0.396078
0.675490 0.249019 0.431373
0.871568 0.256863 0.466667
0.000000 0.415687 0.391176
0.280392 0.431373 0.430392
0.501961 0.450980 0.461765
0.706863 0.470588 0.504902
0.910784 0.490197 0.548039
0.000000 0.628432 0.463726
0.289216 0.651960 0.502941
0.517648 0.676471 0.545098
0.735294 0.703922 0.594118
0.942157 0.730392 0.633334
0.000000 0.854902 0.546079
0.300000 0.886275 0.592157
0.537254 0.914706 0.632353
0.757843 0.942157 0.667647
0.968627 0.961765 0.695098
0.000000 0.000000 0.341176
0.253922 0.000000 0.376471
0.454902 0.000000 0.423529
0.648039 0.000000 0.470588
0.839216 0.000000 0.513726
0.000000 0.222549 0.418627
0.269608 0.233333 0.465687
0.483334 0.246078 0.511765
0.683333 0.252941 0.560784
0.882353 0.261765 0.607843
0.000000 0.423530 0.509804
0.279412 0.439215 0.558823
0.501961 0.458823 0.605882
0.710784 0.478432 0.660784
0.917647 0.498039 0.711765
0.000000 0.640196 0.604902
0.293137 0.663725 0.657844
0.521568 0.689216 0.710784
0.743137 0.711765 0.765686
0.950000 0.735294 0.816667
0.000000 0.866667 0.709804
0.300980 0.898039 0.764706
0.541176 0.923530 0.811765
0.761764 0.950000 0.855883
0.972549 0.964706 0.886275
