Color/CreativePack-1/TealMagentaGold 65x.cube
TITLE "TealMagentaGold"
LUT_3D_SIZE 65
DOMAIN_MIN 0.000000 0.000000 0.000000
DOMAIN_MAX 1.000000 1.000000 1.000000
0.000000 0.000000 0.000000
0.000000 0.008762 0.000000
0.000000 0.019362 0.000000
0.000000 0.030209 0.000000
0.000000 0.042647 0.000000
0.025551 0.043811 0.004596
0.051839 0.048652 0.009436
0.082047 0.053493 0.015686
0.108333 0.058334 0.023039
0.134620 0.062745 0.031802
0.160907 0.064093 0.040564
0.184926 0.068934 0.049326
0.209559 0.073775 0.058089
0.231741 0.074510 0.058824
0.249265 0.074510 0.058824
0.270711 0.074510 0.058824
0.288235 0.074510 0.061765
0.309681 0.078370 0.062745
0.331128 0.083211 0.066667
0.352574 0.090196 0.070588
0.372794 0.096814 0.073284
0.391544 0.098039 0.074510
0.409068 0.101961 0.074510
0.426593 0.101961 0.074510
0.448039 0.104412 0.072059
0.465564 0.101961 0.070588
0.487010 0.101961 0.066667
0.505821 0.101961 0.062745
0.525981 0.099755 0.062745
0.543505 0.098039 0.062745
0.557108 0.094118 0.062745
0.574632 0.090196 0.062745
0.592156 0.090196 0.066667
0.606801 0.090196 0.066667
0.623284 0.093995 0.066667
0.636887 0.094118 0.066667
0.650490 0.096324 0.064951
0.668015 0.091483 0.060111
0.685540 0.086643 0.058824
0.703064 0.081801 0.054350
0.720588 0.076961 0.050980
0.738112 0.072120 0.053370
0.755638 0.067280 0.058824
0.769240 0.062439 0.063051
0.786765 0.057598 0.066667
0.800368 0.048836 0.066667
0.817892 0.036152 0.062745
0.831496 0.027390 0.058824
0.849020 0.018627 0.057844
0.862623 0.013787 0.054902
0.876225 0.007843 0.050980
0.889828 0.003922 0.047243
0.903432 0.000000 0.047059
0.920956 0.000000 0.047059
0.938480 0.000000 0.050980
0.952083 0.000000 0.054902
0.969117 0.000000 0.058824
0.977880 0.000000 0.058824
0.986642 0.000000 0.058824
0.995404 0.000000 0.058824
1.000000 0.000000 0.062500
1.000000 0.000000 0.058824
1.000000 0.000000 0.054902
1.000000 0.000000 0.051899
1.000000 0.000000 0.050980
0.000000 0.026286 0.009681
0.008762 0.026286 0.008762
0.008762 0.035049 0.008762
0.008762 0.049571 0.008762
0.008762 0.056494 0.008762
0.029473 0.060662 0.009436
0.055760 0.065257 0.016605
0.082966 0.064583 0.023040
0.112255 0.068505 0.030883
0.134620 0.071936 0.031802
0.160907 0.076777 0.040564
0.187194 0.081618 0.049326
0.213480 0.086458 0.058089
0.231741 0.087194 0.058824
0.250368 0.087194 0.058824
0.270711 0.087194 0.059743
0.291177 0.087194 0.062745
0.309681 0.091055 0.062745
0.332047 0.091973 0.066667
0.352574 0.098958 0.066667
0.371018 0.105576 0.070588
0.391544 0.106801 0.070588
0.412990 0.110723 0.070588
0.430515 0.110723 0.070588
0.448039 0.111642 0.068137
0.465564 0.110723 0.069669
0.483088 0.110723 0.066299
0.504902 0.110723 0.061458
0.522059 0.110723 0.058824
0.539583 0.106801 0.058824
0.557108 0.102880 0.062745
0.574632 0.101838 0.062745
0.592156 0.098958 0.062745
0.609682 0.096078 0.062745
0.620404 0.101838 0.062745
0.636887 0.098836 0.062745
0.654412 0.101165 0.062745
0.671937 0.098958 0.062745
0.689461 0.095037 0.056190
0.706985 0.090564 0.054902
0.724510 0.086275 0.052451
0.742034 0.080882 0.057292
0.755638 0.076041 0.062132
0.773774 0.071507 0.067586
0.786765 0.067586 0.070588
0.800368 0.063664 0.066667
0.814828 0.053677 0.062745
0.831496 0.044914 0.058824
0.848039 0.036152 0.058824
0.862623 0.027390 0.058824
0.877328 0.022548 0.054902
0.893750 0.017708 0.048161
0.906617 0.013603 0.047978
0.919302 0.009681 0.047978
0.934559 0.009681 0.053554
0.952083 0.009681 0.054902
0.969117 0.009191 0.059253
0.977880 -0.000490 0.054902
0.986642 0.000000 0.054902
0.995404 0.000000 0.057905
1.000000 0.000000 0.057905
1.000000 0.005086 0.057905
1.000000 0.004841 0.054902
1.000000 0.004841 0.050980
1.000000 0.004841 0.047059
0.000000 0.052574 0.021446
0.008762 0.052574 0.019362
0.019362 0.052574 0.017524
0.019362 0.061336 0.017524
0.019362 0.075858 0.017524
0.040318 0.074264 0.021446
0.059682 0.078186 0.023039
0.085968 0.082782 0.029289
0.114093 0.082108 0.036643
0.138542 0.084620 0.041054
0.165318 0.089951 0.044485
0.189031 0.094301 0.053247
0.213480 0.095956 0.062010
0.233579 0.096140 0.060662
0.253186 0.099877 0.059927
0.270711 0.099877 0.062745
0.292157 0.099877 0.062745
0.313542 0.101715 0.062745
0.331985 0.100735 0.062745
0.352574 0.109497 0.066667
0.374020 0.114338 0.066667
0.395159 0.115563 0.068750
0.412990 0.119485 0.066667
0.432353 0.119485 0.066667
0.451961 0.123407 0.066667
0.465564 0.120037 0.063297
0.477696 0.119485 0.062745
0.500612 0.119485 0.061458
0.518138 0.119485 0.058824
0.540869 0.115563 0.058824
0.557108 0.115440 0.062745
0.574632 0.111642 0.062745
0.592156 0.107720 0.062745
0.609682 0.107720 0.059866
0.627206 0.103799 0.058824
0.640809 0.107720 0.058824
0.654412 0.107720 0.058824
0.671937 0.105882 0.058824
0.689461 0.100246 0.060907
0.708823 0.099326 0.058272
0.724510 0.092034 0.054902
0.742034 0.089644 0.056740
0.759559 0.088113 0.060662
0.773162 0.080269 0.066973
0.789461 0.076348 0.070588
0.802145 0.072120 0.068444
0.814828 0.072426 0.061519
0.831496 0.060601 0.058824
0.845098 0.050735 0.058824
0.862623 0.044914 0.058824
0.880147 0.040073 0.058824
0.891851 0.035049 0.054902
0.907353 0.030392 0.050980
0.920956 0.027206 0.052818
0.933824 0.023284 0.052818
0.952083 0.023284 0.054902
0.969117 0.022794 0.058824
0.977880 0.012623 0.054902
0.986642 -0.000490 0.052573
0.995404 0.000000 0.054902
1.000000 0.000000 0.054902
1.000000 0.005086 0.054902
1.000000 0.011765 0.053064
1.000000 0.011765 0.050980
1.000000 0.011765 0.047059
0.000000 0.081618 0.034130
0.008762 0.078860 0.030209
0.019362 0.078860 0.031128
0.030209 0.078860 0.026287
0.030209 0.087622 0.026287
0.051165 0.091790 0.030209
0.071446 0.091790 0.034130
0.089890 0.095711 0.036643
0.116176 0.100307 0.042647
0.144791 0.097305 0.043566
0.164828 0.103554 0.048407
0.191115 0.103063 0.053247
0.217402 0.107476 0.062010
0.235662 0.111397 0.062745
0.253186 0.112561 0.062745
0.272733 0.115319 0.062745
0.292157 0.115319 0.062745
0.312439 0.115319 0.062745
0.331985 0.113419 0.062745
0.354351 0.118260 0.061764
0.374020 0.123100 0.066667
0.395465 0.124326 0.066667
0.415747 0.128248 0.063909
0.434437 0.128248 0.063909
0.451961 0.132169 0.064216
0.469485 0.128799 0.062745
0.485478 0.128248 0.062377
0.496691 0.128248 0.058824
0.518138 0.128248 0.054902
0.535662 0.124326 0.059192
0.550551 0.124204 0.058824
0.571875 0.120405 0.062745
0.588236 0.118444 0.062745
0.605760 0.116483 0.059988
0.623284 0.112683 0.058824
0.640809 0.112561 0.056066
0.658333 0.114767 0.056066
0.675858 0.109804 0.056066
0.693383 0.108640 0.058824
0.710907 0.104718 0.058824
0.728431 0.100797 0.054902
0.744792 0.096875 0.061581
0.759559 0.093567 0.066054
0.773162 0.092647 0.070588
0.790686 0.085111 0.074510
0.804289 0.085723 0.071201
0.817892 0.081189 0.066667
0.831434 0.079902 0.058824
0.845098 0.067279 0.058824
0.862623 0.062439 0.058824
0.880147 0.056495 0.058824
0.893934 0.048835 0.058824
0.907353 0.044731 0.054902
0.923223 0.043076 0.054902
0.938664 0.038052 0.054902
0.952083 0.036888 0.057660
0.969117 0.033640 0.058824
0.977880 0.026225 0.057415
0.986642 0.012623 0.054902
0.995404 -0.000490 0.050980
1.000000 0.000000 0.054657
1.000000 0.005086 0.050980
1.000000 0.011765 0.050980
1.000000 0.018689 0.047978
1.000000 0.018444 0.047059
0.000000 0.109069 0.046569
0.008762 0.105147 0.042892
0.019362 0.105147 0.038971
0.030209 0.105147 0.038971
0.042647 0.105147 0.038726
0.059927 0.102389 0.039644
0.081373 0.109314 0.042892
0.098897 0.108150 0.046814
0.120098 0.113235 0.050245
0.142463 0.113480 0.054657
0.168750 0.117157 0.058579
0.196446 0.117402 0.062500
0.217402 0.121079 0.066422
0.239339 0.121324 0.066422
0.254289 0.122426 0.066422
0.274632 0.125245 0.066422
0.292157 0.128922 0.066422
0.313603 0.128922 0.066422
0.335049 0.129167 0.066422
0.354351 0.132843 0.066422
0.377696 0.131862 0.066667
0.395465 0.133088 0.062990
0.413603 0.137010 0.062745
0.434437 0.137010 0.062745
0.455638 0.140931 0.059069
0.469485 0.137561 0.059375
0.483088 0.137010 0.055147
0.496691 0.137010 0.054902
0.514216 0.137010 0.054902
0.531188 0.133088 0.054902
0.553186 0.136642 0.058824
0.570711 0.129167 0.058824
0.588236 0.130882 0.059069
0.605760 0.125245 0.058824
0.623284 0.125245 0.058824
0.640809 0.121324 0.054902
0.658333 0.121324 0.054902
0.675858 0.117402 0.054902
0.693383 0.113848 0.054902
0.710907 0.112929 0.055147
0.728431 0.109559 0.058824
0.745956 0.105637 0.061213
0.763848 0.102329 0.066054
0.777084 0.101409 0.070894
0.793382 0.096569 0.074510
0.806066 0.093873 0.070588
0.817892 0.089951 0.066667
0.835111 0.086030 0.062684
0.845098 0.084804 0.058824
0.862623 0.079963 0.058824
0.876470 0.070343 0.058824
0.893750 0.066361 0.058824
0.914216 0.058579 0.058579
0.924878 0.058334 0.056557
0.938480 0.055760 0.058824
0.952083 0.050735 0.058824
0.965196 0.046323 0.058824
0.973958 0.037316 0.061091
0.982721 0.026225 0.054902
0.991728 0.012623 0.050980
1.000000 0.000000 0.047304
1.000000 0.005086 0.047304
1.000000 0.011765 0.047059
1.000000 0.018689 0.047059
1.000000 0.027206 0.047059
0.000000 0.126838 0.047733
0.017524 0.126838 0.050980
0.026042 0.126838 0.047733
0.038725 0.126838 0.044976
0.047487 0.119915 0.043811
0.064767 0.122917 0.043137
0.087133 0.124510 0.043811
0.103738 0.126838 0.049571
0.127941 0.126838 0.050980
0.146385 0.130760 0.051409
0.172671 0.132108 0.056250
0.193443 0.134681 0.058824
0.221323 0.134681 0.062745
0.240258 0.138603 0.066667
0.261030 0.138603 0.066667
0.278554 0.138603 0.066667
0.296752 0.142524 0.066667
0.310417 0.142524 0.062745
0.335049 0.145772 0.062745
0.356495 0.147549 0.062745
0.376715 0.146446 0.062745
0.395465 0.142831 0.062745
0.416911 0.146446 0.062745
0.435968 0.149694 0.062745
0.455882 0.149694 0.062745
0.473407 0.149694 0.058824
0.487684 0.149694 0.058824
0.504534 0.146446 0.054902
0.516606 0.145772 0.054902
0.529289 0.145772 0.054902
0.549265 0.146324 0.058824
0.571078 0.141482 0.058824
0.588236 0.141850 0.060785
0.605760 0.138603 0.062745
0.623284 0.137929 0.058824
0.640809 0.133885 0.058824
0.658333 0.134007 0.054902
0.673223 0.128125 0.054902
0.692709 0.126838 0.054902
0.710233 0.122917 0.054902
0.727757 0.122243 0.058824
0.745281 0.116606 0.058824
0.762806 0.118321 0.065379
0.777084 0.114767 0.066299
0.790686 0.109926 0.070588
0.808211 0.107230 0.074510
0.821813 0.106556 0.068198
0.835355 0.103248 0.066606
0.844791 0.098713 0.058518
0.860723 0.094792 0.058824
0.876225 0.084804 0.058824
0.893750 0.079964 0.058824
0.910539 0.075123 0.058824
0.924878 0.075184 0.058824
0.938480 0.069363 0.058824
0.952512 0.068015 0.058824
0.965196 0.063419 0.062255
0.973958 0.058763 0.058824
0.982721 0.046078 0.058824
0.991483 0.030821 0.054902
1.000000 0.020711 0.050980
1.000000 0.008701 0.050980
1.000000 0.017770 0.050980
1.000000 0.023285 0.044731
1.000000 0.031373 0.047059
0.000000 0.144363 0.052573
0.017524 0.144363 0.054902
0.035049 0.144363 0.054902
0.048652 0.144363 0.052573
0.056250 0.144363 0.052573
0.073529 0.145282 0.048652
0.091054 0.140441 0.047059
0.108578 0.144363 0.048652
0.130025 0.144363 0.054412
0.150307 0.148284 0.054902
0.172671 0.148039 0.054902
0.198959 0.152206 0.058824
0.219730 0.152206 0.062745
0.243505 0.152206 0.062745
0.262133 0.151716 0.066667
0.282476 0.156127 0.066667
0.302941 0.156127 0.066667
0.317524 0.158456 0.062745
0.335049 0.160049 0.062745
0.356495 0.160049 0.062745
0.376715 0.160049 0.062745
0.395465 0.160049 0.062745
0.416911 0.158456 0.062745
0.438358 0.160049 0.062745
0.455882 0.162377 0.062745
0.476777 0.162377 0.058824
0.496079 0.158456 0.058824
0.508456 0.158456 0.057537
0.521446 0.158456 0.054902
0.534130 0.158456 0.054902
0.549265 0.159927 0.058824
0.566789 0.154534 0.058824
0.588603 0.154534 0.060784
0.605760 0.149326 0.062745
0.623284 0.150613 0.062745
0.640809 0.146691 0.058824
0.658333 0.146691 0.058824
0.673223 0.142769 0.053860
0.689461 0.136887 0.054902
0.706985 0.134926 0.054902
0.724510 0.135049 0.058824
0.742034 0.130208 0.058824
0.759559 0.131005 0.058824
0.776777 0.128370 0.063051
0.790686 0.123162 0.068995
0.808211 0.120833 0.070588
0.821813 0.119240 0.072917
0.836948 0.116850 0.066667
0.849633 0.112010 0.062745
0.862623 0.107475 0.058518
0.876225 0.098407 0.058824
0.893750 0.093566 0.058824
0.910539 0.087868 0.058824
0.924878 0.087868 0.058824
0.938480 0.087868 0.058824
0.952512 0.082047 0.058824
0.965196 0.081127 0.062255
0.973958 0.072181 0.058824
0.982721 0.067525 0.058824
0.991483 0.054841 0.053247
1.000000 0.043505 0.052573
1.000000 0.031066 0.050980
1.000000 0.020220 0.050980
1.000000 0.028125 0.050980
1.000000 0.035294 0.048652
0.000000 0.161887 0.057415
0.017524 0.161887 0.055821
0.035049 0.161887 0.058824
0.052574 0.165808 0.061581
0.065013 0.160723 0.058824
0.082291 0.161887 0.054902
0.099816 0.161887 0.053493
0.114828 0.161887 0.053493
0.134865 0.161887 0.054902
0.154228 0.165808 0.054902
0.176593 0.165808 0.057415
0.198959 0.169730 0.058824
0.225245 0.169730 0.063419
0.243688 0.169730 0.062745
0.267463 0.169730 0.062745
0.286397 0.169730 0.066667
0.303921 0.174081 0.066667
0.321446 0.173652 0.062745
0.338971 0.173652 0.062745
0.356495 0.175062 0.062745
0.376715 0.175062 0.062745
0.395465 0.175062 0.062745
0.416911 0.171140 0.062745
0.438358 0.171140 0.062745
0.458394 0.171140 0.062745
0.477328 0.171140 0.058824
0.494853 0.171140 0.058824
0.512377 0.169730 0.058824
0.528493 0.167218 0.054902
0.543505 0.167218 0.057415
0.555575 0.167218 0.058824
0.566789 0.167218 0.058824
0.584313 0.167769 0.060784
0.606127 0.162929 0.062745
0.623284 0.163297 0.062745
0.640809 0.159375 0.058824
0.658333 0.160172 0.058824
0.673223 0.155454 0.058824
0.689461 0.150490 0.058824
0.703064 0.147611 0.054902
0.720588 0.148652 0.058824
0.738112 0.143689 0.058824
0.757047 0.143689 0.058824
0.773162 0.139767 0.062745
0.790686 0.135846 0.066667
0.806066 0.136213 0.066667
0.821813 0.131924 0.068076
0.835417 0.128003 0.073039
0.849020 0.124081 0.068199
0.862623 0.120772 0.062745
0.877328 0.116238 0.058518
0.893750 0.107169 0.058824
0.907353 0.103063 0.058824
0.923223 0.100552 0.058824
0.938480 0.100552 0.058824
0.953493 0.099142 0.058824
0.965196 0.095220 0.062255
0.973958 0.089890 0.058824
0.982721 0.080944 0.058824
0.991483 0.076287 0.058824
1.000000 0.065871 0.054902
1.000000 0.053432 0.054902
1.000000 0.042157 0.053493
1.000000 0.033395 0.050980
1.000000 0.039216 0.050980
0.000000 0.179412 0.062255
0.017524 0.179412 0.059743
0.035049 0.179412 0.062745
0.056005 0.183334 0.062745
0.074020 0.183334 0.066422
0.091054 0.182843 0.062255
0.106986 0.179412 0.058824
0.122181 0.179412 0.059743
0.139706 0.179412 0.058334
0.158150 0.179841 0.058824
0.180515 0.183334 0.058824
0.202880 0.185600 0.058824
0.225245 0.187255 0.062010
0.247427 0.187255 0.062745
0.266054 0.187255 0.062745
0.289829 0.187255 0.062745
0.307843 0.187255 0.066667
0.325367 0.187255 0.062745
0.345466 0.187745 0.062745
0.359927 0.191177 0.062745
0.376715 0.191177 0.062745
0.395465 0.187561 0.062745
0.416911 0.187255 0.062745
0.438358 0.183824 0.062745
0.458333 0.182353 0.062745
0.477328 0.183334 0.058824
0.494853 0.179902 0.058824
0.513664 0.179902 0.058824
0.535049 0.179902 0.058824
0.547733 0.179902 0.058824
0.560417 0.179902 0.058824
0.573101 0.179902 0.058824
0.584313 0.181373 0.060784
0.601287 0.175981 0.062745
0.623284 0.175981 0.062745
0.640809 0.172059 0.062745
0.658333 0.171569 0.062255
0.676654 0.168137 0.058824
0.689461 0.164093 0.058824
0.703064 0.160294 0.058824
0.717157 0.162255 0.058824
0.738112 0.156373 0.058824
0.755638 0.156495 0.058824
0.773162 0.152451 0.058824
0.790686 0.151961 0.062745
0.804289 0.149817 0.061458
0.821813 0.144608 0.066667
0.835417 0.140686 0.063297
0.855392 0.136765 0.066667
0.868076 0.134375 0.068199
0.880147 0.129534 0.062745
0.893750 0.120772 0.058518
0.907353 0.116667 0.058824
0.923223 0.116667 0.058824
0.938480 0.113235 0.058824
0.952083 0.113235 0.058824
0.965196 0.112254 0.062255
0.973958 0.107414 0.058824
0.982721 0.098652 0.058824
0.991483 0.089706 0.058824
1.000000 0.088235 0.054902
1.000000 0.075797 0.054902
1.000000 0.063603 0.054902
1.000000 0.054841 0.054902
1.000000 0.046569 0.054412
0.008701 0.196936 0.062745
0.025796 0.196936 0.062745
0.043321 0.196936 0.062745
0.060846 0.196936 0.062745
0.082047 0.200858 0.062745
0.095895 0.200429 0.062745
0.113419 0.196936 0.062745
0.130943 0.196936 0.056741
0.148040 0.196936 0.058824
0.165993 0.196936 0.058824
0.187439 0.196936 0.058824
0.208885 0.200858 0.058824
0.233088 0.200858 0.062010
0.247856 0.204351 0.062745
0.268873 0.204351 0.062745
0.290319 0.204351 0.062745
0.310785 0.204351 0.065687
0.329289 0.200858 0.062745
0.346814 0.200858 0.062745
0.364338 0.200858 0.060968
0.381863 0.204351 0.058824
0.395894 0.204351 0.058824
0.417524 0.200245 0.062745
0.438358 0.200429 0.062745
0.459804 0.196936 0.060294
0.477328 0.196507 0.058824
0.494853 0.196568 0.058824
0.512377 0.193015 0.058395
0.533395 0.193015 0.054902
0.547427 0.192586 0.054902
0.561335 0.192586 0.058824
0.574632 0.192586 0.058824
0.588236 0.192586 0.058824
0.605760 0.192586 0.062745
0.623713 0.189093 0.062745
0.644730 0.188664 0.062745
0.662255 0.183456 0.062745
0.679780 0.178615 0.062745
0.690258 0.180821 0.062745
0.706863 0.176900 0.058701
0.724510 0.172978 0.058824
0.738112 0.169485 0.061213
0.755638 0.169056 0.059253
0.773162 0.165564 0.062745
0.790686 0.165135 0.062745
0.804289 0.159498 0.062745
0.821813 0.161213 0.062745
0.835417 0.157660 0.066667
0.852941 0.153370 0.066667
0.866544 0.153370 0.072058
0.884069 0.145956 0.064278
0.897671 0.138296 0.066667
0.910539 0.134191 0.062745
0.923223 0.132537 0.058824
0.938480 0.130270 0.058824
0.952083 0.130270 0.058824
0.965196 0.129780 0.058824
0.973958 0.121017 0.063725
0.982721 0.112254 0.058824
0.991483 0.106986 0.058824
1.000000 0.098897 0.058579
1.000000 0.103554 0.053738
1.000000 0.093322 0.050980
1.000000 0.080637 0.050980
1.000000 0.071875 0.050980
0.020956 0.214461 0.062745
0.034559 0.214461 0.062745
0.052084 0.214461 0.062745
0.069608 0.214461 0.062745
0.087132 0.214461 0.062745
0.104657 0.214461 0.062745
0.120833 0.214461 0.062745
0.135784 0.214461 0.062745
0.153309 0.211029 0.058824
0.174755 0.214461 0.058824
0.192279 0.214461 0.058824
0.213725 0.216728 0.058824
0.235172 0.218382 0.062010
0.252696 0.218382 0.062745
0.270221 0.218382 0.062745
0.290319 0.218382 0.062745
0.311765 0.218382 0.065687
0.329289 0.214522 0.062745
0.350736 0.214461 0.061397
0.368260 0.214461 0.058824
0.383211 0.217034 0.058824
0.400736 0.217034 0.058824
0.420833 0.214461 0.062745
0.439890 0.213113 0.062745
0.459804 0.210539 0.060294
0.477328 0.207169 0.058824
0.494853 0.209191 0.058456
0.512377 0.206618 0.054902
0.529902 0.206618 0.054902
0.547427 0.203493 0.054902
0.561029 0.205270 0.058824
0.574632 0.205270 0.058824
0.588236 0.205270 0.058824
0.607108 0.205270 0.061703
0.627206 0.202696 0.062745
0.646078 0.201900 0.062745
0.666176 0.197059 0.062745
0.678493 0.194853 0.062745
0.697304 0.193505 0.062745
0.710907 0.187010 0.062745
0.724388 0.185662 0.062745
0.742034 0.183088 0.062745
0.755638 0.181740 0.062745
0.773162 0.177819 0.064093
0.790686 0.177941 0.064093
0.804289 0.173101 0.062745
0.821813 0.171323 0.062745
0.835417 0.167402 0.062745
0.852941 0.166054 0.066667
0.866544 0.163480 0.066667
0.884069 0.163480 0.070588
0.895281 0.155821 0.068015
0.911275 0.151716 0.064093
0.924878 0.150061 0.062745
0.938480 0.147794 0.058824
0.952083 0.147794 0.058824
0.965196 0.147304 0.058824
0.973958 0.138542 0.058824
0.982721 0.128432 0.063725
0.991483 0.121017 0.058824
1.000000 0.115073 0.059927
1.000000 0.116421 0.053738
1.000000 0.116421 0.048897
1.000000 0.106923 0.049632
1.000000 0.098162 0.047059
0.033640 0.231985 0.062745
0.047243 0.231985 0.062745
0.065196 0.231985 0.062745
0.078370 0.231985 0.062745
0.095895 0.231985 0.062745
0.111152 0.231985 0.062745
0.127022 0.231985 0.062745
0.144547 0.231985 0.062745
0.162071 0.228064 0.057660
0.179596 0.231985 0.058824
0.201041 0.231985 0.058824
0.218566 0.231985 0.058824
0.240012 0.233640 0.062010
0.257537 0.233640 0.062745
0.275061 0.233640 0.062745
0.290319 0.233640 0.062745
0.311765 0.233640 0.065687
0.333149 0.231985 0.062745
0.350736 0.229718 0.061887
0.370527 0.228064 0.058824
0.388051 0.229718 0.058824
0.405576 0.228064 0.058824
0.423101 0.228064 0.058824
0.439890 0.225796 0.062745
0.459804 0.224142 0.060294
0.477328 0.224142 0.058824
0.494853 0.221875 0.058456
0.512377 0.222855 0.054902
0.529902 0.220220 0.054902
0.547427 0.220220 0.054902
0.561029 0.217953 0.054902
0.577513 0.217953 0.058824
0.592156 0.217953 0.058824
0.609682 0.216299 0.058824
0.629474 0.216299 0.062745
0.648652 0.214032 0.062745
0.668444 0.212377 0.062745
0.683701 0.210110 0.062745
0.701226 0.206189 0.062745
0.714829 0.200613 0.062745
0.728431 0.199142 0.062745
0.745956 0.194301 0.062745
0.759559 0.194424 0.065012
0.773162 0.190502 0.066667
0.790686 0.191544 0.066667
0.804289 0.186581 0.066790
0.821813 0.181863 0.062745
0.835417 0.178738 0.062745
0.852941 0.178738 0.062745
0.866544 0.177083 0.066667
0.884069 0.177083 0.069485
0.897855 0.174816 0.070588
0.911275 0.169240 0.066667
0.924878 0.167586 0.067280
0.938174 0.165318 0.062745
0.952083 0.161826 0.058824
0.965196 0.160907 0.058824
0.973958 0.152145 0.058824
0.982721 0.143382 0.058824
0.991483 0.134620 0.063725
1.000000 0.130024 0.058824
1.000000 0.128921 0.054902
1.000000 0.133946 0.051164
1.000000 0.133946 0.044056
1.000000 0.124449 0.043137
0.045588 0.249509 0.065932
0.059927 0.249509 0.062745
0.073529 0.249509 0.062745
0.091483 0.249509 0.062745
0.104657 0.249509 0.062745
0.121507 0.249509 0.062745
0.135784 0.249509 0.062745
0.150122 0.246998 0.062745
0.166911 0.245588 0.062745
0.188358 0.242831 0.062010
0.204044 0.249509 0.062010
0.227329 0.249509 0.062010
0.244853 0.249509 0.062010
0.262377 0.249509 0.062745
0.279902 0.249509 0.062745
0.297427 0.249509 0.062745
0.311765 0.249509 0.065687
0.333210 0.249509 0.062745
0.351593 0.245588 0.061887
0.372181 0.242402 0.058824
0.392892 0.241176 0.058824
0.410417 0.241666 0.058824
0.427940 0.238481 0.058824
0.445465 0.238481 0.058824
0.462255 0.239216 0.063480
0.481250 0.237745 0.058824
0.494853 0.234559 0.058456
0.512377 0.234559 0.054902
0.529902 0.235539 0.054902
0.544240 0.233823 0.054902
0.561029 0.230638 0.054902
0.577513 0.230638 0.054902
0.592156 0.231863 0.058824
0.612561 0.229902 0.058824
0.631128 0.229902 0.062622
0.652573 0.226716 0.062745
0.670098 0.228186 0.065932
0.688174 0.223345 0.065932
0.700858 0.218873 0.065932
0.721384 0.217586 0.065932
0.732353 0.212745 0.065932
0.745956 0.207108 0.066667
0.763481 0.207108 0.066667
0.773162 0.203187 0.066667
0.790686 0.205148 0.066667
0.804289 0.199265 0.066667
0.821813 0.195343 0.066790
0.835417 0.191422 0.062745
0.852941 0.193627 0.062745
0.866544 0.190686 0.061458
0.884069 0.187500 0.066667
0.897855 0.187500 0.071139
0.917647 0.186764 0.070588
0.930330 0.185110 0.066667
0.939828 0.182843 0.064093
0.952512 0.182843 0.062745
0.965196 0.178432 0.058824
0.973958 0.169669 0.058824
0.982721 0.160907 0.058824
0.991483 0.152145 0.058824
1.000000 0.143627 0.058824
1.000000 0.147549 0.054902
1.000000 0.147549 0.050980
1.000000 0.151470 0.047059
1.000000 0.150735 0.043137
0.059192 0.267035 0.062561
0.067954 0.263113 0.062561
0.086213 0.263113 0.062561
0.099816 0.263113 0.058824
0.109927 0.263113 0.058824
0.127022 0.263113 0.058824
0.144546 0.263113 0.058824
0.158149 0.263113 0.058824
0.175673 0.259682 0.058824
0.189277 0.259192 0.058395
0.211887 0.262929 0.058640
0.228247 0.265196 0.058640
0.252696 0.263113 0.061827
0.270956 0.263113 0.062745
0.284743 0.263113 0.063848
0.302267 0.263113 0.066667
0.319792 0.263113 0.066667
0.337132 0.263113 0.059068
0.354657 0.259192 0.061887
0.372365 0.259192 0.058824
0.393627 0.259008 0.058824
0.414767 0.255270 0.058824
0.428860 0.255270 0.062745
0.446385 0.255086 0.062745
0.463910 0.251348 0.062745
0.478064 0.247977 0.062745
0.498774 0.247427 0.058824
0.516299 0.247427 0.058824
0.530086 0.247243 0.054902
0.547427 0.247243 0.058027
0.561213 0.247243 0.058824
0.578554 0.243505 0.058824
0.596078 0.243505 0.058824
0.609865 0.243321 0.061703
0.631128 0.243321 0.062745
0.649449 0.239584 0.063542
0.670098 0.239400 0.066667
0.687623 0.239400 0.060294
0.701593 0.235662 0.062745
