Color/CreativePack-1/TealMagentaGold 65x.cube
TITLE "TealMagentaGold"
LUT_3D_SIZE 9
DOMAIN_MIN 0.000000 0.000000 0.000000
DOMAIN_MAX 1.000000 1.000000 1.000000
0.000000 0.000000 0.000000
0.108333 0.058334 0.023039
0.288235 0.074510 0.061765
0.448039 0.104412 0.072059
0.592156 0.090196 0.066667
0.720588 0.076961 0.050980
0.849020 0.018627 0.057844
0.969117 0.000000 0.058824
1.000000 0.000000 0.050980
0.000000 0.179412 0.062255
0.139706 0.179412 0.058334
0.307843 0.187255 0.066667
0.458333 0.182353 0.062745
0.584313 0.181373 0.060784
0.717157 0.162255 0.058824
0.855392 0.136765 0.066667
0.965196 0.112254 0.062255
1.000000 0.046569 0.054412
0.100000 0.315686 0.054902
0.198039 0.308823 0.054902
0.339215 0.308824 0.069608
0.474510 0.297549 0.069608
0.600000 0.286275 0.065687
0.734804 0.278921 0.062745
0.862746 0.256863 0.069608
0.973039 0.245098 0.058824
1.000000 0.209804 0.062745
0.194608 0.432353 0.066667
0.252941 0.425000 0.073039
0.374020 0.417647 0.077451
0.502941 0.410294 0.084804
0.619607 0.394608 0.075000
0.744117 0.387745 0.076961
0.871568 0.376471 0.074510
0.980882 0.353922 0.070588
1.000000 0.353922 0.066667
0.250980 0.541176 0.080392
0.301471 0.533334 0.070588
0.400980 0.533334 0.082353
0.510784 0.517648 0.079902
0.639215 0.509804 0.078431
0.759804 0.481863 0.070588
0.867647 0.482353 0.078431
0.976961 0.478432 0.058334
1.000000 0.474510 0.013725
0.286275 0.648529 0.061275
0.328922 0.648529 0.073039
0.402941 0.644608 0.045588
0.520098 0.631863 0.065196
0.623530 0.625000 0.045098
0.754412 0.613235 0.029902
0.867647 0.602941 0.049510
0.976961 0.606863 0.027451
1.000000 0.606863 0.035294
0.282353 0.762745 0.000000
0.313726 0.762745 0.015686
0.405883 0.755882 0.000000
0.496569 0.760294 0.000000
0.609804 0.747059 0.019608
0.723530 0.747059 0.006863
0.840196 0.739216 0.000000
0.961274 0.727451 0.000000
1.000000 0.727451 0.000000
0.262255 0.879412 0.000000
0.285295 0.879411 0.000000
0.354412 0.875490 0.000000
0.455392 0.875490 0.000000
0.566666 0.879412 0.000000
0.680882 0.867647 0.000000
0.801471 0.863725 0.000000
0.914215 0.863725 0.000000
1.000000 0.855882 0.000000
0.176471 0.996078 0.000000
0.211275 0.996568 0.000000
0.289216 0.992157 0.000000
0.408824 0.992157 0.000000
0.519608 0.984314 0.000000
0.636765 0.988235 0.000000
0.750981 0.983334 0.000000
0.875490 0.984314 0.000000
0.992157 0.972549 0.000000
0.000000 0.042157 0.124510
0.120098 0.066177 0.143627
0.296078 0.081372 0.171569
0.448039 0.101961 0.171569
0.588236 0.096078 0.179412
0.722549 0.065196 0.171569
0.851961 0.000000 0.171569
0.965196 0.000000 0.167647
1.000000 0.000000 0.152451
0.000000 0.183334 0.167647
0.147549 0.183334 0.171569
0.303921 0.191177 0.171569
0.451961 0.187255 0.179412
0.592156 0.172059 0.171569
0.726961 0.159804 0.171569
0.852941 0.128432 0.167647
0.965196 0.093138 0.163726
1.000000 0.053922 0.159804
0.107843 0.315686 0.179412
0.195098 0.308333 0.179412
0.339215 0.304902 0.171569
0.467647 0.300490 0.179412
0.603921 0.285295 0.183334
0.730882 0.269608 0.175490
0.856863 0.250000 0.167647
0.973039 0.237255 0.163726
1.000000 0.218137 0.155883
0.190686 0.429902 0.179412
0.261765 0.429902 0.171569
0.374510 0.418137 0.179412
0.502941 0.414216 0.179412
0.616177 0.391176 0.168137
0.741176 0.379902 0.163726
0.864706 0.372549 0.163726
0.973039 0.359804 0.163726
1.000000 0.351471 0.152451
0.268628 0.537254 0.171569
0.297549 0.533334 0.171569
0.399020 0.529411 0.171569
0.510784 0.513726 0.167647
0.639215 0.505883 0.171569
0.756372 0.486274 0.167647
0.864706 0.478432 0.163726
0.980882 0.474509 0.148530
1.000000 0.478432 0.148039
0.294118 0.652451 0.156373
0.340686 0.648529 0.162745
0.401961 0.640686 0.156373
0.510784 0.635784 0.156373
0.623530 0.627941 0.152451
0.754412 0.614706 0.144118
0.867647 0.602941 0.140686
0.969117 0.602941 0.125000
1.000000 0.606863 0.119118
0.286275 0.762745 0.131372
0.327941 0.758824 0.135294
0.399019 0.754902 0.116176
0.501961 0.754902 0.123529
0.606863 0.750981 0.123529
0.719118 0.747059 0.116667
0.836275 0.735294 0.093138
0.957353 0.727451 0.107843
1.000000 0.731373 0.073530
0.250490 0.879412 0.087745
0.289216 0.875490 0.061765
0.359804 0.875490 0.076961
0.455392 0.879412 0.057353
0.568137 0.871568 0.069117
0.679902 0.875490 0.076961
0.801471 0.867647 0.087255
0.918137 0.859804 0.076961
1.000000 0.855882 0.000000
0.202941 0.996568 0.000000
0.230393 0.992647 0.000000
0.300490 0.992157 0.000000
0.404902 0.992647 0.000000
0.521568 0.988725 0.000000
0.632843 0.990196 0.000000
0.758824 0.983334 0.000000
0.875490 0.984314 0.000000
0.988235 0.972549 0.000000
0.000000 0.057844 0.264706
0.131862 0.066667 0.280882
0.300000 0.085295 0.303921
0.448039 0.100490 0.311765
0.588236 0.090196 0.307843
0.724510 0.076961 0.303921
0.849020 0.022549 0.296078
0.965196 0.000000 0.285295
1.000000 0.000000 0.276470
0.000000 0.179412 0.296569
0.151470 0.191177 0.307843
0.307843 0.187255 0.307843
0.455882 0.179902 0.308333
0.592156 0.172059 0.304412
0.732353 0.156373 0.307843
0.852941 0.128922 0.296078
0.965196 0.112255 0.285295
1.000000 0.076961 0.276960
0.119608 0.304902 0.297059
0.217647 0.304902 0.304412
0.335294 0.300980 0.303921
0.478431 0.289216 0.303921
0.596078 0.285295 0.300980
0.726961 0.269608 0.296078
0.855883 0.246079 0.288235
0.973039 0.229412 0.284314
1.000000 0.213725 0.276470
0.214216 0.428431 0.304902
0.269118 0.425980 0.300490
0.373039 0.418137 0.300000
0.502941 0.406373 0.300980
0.620098 0.391176 0.289706
0.745098 0.383823 0.289216
0.860785 0.368627 0.288235
0.973039 0.359314 0.276470
1.000000 0.358333 0.269608
0.269608 0.537254 0.285295
0.326961 0.537254 0.296078
0.397059 0.529411 0.285295
0.514706 0.513726 0.278431
0.643138 0.505883 0.289216
0.760294 0.486274 0.281373
0.871568 0.482353 0.273529
0.980882 0.474509 0.265686
1.000000 0.474510 0.260784
0.286275 0.647059 0.281373
0.336765 0.644608 0.273529
0.414706 0.639216 0.277451
0.521079 0.631863 0.265686
0.639215 0.620588 0.269608
0.750490 0.612255 0.261765
0.871568 0.606863 0.257844
0.973039 0.602941 0.250000
1.000000 0.606863 0.241176
0.301961 0.758824 0.260784
0.339706 0.761764 0.260784
0.395098 0.757843 0.242157
0.501961 0.758824 0.242157
0.610784 0.743137 0.235294
0.723530 0.743137 0.245098
0.844118 0.731373 0.245098
0.953921 0.731373 0.230393
1.000000 0.731373 0.210784
0.246569 0.875490 0.206863
0.289706 0.879412 0.214216
0.367647 0.883333 0.225490
0.467157 0.879412 0.210785
0.572059 0.875490 0.218627
0.691667 0.871568 0.221568
0.805393 0.867647 0.213725
0.914215 0.863725 0.209804
1.000000 0.855882 0.198039
0.156863 0.996078 0.194117
0.226961 0.996078 0.197549
0.304902 0.992157 0.186274
0.404902 0.993137 0.182353
0.521568 0.991176 0.185294
0.643137 0.988235 0.165686
0.750981 0.984314 0.174510
0.875490 0.982843 0.173530
1.000000 0.973530 0.169608
0.000000 0.066667 0.430882
0.163235 0.074020 0.432353
0.300000 0.093137 0.436275
0.451961 0.098039 0.436275
0.588236 0.082353 0.440196
0.722059 0.064216 0.432353
0.841177 0.026471 0.420588
0.965196 0.000000 0.420098
1.000000 0.000000 0.408824
0.080392 0.183334 0.428431
0.190686 0.187255 0.439706
0.319608 0.187255 0.443137
0.455882 0.175981 0.432353
0.588236 0.175490 0.432353
0.724510 0.159804 0.438725
0.845098 0.125000 0.420588
0.965196 0.089216 0.416177
1.000000 0.101961 0.406373
0.154412 0.300980 0.436275
0.222058 0.308824 0.440196
0.349510 0.300980 0.436275
0.479412 0.293137 0.436275
0.611765 0.281373 0.434314
0.729902 0.261765 0.426961
0.856863 0.253922 0.422059
0.976961 0.237255 0.414216
1.000000 0.209804 0.397059
0.229902 0.424510 0.433824
0.280392 0.420588 0.428431
0.390196 0.414216 0.432353
0.510784 0.398529 0.424510
0.620098 0.391176 0.420588
0.741176 0.382843 0.422059
0.863726 0.368627 0.410294
0.969117 0.357353 0.400490
1.000000 0.355392 0.385294
0.284804 0.537254 0.422549
0.331372 0.533334 0.418627
0.414706 0.525490 0.414706
0.518628 0.513726 0.414706
0.654902 0.501961 0.414706
0.758333 0.486274 0.402941
0.867647 0.486274 0.396078
0.973039 0.482353 0.398529
1.000000 0.474510 0.383333
0.320588 0.644608 0.393137
0.340686 0.636765 0.393137
0.418627 0.636765 0.391666
0.518628 0.634314 0.399510
0.639215 0.622549 0.391666
0.758333 0.610784 0.387745
0.867647 0.601471 0.372549
0.969117 0.602941 0.379902
1.000000 0.606863 0.367157
0.312746 0.761764 0.384314
0.340686 0.758824 0.376471
0.400490 0.758824 0.372549
0.505882 0.754902 0.378922
0.614706 0.747059 0.378922
0.726961 0.739216 0.356863
0.836274 0.735294 0.356863
0.953921 0.738235 0.363235
1.000000 0.731373 0.351471
0.262745 0.879412 0.353432
0.282353 0.875490 0.349510
0.365686 0.883333 0.351471
0.478922 0.875490 0.345588
0.572549 0.871568 0.337745
0.691667 0.867647 0.340686
0.801471 0.867647 0.337255
0.914215 0.863725 0.329902
1.000000 0.855882 0.327941
0.164706 0.993627 0.320098
0.238726 0.993137 0.314706
0.312746 0.993137 0.319118
0.412745 0.992157 0.314706
0.514216 0.988235 0.316667
0.653922 0.988235 0.310785
0.765686 0.985784 0.310785
0.887255 0.980392 0.306373
0.994608 0.972549 0.295098
0.084314 0.078431 0.552941
0.179412 0.094118 0.564705
0.315686 0.097059 0.568628
0.459804 0.094118 0.560785
0.584313 0.100000 0.568628
0.719118 0.073039 0.552941
0.849020 0.041176 0.552941
0.953921 0.000000 0.533334
1.000000 0.000000 0.525490
0.097549 0.187255 0.568628
0.202941 0.183334 0.572549
0.331372 0.183334 0.560785
0.471079 0.180882 0.564705
0.592156 0.172059 0.556863
0.726471 0.155883 0.552941
0.849020 0.128432 0.545098
0.965196 0.103921 0.537254
1.000000 0.112745 0.525490
0.195098 0.300980 0.556863
0.249509 0.297059 0.556863
0.360784 0.297059 0.560785
0.479412 0.293628 0.560785
0.607843 0.273529 0.556863
0.723039 0.261765 0.541176
0.852941 0.249019 0.541176
0.965196 0.237255 0.533334
1.000000 0.217647 0.517648
0.257353 0.418627 0.556863
0.315686 0.414706 0.556862
0.399510 0.406863 0.552941
0.510784 0.398529 0.552941
0.627451 0.383333 0.541176
0.745098 0.375981 0.541176
0.860785 0.368627 0.537254
0.969117 0.357353 0.517648
1.000000 0.357843 0.509804
0.307843 0.533334 0.549019
0.340686 0.525490 0.537254
0.428432 0.517648 0.533334
0.541667 0.509804 0.541176
0.654902 0.498039 0.537254
0.760294 0.486274 0.521568
0.868628 0.486274 0.524510
0.976961 0.478431 0.505883
1.000000 0.470588 0.494117
0.333333 0.640196 0.513725
0.372059 0.636765 0.517648
0.430883 0.636275 0.517648
0.536765 0.631863 0.517648
0.650980 0.616667 0.513725
0.766176 0.605392 0.501961
0.871568 0.601471 0.494117
0.969117 0.599019 0.482353
1.000000 0.606863 0.482353
0.321569 0.757843 0.486274
0.348530 0.758824 0.486274
0.419608 0.747059 0.486274
0.517647 0.753922 0.486274
0.619607 0.747059 0.482353
0.723530 0.739216 0.478431
0.840196 0.738235 0.478432
0.957353 0.731373 0.470588
1.000000 0.735294 0.473529
0.293628 0.883333 0.474019
0.313236 0.883333 0.474019
0.391176 0.871568 0.462746
0.478431 0.871568 0.466666
0.578431 0.867647 0.458823
0.704412 0.871568 0.454902
0.797549 0.863725 0.450981
0.918137 0.863725 0.450490
1.000000 0.855882 0.439215
0.180392 0.992157 0.443137
0.250000 0.992157 0.447059
0.328431 0.993137 0.443137
0.432353 0.990686 0.447059
0.545098 0.990196 0.435295
0.652451 0.986765 0.439215
0.766667 0.985294 0.431373
0.879412 0.980392 0.427451
1.000000 0.972549 0.427451
0.142647 0.096569 0.704902
0.210785 0.095588 0.699020
0.336765 0.104412 0.703431
0.463726 0.089216 0.695588
0.592156 0.066667 0.689216
0.724510 0.061275 0.689216
0.845098 0.002942 0.672059
0.961274 0.000000 0.665686
1.000000 0.000000 0.650000
0.164216 0.183334 0.697059
0.230883 0.187255 0.700980
0.343137 0.175981 0.695588
0.475000 0.179412 0.697059
0.600000 0.169608 0.687745
0.723039 0.156373 0.681863
0.849020 0.123529 0.673529
0.969117 0.081373 0.665686
1.000000 0.069608 0.646078
0.233333 0.297059 0.694118
0.273039 0.297059 0.694118
0.372059 0.293137 0.697059
0.483824 0.285295 0.687745
0.611764 0.269608 0.678431
0.726961 0.261765 0.672059
0.849020 0.246078 0.669608
0.969117 0.226470 0.648529
1.000000 0.225490 0.650000
0.300490 0.407353 0.683824
0.347059 0.412255 0.685294
0.422549 0.399510 0.678921
0.518628 0.394608 0.671079
0.627451 0.386765 0.675000
0.738725 0.375980 0.660294
0.852941 0.364706 0.648529
0.965196 0.356373 0.647549
1.000000 0.350000 0.628922
0.331372 0.525490 0.667647
0.375981 0.513725 0.659804
0.439706 0.513725 0.667647
0.550000 0.501961 0.663726
0.654902 0.490196 0.648039
0.758333 0.486274 0.651961
0.868628 0.474510 0.640196
0.976961 0.474510 0.632353
1.000000 0.470589 0.612745
0.364706 0.632843 0.648529
0.383824 0.634804 0.644608
0.457844 0.631373 0.646078
0.550000 0.621078 0.639706
0.662745 0.616667 0.636275
0.770098 0.602941 0.632843
0.867647 0.602941 0.617157
0.969117 0.602941 0.609314
1.000000 0.599020 0.601471
0.341176 0.750981 0.617157
0.379902 0.758824 0.615196
0.430883 0.750981 0.617157
0.529412 0.747059 0.612255
0.623530 0.746079 0.608824
0.738725 0.745588 0.610784
0.851961 0.739216 0.597549
0.961274 0.731373 0.595098
1.000000 0.735294 0.583333
0.283334 0.879412 0.587255
0.336765 0.875490 0.587745
0.396078 0.875490 0.588726
0.493627 0.875490 0.584804
0.584314 0.867647 0.583333
0.707353 0.871568 0.577941
0.813236 0.859804 0.570098
0.925980 0.863725 0.575490
1.000000 0.859804 0.563725
0.200000 0.992157 0.563725
0.275490 0.992157 0.559804
0.358823 0.989216 0.563725
0.436275 0.989216 0.563725
0.560785 0.990196 0.553922
0.661765 0.986765 0.544118
0.766667 0.984314 0.548039
0.883333 0.978922 0.551961
1.000000 0.968627 0.540196
0.196078 0.090196 0.825490
0.254412 0.097059 0.829412
0.356863 0.090196 0.825490
0.471569 0.084804 0.821569
0.596079 0.086275 0.825490
0.719118 0.061275 0.813726
0.845098 0.000000 0.794118
0.965196 0.000000 0.786275
1.000000 0.000000 0.774510
0.211765 0.179412 0.825490
0.277451 0.179902 0.829412
0.355882 0.183334 0.832353
0.486764 0.160294 0.821569
0.600000 0.156373 0.820588
0.726961 0.136765 0.805883
0.848039 0.123529 0.804902
0.961274 0.115686 0.793627
1.000000 0.065687 0.770588
0.247059 0.289216 0.817647
0.297549 0.293138 0.825490
0.386274 0.289216 0.824510
0.503431 0.281373 0.828432
0.611765 0.273529 0.808823
0.728431 0.259314 0.804902
0.849020 0.246079 0.794118
0.965196 0.218628 0.785784
1.000000 0.207843 0.766667
0.327941 0.402451 0.812745
0.366666 0.400981 0.809804
0.433333 0.396078 0.798039
0.526471 0.388235 0.798039
0.635294 0.378922 0.798039
0.742647 0.371078 0.798039
0.852941 0.353922 0.785294
0.976961 0.353432 0.770588
1.000000 0.348529 0.754902
0.374510 0.509804 0.790196
0.411275 0.509804 0.793137
0.470588 0.505883 0.797058
0.577451 0.498039 0.790196
0.658824 0.486274 0.786275
0.754412 0.486274 0.773529
0.868628 0.474510 0.773529
0.969117 0.474510 0.757843
1.000000 0.474510 0.746079
0.380392 0.630392 0.773039
0.423039 0.630392 0.771568
0.465687 0.628922 0.775000
0.567157 0.617157 0.765686
0.666667 0.613235 0.761764
0.770098 0.606863 0.761274
0.863726 0.597549 0.742156
0.973039 0.602941 0.730392
1.000000 0.606863 0.729902
0.387255 0.750981 0.742156
0.399510 0.747059 0.742156
0.450000 0.750000 0.746079
0.543627 0.747059 0.734314
0.642157 0.739216 0.734314
0.754412 0.739216 0.726470
0.855883 0.734314 0.722549
0.950000 0.731373 0.702941
1.000000 0.731373 0.691176
0.325490 0.875490 0.711275
0.356373 0.871568 0.707353
0.408333 0.875490 0.703431
0.494608 0.871568 0.702941
0.607353 0.875490 0.699510
0.703431 0.867647 0.702941
0.813236 0.863725 0.691176
0.922059 0.859804 0.687255
1.000000 0.859804 0.679902
0.270588 0.992157 0.676471
0.317157 0.988725 0.675490
0.363725 0.985294 0.668628
0.448039 0.984314 0.676471
0.564705 0.984314 0.664706
0.656373 0.984314 0.671569
0.778432 0.984314 0.668628
0.887255 0.976961 0.660295
1.000000 0.972549 0.663725
0.254902 0.082353 0.953921
0.309314 0.078431 0.953921
0.364216 0.092647 0.946078
0.493137 0.078431 0.957843
0.607843 0.065196 0.946078
0.719118 0.035294 0.942157
0.851961 0.000000 0.926470
0.957843 0.000000 0.910784
1.000000 0.000000 0.902941
0.258334 0.172059 0.950000
0.293628 0.172059 0.953921
0.372059 0.164216 0.950000
0.495098 0.167647 0.953921
0.611765 0.163235 0.950000
0.723039 0.138725 0.930392
0.841177 0.124020 0.918627
0.953921 0.100490 0.910784
1.000000 0.111764 0.895098
0.293138 0.285295 0.950000
0.325000 0.285295 0.946078
0.409804 0.281373 0.946078
0.502941 0.274020 0.942157
0.623529 0.266667 0.934313
0.732353 0.255392 0.922549
0.854902 0.249019 0.922549
0.957843 0.229412 0.910784
1.000000 0.229412 0.895098
0.359314 0.398529 0.930392
0.379412 0.396569 0.924020
0.444608 0.390196 0.924020
0.538235 0.386765 0.930392
0.631373 0.375000 0.918627
0.744117 0.371078 0.918627
0.852451 0.363235 0.906862
0.965196 0.357353 0.891176
1.000000 0.350000 0.883333
0.413725 0.501961 0.918627
0.445098 0.498040 0.918627
0.484804 0.498040 0.914705
0.565196 0.494117 0.910784
0.652941 0.490196 0.910784
0.763725 0.482353 0.899019
0.867647 0.482353 0.891176
0.965196 0.474509 0.875490
1.000000 0.474509 0.863725
0.419608 0.622549 0.895098
0.445098 0.621078 0.887255
0.493137 0.617157 0.899019
0.583333 0.614706 0.899019
0.676470 0.605392 0.887255
0.762255 0.606863 0.883333
0.871568 0.602941 0.871568
0.961274 0.599019 0.851961
1.000000 0.599019 0.844117
0.391667 0.750491 0.867647
0.419118 0.747059 0.871078
0.465687 0.747059 0.867647
0.559314 0.743137 0.863725
0.648530 0.735294 0.855882
0.746569 0.742157 0.858334
0.855883 0.727451 0.840196
0.950000 0.734804 0.835784
1.000000 0.734804 0.820588
0.340686 0.871568 0.836274
0.364706 0.875490 0.843627
0.419608 0.871568 0.836274
0.500490 0.863725 0.824510
0.605882 0.871568 0.820098
0.715196 0.863725 0.812255
0.832353 0.859804 0.812255
0.933823 0.859804 0.800490
1.000000 0.859804 0.796568
0.309804 0.984314 0.793137
0.344608 0.985294 0.789215
0.399019 0.984314 0.793137
0.461275 0.989706 0.789215
0.576470 0.984314 0.793137
0.672059 0.984314 0.789215
0.789706 0.980392 0.788725
0.899019 0.975981 0.777451
1.000000 0.968627 0.769607
0.274510 0.078431 1.000000
0.313236 0.070588 1.000000
0.387255 0.082353 1.000000
0.499020 0.062745 1.000000
0.600000 0.060784 1.000000
0.715196 0.040686 1.000000
0.837255 0.000000 1.000000
0.950000 0.000000 1.000000
1.000000 0.000000 1.000000
0.294118 0.167647 1.000000
0.317157 0.175490 1.000000
0.394607 0.171569 1.000000
0.503921 0.156373 1.000000
0.607843 0.140196 1.000000
0.720588 0.136275 1.000000
0.841177 0.116176 1.000000
0.960785 0.089216 1.000000
1.000000 0.061765 1.000000
0.305882 0.281373 1.000000
0.340196 0.281373 1.000000
0.414706 0.273529 1.000000
0.523039 0.270098 1.000000
0.611765 0.257844 1.000000
0.729412 0.249019 1.000000
0.849020 0.236275 1.000000
0.957843 0.218627 1.000000
1.000000 0.221568 1.000000
0.363235 0.382843 1.000000
0.386765 0.385294 1.000000
0.457844 0.382353 1.000000
0.546078 0.378922 1.000000
0.639215 0.373529 1.000000
0.742647 0.361765 1.000000
0.852941 0.355392 1.000000
0.965196 0.353922 1.000000
1.000000 0.357843 1.000000
0.431373 0.498039 1.000000
0.454412 0.498039 1.000000
0.491177 0.486274 1.000000
0.569118 0.490197 1.000000
0.658824 0.486274 1.000000
0.754412 0.478432 1.000000
0.856863 0.478432 1.000000
0.965196 0.478432 1.000000
1.000000 0.478432 0.998039
0.465196 0.610784 1.000000
0.480391 0.607353 1.000000
0.524510 0.610784 1.000000
0.590686 0.606863 1.000000
0.674019 0.606863 1.000000
0.770098 0.602941 1.000000
0.863235 0.599020 0.999020
0.965196 0.606863 0.999510
1.000000 0.602941 0.978922
0.410784 0.743137 1.000000
0.434804 0.743137 0.995098
0.493138 0.743137 0.991177
0.562254 0.739216 0.991176
0.657844 0.740196 0.992157
0.758824 0.731373 0.975491
0.844118 0.735294 0.979412
0.953921 0.731373 0.964216
1.000000 0.731373 0.948039
0.352451 0.867647 0.964216
0.372549 0.863725 0.964216
0.415686 0.867647 0.960294
0.516177 0.867647 0.964216
0.609804 0.863725 0.956373
0.722550 0.863725 0.944608
0.828922 0.859804 0.944608
0.934313 0.851961 0.929412
1.000000 0.859804 0.917647
0.313726 0.988235 0.925490
0.341176 0.992157 0.933333
0.406863 0.985294 0.925490
0.483333 0.984314 0.921569
0.584313 0.980392 0.907843
0.683824 0.980392 0.917647
0.785294 0.980392 0.909804
0.906862 0.972549 0.898039
1.000000 0.976471 0.894118
