Color/CreativePack-1/TealMagentaGold 65x.cube
TITLE "TealMagentaGold"
LUT_3D_SIZE 5
DOMAIN_MIN 0.000000 0.000000 0.000000
DOMAIN_MAX 1.000000 1.000000 1.000000
0.000000 0.000000 0.000000
0.288235 0.074510 0.061765
0.592156 0.090196 0.066667
0.849020 0.018627 0.057844
1.000000 0.000000 0.050980
0.100000 0.315686 0.054902
0.339215 0.308824 0.069608
0.600000 0.286275 0.065687
0.862746 0.256863 0.069608
1.000000 0.209804 0.062745
0.250980 0.541176 0.080392
0.400980 0.533334 0.082353
0.639215 0.509804 0.078431
0.867647 0.482353 0.078431
1.000000 0.474510 0.013725
0.282353 0.762745 0.000000
0.405883 0.755882 0.000000
0.609804 0.747059 0.019608
0.840196 0.739216 0.000000
1.000000 0.727451 0.000000
0.176471 0.996078 0.000000
0.289216 0.992157 0.000000
0.519608 0.984314 0.000000
0.750981 0.983334 0.000000
0.992157 0.972549 0.000000
0.000000 0.057844 0.264706
0.300000 0.085295 0.303921
0.588236 0.090196 0.307843
0.849020 0.022549 0.296078
1.000000 0.000000 0.276470
0.119608 0.304902 0.297059
0.335294 0.300980 0.303921
0.596078 0.285295 0.300980
0.855883 0.246079 0.288235
1.000000 0.213725 0.276470
0.269608 0.537254 0.285295
0.397059 0.529411 0.285295
0.643138 0.505883 0.289216
0.871568 0.482353 0.273529
1.000000 0.474510 0.260784
0.301961 0.758824 0.260784
0.395098 0.757843 0.242157
0.610784 0.743137 0.235294
0.844118 0.731373 0.245098
1.000000 0.731373 0.210784
0.156863 0.996078 0.194117
0.304902 0.992157 0.186274
0.521568 0.991176 0.185294
0.750981 0.984314 0.174510
1.000000 0.973530 0.169608
0.084314 0.078431 0.552941
0.315686 0.097059 0.568628
0.584313 0.100000 0.568628
0.849020 0.041176 0.552941
1.000000 0.000000 0.525490
0.195098 0.300980 0.556863
0.360784 0.297059 0.560785
0.607843 0.273529 0.556863
0.852941 0.249019 0.541176
1.000000 0.217647 0.517648
0.307843 0.533334 0.549019
0.428432 0.517648 0.533334
0.654902 0.498039 0.537254
0.868628 0.486274 0.524510
1.000000 0.470588 0.494117
0.321569 0.757843 0.486274
0.419608 0.747059 0.486274
0.619607 0.747059 0.482353
0.840196 0.738235 0.478432
1.000000 0.735294 0.473529
0.180392 0.992157 0.443137
0.328431 0.993137 0.443137
0.545098 0.990196 0.435295
0.766667 0.985294 0.431373
1.000000 0.972549 0.427451
0.196078 0.090196 0.825490
0.356863 0.090196 0.825490
0.596079 0.086275 0.825490
0.845098 0.000000 0.794118
1.000000 0.000000 0.774510
0.247059 0.289216 0.817647
0.386274 0.289216 0.824510
0.611765 0.273529 0.808823
0.849020 0.246079 0.794118
1.000000 0.207843 0.766667
0.374510 0.509804 0.790196
0.470588 0.505883 0.797058
0.658824 0.486274 0.786275
0.868628 0.474510 0.773529
1.000000 0.474510 0.746079
0.387255 0.750981 0.742156
0.450000 0.750000 0.746079
0.642157 0.739216 0.734314
0.855883 0.734314 0.722549
1.000000 0.731373 0.691176
0.270588 0.992157 0.676471
0.363725 0.985294 0.668628
0.564705 0.984314 0.664706
0.778432 0.984314 0.668628
1.000000 0.972549 0.663725
0.274510 0.078431 1.000000
0.387255 0.082353 1.000000
0.600000 0.060784 1.000000
0.837255 0.000000 1.000000
1.000000 0.000000 1.000000
0.305882 0.281373 1.000000
0.414706 0.273529 1.000000
0.611765 0.257844 1.000000
0.849020 0.236275 1.000000
1.000000 0.221568 1.000000
0.431373 0.498039 1.000000
0.491177 0.486274 1.000000
0.658824 0.486274 1.000000
0.856863 0.478432 1.000000
1.000000 0.478432 0.998039
0.410784 0.743137 1.000000
0.493138 0.743137 0.991177
0.657844 0.740196 0.992157
0.844118 0.735294 0.979412
1.000000 0.731373 0.948039
0.313726 0.988235 0.925490
0.406863 0.985294 0.925490
0.584313 0.980392 0.907843
0.785294 0.980392 0.909804
1.000000 0.976471 0.894118
