Black-and-White/Rollei/Rollei Retro 80s 65x.cube
TITLE "Rollei Retro 80s"
LUT_3D_SIZE 9
DOMAIN_MIN 0.000000 0.000000 0.000000
DOMAIN_MAX 1.000000 1.000000 1.000000
0.000000 0.000000 0.000000
0.007843 0.007843 0.007843
0.030392 0.030392 0.030392
0.073039 0.073039 0.073039
0.139215 0.139215 0.139215
0.259314 0.259314 0.259314
0.438235 0.438235 0.438235
0.656373 0.656373 0.656373
0.819608 0.819608 0.819608
0.007353 0.007353 0.007353
0.019118 0.019118 0.019118
0.046569 0.046569 0.046569
0.088726 0.088726 0.088726
0.162255 0.162255 0.162255
0.281373 0.281373 0.281373
0.461765 0.461765 0.461765
0.675000 0.675000 0.675000
0.823529 0.823529 0.823529
0.027451 0.027451 0.027451
0.039216 0.039216 0.039216
0.065687 0.065687 0.065687
0.112255 0.112255 0.112255
0.188236 0.188236 0.188236
0.315687 0.315687 0.315687
0.496078 0.496078 0.496078
0.691667 0.691667 0.691667
0.835294 0.835294 0.835294
0.058824 0.058824 0.058824
0.069118 0.069118 0.069118
0.096569 0.096569 0.096569
0.143627 0.143627 0.143627
0.227941 0.227941 0.227941
0.358333 0.358333 0.358333
0.538725 0.538725 0.538725
0.718627 0.718627 0.718627
0.850980 0.850980 0.850980
0.101961 0.101961 0.101961
0.111765 0.111765 0.111765
0.139215 0.139215 0.139215
0.192647 0.192647 0.192647
0.280392 0.280392 0.280392
0.416667 0.416667 0.416667
0.593137 0.593137 0.593137
0.751471 0.751471 0.751471
0.868627 0.868627 0.868627
0.162255 0.162255 0.162255
0.171568 0.171568 0.171568
0.204411 0.204411 0.204411
0.258823 0.258823 0.258823
0.355883 0.355883 0.355883
0.494608 0.494608 0.494608
0.654411 0.654411 0.654411
0.786275 0.786275 0.786275
0.891667 0.891667 0.891667
0.244118 0.244118 0.244118
0.252941 0.252941 0.252941
0.290197 0.290197 0.290197
0.353431 0.353431 0.353431
0.455882 0.455882 0.455882
0.585294 0.585294 0.585294
0.715687 0.715687 0.715687
0.825000 0.825000 0.825000
0.918627 0.918627 0.918627
0.358333 0.358333 0.358333
0.373529 0.373529 0.373529
0.411765 0.411765 0.411765
0.477942 0.477942 0.477942
0.571568 0.571568 0.571568
0.680392 0.680392 0.680392
0.777942 0.777942 0.777942
0.867157 0.867157 0.867157
0.949020 0.949020 0.949020
0.517647 0.517647 0.517647
0.532843 0.532843 0.532843
0.567647 0.567647 0.567647
0.622059 0.622059 0.622059
0.692157 0.692157 0.692157
0.763725 0.763725 0.763725
0.836274 0.836274 0.836274
0.910294 0.910294 0.910294
0.972549 0.972549 0.972549
0.000000 0.000000 0.000000
0.023039 0.023039 0.023039
0.053921 0.053921 0.053921
0.100490 0.100490 0.100490
0.176471 0.176471 0.176471
0.300980 0.300980 0.300980
0.485294 0.485294 0.485294
0.687745 0.687745 0.687745
0.835294 0.835294 0.835294
0.015686 0.015686 0.015686
0.034804 0.034804 0.034804
0.065687 0.065687 0.065687
0.112255 0.112255 0.112255
0.191666 0.191666 0.191666
0.318137 0.318137 0.318137
0.500490 0.500490 0.500490
0.695589 0.695589 0.695589
0.839216 0.839216 0.839216
0.039216 0.039216 0.039216
0.054412 0.054412 0.054412
0.081863 0.081863 0.081863
0.131372 0.131372 0.131372
0.212745 0.212745 0.212745
0.343137 0.343137 0.343137
0.524020 0.524020 0.524020
0.710294 0.710294 0.710294
0.846079 0.846079 0.846079
0.073039 0.073039 0.073039
0.084804 0.084804 0.084804
0.112255 0.112255 0.112255
0.161765 0.161765 0.161765
0.247058 0.247058 0.247058
0.381863 0.381863 0.381863
0.561274 0.561274 0.561274
0.730392 0.730392 0.730392
0.858334 0.858334 0.858334
0.115686 0.115686 0.115686
0.125000 0.125000 0.125000
0.154412 0.154412 0.154412
0.208334 0.208334 0.208334
0.298040 0.298040 0.298040
0.436275 0.436275 0.436275
0.610294 0.610294 0.610294
0.759314 0.759314 0.759314
0.874510 0.874510 0.874510
0.174020 0.174020 0.174020
0.189216 0.189216 0.189216
0.218137 0.218137 0.218137
0.275980 0.275980 0.275980
0.374019 0.374019 0.374019
0.511765 0.511765 0.511765
0.666177 0.666177 0.666177
0.793137 0.793137 0.793137
0.898039 0.898039 0.898039
0.256863 0.256863 0.256863
0.271078 0.271078 0.271078
0.305882 0.305882 0.305882
0.372549 0.372549 0.372549
0.471569 0.471569 0.471569
0.603431 0.603431 0.603431
0.726961 0.726961 0.726961
0.828922 0.828922 0.828922
0.922549 0.922549 0.922549
0.377451 0.377451 0.377451
0.392647 0.392647 0.392647
0.430392 0.430392 0.430392
0.493628 0.493628 0.493628
0.588726 0.588726 0.588726
0.689706 0.689706 0.689706
0.785785 0.785785 0.785785
0.871568 0.871568 0.871568
0.949510 0.949510 0.949510
0.533333 0.533333 0.533333
0.548530 0.548530 0.548530
0.583333 0.583333 0.583333
0.637255 0.637255 0.637255
0.703431 0.703431 0.703431
0.773529 0.773529 0.773529
0.844118 0.844118 0.844118
0.914215 0.914215 0.914215
0.976471 0.976471 0.976471
0.003922 0.003922 0.003922
0.035294 0.035294 0.035294
0.069608 0.069608 0.069608
0.120098 0.120098 0.120098
0.203922 0.203922 0.203922
0.333823 0.333823 0.333823
0.519608 0.519608 0.519608
0.709804 0.709804 0.709804
0.847059 0.847059 0.847059
0.027451 0.027451 0.027451
0.050490 0.050490 0.050490
0.084804 0.084804 0.084804
0.135294 0.135294 0.135294
0.219117 0.219117 0.219117
0.350981 0.350981 0.350981
0.535294 0.535294 0.535294
0.717647 0.717647 0.717647
0.850490 0.850490 0.850490
0.057844 0.057844 0.057844
0.073529 0.073529 0.073529
0.103921 0.103921 0.103921
0.155392 0.155392 0.155392
0.240196 0.240196 0.240196
0.375980 0.375980 0.375980
0.558823 0.558823 0.558823
0.729412 0.729412 0.729412
0.854902 0.854902 0.854902
0.092647 0.092647 0.092647
0.104412 0.104412 0.104412
0.134804 0.134804 0.134804
0.189216 0.189216 0.189216
0.277451 0.277451 0.277451
0.417157 0.417157 0.417157
0.594118 0.594118 0.594118
0.749020 0.749020 0.749020
0.866667 0.866667 0.866667
0.139215 0.139215 0.139215
0.150981 0.150981 0.150981
0.181373 0.181373 0.181373
0.238725 0.238725 0.238725
0.332353 0.332353 0.332353
0.473039 0.473039 0.473039
0.639216 0.639216 0.639216
0.775000 0.775000 0.775000
0.884314 0.884314 0.884314
0.204412 0.204412 0.204412
0.216176 0.216176 0.216176
0.247549 0.247549 0.247549
0.308824 0.308824 0.308824
0.411765 0.411765 0.411765
0.548529 0.548529 0.548529
0.689706 0.689706 0.689706
0.805883 0.805883 0.805883
0.905882 0.905882 0.905882
0.290196 0.290196 0.290196
0.303431 0.303431 0.303431
0.340196 0.340196 0.340196
0.409804 0.409804 0.409804
0.508824 0.508824 0.508824
0.631373 0.631373 0.631373
0.744117 0.744117 0.744117
0.842647 0.842647 0.842647
0.929412 0.929412 0.929412
0.415686 0.415686 0.415686
0.431373 0.431373 0.431373
0.466667 0.466667 0.466667
0.531863 0.531863 0.531863
0.621568 0.621568 0.621568
0.713235 0.713235 0.713235
0.800490 0.800490 0.800490
0.879412 0.879412 0.879412
0.956863 0.956863 0.956863
0.572549 0.572549 0.572549
0.587255 0.587255 0.587255
0.617647 0.617647 0.617647
0.665196 0.665196 0.665196
0.723529 0.723529 0.723529
0.788725 0.788725 0.788725
0.855883 0.855883 0.855883
0.922059 0.922059 0.922059
0.976471 0.976471 0.976471
0.014216 0.014216 0.014216
0.054412 0.054412 0.054412
0.093137 0.093137 0.093137
0.147549 0.147549 0.147549
0.235295 0.235295 0.235295
0.374019 0.374019 0.374019
0.558333 0.558333 0.558333
0.730392 0.730392 0.730392
0.858824 0.858824 0.858824
0.047059 0.047059 0.047059
0.073039 0.073039 0.073039
0.109314 0.109314 0.109314
0.165686 0.165686 0.165686
0.253432 0.253432 0.253432
0.393627 0.393627 0.393627
0.575000 0.575000 0.575000
0.738235 0.738235 0.738235
0.862745 0.862745 0.862745
0.081373 0.081373 0.081373
0.097549 0.097549 0.097549
0.130882 0.130882 0.130882
0.189216 0.189216 0.189216
0.277451 0.277451 0.277451
0.421078 0.421078 0.421078
0.598039 0.598039 0.598039
0.751961 0.751961 0.751961
0.869608 0.869608 0.869608
0.120098 0.120098 0.120098
0.135294 0.135294 0.135294
0.167157 0.167157 0.167157
0.226961 0.226961 0.226961
0.320098 0.320098 0.320098
0.461765 0.461765 0.461765
0.631863 0.631863 0.631863
0.769607 0.769607 0.769607
0.880882 0.880882 0.880882
0.174510 0.174510 0.174510
0.188726 0.188726 0.188726
0.220588 0.220588 0.220588
0.278922 0.278922 0.278922
0.380882 0.380882 0.380882
0.521079 0.521079 0.521079
0.674510 0.674510 0.674510
0.794608 0.794608 0.794608
0.896569 0.896569 0.896569
0.247059 0.247059 0.247059
0.258824 0.258824 0.258824
0.293137 0.293137 0.293137
0.359314 0.359314 0.359314
0.462745 0.462745 0.462745
0.595098 0.595098 0.595098
0.721078 0.721078 0.721078
0.825490 0.825490 0.825490
0.916176 0.916176 0.916176
0.341667 0.341667 0.341667
0.357353 0.357353 0.357353
0.396569 0.396569 0.396569
0.464706 0.464706 0.464706
0.563235 0.563235 0.563235
0.671569 0.671569 0.671569
0.770588 0.770588 0.770588
0.859314 0.859314 0.859314
0.938235 0.938235 0.938235
0.474020 0.474020 0.474020
0.489216 0.489216 0.489216
0.524019 0.524019 0.524019
0.586274 0.586274 0.586274
0.663726 0.663726 0.663726
0.743137 0.743137 0.743137
0.821078 0.821078 0.821078
0.894608 0.894608 0.894608
0.961274 0.961274 0.961274
0.625980 0.625980 0.625980
0.634804 0.634804 0.634804
0.661275 0.661275 0.661275
0.702941 0.702941 0.702941
0.754902 0.754902 0.754902
0.810294 0.810294 0.810294
0.871568 0.871568 0.871568
0.929902 0.929902 0.929902
0.980392 0.980392 0.980392
0.031373 0.031373 0.031373
0.080392 0.080392 0.080392
0.122549 0.122549 0.122549
0.184804 0.184804 0.184804
0.274509 0.274509 0.274509
0.420588 0.420588 0.420588
0.600980 0.600980 0.600980
0.755392 0.755392 0.755392
0.872549 0.872549 0.872549
0.074020 0.074020 0.074020
0.101471 0.101471 0.101471
0.142157 0.142157 0.142157
0.205882 0.205882 0.205882
0.297549 0.297549 0.297549
0.444118 0.444118 0.444118
0.619608 0.619608 0.619608
0.763725 0.763725 0.763725
0.876470 0.876470 0.876470
0.112745 0.112745 0.112745
0.131373 0.131373 0.131373
0.170588 0.170588 0.170588
0.234804 0.234804 0.234804
0.328431 0.328431 0.328431
0.474510 0.474510 0.474510
0.643137 0.643137 0.643137
0.776471 0.776471 0.776471
0.884314 0.884314 0.884314
0.162745 0.162745 0.162745
0.176961 0.176961 0.176961
0.216667 0.216667 0.216667
0.277451 0.277451 0.277451
0.378922 0.378922 0.378922
0.521079 0.521079 0.521079
0.674510 0.674510 0.674510
0.794608 0.794608 0.794608
0.894118 0.894118 0.894118
0.227451 0.227451 0.227451
0.240686 0.240686 0.240686
0.275490 0.275490 0.275490
0.339706 0.339706 0.339706
0.447059 0.447059 0.447059
0.583334 0.583334 0.583334
0.712745 0.712745 0.712745
0.818137 0.818137 0.818137
0.909804 0.909804 0.909804
0.306863 0.306863 0.306863
0.321078 0.321078 0.321078
0.359314 0.359314 0.359314
0.427941 0.427941 0.427941
0.528922 0.528922 0.528922
0.649510 0.649510 0.649510
0.755392 0.755392 0.755392
0.845588 0.845588 0.845588
0.929412 0.929412 0.929412
0.415686 0.415686 0.415686
0.430883 0.430883 0.430883
0.468627 0.468627 0.468627
0.535784 0.535784 0.535784
0.624510 0.624510 0.624510
0.714216 0.714216 0.714216
0.798039 0.798039 0.798039
0.876961 0.876961 0.876961
0.949020 0.949020 0.949020
0.548039 0.548039 0.548039
0.563235 0.563235 0.563235
0.595098 0.595098 0.595098
0.648039 0.648039 0.648039
0.710294 0.710294 0.710294
0.776471 0.776471 0.776471
0.844608 0.844608 0.844608
0.910294 0.910294 0.910294
0.968627 0.968627 0.968627
0.680392 0.680392 0.680392
0.689706 0.689706 0.689706
0.711765 0.711765 0.711765
0.743627 0.743627 0.743627
0.786274 0.786274 0.786274
0.836765 0.836765 0.836765
0.891177 0.891177 0.891177
0.941666 0.941666 0.941666
0.984314 0.984314 0.984314
0.062745 0.062745 0.062745
0.117157 0.117157 0.117157
0.165196 0.165196 0.165196
0.235294 0.235294 0.235294
0.330882 0.330882 0.330882
0.480392 0.480392 0.480392
0.650000 0.650000 0.650000
0.781372 0.781372 0.781372
0.887745 0.887745 0.887745
0.115196 0.115196 0.115196
0.146079 0.146079 0.146079
0.192647 0.192647 0.192647
0.262255 0.262255 0.262255
0.362255 0.362255 0.362255
0.510294 0.510294 0.510294
0.668138 0.668138 0.668138
0.792647 0.792647 0.792647
0.894118 0.894118 0.894118
0.165196 0.165196 0.165196
0.184804 0.184804 0.184804
0.230882 0.230882 0.230882
0.297059 0.297059 0.297059
0.401470 0.401470 0.401470
0.544608 0.544608 0.544608
0.689706 0.689706 0.689706
0.804902 0.804902 0.804902
0.900980 0.900980 0.900980
0.223529 0.223529 0.223529
0.242647 0.242647 0.242647
0.281373 0.281373 0.281373
0.347549 0.347549 0.347549
0.454902 0.454902 0.454902
0.591176 0.591176 0.591176
0.718137 0.718137 0.718137
0.821569 0.821569 0.821569
0.911274 0.911274 0.911274
0.297549 0.297549 0.297549
0.312745 0.312745 0.312745
0.351471 0.351471 0.351471
0.421568 0.421568 0.421568
0.525000 0.525000 0.525000
0.647549 0.647549 0.647549
0.752941 0.752941 0.752941
0.844117 0.844117 0.844117
0.925490 0.925490 0.925490
0.392647 0.392647 0.392647
0.406373 0.406373 0.406373
0.443627 0.443627 0.443627
0.512745 0.512745 0.512745
0.606863 0.606863 0.606863
0.702451 0.702451 0.702451
0.790686 0.790686 0.790686
0.868628 0.868628 0.868628
0.941176 0.941176 0.941176
0.505392 0.505392 0.505392
0.518628 0.518628 0.518628
0.555392 0.555392 0.555392
0.616667 0.616667 0.616667
0.686765 0.686765 0.686765
0.759314 0.759314 0.759314
0.829412 0.829412 0.829412
0.898529 0.898529 0.898529
0.960784 0.960784 0.960784
0.630882 0.630882 0.630882
0.641667 0.641667 0.641667
0.668628 0.668628 0.668628
0.707843 0.707843 0.707843
0.758824 0.758824 0.758824
0.813726 0.813726 0.813726
0.869118 0.869118 0.869118
0.926470 0.926470 0.926470
0.976471 0.976471 0.976471
0.738725 0.738725 0.738725
0.746569 0.746569 0.746569
0.762255 0.762255 0.762255
0.789706 0.789706 0.789706
0.825000 0.825000 0.825000
0.864216 0.864216 0.864216
0.910784 0.910784 0.910784
0.956863 0.956863 0.956863
0.984314 0.984314 0.984314
0.110784 0.110784 0.110784
0.173530 0.173530 0.173530
0.228432 0.228432 0.228432
0.301470 0.301470 0.301470
0.409804 0.409804 0.409804
0.556863 0.556863 0.556863
0.700000 0.700000 0.700000
0.812255 0.812255 0.812255
0.905882 0.905882 0.905882
0.176961 0.176961 0.176961
0.213236 0.213236 0.213236
0.262745 0.262745 0.262745
0.340196 0.340196 0.340196
0.447549 0.447549 0.447549
0.588235 0.588235 0.588235
0.716667 0.716667 0.716667
0.821078 0.821078 0.821078
0.909804 0.909804 0.909804
0.239216 0.239216 0.239216
0.258824 0.258824 0.258824
0.306863 0.306863 0.306863
0.382843 0.382843 0.382843
0.488235 0.488235 0.488235
0.622549 0.622549 0.622549
0.738235 0.738235 0.738235
0.832844 0.832844 0.832844
0.917647 0.917647 0.917647
0.305392 0.305392 0.305392
0.324510 0.324510 0.324510
0.371079 0.371079 0.371079
0.442157 0.442157 0.442157
0.545589 0.545589 0.545589
0.662745 0.662745 0.662745
0.762745 0.762745 0.762745
0.850000 0.850000 0.850000
0.927941 0.927941 0.927941
0.393137 0.393137 0.393137
0.409804 0.409804 0.409804
0.449020 0.449020 0.449020
0.517157 0.517157 0.517157
0.614706 0.614706 0.614706
0.710294 0.710294 0.710294
0.794118 0.794118 0.794118
0.871078 0.871078 0.871078
0.941176 0.941176 0.941176
0.495098 0.495098 0.495098
0.510784 0.510784 0.510784
0.548039 0.548039 0.548039
0.609804 0.609804 0.609804
0.682843 0.682843 0.682843
0.756863 0.756863 0.756863
0.825980 0.825980 0.825980
0.894608 0.894608 0.894608
0.954412 0.954412 0.954412
0.610784 0.610784 0.610784
0.622549 0.622549 0.622549
0.651961 0.651961 0.651961
0.694608 0.694608 0.694608
0.749020 0.749020 0.749020
0.803431 0.803431 0.803431
0.860785 0.860785 0.860785
0.919118 0.919118 0.919118
0.968627 0.968627 0.968627
0.711765 0.711765 0.711765
0.719608 0.719608 0.719608
0.738725 0.738725 0.738725
0.770098 0.770098 0.770098
0.806863 0.806863 0.806863
0.849510 0.849510 0.849510
0.899020 0.899020 0.899020
0.945588 0.945588 0.945588
0.980392 0.980392 0.980392
0.797058 0.797058 0.797058
0.800980 0.800980 0.800980
0.815686 0.815686 0.815686
0.836274 0.836274 0.836274
0.863726 0.863726 0.863726
0.898039 0.898039 0.898039
0.934313 0.934313 0.934313
0.968627 0.968627 0.968627
0.984314 0.984314 0.984314
0.180882 0.180882 0.180882
0.254902 0.254902 0.254902
0.313236 0.313236 0.313236
0.395588 0.395588 0.395588
0.502941 0.502941 0.502941
0.637745 0.637745 0.637745
0.747549 0.747549 0.747549
0.840196 0.840196 0.840196
0.922059 0.922059 0.922059
0.263235 0.263235 0.263235
0.302451 0.302451 0.302451
0.360294 0.360294 0.360294
0.441666 0.441666 0.441666
0.546078 0.546078 0.546078
0.666176 0.666176 0.666176
0.766177 0.766177 0.766177
0.851961 0.851961 0.851961
0.929412 0.929412 0.929412
0.337255 0.337255 0.337255
0.360784 0.360784 0.360784
0.414706 0.414706 0.414706
0.488235 0.488235 0.488235
0.593627 0.593627 0.593627
0.696569 0.696569 0.696569
0.785784 0.785784 0.785784
0.863725 0.863725 0.863725
0.933823 0.933823 0.933823
0.423039 0.423039 0.423039
0.442156 0.442156 0.442156
0.484314 0.484314 0.484314
0.556863 0.556863 0.556863
0.644118 0.644118 0.644118
0.731373 0.731373 0.731373
0.809314 0.809314 0.809314
0.879412 0.879412 0.879412
0.945098 0.945098 0.945098
0.518628 0.518628 0.518628
0.534314 0.534314 0.534314
0.574510 0.574510 0.574510
0.632353 0.632353 0.632353
0.702451 0.702451 0.702451
0.770588 0.770588 0.770588
0.836765 0.836765 0.836765
0.898529 0.898529 0.898529
0.956863 0.956863 0.956863
0.623039 0.623039 0.623039
0.636765 0.636765 0.636765
0.663726 0.663726 0.663726
0.706373 0.706373 0.706373
0.756862 0.756862 0.756862
0.810784 0.810784 0.810784
0.865196 0.865196 0.865196
0.919608 0.919608 0.919608
0.968627 0.968627 0.968627
0.715197 0.715197 0.715197
0.720098 0.720098 0.720098
0.741667 0.741667 0.741667
0.772549 0.772549 0.772549
0.809314 0.809314 0.809314
0.852941 0.852941 0.852941
0.899020 0.899020 0.899020
0.941666 0.941666 0.941666
0.976961 0.976961 0.976961
0.789706 0.789706 0.789706
0.797058 0.797058 0.797058
0.808823 0.808823 0.808823
0.832353 0.832353 0.832353
0.859804 0.859804 0.859804
0.892157 0.892157 0.892157
0.929902 0.929902 0.929902
0.961274 0.961274 0.961274
0.984314 0.984314 0.984314
0.859314 0.859314 0.859314
0.863235 0.863235 0.863235
0.871078 0.871078 0.871078
0.886765 0.886765 0.886765
0.907843 0.907843 0.907843
0.933333 0.933333 0.933333
0.957843 0.957843 0.957843
0.980392 0.980392 0.980392
0.988235 0.988235 0.988235
0.282353 0.282353 0.282353
0.368137 0.368137 0.368137
0.430393 0.430393 0.430393
0.512255 0.512255 0.512255
0.613725 0.613725 0.613725
0.715196 0.715196 0.715196
0.797058 0.797058 0.797058
0.871568 0.871568 0.871568
0.941176 0.941176 0.941176
0.391177 0.391177 0.391177
0.430883 0.430883 0.430883
0.489216 0.489216 0.489216
0.570588 0.570588 0.570588
0.656863 0.656863 0.656863
0.740196 0.740196 0.740196
0.816667 0.816667 0.816667
0.882843 0.882843 0.882843
0.945098 0.945098 0.945098
0.477451 0.477451 0.477451
0.500980 0.500980 0.500980
0.554902 0.554902 0.554902
0.621078 0.621078 0.621078
0.694117 0.694117 0.694117
0.769118 0.769118 0.769118
0.835295 0.835295 0.835295
0.897550 0.897550 0.897550
0.952941 0.952941 0.952941
0.571078 0.571078 0.571078
0.589216 0.589216 0.589216
0.628922 0.628922 0.628922
0.679412 0.679412 0.679412
0.739706 0.739706 0.739706
0.797549 0.797549 0.797549
0.855883 0.855883 0.855883
0.910294 0.910294 0.910294
0.960784 0.960784 0.960784
0.664706 0.664706 0.664706
0.674509 0.674509 0.674509
0.700000 0.700000 0.700000
0.737745 0.737745 0.737745
0.784313 0.784313 0.784313
0.832843 0.832843 0.832843
0.881372 0.881372 0.881372
0.929902 0.929902 0.929902
0.970588 0.970588 0.970588
0.742647 0.742647 0.742647
0.750490 0.750490 0.750490
0.766176 0.766176 0.766176
0.793627 0.793627 0.793627
0.828922 0.828922 0.828922
0.868137 0.868137 0.868137
0.911274 0.911274 0.911274
0.950490 0.950490 0.950490
0.977941 0.977941 0.977941
0.808823 0.808823 0.808823
0.816667 0.816667 0.816667
0.828431 0.828431 0.828431
0.848039 0.848039 0.848039
0.876471 0.876471 0.876471
0.905882 0.905882 0.905882
0.938235 0.938235 0.938235
0.965196 0.965196 0.965196
0.984314 0.984314 0.984314
0.874510 0.874510 0.874510
0.875000 0.875000 0.875000
0.889216 0.889216 0.889216
0.898529 0.898529 0.898529
0.918137 0.918137 0.918137
0.942647 0.942647 0.942647
0.961274 0.961274 0.961274
0.980392 0.980392 0.980392
0.984314 0.984314 0.984314
0.933333 0.933333 0.933333
0.933333 0.933333 0.933333
0.941176 0.941176 0.941176
0.949020 0.949020 0.949020
0.960784 0.960784 0.960784
0.972549 0.972549 0.972549
0.980392 0.980392 0.980392
0.984314 0.984314 0.984314
1.000000 1.000000 1.000000
