Black-and-White/Rollei/Rollei IR 400 65x.cube
TITLE "Rollei IR 400"
LUT_3D_SIZE 5
DOMAIN_MIN 0.000000 0.000000 0.000000
DOMAIN_MAX 1.000000 1.000000 1.000000
0.000000 0.000000 0.000000
0.023529 0.023529 0.023529
0.121569 0.121569 0.121569
0.263726 0.263726 0.263726
0.392157 0.392157 0.392157
0.256863 0.256863 0.256863
0.288235 0.288235 0.288235
0.378431 0.378431 0.378431
0.508824 0.508824 0.508824
0.625490 0.625490 0.625490
0.721569 0.721569 0.721569
0.749019 0.749019 0.749019
0.827451 0.827451 0.827451
0.949999 0.949999 0.949999
1.000000 1.000000 1.000000
1.000000 1.000000 1.000000
1.000000 1.000000 1.000000
1.000000 1.000000 1.000000
1.000000 1.000000 1.000000
1.000000 1.000000 1.000000
1.000000 1.000000 1.000000
1.000000 1.000000 1.000000
1.000000 1.000000 1.000000
1.000000 1.000000 1.000000
1.000000 1.000000 1.000000
0.000000 0.000000 0.000000
0.000000 0.000000 0.000000
0.000000 0.000000 0.000000
0.084314 0.084314 0.084314
0.213726 0.213726 0.213726
0.104902 0.104902 0.104902
0.140196 0.140196 0.140196
0.233333 0.233333 0.233333
0.368627 0.368627 0.368627
0.485295 0.485295 0.485295
0.597059 0.597059 0.597059
0.624510 0.624510 0.624510
0.698039 0.698039 0.698039
0.815686 0.815686 0.815686
0.911765 0.911765 0.911765
1.000000 1.000000 1.000000
1.000000 1.000000 1.000000
1.000000 1.000000 1.000000
1.000000 1.000000 1.000000
1.000000 1.000000 1.000000
1.000000 1.000000 1.000000
1.000000 1.000000 1.000000
1.000000 1.000000 1.000000
1.000000 1.000000 1.000000
1.000000 1.000000 1.000000
0.000000 0.000000 0.000000
0.000000 0.000000 0.000000
0.000000 0.000000 0.000000
0.000000 0.000000 0.000000
0.000000 0.000000 0.000000
0.000000 0.000000 0.000000
0.000000 0.000000 0.000000
0.000000 0.000000 0.000000
0.074510 0.074510 0.074510
0.192157 0.192157 0.192157
0.313725 0.313725 0.313725
0.344118 0.344118 0.344118
0.419608 0.419608 0.419608
0.540196 0.540196 0.540196
0.633333 0.633333 0.633333
0.951961 0.951961 0.951961
0.971569 0.971569 0.971569
1.000000 1.000000 1.000000
1.000000 1.000000 1.000000
1.000000 1.000000 1.000000
1.000000 1.000000 1.000000
1.000000 1.000000 1.000000
1.000000 1.000000 1.000000
1.000000 1.000000 1.000000
1.000000 1.000000 1.000000
0.000000 0.000000 0.000000
0.000000 0.000000 0.000000
0.000000 0.000000 0.000000
0.000000 0.000000 0.000000
0.000000 0.000000 0.000000
0.000000 0.000000 0.000000
0.000000 0.000000 0.000000
0.000000 0.000000 0.000000
0.000000 0.000000 0.000000
0.000000 0.000000 0.000000
0.000000 0.000000 0.000000
0.000000 0.000000 0.000000
0.013725 0.013725 0.013725
0.139215 0.139215 0.139215
0.237255 0.237255 0.237255
0.594118 0.594118 0.594118
0.613726 0.613726 0.613726
0.684314 0.684314 0.684314
0.782353 0.782353 0.782353
0.851961 0.851961 0.851961
0.974510 0.974510 0.974510
0.993137 0.993137 0.993137
1.000000 1.000000 1.000000
1.000000 1.000000 1.000000
1.000000 1.000000 1.000000
0.000000 0.000000 0.000000
0.000000 0.000000 0.000000
0.000000 0.000000 0.000000
0.000000 0.000000 0.000000
0.000000 0.000000 0.000000
0.000000 0.000000 0.000000
0.000000 0.000000 0.000000
0.000000 0.000000 0.000000
0.000000 0.000000 0.000000
0.000000 0.000000 0.000000
0.000000 0.000000 0.000000
0.000000 0.000000 0.000000
0.000000 0.000000 0.000000
0.000000 0.000000 0.000000
0.000000 0.000000 0.000000
0.329411 0.329411 0.329411
0.352942 0.352942 0.352942
0.433334 0.433334 0.433334
0.538235 0.538235 0.538235
0.618627 0.618627 0.618627
0.780392 0.780392 0.780392
0.803922 0.803922 0.803922
0.862745 0.862745 0.862745
0.933333 0.933333 0.933333
0.980392 0.980392 0.980392
