Black-and-White/Rollei/Rollei Retro 100 Tonal 65x.cube
TITLE "Rollei Retro 100 Tonal"
LUT_3D_SIZE 65
DOMAIN_MIN 0.000000 0.000000 0.000000
DOMAIN_MAX 1.000000 1.000000 1.000000
0.000000 0.000000 0.000000
0.000000 0.000000 0.000000
0.000000 0.000000 0.000000
0.000000 0.000000 0.000000
0.000000 0.000000 0.000000
0.000000 0.000000 0.000000
0.000000 0.000000 0.000000
0.000000 0.000000 0.000000
0.000000 0.000000 0.000000
0.000000 0.000000 0.000000
0.000000 0.000000 0.000000
0.000000 0.000000 0.000000
0.000000 0.000000 0.000000
0.000000 0.000000 0.000000
0.000000 0.000000 0.000000
0.000000 0.000000 0.000000
0.000000 0.000000 0.000000
0.000000 0.000000 0.000000
0.000000 0.000000 0.000000
0.000000 0.000000 0.000000
0.000000 0.000000 0.000000
0.000000 0.000000 0.000000
0.000000 0.000000 0.000000
0.000000 0.000000 0.000000
0.000000 0.000000 0.000000
0.000000 0.000000 0.000000
0.000000 0.000000 0.000000
0.000000 0.000000 0.000000
0.000000 0.000000 0.000000
0.000000 0.000000 0.000000
0.000000 0.000000 0.000000
0.000000 0.000000 0.000000
0.001961 0.001961 0.001961
0.003922 0.003922 0.003922
0.003922 0.003922 0.003922
0.003922 0.003922 0.003922
0.003922 0.003922 0.003922
0.003922 0.003922 0.003922
0.003922 0.003922 0.003922
0.003922 0.003922 0.003922
0.003922 0.003922 0.003922
0.003922 0.003922 0.003922
0.003922 0.003922 0.003922
0.003922 0.003922 0.003922
0.003922 0.003922 0.003922
0.003922 0.003922 0.003922
0.003922 0.003922 0.003922
0.007843 0.007843 0.007843
0.007843 0.007843 0.007843
0.007843 0.007843 0.007843
0.007843 0.007843 0.007843
0.007843 0.007843 0.007843
0.007843 0.007843 0.007843
0.007843 0.007843 0.007843
0.010417 0.010417 0.010417
0.011765 0.011765 0.011765
0.011765 0.011765 0.011765
0.011765 0.011765 0.011765
0.011765 0.011765 0.011765
0.011765 0.011765 0.011765
0.011765 0.011765 0.011765
0.011765 0.011765 0.011765
0.013848 0.013848 0.013848
0.015686 0.015686 0.015686
0.015686 0.015686 0.015686
0.004841 0.004841 0.004841
0.004841 0.004841 0.004841
0.004841 0.004841 0.004841
0.007843 0.007843 0.007843
0.008762 0.008762 0.008762
0.008762 0.008762 0.008762
0.008762 0.008762 0.008762
0.008762 0.008762 0.008762
0.008762 0.008762 0.008762
0.008762 0.008762 0.008762
0.008762 0.008762 0.008762
0.008762 0.008762 0.008762
0.011948 0.011948 0.011948
0.009681 0.009681 0.009681
0.012684 0.012684 0.012684
0.012684 0.012684 0.012684
0.012684 0.012684 0.012684
0.012684 0.012684 0.012684
0.012684 0.012684 0.012684
0.012684 0.012684 0.012684
0.012684 0.012684 0.012684
0.012684 0.012684 0.012684
0.013603 0.013603 0.013603
0.013603 0.013603 0.013603
0.013603 0.013603 0.013603
0.013603 0.013603 0.013603
0.016605 0.016605 0.016605
0.016605 0.016605 0.016605
0.016605 0.016605 0.016605
0.016605 0.016605 0.016605
0.017524 0.017524 0.017524
0.017524 0.017524 0.017524
0.017524 0.017524 0.017524
0.020527 0.020527 0.020527
0.020527 0.020527 0.020527
0.020527 0.020527 0.020527
0.020527 0.020527 0.020527
0.021446 0.021446 0.021446
0.021446 0.021446 0.021446
0.021446 0.021446 0.021446
0.021446 0.021446 0.021446
0.021446 0.021446 0.021446
0.024448 0.024448 0.024448
0.025367 0.025367 0.025367
0.025367 0.025367 0.025367
0.025367 0.025367 0.025367
0.028370 0.028370 0.028370
0.029289 0.029289 0.029289
0.029289 0.029289 0.029289
0.029289 0.029289 0.029289
0.029289 0.029289 0.029289
0.029289 0.029289 0.029289
0.033211 0.033211 0.033211
0.033211 0.033211 0.033211
0.033211 0.033211 0.033211
0.033211 0.033211 0.033211
0.037132 0.037132 0.037132
0.037132 0.037132 0.037132
0.037132 0.037132 0.037132
0.037132 0.037132 0.037132
0.041054 0.041054 0.041054
0.041054 0.041054 0.041054
0.041054 0.041054 0.041054
0.041054 0.041054 0.041054
0.041054 0.041054 0.041054
0.013603 0.013603 0.013603
0.013603 0.013603 0.013603
0.013603 0.013603 0.013603
0.013603 0.013603 0.013603
0.013603 0.013603 0.013603
0.017524 0.017524 0.017524
0.017524 0.017524 0.017524
0.017524 0.017524 0.017524
0.017524 0.017524 0.017524
0.017524 0.017524 0.017524
0.017524 0.017524 0.017524
0.017524 0.017524 0.017524
0.021446 0.021446 0.021446
0.021446 0.021446 0.021446
0.021446 0.021446 0.021446
0.021446 0.021446 0.021446
0.021446 0.021446 0.021446
0.021446 0.021446 0.021446
0.021446 0.021446 0.021446
0.021446 0.021446 0.021446
0.024142 0.024142 0.024142
0.023284 0.023284 0.023284
0.025367 0.025367 0.025367
0.025367 0.025367 0.025367
0.025367 0.025367 0.025367
0.025367 0.025367 0.025367
0.025367 0.025367 0.025367
0.027206 0.027206 0.027206
0.027206 0.027206 0.027206
0.027206 0.027206 0.027206
0.029289 0.029289 0.029289
0.029289 0.029289 0.029289
0.031250 0.031250 0.031250
0.031127 0.031127 0.031127
0.033211 0.033211 0.033211
0.033211 0.033211 0.033211
0.033211 0.033211 0.033211
0.033211 0.033211 0.033211
0.036765 0.036765 0.036765
0.037132 0.037132 0.037132
0.037132 0.037132 0.037132
0.037132 0.037132 0.037132
0.037132 0.037132 0.037132
0.038970 0.038970 0.038970
0.038358 0.038358 0.038358
0.041054 0.041054 0.041054
0.041054 0.041054 0.041054
0.042892 0.042892 0.042892
0.042892 0.042892 0.042892
0.044975 0.044975 0.044975
0.044975 0.044975 0.044975
0.044975 0.044975 0.044975
0.046813 0.046813 0.046813
0.048897 0.048897 0.048897
0.048897 0.048897 0.048897
0.048897 0.048897 0.048897
0.050735 0.050735 0.050735
0.050735 0.050735 0.050735
0.050735 0.050735 0.050735
0.052818 0.052818 0.052818
0.054657 0.054657 0.054657
0.054657 0.054657 0.054657
0.056740 0.056740 0.056740
0.056740 0.056740 0.056740
0.056740 0.056740 0.056740
0.022365 0.022365 0.022365
0.022365 0.022365 0.022365
0.022365 0.022365 0.022365
0.022365 0.022365 0.022365
0.022365 0.022365 0.022365
0.026287 0.026287 0.026287
0.026287 0.026287 0.026287
0.026287 0.026287 0.026287
0.026287 0.026287 0.026287
0.026287 0.026287 0.026287
0.026287 0.026287 0.026287
0.026287 0.026287 0.026287
0.030209 0.030209 0.030209
0.030209 0.030209 0.030209
0.030209 0.030209 0.030209
0.030209 0.030209 0.030209
0.030209 0.030209 0.030209
0.030209 0.030209 0.030209
0.030209 0.030209 0.030209
0.032966 0.032966 0.032966
0.034130 0.034130 0.034130
0.034130 0.034130 0.034130
0.034130 0.034130 0.034130
0.034130 0.034130 0.034130
0.036888 0.036888 0.036888
0.036888 0.036888 0.036888
0.038052 0.038052 0.038052
0.038052 0.038052 0.038052
0.038052 0.038052 0.038052
0.038052 0.038052 0.038052
0.040809 0.040809 0.040809
0.040809 0.040809 0.040809
0.041973 0.041973 0.041973
0.041973 0.041973 0.041973
0.041973 0.041973 0.041973
0.041973 0.041973 0.041973
0.044731 0.044731 0.044731
0.044608 0.044608 0.044608
0.045895 0.045895 0.045895
0.045895 0.045895 0.045895
0.045895 0.045895 0.045895
0.048652 0.048652 0.048652
0.048652 0.048652 0.048652
0.049816 0.049816 0.049816
0.052574 0.052574 0.052574
0.051961 0.051961 0.051961
0.053738 0.053738 0.053738
0.053738 0.053738 0.053738
0.053738 0.053738 0.053738
0.056495 0.056495 0.056495
0.056495 0.056495 0.056495
0.056495 0.056495 0.056495
0.057660 0.057660 0.057660
0.057660 0.057660 0.057660
0.057660 0.057660 0.057660
0.060417 0.060417 0.060417
0.061581 0.061581 0.061581
0.061581 0.061581 0.061581
0.061581 0.061581 0.061581
0.064829 0.064829 0.064829
0.065503 0.065503 0.065503
0.065503 0.065503 0.065503
0.065503 0.065503 0.065503
0.068260 0.068260 0.068260
0.069424 0.069424 0.069424
0.031128 0.031128 0.031128
0.031128 0.031128 0.031128
0.031128 0.031128 0.031128
0.034804 0.034804 0.034804
0.034804 0.034804 0.034804
0.035049 0.035049 0.035049
0.035049 0.035049 0.035049
0.035049 0.035049 0.035049
0.035049 0.035049 0.035049
0.038726 0.038726 0.038726
0.038726 0.038726 0.038726
0.038971 0.038971 0.038971
0.038971 0.038971 0.038971
0.038971 0.038971 0.038971
0.038971 0.038971 0.038971
0.042647 0.042647 0.042647
0.042647 0.042647 0.042647
0.042647 0.042647 0.042647
0.042892 0.042892 0.042892
0.042892 0.042892 0.042892
0.042892 0.042892 0.042892
0.042892 0.042892 0.042892
0.042892 0.042892 0.042892
0.046569 0.046569 0.046569
0.046814 0.046814 0.046814
0.046814 0.046814 0.046814
0.046814 0.046814 0.046814
0.046814 0.046814 0.046814
0.050490 0.050490 0.050490
0.050490 0.050490 0.050490
0.050735 0.050735 0.050735
0.050735 0.050735 0.050735
0.050735 0.050735 0.050735
0.054412 0.054412 0.054412
0.054412 0.054412 0.054412
0.054657 0.054657 0.054657
0.054657 0.054657 0.054657
0.054657 0.054657 0.054657
0.054657 0.054657 0.054657
0.055208 0.055208 0.055208
0.058579 0.058579 0.058579
0.058579 0.058579 0.058579
0.058579 0.058579 0.058579
0.058579 0.058579 0.058579
0.059804 0.059804 0.059804
0.062500 0.062500 0.062500
0.062500 0.062500 0.062500
0.062500 0.062500 0.062500
0.063481 0.063481 0.063481
0.066422 0.066422 0.066422
0.066422 0.066422 0.066422
0.066422 0.066422 0.066422
0.070098 0.070098 0.070098
0.070343 0.070343 0.070343
0.070343 0.070343 0.070343
0.070343 0.070343 0.070343
0.070343 0.070343 0.070343
0.074020 0.074020 0.074020
0.072672 0.072672 0.072672
0.074265 0.074265 0.074265
0.074265 0.074265 0.074265
0.074265 0.074265 0.074265
0.078186 0.078186 0.078186
0.078186 0.078186 0.078186
0.078186 0.078186 0.078186
0.043811 0.043811 0.043811
0.043811 0.043811 0.043811
0.043811 0.043811 0.043811
0.043811 0.043811 0.043811
0.043811 0.043811 0.043811
0.044485 0.044485 0.044485
0.044485 0.044485 0.044485
0.044485 0.044485 0.044485
0.047733 0.047733 0.047733
0.047733 0.047733 0.047733
0.047733 0.047733 0.047733
0.050000 0.050000 0.050000
0.048407 0.048407 0.048407
0.051654 0.051654 0.051654
0.051654 0.051654 0.051654
0.051654 0.051654 0.051654
0.051654 0.051654 0.051654
0.051654 0.051654 0.051654
0.052328 0.052328 0.052328
0.052328 0.052328 0.052328
0.055576 0.055576 0.055576
0.055576 0.055576 0.055576
0.055576 0.055576 0.055576
0.055576 0.055576 0.055576
0.056250 0.056250 0.056250
0.056250 0.056250 0.056250
0.059498 0.059498 0.059498
0.059498 0.059498 0.059498
0.059498 0.059498 0.059498
0.059498 0.059498 0.059498
0.060172 0.060172 0.060172
0.060172 0.060172 0.060172
0.063419 0.063419 0.063419
0.063419 0.063419 0.063419
0.063419 0.063419 0.063419
0.064216 0.064216 0.064216
0.064093 0.064093 0.064093
0.067341 0.067341 0.067341
0.067341 0.067341 0.067341
0.067341 0.067341 0.067341
0.067341 0.067341 0.067341
0.068015 0.068015 0.068015
0.071262 0.071262 0.071262
0.071262 0.071262 0.071262
0.071262 0.071262 0.071262
0.071936 0.071936 0.071936
0.075184 0.075184 0.075184
0.075184 0.075184 0.075184
0.075184 0.075184 0.075184
0.075184 0.075184 0.075184
0.075858 0.075858 0.075858
0.075858 0.075858 0.075858
0.079105 0.079105 0.079105
0.079105 0.079105 0.079105
0.079105 0.079105 0.079105
0.082598 0.082598 0.082598
0.083027 0.083027 0.083027
0.083027 0.083027 0.083027
0.083027 0.083027 0.083027
0.083027 0.083027 0.083027
0.086949 0.086949 0.086949
0.086949 0.086949 0.086949
0.086949 0.086949 0.086949
0.086949 0.086949 0.086949
0.090870 0.090870 0.090870
0.054167 0.054167 0.054167
0.056495 0.056495 0.056495
0.056495 0.056495 0.056495
0.056495 0.056495 0.056495
0.056495 0.056495 0.056495
0.056495 0.056495 0.056495
0.056495 0.056495 0.056495
0.056495 0.056495 0.056495
0.058088 0.058088 0.058088
0.056924 0.056924 0.056924
0.060417 0.060417 0.060417
0.060417 0.060417 0.060417
0.060417 0.060417 0.060417
0.060417 0.060417 0.060417
0.062010 0.062010 0.062010
0.062010 0.062010 0.062010
0.064338 0.064338 0.064338
0.064338 0.064338 0.064338
0.064338 0.064338 0.064338
0.064338 0.064338 0.064338
0.067034 0.067034 0.067034
0.065931 0.065931 0.065931
0.068260 0.068260 0.068260
0.068260 0.068260 0.068260
0.068260 0.068260 0.068260
0.068260 0.068260 0.068260
0.069853 0.069853 0.069853
0.069853 0.069853 0.069853
0.069853 0.069853 0.069853
0.072181 0.072181 0.072181
0.072181 0.072181 0.072181
0.072181 0.072181 0.072181
0.072181 0.072181 0.072181
0.073774 0.073774 0.073774
0.076103 0.076103 0.076103
0.076103 0.076103 0.076103
0.076103 0.076103 0.076103
0.076103 0.076103 0.076103
0.076103 0.076103 0.076103
0.076655 0.076655 0.076655
0.080024 0.080024 0.080024
0.080024 0.080024 0.080024
0.080024 0.080024 0.080024
0.080024 0.080024 0.080024
0.081250 0.081250 0.081250
0.083946 0.083946 0.083946
0.083946 0.083946 0.083946
0.083946 0.083946 0.083946
0.085539 0.085539 0.085539
0.087868 0.087868 0.087868
0.087868 0.087868 0.087868
0.087868 0.087868 0.087868
0.087868 0.087868 0.087868
0.089461 0.089461 0.089461
0.089461 0.089461 0.089461
0.091789 0.091789 0.091789
0.091789 0.091789 0.091789
0.091789 0.091789 0.091789
0.093382 0.093382 0.093382
0.095711 0.095711 0.095711
0.095711 0.095711 0.095711
0.095711 0.095711 0.095711
0.095711 0.095711 0.095711
0.097304 0.097304 0.097304
0.099632 0.099632 0.099632
0.067769 0.067769 0.067769
0.067769 0.067769 0.067769
0.067769 0.067769 0.067769
0.067769 0.067769 0.067769
0.067769 0.067769 0.067769
0.069179 0.069179 0.069179
0.069179 0.069179 0.069179
0.069179 0.069179 0.069179
0.069179 0.069179 0.069179
0.069179 0.069179 0.069179
0.071691 0.071691 0.071691
0.071691 0.071691 0.071691
0.071691 0.071691 0.071691
0.073101 0.073101 0.073101
0.073101 0.073101 0.073101
0.073101 0.073101 0.073101
0.073101 0.073101 0.073101
0.075612 0.075612 0.075612
0.075612 0.075612 0.075612
0.077022 0.077022 0.077022
0.077022 0.077022 0.077022
0.077022 0.077022 0.077022
0.077022 0.077022 0.077022
0.077022 0.077022 0.077022
0.079534 0.079534 0.079534
0.079534 0.079534 0.079534
0.080944 0.080944 0.080944
0.080944 0.080944 0.080944
0.080944 0.080944 0.080944
0.080944 0.080944 0.080944
0.081066 0.081066 0.081066
0.083456 0.083456 0.083456
0.082905 0.082905 0.082905
0.084866 0.084866 0.084866
0.084866 0.084866 0.084866
0.087377 0.087377 0.087377
0.086581 0.086581 0.086581
0.088787 0.088787 0.088787
0.088787 0.088787 0.088787
0.088787 0.088787 0.088787
0.088787 0.088787 0.088787
0.091299 0.091299 0.091299
0.092709 0.092709 0.092709
0.092709 0.092709 0.092709
0.092709 0.092709 0.092709
0.095220 0.095220 0.095220
0.095220 0.095220 0.095220
0.096630 0.096630 0.096630
0.096630 0.096630 0.096630
0.096630 0.096630 0.096630
0.096630 0.096630 0.096630
0.099142 0.099142 0.099142
0.097366 0.097366 0.097366
0.100552 0.100552 0.100552
0.100552 0.100552 0.100552
0.100552 0.100552 0.100552
0.103063 0.103063 0.103063
0.104473 0.104473 0.104473
0.104473 0.104473 0.104473
0.104473 0.104473 0.104473
0.106985 0.106985 0.106985
0.105638 0.105638 0.105638
0.108395 0.108395 0.108395
0.108395 0.108395 0.108395
0.108395 0.108395 0.108395
0.077941 0.077941 0.077941
0.077941 0.077941 0.077941
0.077941 0.077941 0.077941
0.077941 0.077941 0.077941
0.077941 0.077941 0.077941
0.081373 0.081373 0.081373
0.081373 0.081373 0.081373
0.081373 0.081373 0.081373
0.081373 0.081373 0.081373
0.081863 0.081863 0.081863
0.081863 0.081863 0.081863
0.081863 0.081863 0.081863
0.081863 0.081863 0.081863
0.085294 0.085294 0.085294
0.082966 0.082966 0.082966
0.085785 0.085785 0.085785
0.085785 0.085785 0.085785
0.085785 0.085785 0.085785
0.085785 0.085785 0.085785
0.089216 0.089216 0.089216
0.089216 0.089216 0.089216
0.089706 0.089706 0.089706
0.089706 0.089706 0.089706
0.089706 0.089706 0.089706
0.089706 0.089706 0.089706
0.089706 0.089706 0.089706
0.093138 0.093138 0.093138
0.093138 0.093138 0.093138
0.093628 0.093628 0.093628
0.093628 0.093628 0.093628
0.093628 0.093628 0.093628
0.093628 0.093628 0.093628
0.093628 0.093628 0.093628
0.097059 0.097059 0.097059
0.097549 0.097549 0.097549
0.097549 0.097549 0.097549
0.097549 0.097549 0.097549
0.097549 0.097549 0.097549
0.097549 0.097549 0.097549
0.098101 0.098101 0.098101
0.101471 0.101471 0.101471
0.101471 0.101471 0.101471
0.101471 0.101471 0.101471
0.101471 0.101471 0.101471
0.102696 0.102696 0.102696
0.105392 0.105392 0.105392
0.105392 0.105392 0.105392
0.105392 0.105392 0.105392
0.108824 0.108824 0.108824
0.108824 0.108824 0.108824
0.109314 0.109314 0.109314
0.109314 0.109314 0.109314
0.109314 0.109314 0.109314
0.109314 0.109314 0.109314
0.112745 0.112745 0.112745
0.113235 0.113235 0.113235
0.113235 0.113235 0.113235
0.113235 0.113235 0.113235
0.113235 0.113235 0.113235
0.116667 0.116667 0.116667
0.117157 0.117157 0.117157
0.117157 0.117157 0.117157
0.117157 0.117157 0.117157
0.120588 0.120588 0.120588
0.121079 0.121079 0.121079
0.090625 0.090625 0.090625
0.090625 0.090625 0.090625
0.090625 0.090625 0.090625
0.090625 0.090625 0.090625
0.090625 0.090625 0.090625
0.090625 0.090625 0.090625
0.092218 0.092218 0.092218
0.091054 0.091054 0.091054
0.091054 0.091054 0.091054
0.091054 0.091054 0.091054
0.091054 0.091054 0.091054
0.094547 0.094547 0.094547
0.094547 0.094547 0.094547
0.094547 0.094547 0.094547
0.094547 0.094547 0.094547
0.094976 0.094976 0.094976
0.094976 0.094976 0.094976
0.098468 0.098468 0.098468
0.098468 0.098468 0.098468
0.098468 0.098468 0.098468
0.098468 0.098468 0.098468
0.102083 0.102083 0.102083
0.098897 0.098897 0.098897
0.098897 0.098897 0.098897
0.098897 0.098897 0.098897
0.102390 0.102390 0.102390
0.102390 0.102390 0.102390
0.102390 0.102390 0.102390
0.104596 0.104596 0.104596
0.102819 0.102819 0.102819
0.106311 0.106311 0.106311
0.106311 0.106311 0.106311
0.106311 0.106311 0.106311
0.106311 0.106311 0.106311
0.106311 0.106311 0.106311
0.106740 0.106740 0.106740
0.110233 0.110233 0.110233
0.110233 0.110233 0.110233
0.110233 0.110233 0.110233
0.110233 0.110233 0.110233
0.110233 0.110233 0.110233
0.110662 0.110662 0.110662
0.114154 0.114154 0.114154
0.114154 0.114154 0.114154
0.114154 0.114154 0.114154
0.114154 0.114154 0.114154
0.114583 0.114583 0.114583
0.118076 0.118076 0.118076
0.118076 0.118076 0.118076
0.118076 0.118076 0.118076
0.118076 0.118076 0.118076
0.121813 0.121813 0.121813
0.118505 0.118505 0.118505
0.121998 0.121998 0.121998
0.121998 0.121998 0.121998
0.121998 0.121998 0.121998
0.121998 0.121998 0.121998
0.122427 0.122427 0.122427
0.125919 0.125919 0.125919
0.125919 0.125919 0.125919
0.125919 0.125919 0.125919
0.125919 0.125919 0.125919
0.128002 0.128002 0.128002
0.129841 0.129841 0.129841
0.129841 0.129841 0.129841
0.103309 0.103309 0.103309
0.103309 0.103309 0.103309
0.103309 0.103309 0.103309
0.103309 0.103309 0.103309
0.103309 0.103309 0.103309
0.103309 0.103309 0.103309
0.103309 0.103309 0.103309
0.103309 0.103309 0.103309
0.103309 0.103309 0.103309
0.103309 0.103309 0.103309
0.103309 0.103309 0.103309
0.103309 0.103309 0.103309
0.104657 0.104657 0.104657
0.103493 0.103493 0.103493
0.107230 0.107230 0.107230
0.107230 0.107230 0.107230
0.107230 0.107230 0.107230
0.107230 0.107230 0.107230
0.108578 0.108578 0.108578
0.108578 0.108578 0.108578
0.111152 0.111152 0.111152
0.111152 0.111152 0.111152
0.111152 0.111152 0.111152
0.111152 0.111152 0.111152
0.111152 0.111152 0.111152
0.111152 0.111152 0.111152
0.112500 0.112500 0.112500
0.115073 0.115073 0.115073
0.115073 0.115073 0.115073
0.115073 0.115073 0.115073
0.115073 0.115073 0.115073
0.115073 0.115073 0.115073
0.115073 0.115073 0.115073
0.117953 0.117953 0.117953
0.116421 0.116421 0.116421
0.118995 0.118995 0.118995
0.118995 0.118995 0.118995
0.118995 0.118995 0.118995
0.118995 0.118995 0.118995
0.120343 0.120343 0.120343
0.122917 0.122917 0.122917
0.122917 0.122917 0.122917
0.122917 0.122917 0.122917
0.122917 0.122917 0.122917
0.122917 0.122917 0.122917
0.124265 0.124265 0.124265
0.126838 0.126838 0.126838
0.126838 0.126838 0.126838
0.126838 0.126838 0.126838
0.126838 0.126838 0.126838
0.128186 0.128186 0.128186
0.130760 0.130760 0.130760
0.130760 0.130760 0.130760
0.130760 0.130760 0.130760
0.130760 0.130760 0.130760
0.132108 0.132108 0.132108
0.131250 0.131250 0.131250
0.134681 0.134681 0.134681
0.134681 0.134681 0.134681
0.134681 0.134681 0.134681
0.134926 0.134926 0.134926
0.138603 0.138603 0.138603
0.138603 0.138603 0.138603
0.138603 0.138603 0.138603
0.139951 0.139951 0.139951
0.112071 0.112071 0.112071
0.112071 0.112071 0.112071
0.112071 0.112071 0.112071
0.112071 0.112071 0.112071
0.115748 0.115748 0.115748
0.114338 0.114338 0.114338
0.114338 0.114338 0.114338
0.114338 0.114338 0.114338
0.114338 0.114338 0.114338
0.115992 0.115992 0.115992
0.115992 0.115992 0.115992
0.115992 0.115992 0.115992
0.115992 0.115992 0.115992
0.115992 0.115992 0.115992
0.115992 0.115992 0.115992
0.118260 0.118260 0.118260
0.118260 0.118260 0.118260
0.119914 0.119914 0.119914
0.119914 0.119914 0.119914
0.119914 0.119914 0.119914
0.119914 0.119914 0.119914
0.119914 0.119914 0.119914
0.122181 0.122181 0.122181
0.122181 0.122181 0.122181
0.122181 0.122181 0.122181
0.123836 0.123836 0.123836
0.123836 0.123836 0.123836
0.123836 0.123836 0.123836
0.123836 0.123836 0.123836
0.126103 0.126103 0.126103
0.127757 0.127757 0.127757
0.127757 0.127757 0.127757
0.127757 0.127757 0.127757
0.127757 0.127757 0.127757
0.127757 0.127757 0.127757
0.127757 0.127757 0.127757
0.129473 0.129473 0.129473
0.131679 0.131679 0.131679
0.131679 0.131679 0.131679
0.131679 0.131679 0.131679
0.131679 0.131679 0.131679
0.131679 0.131679 0.131679
0.134988 0.134988 0.134988
0.133946 0.133946 0.133946
0.135600 0.135600 0.135600
0.135600 0.135600 0.135600
0.135600 0.135600 0.135600
0.137867 0.137867 0.137867
0.140809 0.140809 0.140809
0.137500 0.137500 0.137500
0.139522 0.139522 0.139522
0.139522 0.139522 0.139522
0.139522 0.139522 0.139522
0.141789 0.141789 0.141789
0.141789 0.141789 0.141789
0.143443 0.143443 0.143443
0.143443 0.143443 0.143443
0.143443 0.143443 0.143443
0.145772 0.145772 0.145772
0.145711 0.145711 0.145711
0.147365 0.147365 0.147365
0.147365 0.147365 0.147365
0.147365 0.147365 0.147365
0.150367 0.150367 0.150367
0.151287 0.151287 0.151287
0.124755 0.124755 0.124755
0.124755 0.124755 0.124755
0.124755 0.124755 0.124755
0.124755 0.124755 0.124755
0.124755 0.124755 0.124755
0.124755 0.124755 0.124755
0.124755 0.124755 0.124755
0.124755 0.124755 0.124755
0.124755 0.124755 0.124755
0.124755 0.124755 0.124755
0.124755 0.124755 0.124755
0.124755 0.124755 0.124755
0.127941 0.127941 0.127941
0.124939 0.124939 0.124939
0.128677 0.128677 0.128677
0.128677 0.128677 0.128677
0.128677 0.128677 0.128677
0.128677 0.128677 0.128677
0.128677 0.128677 0.128677
0.131862 0.131862 0.131862
0.131862 0.131862 0.131862
0.132598 0.132598 0.132598
0.132598 0.132598 0.132598
0.132598 0.132598 0.132598
0.132598 0.132598 0.132598
0.132598 0.132598 0.132598
0.132598 0.132598 0.132598
0.135784 0.135784 0.135784
0.134804 0.134804 0.134804
0.136520 0.136520 0.136520
0.136520 0.136520 0.136520
0.136520 0.136520 0.136520
0.136520 0.136520 0.136520
0.136520 0.136520 0.136520
0.136520 0.136520 0.136520
0.140441 0.140441 0.140441
0.140441 0.140441 0.140441
0.140441 0.140441 0.140441
0.140441 0.140441 0.140441
0.140441 0.140441 0.140441
0.143627 0.143627 0.143627
0.142831 0.142831 0.142831
0.144363 0.144363 0.144363
0.144363 0.144363 0.144363
0.144363 0.144363 0.144363
0.144363 0.144363 0.144363
0.147549 0.147549 0.147549
0.148285 0.148285 0.148285
0.148285 0.148285 0.148285
0.148285 0.148285 0.148285
0.148285 0.148285 0.148285
0.148285 0.148285 0.148285
0.151470 0.151470 0.151470
0.152206 0.152206 0.152206
0.152206 0.152206 0.152206
0.152206 0.152206 0.152206
0.152206 0.152206 0.152206
0.155392 0.155392 0.155392
0.156128 0.156128 0.156128
0.156128 0.156128 0.156128
0.156128 0.156128 0.156128
0.156128 0.156128 0.156128
0.156128 0.156128 0.156128
0.159130 0.159130 0.159130
0.160049 0.160049 0.160049
0.133517 0.133517 0.133517
0.133517 0.133517 0.133517
0.133517 0.133517 0.133517
0.133517 0.133517 0.133517
0.133517 0.133517 0.133517
0.133517 0.133517 0.133517
0.133517 0.133517 0.133517
0.133517 0.133517 0.133517
0.133517 0.133517 0.133517
0.133701 0.133701 0.133701
0.133701 0.133701 0.133701
0.137439 0.137439 0.137439
0.137439 0.137439 0.137439
0.137439 0.137439 0.137439
0.137439 0.137439 0.137439
0.137439 0.137439 0.137439
0.137439 0.137439 0.137439
0.137439 0.137439 0.137439
0.137623 0.137623 0.137623
0.141360 0.141360 0.141360
0.141360 0.141360 0.141360
0.141360 0.141360 0.141360
0.141360 0.141360 0.141360
0.141360 0.141360 0.141360
0.141360 0.141360 0.141360
0.141360 0.141360 0.141360
0.141728 0.141728 0.141728
0.145282 0.145282 0.145282
0.145282 0.145282 0.145282
0.145282 0.145282 0.145282
0.145282 0.145282 0.145282
0.145282 0.145282 0.145282
0.145282 0.145282 0.145282
0.148161 0.148161 0.148161
0.149204 0.149204 0.149204
0.149204 0.149204 0.149204
0.149204 0.149204 0.149204
0.149204 0.149204 0.149204
0.149204 0.149204 0.149204
