Black-and-White/Rollei/Rollei Retro 100 Tonal 65x.cube
TITLE "Rollei Retro 100 Tonal"
LUT_3D_SIZE 9
DOMAIN_MIN 0.000000 0.000000 0.000000
DOMAIN_MAX 1.000000 1.000000 1.000000
0.000000 0.000000 0.000000
0.000000 0.000000 0.000000
0.000000 0.000000 0.000000
0.000000 0.000000 0.000000
0.001961 0.001961 0.001961
0.003922 0.003922 0.003922
0.007843 0.007843 0.007843
0.011765 0.011765 0.011765
0.015686 0.015686 0.015686
0.077941 0.077941 0.077941
0.081373 0.081373 0.081373
0.085785 0.085785 0.085785
0.089706 0.089706 0.089706
0.093628 0.093628 0.093628
0.101471 0.101471 0.101471
0.108824 0.108824 0.108824
0.113235 0.113235 0.113235
0.121079 0.121079 0.121079
0.163725 0.163725 0.163725
0.163725 0.163725 0.163725
0.167647 0.167647 0.167647
0.171569 0.171569 0.171569
0.175490 0.175490 0.175490
0.179412 0.179412 0.179412
0.187255 0.187255 0.187255
0.191176 0.191176 0.191176
0.199020 0.199020 0.199020
0.253431 0.253431 0.253431
0.253431 0.253431 0.253431
0.257353 0.257353 0.257353
0.261275 0.261275 0.261275
0.265196 0.265196 0.265196
0.269118 0.269118 0.269118
0.275490 0.275490 0.275490
0.280882 0.280882 0.280882
0.287255 0.287255 0.287255
0.368627 0.368627 0.368627
0.368627 0.368627 0.368627
0.370588 0.370588 0.370588
0.372549 0.372549 0.372549
0.376471 0.376471 0.376471
0.380393 0.380393 0.380393
0.383333 0.383333 0.383333
0.392157 0.392157 0.392157
0.396079 0.396079 0.396079
0.481372 0.481372 0.481372
0.483824 0.483824 0.483824
0.483824 0.483824 0.483824
0.485294 0.485294 0.485294
0.489216 0.489216 0.489216
0.493137 0.493137 0.493137
0.497059 0.497059 0.497059
0.500980 0.500980 0.500980
0.504902 0.504902 0.504902
0.604902 0.604902 0.604902
0.605883 0.605883 0.605883
0.605883 0.605883 0.605883
0.605883 0.605883 0.605883
0.609804 0.609804 0.609804
0.613726 0.613726 0.613726
0.617647 0.617647 0.617647
0.621569 0.621569 0.621569
0.625490 0.625490 0.625490
0.730392 0.730392 0.730392
0.730392 0.730392 0.730392
0.730392 0.730392 0.730392
0.733823 0.733823 0.733823
0.734313 0.734313 0.734313
0.737745 0.737745 0.737745
0.738235 0.738235 0.738235
0.742156 0.742156 0.742156
0.746078 0.746078 0.746078
0.858824 0.858824 0.858824
0.858824 0.858824 0.858824
0.858824 0.858824 0.858824
0.858824 0.858824 0.858824
0.862745 0.862745 0.862745
0.862745 0.862745 0.862745
0.866667 0.866667 0.866667
0.866667 0.866667 0.866667
0.870588 0.870588 0.870588
0.046569 0.046569 0.046569
0.054412 0.054412 0.054412
0.058334 0.058334 0.058334
0.062255 0.062255 0.062255
0.068628 0.068628 0.068628
0.074020 0.074020 0.074020
0.079412 0.079412 0.079412
0.085785 0.085785 0.085785
0.093628 0.093628 0.093628
0.140196 0.140196 0.140196
0.144118 0.144118 0.144118
0.147549 0.147549 0.147549
0.150980 0.150980 0.150980
0.155883 0.155883 0.155883
0.159804 0.159804 0.159804
0.163726 0.163726 0.163726
0.168627 0.168627 0.168627
0.175981 0.175981 0.175981
0.206373 0.206373 0.206373
0.206373 0.206373 0.206373
0.210294 0.210294 0.210294
0.214216 0.214216 0.214216
0.218137 0.218137 0.218137
0.222059 0.222059 0.222059
0.226470 0.226470 0.226470
0.233824 0.233824 0.233824
0.238236 0.238236 0.238236
0.288235 0.288235 0.288235
0.288235 0.288235 0.288235
0.292157 0.292157 0.292157
0.295098 0.295098 0.295098
0.299020 0.299020 0.299020
0.303921 0.303921 0.303921
0.308333 0.308333 0.308333
0.315686 0.315686 0.315686
0.322549 0.322549 0.322549
0.392157 0.392157 0.392157
0.393627 0.393627 0.393627
0.396079 0.396079 0.396079
0.397549 0.397549 0.397549
0.401471 0.401471 0.401471
0.405392 0.405392 0.405392
0.409314 0.409314 0.409314
0.415686 0.415686 0.415686
0.421078 0.421078 0.421078
0.500980 0.500980 0.500980
0.500980 0.500980 0.500980
0.502941 0.502941 0.502941
0.504902 0.504902 0.504902
0.508333 0.508333 0.508333
0.510784 0.510784 0.510784
0.514706 0.514706 0.514706
0.520588 0.520588 0.520588
0.524510 0.524510 0.524510
0.617647 0.617647 0.617647
0.620098 0.620098 0.620098
0.621569 0.621569 0.621569
0.621569 0.621569 0.621569
0.625490 0.625490 0.625490
0.628922 0.628922 0.628922
0.631863 0.631863 0.631863
0.635784 0.635784 0.635784
0.640196 0.640196 0.640196
0.738235 0.738235 0.738235
0.741176 0.741176 0.741176
0.741666 0.741666 0.741666
0.742156 0.742156 0.742156
0.745098 0.745098 0.745098
0.746078 0.746078 0.746078
0.749510 0.749510 0.749510
0.752941 0.752941 0.752941
0.753921 0.753921 0.753921
0.862745 0.862745 0.862745
0.862745 0.862745 0.862745
0.862745 0.862745 0.862745
0.866667 0.866667 0.866667
0.866667 0.866667 0.866667
0.866667 0.866667 0.866667
0.870588 0.870588 0.870588
0.874020 0.874020 0.874020
0.874510 0.874510 0.874510
0.104902 0.104902 0.104902
0.109314 0.109314 0.109314
0.116667 0.116667 0.116667
0.117647 0.117647 0.117647
0.124510 0.124510 0.124510
0.128432 0.128432 0.128432
0.134314 0.134314 0.134314
0.140196 0.140196 0.140196
0.148039 0.148039 0.148039
0.190686 0.190686 0.190686
0.191667 0.191667 0.191667
0.195098 0.195098 0.195098
0.199020 0.199020 0.199020
0.203432 0.203432 0.203432
0.210294 0.210294 0.210294
0.214216 0.214216 0.214216
0.219608 0.219608 0.219608
0.226470 0.226470 0.226470
0.253922 0.253922 0.253922
0.256863 0.256863 0.256863
0.260784 0.260784 0.260784
0.264706 0.264706 0.264706
0.268627 0.268627 0.268627
0.272549 0.272549 0.272549
0.280392 0.280392 0.280392
0.285295 0.285295 0.285295
0.292157 0.292157 0.292157
0.338725 0.338725 0.338725
0.338725 0.338725 0.338725
0.342647 0.342647 0.342647
0.346569 0.346569 0.346569
0.350490 0.350490 0.350490
0.354412 0.354412 0.354412
0.361765 0.361765 0.361765
0.366176 0.366176 0.366176
0.374020 0.374020 0.374020
0.432353 0.432353 0.432353
0.435295 0.435295 0.435295
0.436275 0.436275 0.436275
0.440196 0.440196 0.440196
0.443137 0.443137 0.443137
0.447059 0.447059 0.447059
0.451961 0.451961 0.451961
0.455882 0.455882 0.455882
0.462746 0.462746 0.462746
0.533824 0.533824 0.533824
0.536274 0.536274 0.536274
0.537745 0.537745 0.537745
0.540196 0.540196 0.540196
0.541667 0.541667 0.541667
0.545588 0.545588 0.545588
0.550490 0.550490 0.550490
0.555882 0.555882 0.555882
0.561274 0.561274 0.561274
0.647059 0.647059 0.647059
0.647059 0.647059 0.647059
0.649020 0.649020 0.649020
0.650980 0.650980 0.650980
0.652941 0.652941 0.652941
0.656863 0.656863 0.656863
0.659804 0.659804 0.659804
0.664706 0.664706 0.664706
0.668628 0.668628 0.668628
0.757843 0.757843 0.757843
0.760294 0.760294 0.760294
0.760294 0.760294 0.760294
0.761764 0.761764 0.761764
0.764216 0.764216 0.764216
0.765686 0.765686 0.765686
0.768137 0.768137 0.768137
0.772059 0.772059 0.772059
0.773529 0.773529 0.773529
0.874510 0.874510 0.874510
0.874510 0.874510 0.874510
0.874510 0.874510 0.874510
0.877451 0.877451 0.877451
0.878431 0.878431 0.878431
0.878431 0.878431 0.878431
0.882353 0.882353 0.882353
0.882843 0.882843 0.882843
0.886275 0.886275 0.886275
0.163235 0.163235 0.163235
0.167157 0.167157 0.167157
0.171078 0.171078 0.171078
0.178922 0.178922 0.178922
0.182843 0.182843 0.182843
0.186765 0.186765 0.186765
0.194608 0.194608 0.194608
0.198529 0.198529 0.198529
0.206373 0.206373 0.206373
0.249019 0.249019 0.249019
0.252941 0.252941 0.252941
0.256863 0.256863 0.256863
0.260784 0.260784 0.260784
0.268627 0.268627 0.268627
0.272549 0.272549 0.272549
0.280392 0.280392 0.280392
0.284804 0.284804 0.284804
0.292157 0.292157 0.292157
0.319118 0.319118 0.319118
0.319118 0.319118 0.319118
0.323039 0.323039 0.323039
0.330882 0.330882 0.330882
0.334804 0.334804 0.334804
0.338725 0.338725 0.338725
0.346569 0.346569 0.346569
0.350980 0.350980 0.350980
0.358333 0.358333 0.358333
0.397059 0.397059 0.397059
0.397059 0.397059 0.397059
0.400981 0.400981 0.400981
0.404902 0.404902 0.404902
0.408824 0.408824 0.408824
0.412745 0.412745 0.412745
0.420588 0.420588 0.420588
0.424510 0.424510 0.424510
0.432353 0.432353 0.432353
0.482843 0.482843 0.482843
0.482843 0.482843 0.482843
0.486765 0.486765 0.486765
0.490197 0.490197 0.490197
0.494117 0.494117 0.494117
0.498530 0.498530 0.498530
0.502451 0.502451 0.502451
0.508334 0.508334 0.508334
0.514216 0.514216 0.514216
0.581863 0.581863 0.581863
0.583333 0.583333 0.583333
0.584314 0.584314 0.584314
0.587255 0.587255 0.587255
0.591176 0.591176 0.591176
0.595098 0.595098 0.595098
0.600000 0.600000 0.600000
0.603922 0.603922 0.603922
0.609314 0.609314 0.609314
0.685785 0.685785 0.685785
0.685785 0.685785 0.685785
0.688236 0.688236 0.688236
0.689706 0.689706 0.689706
0.692157 0.692157 0.692157
0.694608 0.694608 0.694608
0.697549 0.697549 0.697549
0.701470 0.701470 0.701470
0.706863 0.706863 0.706863
0.785294 0.785294 0.785294
0.785294 0.785294 0.785294
0.787255 0.787255 0.787255
0.787255 0.787255 0.787255
0.789215 0.789215 0.789215
0.791176 0.791176 0.791176
0.793137 0.793137 0.793137
0.797058 0.797058 0.797058
0.800490 0.800490 0.800490
0.890196 0.890196 0.890196
0.890196 0.890196 0.890196
0.890196 0.890196 0.890196
0.892647 0.892647 0.892647
0.894118 0.894118 0.894118
0.894118 0.894118 0.894118
0.896569 0.896569 0.896569
0.898039 0.898039 0.898039
0.901961 0.901961 0.901961
0.229412 0.229412 0.229412
0.237255 0.237255 0.237255
0.244118 0.244118 0.244118
0.249020 0.249020 0.249020
0.256863 0.256863 0.256863
0.260784 0.260784 0.260784
0.268628 0.268628 0.268628
0.280392 0.280392 0.280392
0.284314 0.284314 0.284314
0.325000 0.325000 0.325000
0.328921 0.328921 0.328921
0.334804 0.334804 0.334804
0.338725 0.338725 0.338725
0.345098 0.345098 0.345098
0.350490 0.350490 0.350490
0.358333 0.358333 0.358333
0.366176 0.366176 0.366176
0.374020 0.374020 0.374020
0.393137 0.393137 0.393137
0.393137 0.393137 0.393137
0.397059 0.397059 0.397059
0.404902 0.404902 0.404902
0.408824 0.408824 0.408824
0.414216 0.414216 0.414216
0.420588 0.420588 0.420588
0.427451 0.427451 0.427451
0.433334 0.433334 0.433334
0.463236 0.463236 0.463236
0.463236 0.463236 0.463236
0.467157 0.467157 0.467157
0.471079 0.471079 0.471079
0.475000 0.475000 0.475000
0.482843 0.482843 0.482843
0.486765 0.486765 0.486765
0.494608 0.494608 0.494608
0.498530 0.498530 0.498530
0.547059 0.547059 0.547059
0.548529 0.548529 0.548529
0.549019 0.549019 0.549019
0.552941 0.552941 0.552941
0.556863 0.556863 0.556863
0.562745 0.562745 0.562745
0.568628 0.568628 0.568628
0.573039 0.573039 0.573039
0.580392 0.580392 0.580392
0.638725 0.638725 0.638725
0.638725 0.638725 0.638725
0.642647 0.642647 0.642647
0.644118 0.644118 0.644118
0.646568 0.646568 0.646568
0.650490 0.650490 0.650490
0.654412 0.654412 0.654412
0.661765 0.661765 0.661765
0.666176 0.666176 0.666176
0.728431 0.728431 0.728431
0.728431 0.728431 0.728431
0.731373 0.731373 0.731373
0.732353 0.732353 0.732353
0.735294 0.735294 0.735294
0.736274 0.736274 0.736274
0.740196 0.740196 0.740196
0.744117 0.744117 0.744117
0.748039 0.748039 0.748039
0.814216 0.814216 0.814216
0.814216 0.814216 0.814216
0.816176 0.816176 0.816176
0.816666 0.816666 0.816666
0.818137 0.818137 0.818137
0.820588 0.820588 0.820588
0.822059 0.822059 0.822059
0.825980 0.825980 0.825980
0.828431 0.828431 0.828431
0.907843 0.907843 0.907843
0.907843 0.907843 0.907843
0.907843 0.907843 0.907843
0.909804 0.909804 0.909804
0.909804 0.909804 0.909804
0.911764 0.911764 0.911764
0.913725 0.913725 0.913725
0.915686 0.915686 0.915686
0.917647 0.917647 0.917647
0.320588 0.320588 0.320588
0.328431 0.328431 0.328431
0.337745 0.337745 0.337745
0.344118 0.344118 0.344118
0.350490 0.350490 0.350490
0.358333 0.358333 0.358333
0.366176 0.366176 0.366176
0.374020 0.374020 0.374020
0.383333 0.383333 0.383333
0.412745 0.412745 0.412745
0.416667 0.416667 0.416667
0.422059 0.422059 0.422059
0.428431 0.428431 0.428431
0.432353 0.432353 0.432353
0.440196 0.440196 0.440196
0.446078 0.446078 0.446078
0.451961 0.451961 0.451961
0.459804 0.459804 0.459804
0.473529 0.473529 0.473529
0.475000 0.475000 0.475000
0.478921 0.478921 0.478921
0.482843 0.482843 0.482843
0.490687 0.490687 0.490687
0.494608 0.494608 0.494608
0.502451 0.502451 0.502451
0.506373 0.506373 0.506373
0.514216 0.514216 0.514216
0.541176 0.541176 0.541176
0.541176 0.541176 0.541176
0.545098 0.545098 0.545098
0.549020 0.549020 0.549020
0.552941 0.552941 0.552941
0.560784 0.560784 0.560784
0.564706 0.564706 0.564706
0.572549 0.572549 0.572549
0.577941 0.577941 0.577941
0.619117 0.619117 0.619117
0.619117 0.619117 0.619117
0.623039 0.623039 0.623039
0.625000 0.625000 0.625000
0.630882 0.630882 0.630882
0.634804 0.634804 0.634804
0.638725 0.638725 0.638725
0.644608 0.644608 0.644608
0.650490 0.650490 0.650490
0.697059 0.697059 0.697059
0.697059 0.697059 0.697059
0.700980 0.700980 0.700980
0.701961 0.701961 0.701961
0.704902 0.704902 0.704902
0.708824 0.708824 0.708824
0.712745 0.712745 0.712745
0.716667 0.716667 0.716667
0.723039 0.723039 0.723039
0.773529 0.773529 0.773529
0.775000 0.775000 0.775000
0.775000 0.775000 0.775000
0.777451 0.777451 0.777451
0.778922 0.778922 0.778922
0.781373 0.781373 0.781373
0.785294 0.785294 0.785294
0.786765 0.786765 0.786765
0.790686 0.790686 0.790686
0.845098 0.845098 0.845098
0.847549 0.847549 0.847549
0.847549 0.847549 0.847549
0.849020 0.849020 0.849020
0.849020 0.849020 0.849020
0.851470 0.851470 0.851470
0.852941 0.852941 0.852941
0.856863 0.856863 0.856863
0.859314 0.859314 0.859314
0.925490 0.925490 0.925490
0.925490 0.925490 0.925490
0.925490 0.925490 0.925490
0.926961 0.926961 0.926961
0.929412 0.929412 0.929412
0.929412 0.929412 0.929412
0.930882 0.930882 0.930882
0.933333 0.933333 0.933333
0.934804 0.934804 0.934804
0.424509 0.424509 0.424509
0.432353 0.432353 0.432353
0.440196 0.440196 0.440196
0.444117 0.444117 0.444117
0.451960 0.451960 0.451960
0.456863 0.456863 0.456863
0.464706 0.464706 0.464706
0.472549 0.472549 0.472549
0.479411 0.479411 0.479411
0.502451 0.502451 0.502451
0.506372 0.506372 0.506372
0.510294 0.510294 0.510294
0.518137 0.518137 0.518137
0.522059 0.522059 0.522059
0.529902 0.529902 0.529902
0.535294 0.535294 0.535294
0.542647 0.542647 0.542647
0.550490 0.550490 0.550490
0.560784 0.560784 0.560784
0.561764 0.561764 0.561764
0.565686 0.565686 0.565686
0.572549 0.572549 0.572549
0.576471 0.576471 0.576471
0.584314 0.584314 0.584314
0.589216 0.589216 0.589216
0.596078 0.596078 0.596078
0.603922 0.603922 0.603922
0.623039 0.623039 0.623039
0.624020 0.624020 0.624020
0.626961 0.626961 0.626961
0.630883 0.630883 0.630883
0.637255 0.637255 0.637255
0.642647 0.642647 0.642647
0.646568 0.646568 0.646568
0.654412 0.654412 0.654412
0.659804 0.659804 0.659804
0.689216 0.689216 0.689216
0.693137 0.693137 0.693137
0.693137 0.693137 0.693137
0.697059 0.697059 0.697059
0.700980 0.700980 0.700980
0.704902 0.704902 0.704902
0.708823 0.708823 0.708823
0.716667 0.716667 0.716667
0.720588 0.720588 0.720588
0.755392 0.755392 0.755392
0.758333 0.758333 0.758333
0.759314 0.759314 0.759314
0.761765 0.761765 0.761765
0.763235 0.763235 0.763235
0.767157 0.767157 0.767157
0.771078 0.771078 0.771078
0.775000 0.775000 0.775000
0.778922 0.778922 0.778922
0.817647 0.817647 0.817647
0.820588 0.820588 0.820588
0.820588 0.820588 0.820588
0.821569 0.821569 0.821569
0.824510 0.824510 0.824510
0.825490 0.825490 0.825490
0.829412 0.829412 0.829412
0.832353 0.832353 0.832353
0.836274 0.836274 0.836274
0.879412 0.879412 0.879412
0.879902 0.879902 0.879902
0.879902 0.879902 0.879902
0.882843 0.882843 0.882843
0.883334 0.883334 0.883334
0.884314 0.884314 0.884314
0.887255 0.887255 0.887255
0.890686 0.890686 0.890686
0.891667 0.891667 0.891667
0.942157 0.942157 0.942157
0.942157 0.942157 0.942157
0.945098 0.945098 0.945098
0.945098 0.945098 0.945098
0.945098 0.945098 0.945098
0.945098 0.945098 0.945098
0.949020 0.949020 0.949020
0.949020 0.949020 0.949020
0.950000 0.950000 0.950000
0.525980 0.525980 0.525980
0.533333 0.533333 0.533333
0.538235 0.538235 0.538235
0.545588 0.545588 0.545588
0.550000 0.550000 0.550000
0.557843 0.557843 0.557843
0.565686 0.565686 0.565686
0.573529 0.573529 0.573529
0.581372 0.581372 0.581372
0.600000 0.600000 0.600000
0.603922 0.603922 0.603922
0.607843 0.607843 0.607843
0.615686 0.615686 0.615686
0.619608 0.619608 0.619608
0.627451 0.627451 0.627451
0.632353 0.632353 0.632353
0.639216 0.639216 0.639216
0.647059 0.647059 0.647059
0.651961 0.651961 0.651961
0.654412 0.654412 0.654412
0.658334 0.658334 0.658334
0.662255 0.662255 0.662255
0.667647 0.667647 0.667647
0.674020 0.674020 0.674020
0.679412 0.679412 0.679412
0.685785 0.685785 0.685785
0.693628 0.693628 0.693628
0.704902 0.704902 0.704902
0.708824 0.708824 0.708824
0.708824 0.708824 0.708824
0.712745 0.712745 0.712745
0.718627 0.718627 0.718627
0.724510 0.724510 0.724510
0.728431 0.728431 0.728431
0.733823 0.733823 0.733823
0.740196 0.740196 0.740196
0.763235 0.763235 0.763235
0.763235 0.763235 0.763235
0.763235 0.763235 0.763235
0.767157 0.767157 0.767157
0.771078 0.771078 0.771078
0.775000 0.775000 0.775000
0.778922 0.778922 0.778922
0.782843 0.782843 0.782843
0.788725 0.788725 0.788725
0.813726 0.813726 0.813726
0.816176 0.816176 0.816176
0.817157 0.817157 0.817157
0.817647 0.817647 0.817647
0.821569 0.821569 0.821569
0.825490 0.825490 0.825490
0.828922 0.828922 0.828922
0.831863 0.831863 0.831863
0.835784 0.835784 0.835784
0.867157 0.867157 0.867157
0.867157 0.867157 0.867157
0.867647 0.867647 0.867647
0.868137 0.868137 0.868137
0.871078 0.871078 0.871078
0.872059 0.872059 0.872059
0.875490 0.875490 0.875490
0.878921 0.878921 0.878921
0.882843 0.882843 0.882843
0.914215 0.914215 0.914215
0.914215 0.914215 0.914215
0.914215 0.914215 0.914215
0.918137 0.918137 0.918137
0.918137 0.918137 0.918137
0.918137 0.918137 0.918137
0.922059 0.922059 0.922059
0.922059 0.922059 0.922059
0.925980 0.925980 0.925980
0.957353 0.957353 0.957353
0.957353 0.957353 0.957353
0.960784 0.960784 0.960784
0.960784 0.960784 0.960784
0.960784 0.960784 0.960784
0.960784 0.960784 0.960784
0.961274 0.961274 0.961274
0.964706 0.964706 0.964706
0.964706 0.964706 0.964706
0.631373 0.631373 0.631373
0.639216 0.639216 0.639216
0.643137 0.643137 0.643137
0.650980 0.650980 0.650980
0.658824 0.658824 0.658824
0.662745 0.662745 0.662745
0.670588 0.670588 0.670588
0.678431 0.678431 0.678431
0.686275 0.686275 0.686275
0.697549 0.697549 0.697549
0.701471 0.701471 0.701471
0.705392 0.705392 0.705392
0.708333 0.708333 0.708333
0.717157 0.717157 0.717157
0.719118 0.719118 0.719118
0.728922 0.728922 0.728922
0.729902 0.729902 0.729902
0.740686 0.740686 0.740686
0.740196 0.740196 0.740196
0.744608 0.744608 0.744608
0.745098 0.745098 0.745098
0.751961 0.751961 0.751961
0.755882 0.755882 0.755882
0.760784 0.760784 0.760784
0.764706 0.764706 0.764706
0.771568 0.771568 0.771568
0.776471 0.776471 0.776471
0.784314 0.784314 0.784314
0.786765 0.786765 0.786765
0.788235 0.788235 0.788235
0.792157 0.792157 0.792157
0.796078 0.796078 0.796078
0.800000 0.800000 0.800000
0.806373 0.806373 0.806373
0.810294 0.810294 0.810294
0.815686 0.815686 0.815686
0.829412 0.829412 0.829412
0.831373 0.831373 0.831373
0.833333 0.833333 0.833333
0.835294 0.835294 0.835294
0.839216 0.839216 0.839216
0.840686 0.840686 0.840686
0.847059 0.847059 0.847059
0.850980 0.850980 0.850980
0.854902 0.854902 0.854902
0.872059 0.872059 0.872059
0.874510 0.874510 0.874510
0.875980 0.875980 0.875980
0.875980 0.875980 0.875980
0.879902 0.879902 0.879902
0.882353 0.882353 0.882353
0.886275 0.886275 0.886275
0.890196 0.890196 0.890196
0.894118 0.894118 0.894118
0.913725 0.913725 0.913725
0.914706 0.914706 0.914706
0.914705 0.914705 0.914705
0.917647 0.917647 0.917647
0.918627 0.918627 0.918627
0.921569 0.921569 0.921569
0.922549 0.922549 0.922549
0.926471 0.926471 0.926471
0.929412 0.929412 0.929412
0.949020 0.949020 0.949020
0.949020 0.949020 0.949020
0.949020 0.949020 0.949020
0.949020 0.949020 0.949020
0.949510 0.949510 0.949510
0.952941 0.952941 0.952941
0.952941 0.952941 0.952941
0.953431 0.953431 0.953431
0.956863 0.956863 0.956863
0.980392 0.980392 0.980392
0.980392 0.980392 0.980392
0.980392 0.980392 0.980392
0.980392 0.980392 0.980392
0.984314 0.984314 0.984314
0.984314 0.984314 0.984314
0.988235 0.988235 0.988235
0.992157 0.992157 0.992157
1.000000 1.000000 1.000000
