Black-and-White/Rollei/Rollei Retro 80s 65x.cube
TITLE "Rollei Retro 80s"
LUT_3D_SIZE 65
DOMAIN_MIN 0.000000 0.000000 0.000000
DOMAIN_MAX 1.000000 1.000000 1.000000
0.000000 0.000000 0.000000
0.000000 0.000000 0.000000
0.000000 0.000000 0.000000
0.000000 0.000000 0.000000
0.000000 0.000000 0.000000
0.003922 0.003922 0.003922
0.003922 0.003922 0.003922
0.006434 0.006434 0.006434
0.007843 0.007843 0.007843
0.008272 0.008272 0.008272
0.011765 0.011765 0.011765
0.014032 0.014032 0.014032
0.015686 0.015686 0.015686
0.019608 0.019608 0.019608
0.023529 0.023529 0.023529
0.025551 0.025551 0.025551
0.030392 0.030392 0.030392
0.035233 0.035233 0.035233
0.039216 0.039216 0.039216
0.043137 0.043137 0.043137
0.047059 0.047059 0.047059
0.054596 0.054596 0.054596
0.059437 0.059437 0.059437
0.064277 0.064277 0.064277
0.073039 0.073039 0.073039
0.077880 0.077880 0.077880
0.086643 0.086643 0.086643
0.091483 0.091483 0.091483
0.100245 0.100245 0.100245
0.109007 0.109007 0.109007
0.117770 0.117770 0.117770
0.130454 0.130454 0.130454
0.139215 0.139215 0.139215
0.151899 0.151899 0.151899
0.164583 0.164583 0.164583
0.178064 0.178064 0.178064
0.193872 0.193872 0.193872
0.209192 0.209192 0.209192
0.226716 0.226716 0.226716
0.243689 0.243689 0.243689
0.259314 0.259314 0.259314
0.279289 0.279289 0.279289
0.296814 0.296814 0.296814
0.318566 0.318566 0.318566
0.340932 0.340932 0.340932
0.365073 0.365073 0.365073
0.389583 0.389583 0.389583
0.415870 0.415870 0.415870
0.438235 0.438235 0.438235
0.464522 0.464522 0.464522
0.493627 0.493627 0.493627
0.521018 0.521018 0.521018
0.551226 0.551226 0.551226
0.577512 0.577512 0.577512
0.603799 0.603799 0.603799
0.634007 0.634007 0.634007
0.656373 0.656373 0.656373
0.681250 0.681250 0.681250
0.702696 0.702696 0.702696
0.724142 0.724142 0.724142
0.745588 0.745588 0.745588
0.763112 0.763112 0.763112
0.784559 0.784559 0.784559
0.802084 0.802084 0.802084
0.819608 0.819608 0.819608
0.000000 0.000000 0.000000
0.000000 0.000000 0.000000
0.000000 0.000000 0.000000
0.002758 0.002758 0.002758
0.003922 0.003922 0.003922
0.003922 0.003922 0.003922
0.005515 0.005515 0.005515
0.007843 0.007843 0.007843
0.011275 0.011275 0.011275
0.011765 0.011765 0.011765
0.013113 0.013113 0.013113
0.015686 0.015686 0.015686
0.016605 0.016605 0.016605
0.019792 0.019792 0.019792
0.024632 0.024632 0.024632
0.029473 0.029473 0.029473
0.034314 0.034314 0.034314
0.039155 0.039155 0.039155
0.040074 0.040074 0.040074
0.044056 0.044056 0.044056
0.050980 0.050980 0.050980
0.058518 0.058518 0.058518
0.063664 0.063664 0.063664
0.068199 0.068199 0.068199
0.076961 0.076961 0.076961
0.081801 0.081801 0.081801
0.091115 0.091115 0.091115
0.095405 0.095405 0.095405
0.104167 0.104167 0.104167
0.112929 0.112929 0.112929
0.121692 0.121692 0.121692
0.131373 0.131373 0.131373
0.143137 0.143137 0.143137
0.155821 0.155821 0.155821
0.165502 0.165502 0.165502
0.181985 0.181985 0.181985
0.196508 0.196508 0.196508
0.213113 0.213113 0.213113
0.230638 0.230638 0.230638
0.245159 0.245159 0.245159
0.262684 0.262684 0.262684
0.280209 0.280209 0.280209
0.304044 0.304044 0.304044
0.322488 0.322488 0.322488
0.344546 0.344546 0.344546
0.371140 0.371140 0.371140
0.391360 0.391360 0.391360
0.420650 0.420650 0.420650
0.443076 0.443076 0.443076
0.469362 0.469362 0.469362
0.495650 0.495650 0.495650
0.524939 0.524939 0.524939
0.551961 0.551961 0.551961
0.581434 0.581434 0.581434
0.607721 0.607721 0.607721
0.634007 0.634007 0.634007
0.660294 0.660294 0.660294
0.682659 0.682659 0.682659
0.705024 0.705024 0.705024
0.727390 0.727390 0.727390
0.746507 0.746507 0.746507
0.767034 0.767034 0.767034
0.784559 0.784559 0.784559
0.802084 0.802084 0.802084
0.819608 0.819608 0.819608
0.000000 0.000000 0.000000
0.000000 0.000000 0.000000
0.000000 0.000000 0.000000
0.003922 0.003922 0.003922
0.003922 0.003922 0.003922
0.003922 0.003922 0.003922
0.007843 0.007843 0.007843
0.007843 0.007843 0.007843
0.011275 0.011275 0.011275
0.011765 0.011765 0.011765
0.015686 0.015686 0.015686
0.017953 0.017953 0.017953
0.019608 0.019608 0.019608
0.023529 0.023529 0.023529
0.024632 0.024632 0.024632
0.029473 0.029473 0.029473
0.034314 0.034314 0.034314
0.039155 0.039155 0.039155
0.043137 0.043137 0.043137
0.048897 0.048897 0.048897
0.053676 0.053676 0.053676
0.058518 0.058518 0.058518
0.063358 0.063358 0.063358
0.072426 0.072426 0.072426
0.076961 0.076961 0.076961
0.085723 0.085723 0.085723
0.090564 0.090564 0.090564
0.099326 0.099326 0.099326
0.106005 0.106005 0.106005
0.114767 0.114767 0.114767
0.125613 0.125613 0.125613
0.134375 0.134375 0.134375
0.144975 0.144975 0.144975
0.158701 0.158701 0.158701
0.172304 0.172304 0.172304
0.186949 0.186949 0.186949
0.199510 0.199510 0.199510
0.217035 0.217035 0.217035
0.230638 0.230638 0.230638
0.248162 0.248162 0.248162
0.265686 0.265686 0.265686
0.285600 0.285600 0.285600
0.302573 0.302573 0.302573
0.327941 0.327941 0.327941
0.348775 0.348775 0.348775
0.370834 0.370834 0.370834
0.397426 0.397426 0.397426
0.419792 0.419792 0.419792
0.446078 0.446078 0.446078
0.472365 0.472365 0.472365
0.498652 0.498652 0.498652
0.526777 0.526777 0.526777
0.556985 0.556985 0.556985
0.585355 0.585355 0.585355
0.611642 0.611642 0.611642
0.637929 0.637929 0.637929
0.660295 0.660295 0.660295
0.685172 0.685172 0.685172
0.706618 0.706618 0.706618
0.725980 0.725980 0.725980
0.745833 0.745833 0.745833
0.767034 0.767034 0.767034
0.784559 0.784559 0.784559
0.802084 0.802084 0.802084
0.819608 0.819608 0.819608
0.000000 0.000000 0.000000
0.000000 0.000000 0.000000
0.001838 0.001838 0.001838
0.003922 0.003922 0.003922
0.003922 0.003922 0.003922
0.004596 0.004596 0.004596
0.007843 0.007843 0.007843
0.007843 0.007843 0.007843
0.011765 0.011765 0.011765
0.014522 0.014522 0.014522
0.015686 0.015686 0.015686
0.017953 0.017953 0.017953
0.019608 0.019608 0.019608
0.023529 0.023529 0.023529
0.027451 0.027451 0.027451
0.031373 0.031373 0.031373
0.035294 0.035294 0.035294
0.039216 0.039216 0.039216
0.043995 0.043995 0.043995
0.048836 0.048836 0.048836
0.053676 0.053676 0.053676
0.058824 0.058824 0.058824
0.066667 0.066667 0.066667
0.072120 0.072120 0.072120
0.076961 0.076961 0.076961
0.085723 0.085723 0.085723
0.090564 0.090564 0.090564
0.099326 0.099326 0.099326
0.108088 0.108088 0.108088
0.116850 0.116850 0.116850
0.125613 0.125613 0.125613
0.135416 0.135416 0.135416
0.147059 0.147059 0.147059
0.159742 0.159742 0.159742
0.171262 0.171262 0.171262
0.185907 0.185907 0.185907
0.204473 0.204473 0.204473
0.217035 0.217035 0.217035
0.234559 0.234559 0.234559
0.250920 0.250920 0.250920
0.267157 0.267157 0.267157
0.287132 0.287132 0.287132
0.307966 0.307966 0.307966
0.326409 0.326409 0.326409
0.348775 0.348775 0.348775
0.375061 0.375061 0.375061
0.397120 0.397120 0.397120
0.423713 0.423713 0.423713
0.448836 0.448836 0.448836
0.475123 0.475123 0.475123
0.501409 0.501409 0.501409
0.528861 0.528861 0.528861
0.555882 0.555882 0.555882
0.585355 0.585355 0.585355
0.611642 0.611642 0.611642
0.637929 0.637929 0.637929
0.663725 0.663725 0.663725
0.687929 0.687929 0.687929
0.706618 0.706618 0.706618
0.728064 0.728064 0.728064
0.749510 0.749510 0.749510
0.767034 0.767034 0.767034
0.784559 0.784559 0.784559
0.802084 0.802084 0.802084
0.819608 0.819608 0.819608
0.000000 0.000000 0.000000
0.000919 0.000919 0.000919
0.003922 0.003922 0.003922
0.003922 0.003922 0.003922
0.003922 0.003922 0.003922
0.007843 0.007843 0.007843
0.007843 0.007843 0.007843
0.010356 0.010356 0.010356
0.011765 0.011765 0.011765
0.012194 0.012194 0.012194
0.015686 0.015686 0.015686
0.019608 0.019608 0.019608
0.022794 0.022794 0.022794
0.023713 0.023713 0.023713
0.028554 0.028554 0.028554
0.035049 0.035049 0.035049
0.038971 0.038971 0.038971
0.043076 0.043076 0.043076
0.043995 0.043995 0.043995
0.050980 0.050980 0.050980
0.058579 0.058579 0.058579
0.062439 0.062439 0.062439
0.067280 0.067280 0.067280
0.072120 0.072120 0.072120
0.082108 0.082108 0.082108
0.085723 0.085723 0.085723
0.094486 0.094486 0.094486
0.103002 0.103002 0.103002
0.108088 0.108088 0.108088
0.116850 0.116850 0.116850
0.125735 0.125735 0.125735
0.138297 0.138297 0.138297
0.149019 0.149019 0.149019
0.163419 0.163419 0.163419
0.176226 0.176226 0.176226
0.192708 0.192708 0.192708
0.203431 0.203431 0.203431
0.221997 0.221997 0.221997
0.234559 0.234559 0.234559
0.252083 0.252083 0.252083
0.269608 0.269608 0.269608
0.290809 0.290809 0.290809
0.308579 0.308579 0.308579
0.333701 0.333701 0.333701
0.352696 0.352696 0.352696
0.375061 0.375061 0.375061
0.401348 0.401348 0.401348
0.423713 0.423713 0.423713
0.450000 0.450000 0.450000
0.476287 0.476287 0.476287
0.502573 0.502573 0.502573
0.532536 0.532536 0.532536
0.559069 0.559069 0.559069
0.589031 0.589031 0.589031
0.615319 0.615319 0.615319
0.637929 0.637929 0.637929
0.664216 0.664216 0.664216
0.686581 0.686581 0.686581
0.708946 0.708946 0.708946
0.728064 0.728064 0.728064
0.749510 0.749510 0.749510
0.767034 0.767034 0.767034
0.788235 0.788235 0.788235
0.802084 0.802084 0.802084
0.819608 0.819608 0.819608
0.000674 0.000674 0.000674
0.003922 0.003922 0.003922
0.003922 0.003922 0.003922
0.003922 0.003922 0.003922
0.004596 0.004596 0.004596
0.007843 0.007843 0.007843
0.009436 0.009436 0.009436
0.011765 0.011765 0.011765
0.011765 0.011765 0.011765
0.015686 0.015686 0.015686
0.016360 0.016360 0.016360
0.019608 0.019608 0.019608
0.023529 0.023529 0.023529
0.027451 0.027451 0.027451
0.031373 0.031373 0.031373
0.035294 0.035294 0.035294
0.035968 0.035968 0.035968
0.039890 0.039890 0.039890
0.047917 0.047917 0.047917
0.052757 0.052757 0.052757
0.055576 0.055576 0.055576
0.062745 0.062745 0.062745
0.067280 0.067280 0.067280
0.076042 0.076042 0.076042
0.079105 0.079105 0.079105
0.089645 0.089645 0.089645
0.094486 0.094486 0.094486
0.103248 0.103248 0.103248
0.112010 0.112010 0.112010
0.120772 0.120772 0.120772
0.130209 0.130209 0.130209
0.138971 0.138971 0.138971
0.152942 0.152942 0.152942
0.166544 0.166544 0.166544
0.180147 0.180147 0.180147
0.192953 0.192953 0.192953
0.207353 0.207353 0.207353
0.221630 0.221630 0.221630
0.238481 0.238481 0.238481
0.256005 0.256005 0.256005
0.273529 0.273529 0.273529
0.293444 0.293444 0.293444
0.309253 0.309253 0.309253
0.334620 0.334620 0.334620
0.356618 0.356618 0.356618
0.377512 0.377512 0.377512
0.405269 0.405269 0.405269
0.427635 0.427635 0.427635
0.453921 0.453921 0.453921
0.480209 0.480209 0.480209
0.506495 0.506495 0.506495
0.536520 0.536520 0.536520
0.562990 0.562990 0.562990
0.589277 0.589277 0.589277
0.615564 0.615564 0.615564
0.641850 0.641850 0.641850
0.664216 0.664216 0.664216
0.689094 0.689094 0.689094
0.710539 0.710539 0.710539
0.728738 0.728738 0.728738
0.750184 0.750184 0.750184
0.770956 0.770956 0.770956
0.788481 0.788481 0.788481
0.806005 0.806005 0.806005
0.823529 0.823529 0.823529
0.003922 0.003922 0.003922
0.003922 0.003922 0.003922
0.003922 0.003922 0.003922
0.005515 0.005515 0.005515
0.007843 0.007843 0.007843
0.009436 0.009436 0.009436
0.011765 0.011765 0.011765
0.011765 0.011765 0.011765
0.013358 0.013358 0.013358
0.016115 0.016115 0.016115
0.019608 0.019608 0.019608
0.021201 0.021201 0.021201
0.023529 0.023529 0.023529
0.027635 0.027635 0.027635
0.032476 0.032476 0.032476
0.037316 0.037316 0.037316
0.042157 0.042157 0.042157
0.046998 0.046998 0.046998
0.047917 0.047917 0.047917
0.054902 0.054902 0.054902
0.061520 0.061520 0.061520
0.066361 0.066361 0.066361
0.071201 0.071201 0.071201
0.076042 0.076042 0.076042
0.084804 0.084804 0.084804
0.087868 0.087868 0.087868
0.098407 0.098407 0.098407
0.107169 0.107169 0.107169
0.113603 0.113603 0.113603
0.122365 0.122365 0.122365
0.133456 0.133456 0.133456
0.143811 0.143811 0.143811
0.154902 0.154902 0.154902
0.165257 0.165257 0.165257
0.177941 0.177941 0.177941
0.193750 0.193750 0.193750
0.211274 0.211274 0.211274
0.224878 0.224878 0.224878
0.242402 0.242402 0.242402
0.257598 0.257598 0.257598
0.275000 0.275000 0.275000
0.294975 0.294975 0.294975
0.315809 0.315809 0.315809
0.334252 0.334252 0.334252
0.360907 0.360907 0.360907
0.382904 0.382904 0.382904
0.409191 0.409191 0.409191
0.431557 0.431557 0.431557
0.458456 0.458456 0.458456
0.481802 0.481802 0.481802
0.510417 0.510417 0.510417
0.536704 0.536704 0.536704
0.563725 0.563725 0.563725
0.593198 0.593198 0.593198
0.619485 0.619485 0.619485
0.645772 0.645772 0.645772
0.669240 0.669240 0.669240
0.690503 0.690503 0.690503
0.712867 0.712867 0.712867
0.731985 0.731985 0.731985
0.753431 0.753431 0.753431
0.770956 0.770956 0.770956
0.788481 0.788481 0.788481
0.806005 0.806005 0.806005
0.823529 0.823529 0.823529
0.003922 0.003922 0.003922
0.006434 0.006434 0.006434
0.007843 0.007843 0.007843
0.007843 0.007843 0.007843
0.007843 0.007843 0.007843
0.011765 0.011765 0.011765
0.011765 0.011765 0.011765
0.014277 0.014277 0.014277
0.015686 0.015686 0.015686
0.019608 0.019608 0.019608
0.022120 0.022120 0.022120
0.023529 0.023529 0.023529
0.026042 0.026042 0.026042
0.031373 0.031373 0.031373
0.035294 0.035294 0.035294
0.037316 0.037316 0.037316
0.041728 0.041728 0.041728
0.045650 0.045650 0.045650
0.053493 0.053493 0.053493
0.056679 0.056679 0.056679
0.061336 0.061336 0.061336
0.065258 0.065258 0.065258
0.074510 0.074510 0.074510
0.079963 0.079963 0.079963
0.084804 0.084804 0.084804
0.093566 0.093566 0.093566
0.100919 0.100919 0.100919
0.107169 0.107169 0.107169
0.115931 0.115931 0.115931
0.124694 0.124694 0.124694
0.135967 0.135967 0.135967
0.146140 0.146140 0.146140
0.156863 0.156863 0.156863
0.170466 0.170466 0.170466
0.184069 0.184069 0.184069
0.199387 0.199387 0.199387
0.211274 0.211274 0.211274
0.228799 0.228799 0.228799
0.241360 0.241360 0.241360
0.259927 0.259927 0.259927
0.279964 0.279964 0.279964
0.297365 0.297365 0.297365
0.319731 0.319731 0.319731
0.338174 0.338174 0.338174
0.360539 0.360539 0.360539
0.386826 0.386826 0.386826
0.411703 0.411703 0.411703
0.437929 0.437929 0.437929
0.460355 0.460355 0.460355
0.486642 0.486642 0.486642
0.512929 0.512929 0.512929
0.540625 0.540625 0.540625
0.569424 0.569424 0.569424
0.595711 0.595711 0.595711
0.621998 0.621998 0.621998
0.645772 0.645772 0.645772
0.668138 0.668138 0.668138
0.693015 0.693015 0.693015
0.712867 0.712867 0.712867
0.735233 0.735233 0.735233
0.753431 0.753431 0.753431
0.770956 0.770956 0.770956
0.788481 0.788481 0.788481
0.806005 0.806005 0.806005
0.823529 0.823529 0.823529
0.007353 0.007353 0.007353
0.007843 0.007843 0.007843
0.007843 0.007843 0.007843
0.011275 0.011275 0.011275
0.011275 0.011275 0.011275
0.011765 0.011765 0.011765
0.015196 0.015196 0.015196
0.015686 0.015686 0.015686
0.019118 0.019118 0.019118
0.019608 0.019608 0.019608
0.023529 0.023529 0.023529
0.026961 0.026961 0.026961
0.027451 0.027451 0.027451
0.031557 0.031557 0.031557
0.036397 0.036397 0.036397
0.042647 0.042647 0.042647
0.046569 0.046569 0.046569
0.050919 0.050919 0.050919
0.051838 0.051838 0.051838
0.058824 0.058824 0.058824
0.066177 0.066177 0.066177
0.070282 0.070282 0.070282
0.075123 0.075123 0.075123
0.079963 0.079963 0.079963
0.088726 0.088726 0.088726
0.096997 0.096997 0.096997
0.102329 0.102329 0.102329
0.111091 0.111091 0.111091
0.119853 0.119853 0.119853
0.128615 0.128615 0.128615
0.137378 0.137378 0.137378
0.147181 0.147181 0.147181
0.162255 0.162255 0.162255
0.174939 0.174939 0.174939
0.187990 0.187990 0.187990
0.204228 0.204228 0.204228
0.215196 0.215196 0.215196
0.232230 0.232230 0.232230
0.246324 0.246324 0.246324
0.263848 0.263848 0.263848
0.281373 0.281373 0.281373
0.302328 0.302328 0.302328
0.320344 0.320344 0.320344
0.345220 0.345220 0.345220
0.364461 0.364461 0.364461
0.392034 0.392034 0.392034
0.413113 0.413113 0.413113
0.438909 0.438909 0.438909
0.461765 0.461765 0.461765
0.488052 0.488052 0.488052
0.517770 0.517770 0.517770
0.544056 0.544056 0.544056
0.570833 0.570833 0.570833
0.597120 0.597120 0.597120
0.623407 0.623407 0.623407
0.649693 0.649693 0.649693
0.675000 0.675000 0.675000
0.696446 0.696446 0.696446
0.714461 0.714461 0.714461
0.735907 0.735907 0.735907
0.756863 0.756863 0.756863
0.772120 0.772120 0.772120
0.792402 0.792402 0.792402
0.809437 0.809437 0.809437
0.823529 0.823529 0.823529
0.007843 0.007843 0.007843
0.008272 0.008272 0.008272
0.011765 0.011765 0.011765
0.011765 0.011765 0.011765
0.011765 0.011765 0.011765
0.015686 0.015686 0.015686
0.015686 0.015686 0.015686
0.016115 0.016115 0.016115
0.019608 0.019608 0.019608
0.023529 0.023529 0.023529
0.024877 0.024877 0.024877
0.027451 0.027451 0.027451
0.031373 0.031373 0.031373
0.035723 0.035723 0.035723
0.040319 0.040319 0.040319
0.043137 0.043137 0.043137
0.047059 0.047059 0.047059
0.054841 0.054841 0.054841
0.055331 0.055331 0.055331
0.059253 0.059253 0.059253
0.069363 0.069363 0.069363
0.074204 0.074204 0.074204
0.079044 0.079044 0.079044
0.082782 0.082782 0.082782
0.092647 0.092647 0.092647
0.094547 0.094547 0.094547
0.106250 0.106250 0.106250
0.115012 0.115012 0.115012
0.123775 0.123775 0.123775
0.132537 0.132537 0.132537
0.141728 0.141728 0.141728
0.150491 0.150491 0.150491
0.164706 0.164706 0.164706
0.178309 0.178309 0.178309
0.191912 0.191912 0.191912
0.205515 0.205515 0.205515
0.217830 0.217830 0.217830
0.236643 0.236643 0.236643
0.250674 0.250674 0.250674
0.268321 0.268321 0.268321
0.285723 0.285723 0.285723
0.303247 0.303247 0.303247
0.324694 0.324694 0.324694
0.346017 0.346017 0.346017
0.368811 0.368811 0.368811
0.394669 0.394669 0.394669
0.417463 0.417463 0.417463
0.443321 0.443321 0.443321
0.469608 0.469608 0.469608
0.492403 0.492403 0.492403
0.518688 0.518688 0.518688
0.548469 0.548469 0.548469
0.575184 0.575184 0.575184
0.601470 0.601470 0.601470
0.627329 0.627329 0.627329
0.653615 0.653615 0.653615
0.675981 0.675981 0.675981
0.698346 0.698346 0.698346
0.718383 0.718383 0.718383
0.739154 0.739154 0.739154
0.757353 0.757353 0.757353
0.774877 0.774877 0.774877
0.792402 0.792402 0.792402
0.809927 0.809927 0.809927
0.827451 0.827451 0.827451
0.011765 0.011765 0.011765
0.011765 0.011765 0.011765
0.011765 0.011765 0.011765
0.013113 0.013113 0.013113
0.015686 0.015686 0.015686
0.017034 0.017034 0.017034
0.019608 0.019608 0.019608
0.022120 0.022120 0.022120
0.020956 0.020956 0.020956
0.024877 0.024877 0.024877
0.027451 0.027451 0.027451
0.028799 0.028799 0.028799
0.032721 0.032721 0.032721
0.039216 0.039216 0.039216
0.040319 0.040319 0.040319
0.044485 0.044485 0.044485
0.048407 0.048407 0.048407
0.052328 0.052328 0.052328
0.060172 0.060172 0.060172
0.064522 0.064522 0.064522
0.068015 0.068015 0.068015
0.078125 0.078125 0.078125
0.083701 0.083701 0.083701
0.087807 0.087807 0.087807
0.093995 0.093995 0.093995
0.101409 0.101409 0.101409
0.111152 0.111152 0.111152
0.116360 0.116360 0.116360
0.125123 0.125123 0.125123
0.133885 0.133885 0.133885
0.145221 0.145221 0.145221
0.155024 0.155024 0.155024
0.168627 0.168627 0.168627
0.182231 0.182231 0.182231
0.195833 0.195833 0.195833
0.209987 0.209987 0.209987
0.223039 0.223039 0.223039
0.240564 0.240564 0.240564
0.251961 0.251961 0.251961
0.271691 0.271691 0.271691
0.290564 0.290564 0.290564
0.308089 0.308089 0.308089
0.331495 0.331495 0.331495
0.349939 0.349939 0.349939
0.373652 0.373652 0.373652
0.398591 0.398591 0.398591
0.422304 0.422304 0.422304
0.447243 0.447243 0.447243
0.473897 0.473897 0.473897
0.497242 0.497242 0.497242
0.523530 0.523530 0.523530
0.552390 0.552390 0.552390
0.578677 0.578677 0.578677
0.604963 0.604963 0.604963
0.631250 0.631250 0.631250
0.651470 0.651470 0.651470
0.675981 0.675981 0.675981
0.698284 0.698284 0.698284
0.720711 0.720711 0.720711
0.739828 0.739828 0.739828
0.758701 0.758701 0.758701
0.776226 0.776226 0.776226
0.793750 0.793750 0.793750
0.809927 0.809927 0.809927
0.827451 0.827451 0.827451
0.011765 0.011765 0.011765
0.014032 0.014032 0.014032
0.015686 0.015686 0.015686
0.015686 0.015686 0.015686
0.019363 0.019363 0.019363
0.019608 0.019608 0.019608
0.021875 0.021875 0.021875
0.023529 0.023529 0.023529
0.023529 0.023529 0.023529
0.027451 0.027451 0.027451
0.028799 0.028799 0.028799
0.033640 0.033640 0.033640
0.038481 0.038481 0.038481
0.039400 0.039400 0.039400
0.045404 0.045404 0.045404
0.049326 0.049326 0.049326
0.053921 0.053921 0.053921
0.058763 0.058763 0.058763
0.062745 0.062745 0.062745
0.068934 0.068934 0.068934
0.073284 0.073284 0.073284
0.076777 0.076777 0.076777
0.082966 0.082966 0.082966
0.092463 0.092463 0.092463
0.096569 0.096569 0.096569
0.105331 0.105331 0.105331
0.112439 0.112439 0.112439
0.118934 0.118934 0.118934
0.127696 0.127696 0.127696
0.139583 0.139583 0.139583
0.149143 0.149143 0.149143
0.160172 0.160172 0.160172
0.172855 0.172855 0.172855
0.183272 0.183272 0.183272
0.199755 0.199755 0.199755
0.211704 0.211704 0.211704
0.226961 0.226961 0.226961
0.242831 0.242831 0.242831
0.258089 0.258089 0.258089
0.275613 0.275613 0.275613
0.295405 0.295405 0.295405
0.312929 0.312929 0.312929
0.335417 0.335417 0.335417
0.353860 0.353860 0.353860
0.378492 0.378492 0.378492
0.402512 0.402512 0.402512
0.427145 0.427145 0.427145
0.451164 0.451164 0.451164
0.475797 0.475797 0.475797
0.502084 0.502084 0.502084
0.528370 0.528370 0.528370
0.556312 0.556312 0.556312
0.582598 0.582598 0.582598
0.608885 0.608885 0.608885
0.635172 0.635172 0.635172
0.657537 0.657537 0.657537
0.681678 0.681678 0.681678
0.703125 0.703125 0.703125
0.722304 0.722304 0.722304
0.743076 0.743076 0.743076
0.761274 0.761274 0.761274
0.778799 0.778799 0.778799
0.796324 0.796324 0.796324
0.813848 0.813848 0.813848
0.827451 0.827451 0.827451
0.015686 0.015686 0.015686
0.015686 0.015686 0.015686
0.018873 0.018873 0.018873
0.018444 0.018444 0.018444
0.019608 0.019608 0.019608
0.022794 0.022794 0.022794
0.023529 0.023529 0.023529
0.026716 0.026716 0.026716
0.027451 0.027451 0.027451
0.027880 0.027880 0.027880
0.034559 0.034559 0.034559
0.035294 0.035294 0.035294
0.039216 0.039216 0.039216
0.043137 0.043137 0.043137
0.047059 0.047059 0.047059
0.050980 0.050980 0.050980
0.054902 0.054902 0.054902
0.058824 0.058824 0.058824
0.063603 0.063603 0.063603
0.068444 0.068444 0.068444
0.074510 0.074510 0.074510
0.082047 0.082047 0.082047
0.086888 0.086888 0.086888
0.091728 0.091728 0.091728
0.100490 0.100490 0.100490
0.108517 0.108517 0.108517
0.114093 0.114093 0.114093
0.122856 0.122856 0.122856
0.131618 0.131618 0.131618
0.140380 0.140380 0.140380
0.152329 0.152329 0.152329
0.165012 0.165012 0.165012
0.174510 0.174510 0.174510
0.186152 0.186152 0.186152
0.199142 0.199142 0.199142
0.213358 0.213358 0.213358
0.232353 0.232353 0.232353
0.244486 0.244486 0.244486
0.262010 0.262010 0.262010
0.279534 0.279534 0.279534
0.297059 0.297059 0.297059
0.316973 0.316973 0.316973
0.339338 0.339338 0.339338
0.357782 0.357782 0.357782
0.383334 0.383334 0.383334
0.406434 0.406434 0.406434
0.428799 0.428799 0.428799
0.458211 0.458211 0.458211
0.480637 0.480637 0.480637
0.506924 0.506924 0.506924
0.533211 0.533211 0.533211
0.559497 0.559497 0.559497
0.586520 0.586520 0.586520
0.614338 0.614338 0.614338
0.635172 0.635172 0.635172
0.661458 0.661458 0.661458
0.679902 0.679902 0.679902
0.702267 0.702267 0.702267
0.725490 0.725490 0.725490
0.743750 0.743750 0.743750
0.761274 0.761274 0.761274
0.778799 0.778799 0.778799
0.796324 0.796324 0.796324
0.813848 0.813848 0.813848
0.831373 0.831373 0.831373
0.019608 0.019608 0.019608
0.019608 0.019608 0.019608
0.021446 0.021446 0.021446
0.019792 0.019792 0.019792
0.023529 0.023529 0.023529
0.024203 0.024203 0.024203
0.023713 0.023713 0.023713
0.027451 0.027451 0.027451
0.027635 0.027635 0.027635
0.031557 0.031557 0.031557
0.036642 0.036642 0.036642
0.039216 0.039216 0.039216
0.039400 0.039400 0.039400
0.047059 0.047059 0.047059
0.050980 0.050980 0.050980
0.051164 0.051164 0.051164
0.055086 0.055086 0.055086
0.059008 0.059008 0.059008
0.067525 0.067525 0.067525
0.070772 0.070772 0.070772
0.074694 0.074694 0.074694
0.085969 0.085969 0.085969
0.090809 0.090809 0.090809
0.094302 0.094302 0.094302
0.104412 0.104412 0.104412
0.109435 0.109435 0.109435
0.118015 0.118015 0.118015
0.126777 0.126777 0.126777
0.135539 0.135539 0.135539
0.144301 0.144301 0.144301
0.153186 0.153186 0.153186
0.166789 0.166789 0.166789
0.178431 0.178431 0.178431
0.191115 0.191115 0.191115
0.207598 0.207598 0.207598
0.217463 0.217463 0.217463
0.234804 0.234804 0.234804
0.248590 0.248590 0.248590
0.265932 0.265932 0.265932
