Black-and-White/Rollei/Rollei Ortho 25 65x.cube
TITLE "Rollei Ortho 25"
LUT_3D_SIZE 9
DOMAIN_MIN 0.000000 0.000000 0.000000
DOMAIN_MAX 1.000000 1.000000 1.000000
0.000000 0.000000 0.000000
0.000000 0.000000 0.000000
0.000000 0.000000 0.000000
0.000000 0.000000 0.000000
0.000000 0.000000 0.000000
0.000000 0.000000 0.000000
0.003922 0.003922 0.003922
0.003922 0.003922 0.003922
0.003922 0.003922 0.003922
0.038726 0.038726 0.038726
0.042647 0.042647 0.042647
0.046569 0.046569 0.046569
0.050490 0.050490 0.050490
0.054412 0.054412 0.054412
0.058334 0.058334 0.058334
0.062255 0.062255 0.062255
0.066177 0.066177 0.066177
0.070098 0.070098 0.070098
0.108823 0.108823 0.108823
0.108824 0.108824 0.108824
0.112745 0.112745 0.112745
0.116667 0.116667 0.116667
0.120589 0.120589 0.120589
0.124510 0.124510 0.124510
0.128432 0.128432 0.128432
0.132353 0.132353 0.132353
0.133333 0.133333 0.133333
0.175000 0.175000 0.175000
0.175000 0.175000 0.175000
0.178922 0.178922 0.178922
0.178922 0.178922 0.178922
0.182843 0.182843 0.182843
0.186765 0.186765 0.186765
0.190686 0.190686 0.190686
0.194608 0.194608 0.194608
0.196078 0.196078 0.196078
0.250980 0.250980 0.250980
0.252941 0.252941 0.252941
0.252941 0.252941 0.252941
0.256863 0.256863 0.256863
0.258823 0.258823 0.258823
0.262745 0.262745 0.262745
0.264706 0.264706 0.264706
0.268628 0.268628 0.268628
0.272549 0.272549 0.272549
0.346569 0.346569 0.346569
0.346569 0.346569 0.346569
0.348039 0.348039 0.348039
0.350490 0.350490 0.350490
0.354412 0.354412 0.354412
0.355882 0.355882 0.355882
0.359314 0.359314 0.359314
0.363725 0.363725 0.363725
0.367647 0.367647 0.367647
0.481372 0.481372 0.481372
0.481372 0.481372 0.481372
0.487255 0.487255 0.487255
0.487745 0.487745 0.487745
0.493137 0.493137 0.493137
0.497059 0.497059 0.497059
0.504902 0.504902 0.504902
0.509313 0.509313 0.509313
0.517648 0.517648 0.517648
0.719118 0.719118 0.719118
0.719118 0.719118 0.719118
0.722549 0.722549 0.722549
0.723040 0.723040 0.723040
0.726470 0.726470 0.726470
0.730392 0.730392 0.730392
0.734313 0.734313 0.734313
0.738235 0.738235 0.738235
0.742156 0.742156 0.742156
0.862745 0.862745 0.862745
0.862745 0.862745 0.862745
0.862745 0.862745 0.862745
0.862745 0.862745 0.862745
0.862745 0.862745 0.862745
0.866667 0.866667 0.866667
0.870588 0.870588 0.870588
0.870588 0.870588 0.870588
0.874510 0.874510 0.874510
0.046569 0.046569 0.046569
0.054412 0.054412 0.054412
0.058334 0.058334 0.058334
0.062255 0.062255 0.062255
0.066177 0.066177 0.066177
0.070098 0.070098 0.070098
0.074020 0.074020 0.074020
0.077941 0.077941 0.077941
0.081863 0.081863 0.081863
0.112745 0.112745 0.112745
0.113235 0.113235 0.113235
0.117157 0.117157 0.117157
0.121079 0.121079 0.121079
0.125000 0.125000 0.125000
0.128922 0.128922 0.128922
0.132353 0.132353 0.132353
0.136275 0.136275 0.136275
0.136765 0.136765 0.136765
0.159313 0.159313 0.159313
0.159804 0.159804 0.159804
0.163235 0.163235 0.163235
0.166666 0.166666 0.166666
0.168137 0.168137 0.168137
0.172059 0.172059 0.172059
0.175490 0.175490 0.175490
0.179412 0.179412 0.179412
0.182843 0.182843 0.182843
0.213725 0.213725 0.213725
0.213725 0.213725 0.213725
0.215196 0.215196 0.215196
0.218137 0.218137 0.218137
0.222059 0.222059 0.222059
0.225490 0.225490 0.225490
0.229412 0.229412 0.229412
0.233333 0.233333 0.233333
0.234804 0.234804 0.234804
0.283824 0.283824 0.283824
0.283824 0.283824 0.283824
0.286274 0.286274 0.286274
0.287745 0.287745 0.287745
0.291667 0.291667 0.291667
0.295588 0.295588 0.295588
0.299510 0.299510 0.299510
0.303431 0.303431 0.303431
0.307353 0.307353 0.307353
0.375490 0.375490 0.375490
0.377451 0.377451 0.377451
0.378922 0.378922 0.378922
0.381373 0.381373 0.381373
0.385294 0.385294 0.385294
0.389216 0.389216 0.389216
0.394118 0.394118 0.394118
0.398529 0.398529 0.398529
0.402451 0.402451 0.402451
0.528921 0.528921 0.528921
0.528921 0.528921 0.528921
0.532843 0.532843 0.532843
0.536765 0.536765 0.536765
0.544608 0.544608 0.544608
0.552451 0.552451 0.552451
0.560294 0.560294 0.560294
0.568137 0.568137 0.568137
0.575980 0.575980 0.575980
0.742156 0.742156 0.742156
0.742647 0.742647 0.742647
0.745588 0.745588 0.745588
0.746078 0.746078 0.746078
0.750000 0.750000 0.750000
0.753431 0.753431 0.753431
0.757353 0.757353 0.757353
0.761274 0.761274 0.761274
0.764706 0.764706 0.764706
0.870588 0.870588 0.870588
0.870588 0.870588 0.870588
0.870588 0.870588 0.870588
0.874020 0.874020 0.874020
0.874510 0.874510 0.874510
0.874510 0.874510 0.874510
0.878431 0.878431 0.878431
0.881863 0.881863 0.881863
0.882353 0.882353 0.882353
0.112745 0.112745 0.112745
0.116667 0.116667 0.116667
0.120589 0.120589 0.120589
0.124510 0.124510 0.124510
0.128431 0.128431 0.128431
0.132353 0.132353 0.132353
0.136274 0.136274 0.136274
0.140196 0.140196 0.140196
0.144118 0.144118 0.144118
0.171078 0.171078 0.171078
0.171568 0.171568 0.171568
0.175490 0.175490 0.175490
0.179412 0.179412 0.179412
0.183333 0.183333 0.183333
0.186764 0.186764 0.186764
0.190686 0.190686 0.190686
0.194607 0.194607 0.194607
0.198529 0.198529 0.198529
0.214706 0.214706 0.214706
0.214706 0.214706 0.214706
0.218627 0.218627 0.218627
0.222549 0.222549 0.222549
0.226470 0.226470 0.226470
0.230392 0.230392 0.230392
0.234314 0.234314 0.234314
0.238236 0.238236 0.238236
0.241176 0.241176 0.241176
0.269608 0.269608 0.269608
0.272059 0.272059 0.272059
0.273529 0.273529 0.273529
0.275980 0.275980 0.275980
0.279902 0.279902 0.279902
0.283824 0.283824 0.283824
0.289216 0.289216 0.289216
0.293628 0.293628 0.293628
0.297059 0.297059 0.297059
0.342157 0.342157 0.342157
0.344118 0.344118 0.344118
0.346079 0.346079 0.346079
0.350000 0.350000 0.350000
0.353922 0.353922 0.353922
0.357843 0.357843 0.357843
0.361765 0.361765 0.361765
0.365686 0.365686 0.365686
0.369608 0.369608 0.369608
0.441177 0.441177 0.441177
0.444117 0.444117 0.444117
0.445098 0.445098 0.445098
0.449020 0.449020 0.449020
0.455882 0.455882 0.455882
0.460785 0.460785 0.460785
0.467647 0.467647 0.467647
0.473039 0.473039 0.473039
0.480392 0.480392 0.480392
0.636275 0.636275 0.636275
0.636275 0.636275 0.636275
0.640196 0.640196 0.640196
0.644118 0.644118 0.644118
0.649020 0.649020 0.649020
0.656863 0.656863 0.656863
0.662745 0.662745 0.662745
0.670588 0.670588 0.670588
0.676471 0.676471 0.676471
0.785294 0.785294 0.785294
0.785294 0.785294 0.785294
0.787745 0.787745 0.787745
0.788235 0.788235 0.788235
0.791667 0.791667 0.791667
0.793137 0.793137 0.793137
0.797058 0.797058 0.797058
0.799510 0.799510 0.799510
0.803432 0.803432 0.803432
0.890196 0.890196 0.890196
0.890196 0.890196 0.890196
0.890196 0.890196 0.890196
0.890196 0.890196 0.890196
0.894118 0.894118 0.894118
0.894118 0.894118 0.894118
0.897059 0.897059 0.897059
0.898039 0.898039 0.898039
0.901961 0.901961 0.901961
0.178922 0.178922 0.178922
0.182843 0.182843 0.182843
0.186765 0.186765 0.186765
0.190686 0.190686 0.190686
0.194608 0.194608 0.194608
0.198529 0.198529 0.198529
0.206373 0.206373 0.206373
0.206863 0.206863 0.206863
0.214216 0.214216 0.214216
0.237255 0.237255 0.237255
0.241176 0.241176 0.241176
0.245098 0.245098 0.245098
0.249019 0.249019 0.249019
0.252941 0.252941 0.252941
0.256863 0.256863 0.256863
0.261275 0.261275 0.261275
0.265686 0.265686 0.265686
0.271569 0.271569 0.271569
0.284804 0.284804 0.284804
0.287745 0.287745 0.287745
0.291667 0.291667 0.291667
0.295588 0.295588 0.295588
0.299510 0.299510 0.299510
0.303431 0.303431 0.303431
0.310785 0.310785 0.310785
0.315196 0.315196 0.315196
0.319118 0.319118 0.319118
0.346078 0.346078 0.346078
0.346078 0.346078 0.346078
0.350000 0.350000 0.350000
0.353922 0.353922 0.353922
0.357843 0.357843 0.357843
0.363235 0.363235 0.363235
0.369608 0.369608 0.369608
0.373530 0.373530 0.373530
0.379902 0.379902 0.379902
0.426471 0.426471 0.426471
0.426471 0.426471 0.426471
0.430392 0.430392 0.430392
0.436274 0.436274 0.436274
0.441667 0.441667 0.441667
0.448039 0.448039 0.448039
0.455882 0.455882 0.455882
0.463725 0.463725 0.463725
0.471568 0.471568 0.471568
0.578921 0.578921 0.578921
0.580392 0.580392 0.580392
0.584804 0.584804 0.584804
0.592157 0.592157 0.592157
0.601471 0.601471 0.601471
0.611765 0.611765 0.611765
0.621079 0.621079 0.621079
0.631863 0.631863 0.631863
0.640686 0.640686 0.640686
0.737745 0.737745 0.737745
0.737745 0.737745 0.737745
0.739215 0.739215 0.739215
0.741667 0.741667 0.741667
0.745588 0.745588 0.745588
0.749510 0.749510 0.749510
0.754902 0.754902 0.754902
0.760294 0.760294 0.760294
0.764216 0.764216 0.764216
0.830392 0.830392 0.830392
0.831863 0.831863 0.831863
0.832353 0.832353 0.832353
0.834314 0.834314 0.834314
0.835784 0.835784 0.835784
0.838235 0.838235 0.838235
0.842157 0.842157 0.842157
0.843627 0.843627 0.843627
0.846078 0.846078 0.846078
0.913725 0.913725 0.913725
0.913725 0.913725 0.913725
0.913725 0.913725 0.913725
0.916176 0.916176 0.916176
0.917647 0.917647 0.917647
0.917647 0.917647 0.917647
0.921569 0.921569 0.921569
0.921569 0.921569 0.921569
0.925490 0.925490 0.925490
0.254902 0.254902 0.254902
0.260784 0.260784 0.260784
0.266667 0.266667 0.266667
0.272549 0.272549 0.272549
0.278431 0.278431 0.278431
0.282353 0.282353 0.282353
0.288235 0.288235 0.288235
0.294118 0.294118 0.294118
0.298040 0.298040 0.298040
0.321569 0.321569 0.321569
0.325000 0.325000 0.325000
0.329411 0.329411 0.329411
0.334804 0.334804 0.334804
0.340686 0.340686 0.340686
0.346569 0.346569 0.346569
0.352451 0.352451 0.352451
0.358333 0.358333 0.358333
0.364215 0.364215 0.364215
0.375490 0.375490 0.375490
0.377451 0.377451 0.377451
0.383333 0.383333 0.383333
0.389216 0.389216 0.389216
0.395098 0.395098 0.395098
0.402941 0.402941 0.402941
0.410784 0.410784 0.410784
0.417157 0.417157 0.417157
0.422549 0.422549 0.422549
0.453432 0.453432 0.453432
0.455882 0.455882 0.455882
0.461275 0.461275 0.461275
0.467647 0.467647 0.467647
0.475490 0.475490 0.475490
0.486765 0.486765 0.486765
0.497059 0.497059 0.497059
0.508823 0.508823 0.508823
0.520588 0.520588 0.520588
0.596078 0.596078 0.596078
0.598039 0.598039 0.598039
0.604902 0.604902 0.604902
0.613725 0.613725 0.613725
0.623530 0.623530 0.623530
0.633333 0.633333 0.633333
0.645098 0.645098 0.645098
0.654902 0.654902 0.654902
0.662745 0.662745 0.662745
0.726961 0.726961 0.726961
0.730392 0.730392 0.730392
0.730882 0.730882 0.730882
0.734804 0.734804 0.734804
0.738725 0.738725 0.738725
0.746078 0.746078 0.746078
0.750490 0.750490 0.750490
0.756372 0.756372 0.756372
0.760294 0.760294 0.760294
0.810784 0.810784 0.810784
0.810784 0.810784 0.810784
0.810784 0.810784 0.810784
0.814706 0.814706 0.814706
0.816667 0.816667 0.816667
0.818627 0.818627 0.818627
0.822549 0.822549 0.822549
0.826470 0.826470 0.826470
0.830392 0.830392 0.830392
0.875000 0.875000 0.875000
0.875000 0.875000 0.875000
0.875000 0.875000 0.875000
0.876961 0.876961 0.876961
0.878921 0.878921 0.878921
0.880392 0.880392 0.880392
0.882843 0.882843 0.882843
0.884804 0.884804 0.884804
0.886765 0.886765 0.886765
0.939215 0.939215 0.939215
0.941176 0.941176 0.941176
0.941176 0.941176 0.941176
0.941176 0.941176 0.941176
0.943137 0.943137 0.943137
0.945098 0.945098 0.945098
0.945098 0.945098 0.945098
0.947059 0.947059 0.947059
0.949020 0.949020 0.949020
0.354412 0.354412 0.354412
0.363725 0.363725 0.363725
0.370098 0.370098 0.370098
0.377941 0.377941 0.377941
0.383333 0.383333 0.383333
0.391176 0.391176 0.391176
0.399019 0.399019 0.399019
0.406863 0.406863 0.406863
0.414706 0.414706 0.414706
0.437745 0.437745 0.437745
0.445098 0.445098 0.445098
0.452451 0.452451 0.452451
0.462745 0.462745 0.462745
0.470588 0.470588 0.470588
0.482353 0.482353 0.482353
0.494118 0.494118 0.494118
0.505883 0.505883 0.505883
0.519118 0.519118 0.519118
0.533334 0.533334 0.533334
0.538235 0.538235 0.538235
0.549019 0.549019 0.549019
0.560294 0.560294 0.560294
0.576470 0.576470 0.576470
0.590686 0.590686 0.590686
0.604902 0.604902 0.604902
0.618137 0.618137 0.618137
0.629902 0.629902 0.629902
0.661765 0.661765 0.661765
0.662745 0.662745 0.662745
0.669608 0.669608 0.669608
0.677451 0.677451 0.677451
0.686275 0.686275 0.686275
0.694118 0.694118 0.694118
0.703431 0.703431 0.703431
0.711274 0.711274 0.711274
0.719118 0.719118 0.719118
0.750000 0.750000 0.750000
0.752451 0.752451 0.752451
0.753922 0.753922 0.753922
0.758823 0.758823 0.758823
0.764215 0.764215 0.764215
0.768137 0.768137 0.768137
0.773529 0.773529 0.773529
0.779902 0.779902 0.779902
0.783823 0.783823 0.783823
0.814706 0.814706 0.814706
0.814706 0.814706 0.814706
0.818627 0.818627 0.818627
0.818627 0.818627 0.818627
0.822549 0.822549 0.822549
0.826470 0.826470 0.826470
0.830392 0.830392 0.830392
0.834314 0.834314 0.834314
0.836765 0.836765 0.836765
0.867647 0.867647 0.867647
0.867647 0.867647 0.867647
0.868137 0.868137 0.868137
0.869118 0.869118 0.869118
0.872059 0.872059 0.872059
0.873039 0.873039 0.873039
0.876961 0.876961 0.876961
0.879902 0.879902 0.879902
0.883333 0.883333 0.883333
0.914215 0.914215 0.914215
0.914215 0.914215 0.914215
0.915196 0.915196 0.915196
0.915686 0.915686 0.915686
0.918137 0.918137 0.918137
0.919118 0.919118 0.919118
0.922059 0.922059 0.922059
0.923039 0.923039 0.923039
0.925980 0.925980 0.925980
0.964706 0.964706 0.964706
0.964706 0.964706 0.964706
0.964706 0.964706 0.964706
0.966176 0.966176 0.966176
0.968627 0.968627 0.968627
0.968627 0.968627 0.968627
0.970098 0.970098 0.970098
0.972549 0.972549 0.972549
0.972549 0.972549 0.972549
0.513726 0.513726 0.513726
0.529412 0.529412 0.529412
0.545098 0.545098 0.545098
0.560785 0.560785 0.560785
0.577451 0.577451 0.577451
0.592157 0.592157 0.592157
0.607843 0.607843 0.607843
0.626470 0.626470 0.626470
0.634314 0.634314 0.634314
0.661275 0.661275 0.661275
0.667647 0.667647 0.667647
0.676961 0.676961 0.676961
0.686275 0.686275 0.686275
0.695588 0.695588 0.695588
0.704412 0.704412 0.704412
0.715197 0.715197 0.715197
0.723040 0.723040 0.723040
0.730882 0.730882 0.730882
0.734313 0.734313 0.734313
0.737745 0.737745 0.737745
0.742157 0.742157 0.742157
0.747059 0.747059 0.747059
0.753922 0.753922 0.753922
0.760784 0.760784 0.760784
0.766667 0.766667 0.766667
0.773039 0.773039 0.773039
0.778432 0.778432 0.778432
0.790196 0.790196 0.790196
0.791666 0.791666 0.791666
0.794118 0.794118 0.794118
0.799510 0.799510 0.799510
0.803432 0.803432 0.803432
0.807353 0.807353 0.807353
0.811275 0.811275 0.811275
0.816666 0.816666 0.816666
0.820588 0.820588 0.820588
0.836274 0.836274 0.836274
0.838235 0.838235 0.838235
0.840196 0.840196 0.840196
0.842157 0.842157 0.842157
0.846078 0.846078 0.846078
0.850000 0.850000 0.850000
0.851961 0.851961 0.851961
0.855883 0.855883 0.855883
0.859804 0.859804 0.859804
0.876961 0.876961 0.876961
0.879412 0.879412 0.879412
0.879412 0.879412 0.879412
0.880882 0.880882 0.880882
0.883824 0.883824 0.883824
0.887255 0.887255 0.887255
0.888726 0.888726 0.888726
0.891667 0.891667 0.891667
0.895098 0.895098 0.895098
0.914706 0.914706 0.914706
0.914706 0.914706 0.914706
0.915686 0.915686 0.915686
0.918627 0.918627 0.918627
0.918627 0.918627 0.918627
0.922549 0.922549 0.922549
0.923530 0.923530 0.923530
0.926471 0.926471 0.926471
0.930392 0.930392 0.930392
0.950000 0.950000 0.950000
0.950000 0.950000 0.950000
0.953431 0.953431 0.953431
0.953431 0.953431 0.953431
0.953922 0.953922 0.953922
0.956863 0.956863 0.956863
0.957353 0.957353 0.957353
0.957843 0.957843 0.957843
0.961274 0.961274 0.961274
0.988235 0.988235 0.988235
0.988235 0.988235 0.988235
0.988235 0.988235 0.988235
0.988235 0.988235 0.988235
0.988235 0.988235 0.988235
0.989215 0.989215 0.989215
0.992157 0.992157 0.992157
0.992157 0.992157 0.992157
0.992157 0.992157 0.992157
0.734313 0.734313 0.734313
0.742156 0.742156 0.742156
0.750000 0.750000 0.750000
0.757353 0.757353 0.757353
0.763235 0.763235 0.763235
0.769607 0.769607 0.769607
0.777451 0.777451 0.777451
0.784804 0.784804 0.784804
0.788725 0.788725 0.788725
0.797058 0.797058 0.797058
0.800000 0.800000 0.800000
0.804902 0.804902 0.804902
0.808823 0.808823 0.808823
0.815686 0.815686 0.815686
0.820098 0.820098 0.820098
0.824019 0.824019 0.824019
0.828431 0.828431 0.828431
0.835294 0.835294 0.835294
0.834804 0.834804 0.834804
0.835784 0.835784 0.835784
0.838726 0.838726 0.838726
0.842647 0.842647 0.842647
0.845588 0.845588 0.845588
0.851470 0.851470 0.851470
0.855392 0.855392 0.855392
0.859314 0.859314 0.859314
0.863235 0.863235 0.863235
0.867157 0.867157 0.867157
0.869608 0.869608 0.869608
0.871078 0.871078 0.871078
0.873529 0.873529 0.873529
0.877451 0.877451 0.877451
0.881373 0.881373 0.881373
0.884804 0.884804 0.884804
0.886765 0.886765 0.886765
0.890686 0.890686 0.890686
0.900490 0.900490 0.900490
0.900490 0.900490 0.900490
0.902451 0.902451 0.902451
0.904412 0.904412 0.904412
0.906372 0.906372 0.906372
0.910294 0.910294 0.910294
0.914215 0.914215 0.914215
0.916176 0.916176 0.916176
0.918137 0.918137 0.918137
0.929902 0.929902 0.929902
0.930882 0.930882 0.930882
0.931373 0.931373 0.931373
0.933823 0.933823 0.933823
0.934804 0.934804 0.934804
0.937745 0.937745 0.937745
0.941666 0.941666 0.941666
0.942647 0.942647 0.942647
0.945588 0.945588 0.945588
0.957843 0.957843 0.957843
0.957843 0.957843 0.957843
0.960784 0.960784 0.960784
0.961274 0.961274 0.961274
0.961764 0.961764 0.961764
0.965196 0.965196 0.965196
0.965196 0.965196 0.965196
0.968627 0.968627 0.968627
0.969117 0.969117 0.969117
0.984314 0.984314 0.984314
0.984314 0.984314 0.984314
0.984314 0.984314 0.984314
0.984804 0.984804 0.984804
0.984804 0.984804 0.984804
0.984804 0.984804 0.984804
0.988235 0.988235 0.988235
0.988725 0.988725 0.988725
0.988725 0.988725 0.988725
1.000000 1.000000 1.000000
1.000000 1.000000 1.000000
1.000000 1.000000 1.000000
1.000000 1.000000 1.000000
1.000000 1.000000 1.000000
1.000000 1.000000 1.000000
1.000000 1.000000 1.000000
1.000000 1.000000 1.000000
1.000000 1.000000 1.000000
0.839216 0.839216 0.839216
0.847059 0.847059 0.847059
0.850980 0.850980 0.850980
0.854902 0.854902 0.854902
0.858824 0.858824 0.858824
0.862745 0.862745 0.862745
0.866667 0.866667 0.866667
0.870588 0.870588 0.870588
0.874510 0.874510 0.874510
0.878431 0.878431 0.878431
0.881863 0.881863 0.881863
0.882353 0.882353 0.882353
0.886275 0.886275 0.886275
0.890196 0.890196 0.890196
0.894118 0.894118 0.894118
0.898039 0.898039 0.898039
0.901961 0.901961 0.901961
0.905882 0.905882 0.905882
0.904902 0.904902 0.904902
0.905882 0.905882 0.905882
0.908824 0.908824 0.908824
0.909804 0.909804 0.909804
0.913725 0.913725 0.913725
0.917647 0.917647 0.917647
0.918627 0.918627 0.918627
0.924510 0.924510 0.924510
0.925490 0.925490 0.925490
0.929412 0.929412 0.929412
0.929412 0.929412 0.929412
0.931863 0.931863 0.931863
0.933333 0.933333 0.933333
0.937255 0.937255 0.937255
0.939706 0.939706 0.939706
0.941176 0.941176 0.941176
0.945098 0.945098 0.945098
0.949020 0.949020 0.949020
0.952941 0.952941 0.952941
0.952941 0.952941 0.952941
0.954902 0.954902 0.954902
0.956863 0.956863 0.956863
0.958824 0.958824 0.958824
0.960784 0.960784 0.960784
0.964706 0.964706 0.964706
0.964706 0.964706 0.964706
0.968627 0.968627 0.968627
0.974020 0.974020 0.974020
0.976471 0.976471 0.976471
0.976471 0.976471 0.976471
0.976471 0.976471 0.976471
0.977941 0.977941 0.977941
0.980392 0.980392 0.980392
0.981863 0.981863 0.981863
0.984314 0.984314 0.984314
0.985784 0.985784 0.985784
0.992157 0.992157 0.992157
0.992157 0.992157 0.992157
0.992157 0.992157 0.992157
0.993137 0.993137 0.993137
0.996078 0.996078 0.996078
0.996078 0.996078 0.996078
0.996078 0.996078 0.996078
0.997059 0.997059 0.997059
1.000000 1.000000 1.000000
1.000000 1.000000 1.000000
1.000000 1.000000 1.000000
1.000000 1.000000 1.000000
1.000000 1.000000 1.000000
1.000000 1.000000 1.000000
1.000000 1.000000 1.000000
1.000000 1.000000 1.000000
1.000000 1.000000 1.000000
1.000000 1.000000 1.000000
1.000000 1.000000 1.000000
1.000000 1.000000 1.000000
1.000000 1.000000 1.000000
1.000000 1.000000 1.000000
1.000000 1.000000 1.000000
1.000000 1.000000 1.000000
1.000000 1.000000 1.000000
1.000000 1.000000 1.000000
1.000000 1.000000 1.000000
