Black-and-White/Rollei/Rollei IR 400 65x.cube
TITLE "Rollei IR 400"
LUT_3D_SIZE 9
DOMAIN_MIN 0.000000 0.000000 0.000000
DOMAIN_MAX 1.000000 1.000000 1.000000
0.000000 0.000000 0.000000
0.003922 0.003922 0.003922
0.023529 0.023529 0.023529
0.061275 0.061275 0.061275
0.121569 0.121569 0.121569
0.185784 0.185784 0.185784
0.263726 0.263726 0.263726
0.333823 0.333823 0.333823
0.392157 0.392157 0.392157
0.124510 0.124510 0.124510
0.147549 0.147549 0.147549
0.171569 0.171569 0.171569
0.210785 0.210785 0.210785
0.264216 0.264216 0.264216
0.325980 0.325980 0.325980
0.400490 0.400490 0.400490
0.473530 0.473530 0.473530
0.524510 0.524510 0.524510
0.256863 0.256863 0.256863
0.268137 0.268137 0.268137
0.288235 0.288235 0.288235
0.323039 0.323039 0.323039
0.378431 0.378431 0.378431
0.434804 0.434804 0.434804
0.508824 0.508824 0.508824
0.574999 0.574999 0.574999
0.625490 0.625490 0.625490
0.460784 0.460784 0.460784
0.468628 0.468628 0.468628
0.488726 0.488726 0.488726
0.525980 0.525980 0.525980
0.574510 0.574510 0.574510
0.630883 0.630883 0.630883
0.702451 0.702451 0.702451
0.764706 0.764706 0.764706
0.817647 0.817647 0.817647
0.721569 0.721569 0.721569
0.729412 0.729412 0.729412
0.749019 0.749019 0.749019
0.784314 0.784314 0.784314
0.827451 0.827451 0.827451
0.883824 0.883824 0.883824
0.949999 0.949999 0.949999
0.994608 0.994608 0.994608
1.000000 1.000000 1.000000
1.000000 1.000000 1.000000
1.000000 1.000000 1.000000
1.000000 1.000000 1.000000
1.000000 1.000000 1.000000
1.000000 1.000000 1.000000
1.000000 1.000000 1.000000
1.000000 1.000000 1.000000
1.000000 1.000000 1.000000
1.000000 1.000000 1.000000
1.000000 1.000000 1.000000
1.000000 1.000000 1.000000
1.000000 1.000000 1.000000
1.000000 1.000000 1.000000
1.000000 1.000000 1.000000
1.000000 1.000000 1.000000
1.000000 1.000000 1.000000
1.000000 1.000000 1.000000
1.000000 1.000000 1.000000
1.000000 1.000000 1.000000
1.000000 1.000000 1.000000
1.000000 1.000000 1.000000
1.000000 1.000000 1.000000
1.000000 1.000000 1.000000
1.000000 1.000000 1.000000
1.000000 1.000000 1.000000
1.000000 1.000000 1.000000
1.000000 1.000000 1.000000
1.000000 1.000000 1.000000
1.000000 1.000000 1.000000
1.000000 1.000000 1.000000
1.000000 1.000000 1.000000
1.000000 1.000000 1.000000
1.000000 1.000000 1.000000
1.000000 1.000000 1.000000
1.000000 1.000000 1.000000
1.000000 1.000000 1.000000
0.000000 0.000000 0.000000
0.000000 0.000000 0.000000
0.000000 0.000000 0.000000
0.000000 0.000000 0.000000
0.022059 0.022059 0.022059
0.084804 0.084804 0.084804
0.167157 0.167157 0.167157
0.239706 0.239706 0.239706
0.294608 0.294608 0.294608
0.034804 0.034804 0.034804
0.054412 0.054412 0.054412
0.081863 0.081863 0.081863
0.121079 0.121079 0.121079
0.178431 0.178431 0.178431
0.240196 0.240196 0.240196
0.318137 0.318137 0.318137
0.388235 0.388235 0.388235
0.442647 0.442647 0.442647
0.186764 0.186764 0.186764
0.198529 0.198529 0.198529
0.221078 0.221078 0.221078
0.257353 0.257353 0.257353
0.312255 0.312255 0.312255
0.372549 0.372549 0.372549
0.446569 0.446569 0.446569
0.512745 0.512745 0.512745
0.563235 0.563235 0.563235
0.413726 0.413726 0.413726
0.421569 0.421569 0.421569
0.440686 0.440686 0.440686
0.479412 0.479412 0.479412
0.527941 0.527941 0.527941
0.588235 0.588235 0.588235
0.658333 0.658333 0.658333
0.720588 0.720588 0.720588
0.771079 0.771079 0.771079
0.682843 0.682843 0.682843
0.690196 0.690196 0.690196
0.709804 0.709804 0.709804
0.745098 0.745098 0.745098
0.786765 0.786765 0.786765
0.845098 0.845098 0.845098
0.908824 0.908824 0.908824
0.965196 0.965196 0.965196
0.998529 0.998529 0.998529
0.998039 0.998039 0.998039
1.000000 1.000000 1.000000
1.000000 1.000000 1.000000
1.000000 1.000000 1.000000
1.000000 1.000000 1.000000
1.000000 1.000000 1.000000
1.000000 1.000000 1.000000
1.000000 1.000000 1.000000
1.000000 1.000000 1.000000
1.000000 1.000000 1.000000
1.000000 1.000000 1.000000
1.000000 1.000000 1.000000
1.000000 1.000000 1.000000
1.000000 1.000000 1.000000
1.000000 1.000000 1.000000
1.000000 1.000000 1.000000
1.000000 1.000000 1.000000
1.000000 1.000000 1.000000
1.000000 1.000000 1.000000
1.000000 1.000000 1.000000
1.000000 1.000000 1.000000
1.000000 1.000000 1.000000
1.000000 1.000000 1.000000
1.000000 1.000000 1.000000
1.000000 1.000000 1.000000
1.000000 1.000000 1.000000
1.000000 1.000000 1.000000
1.000000 1.000000 1.000000
1.000000 1.000000 1.000000
1.000000 1.000000 1.000000
1.000000 1.000000 1.000000
1.000000 1.000000 1.000000
1.000000 1.000000 1.000000
1.000000 1.000000 1.000000
1.000000 1.000000 1.000000
1.000000 1.000000 1.000000
0.000000 0.000000 0.000000
0.000000 0.000000 0.000000
0.000000 0.000000 0.000000
0.000000 0.000000 0.000000
0.000000 0.000000 0.000000
0.007843 0.007843 0.007843
0.084314 0.084314 0.084314
0.157843 0.157843 0.157843
0.213726 0.213726 0.213726
0.000000 0.000000 0.000000
0.000000 0.000000 0.000000
0.007353 0.007353 0.007353
0.037745 0.037745 0.037745
0.098039 0.098039 0.098039
0.162255 0.162255 0.162255
0.240686 0.240686 0.240686
0.310294 0.310294 0.310294
0.364706 0.364706 0.364706
0.104902 0.104902 0.104902
0.116667 0.116667 0.116667
0.140196 0.140196 0.140196
0.179412 0.179412 0.179412
0.233333 0.233333 0.233333
0.294608 0.294608 0.294608
0.368627 0.368627 0.368627
0.434314 0.434314 0.434314
0.485295 0.485295 0.485295
0.336274 0.336274 0.336274
0.344118 0.344118 0.344118
0.363725 0.363725 0.363725
0.402451 0.402451 0.402451
0.449510 0.449510 0.449510
0.507353 0.507353 0.507353
0.577451 0.577451 0.577451
0.636275 0.636275 0.636275
0.686275 0.686275 0.686275
0.597059 0.597059 0.597059
0.604902 0.604902 0.604902
0.624510 0.624510 0.624510
0.657353 0.657353 0.657353
0.698039 0.698039 0.698039
0.753431 0.753431 0.753431
0.815686 0.815686 0.815686
0.870098 0.870098 0.870098
0.911765 0.911765 0.911765
0.916667 0.916667 0.916667
0.924510 0.924510 0.924510
0.942647 0.942647 0.942647
0.970098 0.970098 0.970098
0.996078 0.996078 0.996078
1.000000 1.000000 1.000000
1.000000 1.000000 1.000000
1.000000 1.000000 1.000000
1.000000 1.000000 1.000000
1.000000 1.000000 1.000000
1.000000 1.000000 1.000000
1.000000 1.000000 1.000000
1.000000 1.000000 1.000000
1.000000 1.000000 1.000000
1.000000 1.000000 1.000000
1.000000 1.000000 1.000000
1.000000 1.000000 1.000000
1.000000 1.000000 1.000000
1.000000 1.000000 1.000000
1.000000 1.000000 1.000000
1.000000 1.000000 1.000000
1.000000 1.000000 1.000000
1.000000 1.000000 1.000000
1.000000 1.000000 1.000000
1.000000 1.000000 1.000000
1.000000 1.000000 1.000000
1.000000 1.000000 1.000000
1.000000 1.000000 1.000000
1.000000 1.000000 1.000000
1.000000 1.000000 1.000000
1.000000 1.000000 1.000000
1.000000 1.000000 1.000000
1.000000 1.000000 1.000000
1.000000 1.000000 1.000000
1.000000 1.000000 1.000000
1.000000 1.000000 1.000000
0.000000 0.000000 0.000000
0.000000 0.000000 0.000000
0.000000 0.000000 0.000000
0.000000 0.000000 0.000000
0.000000 0.000000 0.000000
0.000000 0.000000 0.000000
0.002451 0.002451 0.002451
0.050490 0.050490 0.050490
0.108823 0.108823 0.108823
0.000000 0.000000 0.000000
0.000000 0.000000 0.000000
0.000000 0.000000 0.000000
0.000000 0.000000 0.000000
0.002942 0.002942 0.002942
0.045588 0.045588 0.045588
0.125000 0.125000 0.125000
0.194118 0.194118 0.194118
0.245098 0.245098 0.245098
0.003922 0.003922 0.003922
0.004412 0.004412 0.004412
0.016666 0.016666 0.016666
0.051960 0.051960 0.051960
0.106372 0.106372 0.106372
0.167157 0.167157 0.167157
0.241177 0.241177 0.241177
0.303432 0.303432 0.303432
0.350981 0.350981 0.350981
0.204902 0.204902 0.204902
0.212745 0.212745 0.212745
0.232353 0.232353 0.232353
0.270098 0.270098 0.270098
0.316667 0.316667 0.316667
0.375000 0.375000 0.375000
0.442647 0.442647 0.442647
0.500980 0.500980 0.500980
0.547549 0.547549 0.547549
0.461765 0.461765 0.461765
0.469608 0.469608 0.469608
0.488236 0.488236 0.488236
0.523039 0.523039 0.523039
0.563725 0.563725 0.563725
0.620098 0.620098 0.620098
0.682353 0.682353 0.682353
0.736764 0.736764 0.736764
0.779412 0.779412 0.779412
0.793137 0.793137 0.793137
0.800980 0.800980 0.800980
0.820588 0.820588 0.820588
0.848039 0.848039 0.848039
0.886765 0.886765 0.886765
0.942157 0.942157 0.942157
0.990196 0.990196 0.990196
1.000000 1.000000 1.000000
1.000000 1.000000 1.000000
1.000000 1.000000 1.000000
1.000000 1.000000 1.000000
1.000000 1.000000 1.000000
1.000000 1.000000 1.000000
1.000000 1.000000 1.000000
1.000000 1.000000 1.000000
1.000000 1.000000 1.000000
1.000000 1.000000 1.000000
1.000000 1.000000 1.000000
1.000000 1.000000 1.000000
1.000000 1.000000 1.000000
1.000000 1.000000 1.000000
1.000000 1.000000 1.000000
1.000000 1.000000 1.000000
1.000000 1.000000 1.000000
1.000000 1.000000 1.000000
1.000000 1.000000 1.000000
1.000000 1.000000 1.000000
1.000000 1.000000 1.000000
1.000000 1.000000 1.000000
1.000000 1.000000 1.000000
1.000000 1.000000 1.000000
1.000000 1.000000 1.000000
1.000000 1.000000 1.000000
1.000000 1.000000 1.000000
1.000000 1.000000 1.000000
1.000000 1.000000 1.000000
0.000000 0.000000 0.000000
0.000000 0.000000 0.000000
0.000000 0.000000 0.000000
0.000000 0.000000 0.000000
0.000000 0.000000 0.000000
0.000000 0.000000 0.000000
0.000000 0.000000 0.000000
0.000000 0.000000 0.000000
0.000000 0.000000 0.000000
0.000000 0.000000 0.000000
0.000000 0.000000 0.000000
0.000000 0.000000 0.000000
0.000000 0.000000 0.000000
0.000000 0.000000 0.000000
0.000000 0.000000 0.000000
0.000000 0.000000 0.000000
0.023529 0.023529 0.023529
0.074019 0.074019 0.074019
0.000000 0.000000 0.000000
0.000000 0.000000 0.000000
0.000000 0.000000 0.000000
0.000000 0.000000 0.000000
0.000000 0.000000 0.000000
0.008823 0.008823 0.008823
0.074510 0.074510 0.074510
0.140686 0.140686 0.140686
0.192157 0.192157 0.192157
0.043137 0.043137 0.043137
0.050490 0.050490 0.050490
0.072549 0.072549 0.072549
0.112255 0.112255 0.112255
0.162745 0.162745 0.162745
0.224510 0.224510 0.224510
0.295098 0.295098 0.295098
0.356863 0.356863 0.356863
0.403432 0.403432 0.403432
0.313725 0.313725 0.313725
0.321569 0.321569 0.321569
0.344118 0.344118 0.344118
0.378922 0.378922 0.378922
0.419608 0.419608 0.419608
0.477941 0.477941 0.477941
0.540196 0.540196 0.540196
0.594608 0.594608 0.594608
0.633333 0.633333 0.633333
0.650491 0.650491 0.650491
0.658334 0.658334 0.658334
0.677941 0.677941 0.677941
0.703922 0.703922 0.703922
0.743137 0.743137 0.743137
0.795589 0.795589 0.795589
0.850000 0.850000 0.850000
0.896569 0.896569 0.896569
0.931373 0.931373 0.931373
0.951961 0.951961 0.951961
0.958823 0.958823 0.958823
0.971569 0.971569 0.971569
0.991667 0.991667 0.991667
1.000000 1.000000 1.000000
1.000000 1.000000 1.000000
1.000000 1.000000 1.000000
1.000000 1.000000 1.000000
1.000000 1.000000 1.000000
1.000000 1.000000 1.000000
1.000000 1.000000 1.000000
1.000000 1.000000 1.000000
1.000000 1.000000 1.000000
1.000000 1.000000 1.000000
1.000000 1.000000 1.000000
1.000000 1.000000 1.000000
1.000000 1.000000 1.000000
1.000000 1.000000 1.000000
1.000000 1.000000 1.000000
1.000000 1.000000 1.000000
1.000000 1.000000 1.000000
1.000000 1.000000 1.000000
1.000000 1.000000 1.000000
1.000000 1.000000 1.000000
1.000000 1.000000 1.000000
1.000000 1.000000 1.000000
1.000000 1.000000 1.000000
0.000000 0.000000 0.000000
0.000000 0.000000 0.000000
0.000000 0.000000 0.000000
0.000000 0.000000 0.000000
0.000000 0.000000 0.000000
0.000000 0.000000 0.000000
0.000000 0.000000 0.000000
0.000000 0.000000 0.000000
0.000000 0.000000 0.000000
0.000000 0.000000 0.000000
0.000000 0.000000 0.000000
0.000000 0.000000 0.000000
0.000000 0.000000 0.000000
0.000000 0.000000 0.000000
0.000000 0.000000 0.000000
0.000000 0.000000 0.000000
0.000000 0.000000 0.000000
0.000000 0.000000 0.000000
0.000000 0.000000 0.000000
0.000000 0.000000 0.000000
0.000000 0.000000 0.000000
0.000000 0.000000 0.000000
0.000000 0.000000 0.000000
0.000000 0.000000 0.000000
0.000000 0.000000 0.000000
0.000000 0.000000 0.000000
0.009314 0.009314 0.009314
0.000000 0.000000 0.000000
0.000000 0.000000 0.000000
0.000000 0.000000 0.000000
0.000000 0.000000 0.000000
0.000981 0.000981 0.000981
0.031863 0.031863 0.031863
0.104411 0.104411 0.104411
0.164216 0.164216 0.164216
0.210784 0.210784 0.210784
0.117647 0.117647 0.117647
0.126961 0.126961 0.126961
0.148530 0.148530 0.148530
0.183824 0.183824 0.183824
0.225000 0.225000 0.225000
0.283333 0.283333 0.283333
0.348530 0.348530 0.348530
0.400000 0.400000 0.400000
0.438725 0.438725 0.438725
0.459314 0.459314 0.459314
0.467157 0.467157 0.467157
0.485294 0.485294 0.485294
0.512745 0.512745 0.512745
0.553922 0.553922 0.553922
0.608333 0.608333 0.608333
0.662745 0.662745 0.662745
0.708824 0.708824 0.708824
0.744117 0.744117 0.744117
0.768137 0.768137 0.768137
0.772059 0.772059 0.772059
0.786765 0.786765 0.786765
0.811765 0.811765 0.811765
0.850980 0.850980 0.850980
0.899019 0.899019 0.899019
0.944608 0.944608 0.944608
0.983334 0.983334 0.983334
0.999510 0.999510 0.999510
0.990196 0.990196 0.990196
0.994117 0.994117 0.994117
0.999019 0.999019 0.999019
1.000000 1.000000 1.000000
1.000000 1.000000 1.000000
1.000000 1.000000 1.000000
1.000000 1.000000 1.000000
1.000000 1.000000 1.000000
1.000000 1.000000 1.000000
1.000000 1.000000 1.000000
1.000000 1.000000 1.000000
1.000000 1.000000 1.000000
1.000000 1.000000 1.000000
1.000000 1.000000 1.000000
1.000000 1.000000 1.000000
1.000000 1.000000 1.000000
1.000000 1.000000 1.000000
1.000000 1.000000 1.000000
0.000000 0.000000 0.000000
0.000000 0.000000 0.000000
0.000000 0.000000 0.000000
0.000000 0.000000 0.000000
0.000000 0.000000 0.000000
0.000000 0.000000 0.000000
0.000000 0.000000 0.000000
0.000000 0.000000 0.000000
0.000000 0.000000 0.000000
0.000000 0.000000 0.000000
0.000000 0.000000 0.000000
0.000000 0.000000 0.000000
0.000000 0.000000 0.000000
0.000000 0.000000 0.000000
0.000000 0.000000 0.000000
0.000000 0.000000 0.000000
0.000000 0.000000 0.000000
0.000000 0.000000 0.000000
0.000000 0.000000 0.000000
0.000000 0.000000 0.000000
0.000000 0.000000 0.000000
0.000000 0.000000 0.000000
0.000000 0.000000 0.000000
0.000000 0.000000 0.000000
0.000000 0.000000 0.000000
0.000000 0.000000 0.000000
0.000000 0.000000 0.000000
0.000000 0.000000 0.000000
0.000000 0.000000 0.000000
0.000000 0.000000 0.000000
0.000000 0.000000 0.000000
0.000000 0.000000 0.000000
0.000000 0.000000 0.000000
0.000000 0.000000 0.000000
0.000000 0.000000 0.000000
0.002451 0.002451 0.002451
0.000000 0.000000 0.000000
0.000000 0.000000 0.000000
0.000000 0.000000 0.000000
0.000000 0.000000 0.000000
0.013725 0.013725 0.013725
0.069117 0.069117 0.069117
0.139215 0.139215 0.139215
0.195098 0.195098 0.195098
0.237255 0.237255 0.237255
0.264706 0.264706 0.264706
0.272549 0.272549 0.272549
0.292157 0.292157 0.292157
0.323039 0.323039 0.323039
0.367157 0.367157 0.367157
0.425000 0.425000 0.425000
0.480882 0.480882 0.480882
0.530392 0.530392 0.530392
0.566176 0.566176 0.566176
0.594118 0.594118 0.594118
0.600490 0.600490 0.600490
0.613726 0.613726 0.613726
0.641177 0.641177 0.641177
0.684314 0.684314 0.684314
0.732843 0.732843 0.732843
0.782353 0.782353 0.782353
0.821569 0.821569 0.821569
0.851961 0.851961 0.851961
0.834804 0.834804 0.834804
0.842157 0.842157 0.842157
0.856863 0.856863 0.856863
0.883824 0.883824 0.883824
0.921079 0.921079 0.921079
0.961274 0.961274 0.961274
0.998529 0.998529 0.998529
1.000000 1.000000 1.000000
1.000000 1.000000 1.000000
0.974510 0.974510 0.974510
0.978431 0.978431 0.978431
0.993137 0.993137 0.993137
1.000000 1.000000 1.000000
1.000000 1.000000 1.000000
1.000000 1.000000 1.000000
1.000000 1.000000 1.000000
1.000000 1.000000 1.000000
1.000000 1.000000 1.000000
0.000000 0.000000 0.000000
0.000000 0.000000 0.000000
0.000000 0.000000 0.000000
0.000000 0.000000 0.000000
0.000000 0.000000 0.000000
0.000000 0.000000 0.000000
0.000000 0.000000 0.000000
0.000000 0.000000 0.000000
0.000000 0.000000 0.000000
0.000000 0.000000 0.000000
0.000000 0.000000 0.000000
0.000000 0.000000 0.000000
0.000000 0.000000 0.000000
0.000000 0.000000 0.000000
0.000000 0.000000 0.000000
0.000000 0.000000 0.000000
0.000000 0.000000 0.000000
0.000000 0.000000 0.000000
0.000000 0.000000 0.000000
0.000000 0.000000 0.000000
0.000000 0.000000 0.000000
0.000000 0.000000 0.000000
0.000000 0.000000 0.000000
0.000000 0.000000 0.000000
0.000000 0.000000 0.000000
0.000000 0.000000 0.000000
0.000000 0.000000 0.000000
0.000000 0.000000 0.000000
0.000000 0.000000 0.000000
0.000000 0.000000 0.000000
0.000000 0.000000 0.000000
0.000000 0.000000 0.000000
0.000000 0.000000 0.000000
0.000000 0.000000 0.000000
0.000000 0.000000 0.000000
0.000000 0.000000 0.000000
0.000000 0.000000 0.000000
0.000000 0.000000 0.000000
0.000000 0.000000 0.000000
0.000000 0.000000 0.000000
0.000000 0.000000 0.000000
0.000000 0.000000 0.000000
0.000000 0.000000 0.000000
0.017157 0.017157 0.017157
0.055883 0.055883 0.055883
0.092647 0.092647 0.092647
0.101961 0.101961 0.101961
0.121568 0.121568 0.121568
0.157353 0.157353 0.157353
0.204412 0.204412 0.204412
0.266667 0.266667 0.266667
0.325000 0.325000 0.325000
0.378922 0.378922 0.378922
0.414216 0.414216 0.414216
0.446078 0.446078 0.446078
0.453432 0.453432 0.453432
0.468628 0.468628 0.468628
0.494118 0.494118 0.494118
0.540686 0.540686 0.540686
0.592647 0.592647 0.592647
0.642157 0.642157 0.642157
0.685294 0.685294 0.685294
0.716177 0.716177 0.716177
0.702451 0.702451 0.702451
0.710294 0.710294 0.710294
0.725000 0.725000 0.725000
0.753921 0.753921 0.753921
0.792647 0.792647 0.792647
0.835784 0.835784 0.835784
0.875981 0.875981 0.875981
0.910784 0.910784 0.910784
0.933823 0.933823 0.933823
0.854412 0.854412 0.854412
0.861275 0.861275 0.861275
0.874020 0.874020 0.874020
0.899510 0.899510 0.899510
0.930392 0.930392 0.930392
0.964216 0.964216 0.964216
0.999510 0.999510 0.999510
1.000000 1.000000 1.000000
1.000000 1.000000 1.000000
0.000000 0.000000 0.000000
0.000000 0.000000 0.000000
0.000000 0.000000 0.000000
0.000000 0.000000 0.000000
0.000000 0.000000 0.000000
0.000000 0.000000 0.000000
0.000000 0.000000 0.000000
0.000000 0.000000 0.000000
0.000000 0.000000 0.000000
0.000000 0.000000 0.000000
0.000000 0.000000 0.000000
0.000000 0.000000 0.000000
0.000000 0.000000 0.000000
0.000000 0.000000 0.000000
0.000000 0.000000 0.000000
0.000000 0.000000 0.000000
0.000000 0.000000 0.000000
0.000000 0.000000 0.000000
0.000000 0.000000 0.000000
0.000000 0.000000 0.000000
0.000000 0.000000 0.000000
0.000000 0.000000 0.000000
0.000000 0.000000 0.000000
0.000000 0.000000 0.000000
0.000000 0.000000 0.000000
0.000000 0.000000 0.000000
0.000000 0.000000 0.000000
0.000000 0.000000 0.000000
0.000000 0.000000 0.000000
0.000000 0.000000 0.000000
0.000000 0.000000 0.000000
0.000000 0.000000 0.000000
0.000000 0.000000 0.000000
0.000000 0.000000 0.000000
0.000000 0.000000 0.000000
0.000000 0.000000 0.000000
0.000000 0.000000 0.000000
0.000000 0.000000 0.000000
0.000000 0.000000 0.000000
0.000000 0.000000 0.000000
0.000000 0.000000 0.000000
0.000000 0.000000 0.000000
0.000000 0.000000 0.000000
0.000000 0.000000 0.000000
0.000000 0.000000 0.000000
0.000000 0.000000 0.000000
0.003432 0.003432 0.003432
0.005883 0.005883 0.005883
0.021569 0.021569 0.021569
0.065686 0.065686 0.065686
0.135784 0.135784 0.135784
0.200980 0.200980 0.200980
0.255882 0.255882 0.255882
0.297549 0.297549 0.297549
0.329411 0.329411 0.329411
0.334314 0.334314 0.334314
0.352942 0.352942 0.352942
0.386765 0.386765 0.386765
0.433334 0.433334 0.433334
0.487745 0.487745 0.487745
0.538235 0.538235 0.538235
0.585294 0.585294 0.585294
0.618627 0.618627 0.618627
0.609804 0.609804 0.609804
0.617157 0.617157 0.617157
0.635785 0.635785 0.635785
0.664216 0.664216 0.664216
0.705392 0.705392 0.705392
0.750490 0.750490 0.750490
0.793628 0.793628 0.793628
0.832844 0.832844 0.832844
0.856373 0.856373 0.856373
0.780392 0.780392 0.780392
0.788235 0.788235 0.788235
0.803922 0.803922 0.803922
0.829902 0.829902 0.829902
0.862745 0.862745 0.862745
0.898039 0.898039 0.898039
0.933333 0.933333 0.933333
0.964706 0.964706 0.964706
0.980392 0.980392 0.980392
