Black-and-White/Rollei/Rollei Retro 80s 65x.cube
TITLE "Rollei Retro 80s"
LUT_3D_SIZE 5
DOMAIN_MIN 0.000000 0.000000 0.000000
DOMAIN_MAX 1.000000 1.000000 1.000000
0.000000 0.000000 0.000000
0.030392 0.030392 0.030392
0.139215 0.139215 0.139215
0.438235 0.438235 0.438235
0.819608 0.819608 0.819608
0.027451 0.027451 0.027451
0.065687 0.065687 0.065687
0.188236 0.188236 0.188236
0.496078 0.496078 0.496078
0.835294 0.835294 0.835294
0.101961 0.101961 0.101961
0.139215 0.139215 0.139215
0.280392 0.280392 0.280392
0.593137 0.593137 0.593137
0.868627 0.868627 0.868627
0.244118 0.244118 0.244118
0.290197 0.290197 0.290197
0.455882 0.455882 0.455882
0.715687 0.715687 0.715687
0.918627 0.918627 0.918627
0.517647 0.517647 0.517647
0.567647 0.567647 0.567647
0.692157 0.692157 0.692157
0.836274 0.836274 0.836274
0.972549 0.972549 0.972549
0.003922 0.003922 0.003922
0.069608 0.069608 0.069608
0.203922 0.203922 0.203922
0.519608 0.519608 0.519608
0.847059 0.847059 0.847059
0.057844 0.057844 0.057844
0.103921 0.103921 0.103921
0.240196 0.240196 0.240196
0.558823 0.558823 0.558823
0.854902 0.854902 0.854902
0.139215 0.139215 0.139215
0.181373 0.181373 0.181373
0.332353 0.332353 0.332353
0.639216 0.639216 0.639216
0.884314 0.884314 0.884314
0.290196 0.290196 0.290196
0.340196 0.340196 0.340196
0.508824 0.508824 0.508824
0.744117 0.744117 0.744117
0.929412 0.929412 0.929412
0.572549 0.572549 0.572549
0.617647 0.617647 0.617647
0.723529 0.723529 0.723529
0.855883 0.855883 0.855883
0.976471 0.976471 0.976471
0.031373 0.031373 0.031373
0.122549 0.122549 0.122549
0.274509 0.274509 0.274509
0.600980 0.600980 0.600980
0.872549 0.872549 0.872549
0.112745 0.112745 0.112745
0.170588 0.170588 0.170588
0.328431 0.328431 0.328431
0.643137 0.643137 0.643137
0.884314 0.884314 0.884314
0.227451 0.227451 0.227451
0.275490 0.275490 0.275490
0.447059 0.447059 0.447059
0.712745 0.712745 0.712745
0.909804 0.909804 0.909804
0.415686 0.415686 0.415686
0.468627 0.468627 0.468627
0.624510 0.624510 0.624510
0.798039 0.798039 0.798039
0.949020 0.949020 0.949020
0.680392 0.680392 0.680392
0.711765 0.711765 0.711765
0.786274 0.786274 0.786274
0.891177 0.891177 0.891177
0.984314 0.984314 0.984314
0.110784 0.110784 0.110784
0.228432 0.228432 0.228432
0.409804 0.409804 0.409804
0.700000 0.700000 0.700000
0.905882 0.905882 0.905882
0.239216 0.239216 0.239216
0.306863 0.306863 0.306863
0.488235 0.488235 0.488235
0.738235 0.738235 0.738235
0.917647 0.917647 0.917647
0.393137 0.393137 0.393137
0.449020 0.449020 0.449020
0.614706 0.614706 0.614706
0.794118 0.794118 0.794118
0.941176 0.941176 0.941176
0.610784 0.610784 0.610784
0.651961 0.651961 0.651961
0.749020 0.749020 0.749020
0.860785 0.860785 0.860785
0.968627 0.968627 0.968627
0.797058 0.797058 0.797058
0.815686 0.815686 0.815686
0.863726 0.863726 0.863726
0.934313 0.934313 0.934313
0.984314 0.984314 0.984314
0.282353 0.282353 0.282353
0.430393 0.430393 0.430393
0.613725 0.613725 0.613725
0.797058 0.797058 0.797058
0.941176 0.941176 0.941176
0.477451 0.477451 0.477451
0.554902 0.554902 0.554902
0.694117 0.694117 0.694117
0.835295 0.835295 0.835295
0.952941 0.952941 0.952941
0.664706 0.664706 0.664706
0.700000 0.700000 0.700000
0.784313 0.784313 0.784313
0.881372 0.881372 0.881372
0.970588 0.970588 0.970588
0.808823 0.808823 0.808823
0.828431 0.828431 0.828431
0.876471 0.876471 0.876471
0.938235 0.938235 0.938235
0.984314 0.984314 0.984314
0.933333 0.933333 0.933333
0.941176 0.941176 0.941176
0.960784 0.960784 0.960784
0.980392 0.980392 0.980392
1.000000 1.000000 1.000000
