Black-and-White/Rollei/Rollei Ortho 25 65x.cube
TITLE "Rollei Ortho 25"
LUT_3D_SIZE 65
DOMAIN_MIN 0.000000 0.000000 0.000000
DOMAIN_MAX 1.000000 1.000000 1.000000
0.000000 0.000000 0.000000
0.000000 0.000000 0.000000
0.000000 0.000000 0.000000
0.000000 0.000000 0.000000
0.000000 0.000000 0.000000
0.000000 0.000000 0.000000
0.000000 0.000000 0.000000
0.000000 0.000000 0.000000
0.000000 0.000000 0.000000
0.000000 0.000000 0.000000
0.000000 0.000000 0.000000
0.000000 0.000000 0.000000
0.000000 0.000000 0.000000
0.000000 0.000000 0.000000
0.000000 0.000000 0.000000
0.000000 0.000000 0.000000
0.000000 0.000000 0.000000
0.000000 0.000000 0.000000
0.000000 0.000000 0.000000
0.000000 0.000000 0.000000
0.000000 0.000000 0.000000
0.000000 0.000000 0.000000
0.000000 0.000000 0.000000
0.000000 0.000000 0.000000
0.000000 0.000000 0.000000
0.000000 0.000000 0.000000
0.000000 0.000000 0.000000
0.000000 0.000000 0.000000
0.000000 0.000000 0.000000
0.000000 0.000000 0.000000
0.000000 0.000000 0.000000
0.000000 0.000000 0.000000
0.000000 0.000000 0.000000
0.000000 0.000000 0.000000
0.000000 0.000000 0.000000
0.000000 0.000000 0.000000
0.000000 0.000000 0.000000
0.000000 0.000000 0.000000
0.000000 0.000000 0.000000
0.000000 0.000000 0.000000
0.000000 0.000000 0.000000
0.000000 0.000000 0.000000
0.000000 0.000000 0.000000
0.000000 0.000000 0.000000
0.003922 0.003922 0.003922
0.003922 0.003922 0.003922
0.003922 0.003922 0.003922
0.003922 0.003922 0.003922
0.003922 0.003922 0.003922
0.003922 0.003922 0.003922
0.003922 0.003922 0.003922
0.003922 0.003922 0.003922
0.003922 0.003922 0.003922
0.003922 0.003922 0.003922
0.003922 0.003922 0.003922
0.003922 0.003922 0.003922
0.003922 0.003922 0.003922
0.003922 0.003922 0.003922
0.003922 0.003922 0.003922
0.003922 0.003922 0.003922
0.003922 0.003922 0.003922
0.003922 0.003922 0.003922
0.003922 0.003922 0.003922
0.003922 0.003922 0.003922
0.003922 0.003922 0.003922
0.000000 0.000000 0.000000
0.000919 0.000919 0.000919
0.000919 0.000919 0.000919
0.000919 0.000919 0.000919
0.000919 0.000919 0.000919
0.000919 0.000919 0.000919
0.000919 0.000919 0.000919
0.000919 0.000919 0.000919
0.000919 0.000919 0.000919
0.003922 0.003922 0.003922
0.003922 0.003922 0.003922
0.003922 0.003922 0.003922
0.003922 0.003922 0.003922
0.003922 0.003922 0.003922
0.003922 0.003922 0.003922
0.003922 0.003922 0.003922
0.003922 0.003922 0.003922
0.003922 0.003922 0.003922
0.003922 0.003922 0.003922
0.003922 0.003922 0.003922
0.003922 0.003922 0.003922
0.007537 0.007537 0.007537
0.004841 0.004841 0.004841
0.004841 0.004841 0.004841
0.004841 0.004841 0.004841
0.004841 0.004841 0.004841
0.004841 0.004841 0.004841
0.004841 0.004841 0.004841
0.004841 0.004841 0.004841
0.004841 0.004841 0.004841
0.004045 0.004045 0.004045
0.007843 0.007843 0.007843
0.007843 0.007843 0.007843
0.007843 0.007843 0.007843
0.007843 0.007843 0.007843
0.007843 0.007843 0.007843
0.008762 0.008762 0.008762
0.008762 0.008762 0.008762
0.008762 0.008762 0.008762
0.008762 0.008762 0.008762
0.008762 0.008762 0.008762
0.008762 0.008762 0.008762
0.008762 0.008762 0.008762
0.008762 0.008762 0.008762
0.011765 0.011765 0.011765
0.010540 0.010540 0.010540
0.011765 0.011765 0.011765
0.012684 0.012684 0.012684
0.012684 0.012684 0.012684
0.012684 0.012684 0.012684
0.012684 0.012684 0.012684
0.012684 0.012684 0.012684
0.012684 0.012684 0.012684
0.012684 0.012684 0.012684
0.012684 0.012684 0.012684
0.012684 0.012684 0.012684
0.016115 0.016115 0.016115
0.012684 0.012684 0.012684
0.012684 0.012684 0.012684
0.016605 0.016605 0.016605
0.016605 0.016605 0.016605
0.016605 0.016605 0.016605
0.016605 0.016605 0.016605
0.016605 0.016605 0.016605
0.016605 0.016605 0.016605
0.003922 0.003922 0.003922
0.003922 0.003922 0.003922
0.003922 0.003922 0.003922
0.003922 0.003922 0.003922
0.003922 0.003922 0.003922
0.003922 0.003922 0.003922
0.003922 0.003922 0.003922
0.006434 0.006434 0.006434
0.005760 0.005760 0.005760
0.005760 0.005760 0.005760
0.005760 0.005760 0.005760
0.005760 0.005760 0.005760
0.007843 0.007843 0.007843
0.007843 0.007843 0.007843
0.007843 0.007843 0.007843
0.007843 0.007843 0.007843
0.007843 0.007843 0.007843
0.007843 0.007843 0.007843
0.007843 0.007843 0.007843
0.007843 0.007843 0.007843
0.007843 0.007843 0.007843
0.011459 0.011459 0.011459
0.009681 0.009681 0.009681
0.009681 0.009681 0.009681
0.009681 0.009681 0.009681
0.009681 0.009681 0.009681
0.009681 0.009681 0.009681
0.009681 0.009681 0.009681
0.009681 0.009681 0.009681
0.011765 0.011765 0.011765
0.011765 0.011765 0.011765
0.011765 0.011765 0.011765
0.011765 0.011765 0.011765
0.014644 0.014644 0.014644
0.013603 0.013603 0.013603
0.013603 0.013603 0.013603
0.013603 0.013603 0.013603
0.013603 0.013603 0.013603
0.013603 0.013603 0.013603
0.013603 0.013603 0.013603
0.013603 0.013603 0.013603
0.015686 0.015686 0.015686
0.015686 0.015686 0.015686
0.017524 0.017524 0.017524
0.017524 0.017524 0.017524
0.017524 0.017524 0.017524
0.017524 0.017524 0.017524
0.017524 0.017524 0.017524
0.017524 0.017524 0.017524
0.019608 0.019608 0.019608
0.019608 0.019608 0.019608
0.019608 0.019608 0.019608
0.021446 0.021446 0.021446
0.021446 0.021446 0.021446
0.021446 0.021446 0.021446
0.021446 0.021446 0.021446
0.021446 0.021446 0.021446
0.021446 0.021446 0.021446
0.021446 0.021446 0.021446
0.021446 0.021446 0.021446
0.021446 0.021446 0.021446
0.020772 0.020772 0.020772
0.023529 0.023529 0.023529
0.023529 0.023529 0.023529
0.023529 0.023529 0.023529
0.007843 0.007843 0.007843
0.007843 0.007843 0.007843
0.007843 0.007843 0.007843
0.007843 0.007843 0.007843
0.007843 0.007843 0.007843
0.007843 0.007843 0.007843
0.007843 0.007843 0.007843
0.007843 0.007843 0.007843
0.007843 0.007843 0.007843
0.010601 0.010601 0.010601
0.010601 0.010601 0.010601
0.010601 0.010601 0.010601
0.010601 0.010601 0.010601
0.008027 0.008027 0.008027
0.011765 0.011765 0.011765
0.011765 0.011765 0.011765
0.011765 0.011765 0.011765
0.011765 0.011765 0.011765
0.011765 0.011765 0.011765
0.011765 0.011765 0.011765
0.011765 0.011765 0.011765
0.011765 0.011765 0.011765
0.011765 0.011765 0.011765
0.014522 0.014522 0.014522
0.014522 0.014522 0.014522
0.014522 0.014522 0.014522
0.014522 0.014522 0.014522
0.014522 0.014522 0.014522
0.015686 0.015686 0.015686
0.015686 0.015686 0.015686
0.015686 0.015686 0.015686
0.015686 0.015686 0.015686
0.018444 0.018444 0.018444
0.018444 0.018444 0.018444
0.018444 0.018444 0.018444
0.018444 0.018444 0.018444
0.018444 0.018444 0.018444
0.018444 0.018444 0.018444
0.018444 0.018444 0.018444
0.019608 0.019608 0.019608
0.019608 0.019608 0.019608
0.019608 0.019608 0.019608
0.022916 0.022916 0.022916
0.022365 0.022365 0.022365
0.022365 0.022365 0.022365
0.022365 0.022365 0.022365
0.022365 0.022365 0.022365
0.019669 0.019669 0.019669
0.023529 0.023529 0.023529
0.026287 0.026287 0.026287
0.026287 0.026287 0.026287
0.026287 0.026287 0.026287
0.026287 0.026287 0.026287
0.026287 0.026287 0.026287
0.026287 0.026287 0.026287
0.026287 0.026287 0.026287
0.027451 0.027451 0.027451
0.027451 0.027451 0.027451
0.027451 0.027451 0.027451
0.030699 0.030699 0.030699
0.030209 0.030209 0.030209
0.030209 0.030209 0.030209
0.030209 0.030209 0.030209
0.030209 0.030209 0.030209
0.030209 0.030209 0.030209
0.011520 0.011520 0.011520
0.011520 0.011520 0.011520
0.011520 0.011520 0.011520
0.011765 0.011765 0.011765
0.011765 0.011765 0.011765
0.011765 0.011765 0.011765
0.011765 0.011765 0.011765
0.011765 0.011765 0.011765
0.011765 0.011765 0.011765
0.011765 0.011765 0.011765
0.015441 0.015441 0.015441
0.015441 0.015441 0.015441
0.015441 0.015441 0.015441
0.015441 0.015441 0.015441
0.015686 0.015686 0.015686
0.015686 0.015686 0.015686
0.015686 0.015686 0.015686
0.015686 0.015686 0.015686
0.015686 0.015686 0.015686
0.015686 0.015686 0.015686
0.019363 0.019363 0.019363
0.019363 0.019363 0.019363
0.019363 0.019363 0.019363
0.019363 0.019363 0.019363
0.019363 0.019363 0.019363
0.019363 0.019363 0.019363
0.019608 0.019608 0.019608
0.019608 0.019608 0.019608
0.019608 0.019608 0.019608
0.019608 0.019608 0.019608
0.023284 0.023284 0.023284
0.023284 0.023284 0.023284
0.023284 0.023284 0.023284
0.023284 0.023284 0.023284
0.023284 0.023284 0.023284
0.023284 0.023284 0.023284
0.023529 0.023529 0.023529
0.023529 0.023529 0.023529
0.023529 0.023529 0.023529
0.027206 0.027206 0.027206
0.027206 0.027206 0.027206
0.027206 0.027206 0.027206
0.027206 0.027206 0.027206
0.027206 0.027206 0.027206
0.027451 0.027451 0.027451
0.031128 0.031128 0.031128
0.031128 0.031128 0.031128
0.031128 0.031128 0.031128
0.031128 0.031128 0.031128
0.031128 0.031128 0.031128
0.031128 0.031128 0.031128
0.031128 0.031128 0.031128
0.028186 0.028186 0.028186
0.035049 0.035049 0.035049
0.035049 0.035049 0.035049
0.035049 0.035049 0.035049
0.035049 0.035049 0.035049
0.035049 0.035049 0.035049
0.035049 0.035049 0.035049
0.035049 0.035049 0.035049
0.035049 0.035049 0.035049
0.032537 0.032537 0.032537
0.038971 0.038971 0.038971
0.038971 0.038971 0.038971
0.038971 0.038971 0.038971
0.016360 0.016360 0.016360
0.016360 0.016360 0.016360
0.016360 0.016360 0.016360
0.016360 0.016360 0.016360
0.016360 0.016360 0.016360
0.016360 0.016360 0.016360
0.016360 0.016360 0.016360
0.016360 0.016360 0.016360
0.019608 0.019608 0.019608
0.019608 0.019608 0.019608
0.020956 0.020956 0.020956
0.020282 0.020282 0.020282
0.020282 0.020282 0.020282
0.020282 0.020282 0.020282
0.020282 0.020282 0.020282
0.020282 0.020282 0.020282
0.020282 0.020282 0.020282
0.023529 0.023529 0.023529
0.023529 0.023529 0.023529
0.025306 0.025306 0.025306
0.024203 0.024203 0.024203
0.024203 0.024203 0.024203
0.024203 0.024203 0.024203
0.024203 0.024203 0.024203
0.024203 0.024203 0.024203
0.024203 0.024203 0.024203
0.027451 0.027451 0.027451
0.027451 0.027451 0.027451
0.029657 0.029657 0.029657
0.028125 0.028125 0.028125
0.028125 0.028125 0.028125
0.028125 0.028125 0.028125
0.028125 0.028125 0.028125
0.028125 0.028125 0.028125
0.031373 0.031373 0.031373
0.032047 0.032047 0.032047
0.032047 0.032047 0.032047
0.032047 0.032047 0.032047
0.032047 0.032047 0.032047
0.032047 0.032047 0.032047
0.032047 0.032047 0.032047
0.032047 0.032047 0.032047
0.035294 0.035294 0.035294
0.035968 0.035968 0.035968
0.035968 0.035968 0.035968
0.035968 0.035968 0.035968
0.035968 0.035968 0.035968
0.035968 0.035968 0.035968
0.040196 0.040196 0.040196
0.039890 0.039890 0.039890
0.039890 0.039890 0.039890
0.039890 0.039890 0.039890
0.039890 0.039890 0.039890
0.039890 0.039890 0.039890
0.039890 0.039890 0.039890
0.039890 0.039890 0.039890
0.043137 0.043137 0.043137
0.044546 0.044546 0.044546
0.043811 0.043811 0.043811
0.043811 0.043811 0.043811
0.043811 0.043811 0.043811
0.043811 0.043811 0.043811
0.043811 0.043811 0.043811
0.043811 0.043811 0.043811
0.043811 0.043811 0.043811
0.021201 0.021201 0.021201
0.020527 0.020527 0.020527
0.023529 0.023529 0.023529
0.023529 0.023529 0.023529
0.023529 0.023529 0.023529
0.023529 0.023529 0.023529
0.025122 0.025122 0.025122
0.025122 0.025122 0.025122
0.025122 0.025122 0.025122
0.025122 0.025122 0.025122
0.025122 0.025122 0.025122
0.025122 0.025122 0.025122
0.025122 0.025122 0.025122
0.027451 0.027451 0.027451
0.029044 0.029044 0.029044
0.029044 0.029044 0.029044
0.029044 0.029044 0.029044
0.029044 0.029044 0.029044
0.029044 0.029044 0.029044
0.029044 0.029044 0.029044
0.029044 0.029044 0.029044
0.034988 0.034988 0.034988
0.032966 0.032966 0.032966
0.032966 0.032966 0.032966
0.032966 0.032966 0.032966
0.032966 0.032966 0.032966
0.032966 0.032966 0.032966
0.032966 0.032966 0.032966
0.032966 0.032966 0.032966
0.038419 0.038419 0.038419
0.036887 0.036887 0.036887
0.036887 0.036887 0.036887
0.036887 0.036887 0.036887
0.036887 0.036887 0.036887
0.036887 0.036887 0.036887
0.036091 0.036091 0.036091
0.040809 0.040809 0.040809
0.040809 0.040809 0.040809
0.040809 0.040809 0.040809
0.040809 0.040809 0.040809
0.040809 0.040809 0.040809
0.040809 0.040809 0.040809
0.040809 0.040809 0.040809
0.039522 0.039522 0.039522
0.044730 0.044730 0.044730
0.044730 0.044730 0.044730
0.044730 0.044730 0.044730
0.044730 0.044730 0.044730
0.044730 0.044730 0.044730
0.044730 0.044730 0.044730
0.048652 0.048652 0.048652
0.048652 0.048652 0.048652
0.048652 0.048652 0.048652
0.048652 0.048652 0.048652
0.048652 0.048652 0.048652
0.048652 0.048652 0.048652
0.048652 0.048652 0.048652
0.048652 0.048652 0.048652
0.052573 0.052573 0.052573
0.052573 0.052573 0.052573
0.052573 0.052573 0.052573
0.052573 0.052573 0.052573
0.052573 0.052573 0.052573
0.052573 0.052573 0.052573
0.052573 0.052573 0.052573
0.029964 0.029964 0.029964
0.029964 0.029964 0.029964
0.029964 0.029964 0.029964
0.029964 0.029964 0.029964
0.029964 0.029964 0.029964
0.029964 0.029964 0.029964
0.029964 0.029964 0.029964
0.029964 0.029964 0.029964
0.033885 0.033885 0.033885
0.033885 0.033885 0.033885
0.033885 0.033885 0.033885
0.033885 0.033885 0.033885
0.033885 0.033885 0.033885
0.033885 0.033885 0.033885
0.037807 0.037807 0.037807
0.037807 0.037807 0.037807
0.037807 0.037807 0.037807
0.037807 0.037807 0.037807
0.037807 0.037807 0.037807
0.037807 0.037807 0.037807
0.037807 0.037807 0.037807
0.037807 0.037807 0.037807
0.041728 0.041728 0.041728
0.041728 0.041728 0.041728
0.041728 0.041728 0.041728
0.041728 0.041728 0.041728
0.041728 0.041728 0.041728
0.041728 0.041728 0.041728
0.041728 0.041728 0.041728
0.041728 0.041728 0.041728
0.045650 0.045650 0.045650
0.045650 0.045650 0.045650
0.045650 0.045650 0.045650
0.045650 0.045650 0.045650
0.045650 0.045650 0.045650
0.045650 0.045650 0.045650
0.049571 0.049571 0.049571
0.049571 0.049571 0.049571
0.050612 0.050612 0.050612
0.049571 0.049571 0.049571
0.049571 0.049571 0.049571
0.049571 0.049571 0.049571
0.049571 0.049571 0.049571
0.049571 0.049571 0.049571
0.053493 0.053493 0.053493
0.053493 0.053493 0.053493
0.053493 0.053493 0.053493
0.053493 0.053493 0.053493
0.053493 0.053493 0.053493
0.053493 0.053493 0.053493
0.057415 0.057415 0.057415
0.057415 0.057415 0.057415
0.057415 0.057415 0.057415
0.057415 0.057415 0.057415
0.057415 0.057415 0.057415
0.057415 0.057415 0.057415
0.057415 0.057415 0.057415
0.057415 0.057415 0.057415
0.057415 0.057415 0.057415
0.057415 0.057415 0.057415
0.061336 0.061336 0.061336
0.061336 0.061336 0.061336
0.061336 0.061336 0.061336
0.061336 0.061336 0.061336
0.061336 0.061336 0.061336
0.038726 0.038726 0.038726
0.038726 0.038726 0.038726
0.038726 0.038726 0.038726
0.038726 0.038726 0.038726
0.038726 0.038726 0.038726
0.038726 0.038726 0.038726
0.038726 0.038726 0.038726
0.038726 0.038726 0.038726
0.042647 0.042647 0.042647
0.042647 0.042647 0.042647
0.042647 0.042647 0.042647
0.042647 0.042647 0.042647
0.042647 0.042647 0.042647
0.042647 0.042647 0.042647
0.043751 0.043751 0.043751
0.046569 0.046569 0.046569
0.046569 0.046569 0.046569
0.046569 0.046569 0.046569
0.046569 0.046569 0.046569
0.046569 0.046569 0.046569
0.046569 0.046569 0.046569
0.050000 0.050000 0.050000
0.050490 0.050490 0.050490
0.050490 0.050490 0.050490
0.050490 0.050490 0.050490
0.050490 0.050490 0.050490
0.050490 0.050490 0.050490
0.050490 0.050490 0.050490
0.050490 0.050490 0.050490
0.053615 0.053615 0.053615
0.054412 0.054412 0.054412
0.054412 0.054412 0.054412
0.054412 0.054412 0.054412
0.054412 0.054412 0.054412
0.054412 0.054412 0.054412
0.054412 0.054412 0.054412
0.058334 0.058334 0.058334
0.058334 0.058334 0.058334
0.057844 0.057844 0.057844
0.058334 0.058334 0.058334
0.058334 0.058334 0.058334
0.058334 0.058334 0.058334
0.058334 0.058334 0.058334
0.058334 0.058334 0.058334
0.062255 0.062255 0.062255
0.062255 0.062255 0.062255
0.062255 0.062255 0.062255
0.062255 0.062255 0.062255
0.062255 0.062255 0.062255
0.062255 0.062255 0.062255
0.066177 0.066177 0.066177
0.066177 0.066177 0.066177
0.066177 0.066177 0.066177
0.066177 0.066177 0.066177
0.066177 0.066177 0.066177
0.066177 0.066177 0.066177
0.066177 0.066177 0.066177
0.066177 0.066177 0.066177
0.069608 0.069608 0.069608
0.066177 0.066177 0.066177
0.070098 0.070098 0.070098
0.070098 0.070098 0.070098
0.070098 0.070098 0.070098
0.070098 0.070098 0.070098
0.070098 0.070098 0.070098
0.047488 0.047488 0.047488
0.047488 0.047488 0.047488
0.047488 0.047488 0.047488
0.047917 0.047917 0.047917
0.047917 0.047917 0.047917
0.051409 0.051409 0.051409
0.051409 0.051409 0.051409
0.051409 0.051409 0.051409
0.051409 0.051409 0.051409
0.051409 0.051409 0.051409
0.051409 0.051409 0.051409
0.051409 0.051409 0.051409
0.051409 0.051409 0.051409
0.051409 0.051409 0.051409
0.052512 0.052512 0.052512
0.055331 0.055331 0.055331
0.055331 0.055331 0.055331
0.055331 0.055331 0.055331
0.055331 0.055331 0.055331
0.055331 0.055331 0.055331
0.058027 0.058027 0.058027
0.059253 0.059253 0.059253
0.059253 0.059253 0.059253
0.059253 0.059253 0.059253
0.059253 0.059253 0.059253
0.059253 0.059253 0.059253
0.059253 0.059253 0.059253
0.059253 0.059253 0.059253
0.059253 0.059253 0.059253
0.059682 0.059682 0.059682
0.063174 0.063174 0.063174
0.063174 0.063174 0.063174
0.063174 0.063174 0.063174
0.063174 0.063174 0.063174
0.063174 0.063174 0.063174
0.063174 0.063174 0.063174
0.067096 0.067096 0.067096
0.067096 0.067096 0.067096
0.063603 0.063603 0.063603
0.067096 0.067096 0.067096
0.067096 0.067096 0.067096
0.067096 0.067096 0.067096
0.067096 0.067096 0.067096
0.067096 0.067096 0.067096
0.068321 0.068321 0.068321
0.071017 0.071017 0.071017
0.071017 0.071017 0.071017
0.071017 0.071017 0.071017
0.071017 0.071017 0.071017
0.071017 0.071017 0.071017
0.077328 0.077328 0.077328
0.074939 0.074939 0.074939
0.074939 0.074939 0.074939
0.074939 0.074939 0.074939
0.074939 0.074939 0.074939
0.074939 0.074939 0.074939
0.074939 0.074939 0.074939
0.074939 0.074939 0.074939
0.074939 0.074939 0.074939
0.074939 0.074939 0.074939
0.078860 0.078860 0.078860
0.078860 0.078860 0.078860
0.078860 0.078860 0.078860
0.078860 0.078860 0.078860
0.078860 0.078860 0.078860
0.060172 0.060172 0.060172
0.060172 0.060172 0.060172
0.060172 0.060172 0.060172
0.060172 0.060172 0.060172
0.060172 0.060172 0.060172
0.060172 0.060172 0.060172
0.060172 0.060172 0.060172
0.060172 0.060172 0.060172
0.060172 0.060172 0.060172
0.060172 0.060172 0.060172
0.060172 0.060172 0.060172
0.060172 0.060172 0.060172
0.060172 0.060172 0.060172
0.060172 0.060172 0.060172
0.061275 0.061275 0.061275
0.064093 0.064093 0.064093
0.064093 0.064093 0.064093
0.064093 0.064093 0.064093
0.064093 0.064093 0.064093
0.064093 0.064093 0.064093
0.068015 0.068015 0.068015
0.068015 0.068015 0.068015
0.068015 0.068015 0.068015
0.068015 0.068015 0.068015
0.068015 0.068015 0.068015
0.068015 0.068015 0.068015
0.068015 0.068015 0.068015
0.068015 0.068015 0.068015
0.069363 0.069363 0.069363
0.071936 0.071936 0.071936
0.071936 0.071936 0.071936
0.071936 0.071936 0.071936
0.071936 0.071936 0.071936
0.071936 0.071936 0.071936
0.071936 0.071936 0.071936
0.073284 0.073284 0.073284
0.075858 0.075858 0.075858
0.075858 0.075858 0.075858
0.075858 0.075858 0.075858
0.075858 0.075858 0.075858
0.075858 0.075858 0.075858
0.075858 0.075858 0.075858
0.075858 0.075858 0.075858
0.075858 0.075858 0.075858
0.077083 0.077083 0.077083
0.079779 0.079779 0.079779
0.079779 0.079779 0.079779
0.079779 0.079779 0.079779
0.079779 0.079779 0.079779
0.079779 0.079779 0.079779
0.079779 0.079779 0.079779
0.083701 0.083701 0.083701
0.083701 0.083701 0.083701
0.083701 0.083701 0.083701
0.083701 0.083701 0.083701
0.083701 0.083701 0.083701
0.083701 0.083701 0.083701
0.083701 0.083701 0.083701
0.085295 0.085295 0.085295
0.083701 0.083701 0.083701
0.087623 0.087623 0.087623
0.087623 0.087623 0.087623
0.087623 0.087623 0.087623
0.087623 0.087623 0.087623
0.087623 0.087623 0.087623
0.068934 0.068934 0.068934
0.068934 0.068934 0.068934
0.068934 0.068934 0.068934
0.068934 0.068934 0.068934
0.068934 0.068934 0.068934
0.068934 0.068934 0.068934
0.068934 0.068934 0.068934
0.068934 0.068934 0.068934
0.068934 0.068934 0.068934
0.068934 0.068934 0.068934
0.068934 0.068934 0.068934
0.068934 0.068934 0.068934
0.068934 0.068934 0.068934
0.072855 0.072855 0.072855
0.072855 0.072855 0.072855
0.072855 0.072855 0.072855
0.072855 0.072855 0.072855
0.072855 0.072855 0.072855
0.072855 0.072855 0.072855
0.072855 0.072855 0.072855
0.076777 0.076777 0.076777
0.076777 0.076777 0.076777
0.076777 0.076777 0.076777
0.076777 0.076777 0.076777
0.076777 0.076777 0.076777
0.076777 0.076777 0.076777
0.076777 0.076777 0.076777
0.076777 0.076777 0.076777
0.080698 0.080698 0.080698
0.080698 0.080698 0.080698
0.080698 0.080698 0.080698
0.080698 0.080698 0.080698
0.080698 0.080698 0.080698
0.080698 0.080698 0.080698
0.080698 0.080698 0.080698
0.079228 0.079228 0.079228
0.084620 0.084620 0.084620
0.084620 0.084620 0.084620
0.084620 0.084620 0.084620
0.084620 0.084620 0.084620
0.084620 0.084620 0.084620
0.084620 0.084620 0.084620
0.084620 0.084620 0.084620
0.084620 0.084620 0.084620
0.085845 0.085845 0.085845
0.088542 0.088542 0.088542
0.088542 0.088542 0.088542
0.088542 0.088542 0.088542
0.088542 0.088542 0.088542
0.088542 0.088542 0.088542
0.088542 0.088542 0.088542
0.092463 0.092463 0.092463
0.092463 0.092463 0.092463
0.092463 0.092463 0.092463
0.092463 0.092463 0.092463
0.092463 0.092463 0.092463
0.092463 0.092463 0.092463
0.092463 0.092463 0.092463
0.092463 0.092463 0.092463
0.092463 0.092463 0.092463
0.096385 0.096385 0.096385
0.096385 0.096385 0.096385
0.096385 0.096385 0.096385
0.096385 0.096385 0.096385
0.096385 0.096385 0.096385
0.077696 0.077696 0.077696
0.077696 0.077696 0.077696
0.077696 0.077696 0.077696
0.077696 0.077696 0.077696
0.077696 0.077696 0.077696
0.077696 0.077696 0.077696
0.077696 0.077696 0.077696
0.077696 0.077696 0.077696
0.077696 0.077696 0.077696
0.077696 0.077696 0.077696
0.077696 0.077696 0.077696
0.077696 0.077696 0.077696
0.077696 0.077696 0.077696
0.078431 0.078431 0.078431
0.081618 0.081618 0.081618
0.081618 0.081618 0.081618
0.081618 0.081618 0.081618
0.081618 0.081618 0.081618
0.081618 0.081618 0.081618
0.081618 0.081618 0.081618
0.081127 0.081127 0.081127
0.085969 0.085969 0.085969
0.085540 0.085540 0.085540
0.085540 0.085540 0.085540
0.085540 0.085540 0.085540
0.085540 0.085540 0.085540
0.085540 0.085540 0.085540
0.085540 0.085540 0.085540
0.084559 0.084559 0.084559
0.089461 0.089461 0.089461
0.089461 0.089461 0.089461
0.089461 0.089461 0.089461
0.089461 0.089461 0.089461
0.089461 0.089461 0.089461
0.089461 0.089461 0.089461
0.089461 0.089461 0.089461
0.093383 0.093383 0.093383
0.093383 0.093383 0.093383
0.093383 0.093383 0.093383
0.093383 0.093383 0.093383
0.093383 0.093383 0.093383
0.093383 0.093383 0.093383
0.093383 0.093383 0.093383
0.093383 0.093383 0.093383
0.091422 0.091422 0.091422
0.097304 0.097304 0.097304
0.097304 0.097304 0.097304
0.097304 0.097304 0.097304
0.097304 0.097304 0.097304
0.097304 0.097304 0.097304
0.097304 0.097304 0.097304
0.097304 0.097304 0.097304
0.098039 0.098039 0.098039
0.098039 0.098039 0.098039
0.101226 0.101226 0.101226
0.101226 0.101226 0.101226
0.101226 0.101226 0.101226
0.101226 0.101226 0.101226
0.101226 0.101226 0.101226
0.101226 0.101226 0.101226
0.101226 0.101226 0.101226
0.101961 0.101961 0.101961
0.101961 0.101961 0.101961
0.105147 0.105147 0.105147
0.105147 0.105147 0.105147
0.082537 0.082537 0.082537
0.082537 0.082537 0.082537
0.086275 0.086275 0.086275
0.086275 0.086275 0.086275
0.086459 0.086459 0.086459
0.086459 0.086459 0.086459
0.086459 0.086459 0.086459
0.086459 0.086459 0.086459
0.086459 0.086459 0.086459
0.086459 0.086459 0.086459
0.086459 0.086459 0.086459
0.086459 0.086459 0.086459
0.086459 0.086459 0.086459
0.086459 0.086459 0.086459
0.086459 0.086459 0.086459
0.086459 0.086459 0.086459
0.093137 0.093137 0.093137
0.090380 0.090380 0.090380
0.090380 0.090380 0.090380
0.090380 0.090380 0.090380
0.090380 0.090380 0.090380
0.090380 0.090380 0.090380
0.090380 0.090380 0.090380
0.094118 0.094118 0.094118
0.094118 0.094118 0.094118
0.097488 0.097488 0.097488
0.094302 0.094302 0.094302
0.094302 0.094302 0.094302
0.094302 0.094302 0.094302
0.094302 0.094302 0.094302
0.094241 0.094241 0.094241
0.098039 0.098039 0.098039
0.098039 0.098039 0.098039
0.098039 0.098039 0.098039
0.098223 0.098223 0.098223
0.098223 0.098223 0.098223
0.098223 0.098223 0.098223
0.098223 0.098223 0.098223
0.098223 0.098223 0.098223
