Black-and-White/Rollei/Rollei IR 400 65x.cube
TITLE "Rollei IR 400"
LUT_3D_SIZE 65
DOMAIN_MIN 0.000000 0.000000 0.000000
DOMAIN_MAX 1.000000 1.000000 1.000000
0.000000 0.000000 0.000000
0.000000 0.000000 0.000000
0.000000 0.000000 0.000000
0.000000 0.000000 0.000000
0.000000 0.000000 0.000000
0.000000 0.000000 0.000000
0.001593 0.001593 0.001593
0.003922 0.003922 0.003922
0.003922 0.003922 0.003922
0.007843 0.007843 0.007843
0.007843 0.007843 0.007843
0.010110 0.010110 0.010110
0.011765 0.011765 0.011765
0.015686 0.015686 0.015686
0.016789 0.016789 0.016789
0.019608 0.019608 0.019608
0.023529 0.023529 0.023529
0.027390 0.027390 0.027390
0.031373 0.031373 0.031373
0.035294 0.035294 0.035294
0.039216 0.039216 0.039216
0.046753 0.046753 0.046753
0.051593 0.051593 0.051593
0.056434 0.056434 0.056434
0.061275 0.061275 0.061275
0.066115 0.066115 0.066115
0.074878 0.074878 0.074878
0.082353 0.082353 0.082353
0.088481 0.088481 0.088481
0.097243 0.097243 0.097243
0.106005 0.106005 0.106005
0.114767 0.114767 0.114767
0.121569 0.121569 0.121569
0.128370 0.128370 0.128370
0.137132 0.137132 0.137132
0.141973 0.141973 0.141973
0.150735 0.150735 0.150735
0.159497 0.159497 0.159497
0.168259 0.168259 0.168259
0.177022 0.177022 0.177022
0.185784 0.185784 0.185784
0.194546 0.194546 0.194546
0.203309 0.203309 0.203309
0.212071 0.212071 0.212071
0.220833 0.220833 0.220833
0.233517 0.233517 0.233517
0.242279 0.242279 0.242279
0.254963 0.254963 0.254963
0.263726 0.263726 0.263726
0.276409 0.276409 0.276409
0.285172 0.285172 0.285172
0.293934 0.293934 0.293934
0.301961 0.301961 0.301961
0.309191 0.309191 0.309191
0.320221 0.320221 0.320221
0.329412 0.329412 0.329412
0.333823 0.333823 0.333823
0.342585 0.342585 0.342585
0.351348 0.351348 0.351348
0.360110 0.360110 0.360110
0.364951 0.364951 0.364951
0.372549 0.372549 0.372549
0.378554 0.378554 0.378554
0.384314 0.384314 0.384314
0.392157 0.392157 0.392157
0.009681 0.009681 0.009681
0.017524 0.017524 0.017524
0.019363 0.019363 0.019363
0.021446 0.021446 0.021446
0.025123 0.025123 0.025123
0.026286 0.026286 0.026286
0.030883 0.030883 0.030883
0.030208 0.030208 0.030208
0.034130 0.034130 0.034130
0.037561 0.037561 0.037561
0.041973 0.041973 0.041973
0.045894 0.045894 0.045894
0.049816 0.049816 0.049816
0.053737 0.053737 0.053737
0.057659 0.057659 0.057659
0.061581 0.061581 0.061581
0.065502 0.065502 0.065502
0.069424 0.069424 0.069424
0.074203 0.074203 0.074203
0.077267 0.077267 0.077267
0.083885 0.083885 0.083885
0.088725 0.088725 0.088725
0.093566 0.093566 0.093566
0.098407 0.098407 0.098407
0.104718 0.104718 0.104718
0.108639 0.108639 0.108639
0.116850 0.116850 0.116850
0.125613 0.125613 0.125613
0.134375 0.134375 0.134375
0.142219 0.142219 0.142219
0.147978 0.147978 0.147978
0.156740 0.156740 0.156740
0.163541 0.163541 0.163541
0.170343 0.170343 0.170343
0.179105 0.179105 0.179105
0.187071 0.187071 0.187071
0.192708 0.192708 0.192708
0.201471 0.201471 0.201471
0.210233 0.210233 0.210233
0.218076 0.218076 0.218076
0.226838 0.226838 0.226838
0.236520 0.236520 0.236520
0.245282 0.245282 0.245282
0.254044 0.254044 0.254044
0.262807 0.262807 0.262807
0.271569 0.271569 0.271569
0.284252 0.284252 0.284252
0.296017 0.296017 0.296017
0.305760 0.305760 0.305760
0.314461 0.314461 0.314461
0.323223 0.323223 0.323223
0.331985 0.331985 0.331985
0.340748 0.340748 0.340748
0.349510 0.349510 0.349510
0.361274 0.361274 0.361274
0.370037 0.370037 0.370037
0.374877 0.374877 0.374877
0.383640 0.383640 0.383640
0.389400 0.389400 0.389400
0.398161 0.398161 0.398161
0.406679 0.406679 0.406679
0.411764 0.411764 0.411764
0.419608 0.419608 0.419608
0.425367 0.425367 0.425367
0.430208 0.430208 0.430208
0.027206 0.027206 0.027206
0.032047 0.032047 0.032047
0.036887 0.036887 0.036887
0.038970 0.038970 0.038970
0.042892 0.042892 0.042892
0.046813 0.046813 0.046813
0.048407 0.048407 0.048407
0.053248 0.053248 0.053248
0.054657 0.054657 0.054657
0.059007 0.059007 0.059007
0.062500 0.062500 0.062500
0.066421 0.066421 0.066421
0.070343 0.070343 0.070343
0.074264 0.074264 0.074264
0.078186 0.078186 0.078186
0.082108 0.082108 0.082108
0.086029 0.086029 0.086029
0.089951 0.089951 0.089951
0.094730 0.094730 0.094730
0.097733 0.097733 0.097733
0.104412 0.104412 0.104412
0.109252 0.109252 0.109252
0.114094 0.114094 0.114094
0.118933 0.118933 0.118933
0.125858 0.125858 0.125858
0.129166 0.129166 0.129166
0.137377 0.137377 0.137377
0.146139 0.146139 0.146139
0.152696 0.152696 0.152696
0.161826 0.161826 0.161826
0.168505 0.168505 0.168505
0.177267 0.177267 0.177267
0.184191 0.184191 0.184191
0.190870 0.190870 0.190870
0.199633 0.199633 0.199633
0.204473 0.204473 0.204473
0.213235 0.213235 0.213235
0.219362 0.219362 0.219362
0.228922 0.228922 0.228922
0.235601 0.235601 0.235601
0.244363 0.244363 0.244363
0.255208 0.255208 0.255208
0.263971 0.263971 0.263971
0.274571 0.274571 0.274571
0.283333 0.283333 0.283333
0.292096 0.292096 0.292096
0.306005 0.306005 0.306005
0.313542 0.313542 0.313542
0.322304 0.322304 0.322304
0.333150 0.333150 0.333150
0.343750 0.343750 0.343750
0.352513 0.352513 0.352513
0.359437 0.359437 0.359437
0.368199 0.368199 0.368199
0.378799 0.378799 0.378799
0.387561 0.387561 0.387561
0.392402 0.392402 0.392402
0.401164 0.401164 0.401164
0.409926 0.409926 0.409926
0.416851 0.416851 0.416851
0.423530 0.423530 0.423530
0.431127 0.431127 0.431127
0.437132 0.437132 0.437132
0.444057 0.444057 0.444057
0.448897 0.448897 0.448897
0.044731 0.044731 0.044731
0.046813 0.046813 0.046813
0.052574 0.052574 0.052574
0.056495 0.056495 0.056495
0.056495 0.056495 0.056495
0.058333 0.058333 0.058333
0.064339 0.064339 0.064339
0.068260 0.068260 0.068260
0.072856 0.072856 0.072856
0.076103 0.076103 0.076103
0.080025 0.080025 0.080025
0.079534 0.079534 0.079534
0.083946 0.083946 0.083946
0.091790 0.091790 0.091790
0.092892 0.092892 0.092892
0.094975 0.094975 0.094975
0.099633 0.099633 0.099633
0.103554 0.103554 0.103554
0.111397 0.111397 0.111397
0.115319 0.115319 0.115319
0.119240 0.119240 0.119240
0.124019 0.124019 0.124019
0.131005 0.131005 0.131005
0.134927 0.134927 0.134927
0.138541 0.138541 0.138541
0.146140 0.146140 0.146140
0.154535 0.154535 0.154535
0.159743 0.159743 0.159743
0.168505 0.168505 0.168505
0.174510 0.174510 0.174510
0.185907 0.185907 0.185907
0.190870 0.190870 0.190870
0.196875 0.196875 0.196875
0.205637 0.205637 0.205637
0.213235 0.213235 0.213235
0.221201 0.221201 0.221201
0.226839 0.226839 0.226839
0.232843 0.232843 0.232843
0.241605 0.241605 0.241605
0.250368 0.250368 0.250368
0.259130 0.259130 0.259130
0.267892 0.267892 0.267892
0.276654 0.276654 0.276654
0.288174 0.288174 0.288174
0.296936 0.296936 0.296936
0.305086 0.305086 0.305086
0.315625 0.315625 0.315625
0.327145 0.327145 0.327145
0.337070 0.337070 0.337070
0.345833 0.345833 0.345833
0.354596 0.354596 0.354596
0.366115 0.366115 0.366115
0.372120 0.372120 0.372120
0.380883 0.380883 0.380883
0.392402 0.392402 0.392402
0.397672 0.397672 0.397672
0.406005 0.406005 0.406005
0.414767 0.414767 0.414767
0.420772 0.420772 0.420772
0.429535 0.429535 0.429535
0.434376 0.434376 0.434376
0.443138 0.443138 0.443138
0.447978 0.447978 0.447978
0.456740 0.456740 0.456740
0.461581 0.461581 0.461581
0.058579 0.058579 0.058579
0.066177 0.066177 0.066177
0.064339 0.064339 0.064339
0.070098 0.070098 0.070098
0.074020 0.074020 0.074020
0.077941 0.077941 0.077941
0.075857 0.075857 0.075857
0.081863 0.081863 0.081863
0.085785 0.085785 0.085785
0.086458 0.086458 0.086458
0.093628 0.093628 0.093628
0.097549 0.097549 0.097549
0.097059 0.097059 0.097059
0.105392 0.105392 0.105392
0.109314 0.109314 0.109314
0.113235 0.113235 0.113235
0.112499 0.112499 0.112499
0.117157 0.117157 0.117157
0.125000 0.125000 0.125000
0.128922 0.128922 0.128922
0.132843 0.132843 0.132843
0.136765 0.136765 0.136765
0.144608 0.144608 0.144608
0.146385 0.146385 0.146385
0.151225 0.151225 0.151225
0.159742 0.159742 0.159742
0.168137 0.168137 0.168137
0.173346 0.173346 0.173346
0.178431 0.178431 0.178431
0.187193 0.187193 0.187193
0.199510 0.199510 0.199510
0.204473 0.204473 0.204473
0.209559 0.209559 0.209559
0.219118 0.219118 0.219118
0.223039 0.223039 0.223039
0.234804 0.234804 0.234804
0.240441 0.240441 0.240441
0.245527 0.245527 0.245527
0.254289 0.254289 0.254289
0.263052 0.263052 0.263052
0.271814 0.271814 0.271814
0.280576 0.280576 0.280576
0.289338 0.289338 0.289338
0.301777 0.301777 0.301777
0.310540 0.310540 0.310540
0.319302 0.319302 0.319302
0.328309 0.328309 0.328309
0.340747 0.340747 0.340747
0.349509 0.349509 0.349509
0.358517 0.358517 0.358517
0.367279 0.367279 0.367279
0.376042 0.376042 0.376042
0.384803 0.384803 0.384803
0.393566 0.393566 0.393566
0.402329 0.402329 0.402329
0.411091 0.411091 0.411091
0.419608 0.419608 0.419608
0.424694 0.424694 0.424694
0.433456 0.433456 0.433456
0.442647 0.442647 0.442647
0.447058 0.447058 0.447058
0.458334 0.458334 0.458334
0.460662 0.460662 0.460662
0.470098 0.470098 0.470098
0.474265 0.474265 0.474265
0.075858 0.075858 0.075858
0.079779 0.079779 0.079779
0.081617 0.081617 0.081617
0.083701 0.083701 0.083701
0.090626 0.090626 0.090626
0.091544 0.091544 0.091544
0.093137 0.093137 0.093137
0.095466 0.095466 0.095466
0.099387 0.099387 0.099387
0.103064 0.103064 0.103064
0.107230 0.107230 0.107230
0.112745 0.112745 0.112745
0.111152 0.111152 0.111152
0.118995 0.118995 0.118995
0.118995 0.118995 0.118995
0.122917 0.122917 0.122917
0.126838 0.126838 0.126838
0.130760 0.130760 0.130760
0.134681 0.134681 0.134681
0.138603 0.138603 0.138603
0.142524 0.142524 0.142524
0.150062 0.150062 0.150062
0.154228 0.154228 0.154228
0.162990 0.162990 0.162990
0.167831 0.167831 0.167831
0.169975 0.169975 0.169975
0.178187 0.178187 0.178187
0.185662 0.185662 0.185662
0.195037 0.195037 0.195037
0.200551 0.200551 0.200551
0.208639 0.208639 0.208639
0.217402 0.217402 0.217402
0.222917 0.222917 0.222917
0.228799 0.228799 0.228799
0.239767 0.239767 0.239767
0.244485 0.244485 0.244485
0.253370 0.253370 0.253370
0.258885 0.258885 0.258885
0.267647 0.267647 0.267647
0.275735 0.275735 0.275735
0.284497 0.284497 0.284497
0.293934 0.293934 0.293934
0.302696 0.302696 0.302696
0.314706 0.314706 0.314706
0.323469 0.323469 0.323469
0.332231 0.332231 0.332231
0.341667 0.341667 0.341667
0.349816 0.349816 0.349816
0.362438 0.362438 0.362438
0.373100 0.373100 0.373100
0.380637 0.380637 0.380637
0.389399 0.389399 0.389399
0.398161 0.398161 0.398161
0.407905 0.407905 0.407905
0.415686 0.415686 0.415686
0.420956 0.420956 0.420956
0.432721 0.432721 0.432721
0.438051 0.438051 0.438051
0.444485 0.444485 0.444485
0.454902 0.454902 0.454902
0.459743 0.459743 0.459743
0.468505 0.468505 0.468505
0.474020 0.474020 0.474020
0.482108 0.482108 0.482108
0.486949 0.486949 0.486949
0.093382 0.093382 0.093382
0.094301 0.094301 0.094301
0.097304 0.097304 0.097304
0.102389 0.102389 0.102389
0.101225 0.101225 0.101225
0.104228 0.104228 0.104228
0.109068 0.109068 0.109068
0.113909 0.113909 0.113909
0.112990 0.112990 0.112990
0.115747 0.115747 0.115747
0.120588 0.120588 0.120588
0.124755 0.124755 0.124755
0.130269 0.130269 0.130269
0.132598 0.132598 0.132598
0.136519 0.136519 0.136519
0.136519 0.136519 0.136519
0.140441 0.140441 0.140441
0.144363 0.144363 0.144363
0.152206 0.152206 0.152206
0.152206 0.152206 0.152206
0.156127 0.156127 0.156127
0.163664 0.163664 0.163664
0.166912 0.166912 0.166912
0.175735 0.175735 0.175735
0.179657 0.179657 0.179657
0.186949 0.186949 0.186949
0.191789 0.191789 0.191789
0.200551 0.200551 0.200551
0.207721 0.207721 0.207721
0.216483 0.216483 0.216483
0.221324 0.221324 0.221324
0.230086 0.230086 0.230086
0.238848 0.238848 0.238848
0.242402 0.242402 0.242402
0.252451 0.252451 0.252451
0.257292 0.257292 0.257292
0.266054 0.266054 0.266054
0.274816 0.274816 0.274816
0.283579 0.283579 0.283579
0.290013 0.290013 0.290013
0.298775 0.298775 0.298775
0.307537 0.307537 0.307537
0.316299 0.316299 0.316299
0.327389 0.327389 0.327389
0.336152 0.336152 0.336152
0.344914 0.344914 0.344914
0.355270 0.355270 0.355270
0.362500 0.362500 0.362500
0.375122 0.375122 0.375122
0.383885 0.383885 0.383885
0.394240 0.394240 0.394240
0.403002 0.403002 0.403002
0.411765 0.411765 0.411765
0.420527 0.420527 0.420527
0.426716 0.426716 0.426716
0.436459 0.436459 0.436459
0.446323 0.446323 0.446323
0.451655 0.451655 0.451655
0.458823 0.458823 0.458823
0.467585 0.467585 0.467585
0.472426 0.472426 0.472426
0.481618 0.481618 0.481618
0.485539 0.485539 0.485539
0.494791 0.494791 0.494791
0.499632 0.499632 0.499632
0.108395 0.108395 0.108395
0.110906 0.110906 0.110906
0.114828 0.114828 0.114828
0.114828 0.114828 0.114828
0.119914 0.119914 0.119914
0.122671 0.122671 0.122671
0.121752 0.121752 0.121752
0.126593 0.126593 0.126593
0.130514 0.130514 0.130514
0.134436 0.134436 0.134436
0.138357 0.138357 0.138357
0.138112 0.138112 0.138112
0.142279 0.142279 0.142279
0.143872 0.143872 0.143872
0.150122 0.150122 0.150122
0.154044 0.154044 0.154044
0.158394 0.158394 0.158394
0.161826 0.161826 0.161826
0.165808 0.165808 0.165808
0.169730 0.169730 0.169730
0.173836 0.173836 0.173836
0.178676 0.178676 0.178676
0.182108 0.182108 0.182108
0.188358 0.188358 0.188358
0.195711 0.195711 0.195711
0.201961 0.201961 0.201961
0.206802 0.206802 0.206802
0.214154 0.214154 0.214154
0.222917 0.222917 0.222917
0.229167 0.229167 0.229167
0.236520 0.236520 0.236520
0.245282 0.245282 0.245282
0.251532 0.251532 0.251532
0.258885 0.258885 0.258885
0.265135 0.265135 0.265135
0.272488 0.272488 0.272488
0.278738 0.278738 0.278738
0.287500 0.287500 0.287500
0.296262 0.296262 0.296262
0.303615 0.303615 0.303615
0.312377 0.312377 0.312377
0.321140 0.321140 0.321140
0.329902 0.329902 0.329902
0.340074 0.340074 0.340074
0.348836 0.348836 0.348836
0.360110 0.360110 0.360110
0.368872 0.368872 0.368872
0.377635 0.377635 0.377635
0.387807 0.387807 0.387807
0.399081 0.399081 0.399081
0.407843 0.407843 0.407843
0.416606 0.416606 0.416606
0.425368 0.425368 0.425368
0.434130 0.434130 0.434130
0.440318 0.440318 0.440318
0.449142 0.449142 0.449142
0.459926 0.459926 0.459926
0.465258 0.465258 0.465258
0.471508 0.471508 0.471508
0.480270 0.480270 0.480270
0.485110 0.485110 0.485110
0.495220 0.495220 0.495220
0.501225 0.501225 0.501225
0.507476 0.507476 0.507476
0.512317 0.512317 0.512317
0.124510 0.124510 0.124510
0.128432 0.128432 0.128432
0.126839 0.126839 0.126839
0.132353 0.132353 0.132353
0.132353 0.132353 0.132353
0.136275 0.136275 0.136275
0.140196 0.140196 0.140196
0.144118 0.144118 0.144118
0.147549 0.147549 0.147549
0.145037 0.145037 0.145037
0.151961 0.151961 0.151961
0.155883 0.155883 0.155883
0.159068 0.159068 0.159068
0.163726 0.163726 0.163726
0.161398 0.161398 0.161398
0.167647 0.167647 0.167647
0.171569 0.171569 0.171569
0.175919 0.175919 0.175919
0.176838 0.176838 0.176838
0.183334 0.183334 0.183334
0.187255 0.187255 0.187255
0.191360 0.191360 0.191360
0.199020 0.199020 0.199020
0.204473 0.204473 0.204473
0.210785 0.210785 0.210785
0.214644 0.214644 0.214644
0.219485 0.219485 0.219485
0.228248 0.228248 0.228248
0.236520 0.236520 0.236520
0.241850 0.241850 0.241850
0.250122 0.250122 0.250122
0.258884 0.258884 0.258884
0.264216 0.264216 0.264216
0.273530 0.273530 0.273530
0.277451 0.277451 0.277451
0.286090 0.286090 0.286090
0.291422 0.291422 0.291422
0.300184 0.300184 0.300184
0.308946 0.308946 0.308946
0.317218 0.317218 0.317218
0.325980 0.325980 0.325980
0.334743 0.334743 0.334743
0.343382 0.343382 0.343382
0.356189 0.356189 0.356189
0.364951 0.364951 0.364951
0.373714 0.373714 0.373714
0.382476 0.382476 0.382476
0.387867 0.387867 0.387867
0.400490 0.400490 0.400490
0.412684 0.412684 0.412684
0.421446 0.421446 0.421446
0.430209 0.430209 0.430209
0.438971 0.438971 0.438971
0.447733 0.447733 0.447733
0.453064 0.453064 0.453064
0.461826 0.461826 0.461826
0.473530 0.473530 0.473530
0.475428 0.475428 0.475428
0.484191 0.484191 0.484191
0.492954 0.492954 0.492954
0.497795 0.497795 0.497795
0.508824 0.508824 0.508824
0.511397 0.511397 0.511397
0.520589 0.520589 0.520589
0.524510 0.524510 0.524510
0.138113 0.138113 0.138113
0.142524 0.142524 0.142524
0.142034 0.142034 0.142034
0.145527 0.145527 0.145527
0.145956 0.145956 0.145956
0.150123 0.150123 0.150123
0.153370 0.153370 0.153370
0.153799 0.153799 0.153799
0.157721 0.157721 0.157721
0.161642 0.161642 0.161642
0.166483 0.166483 0.166483
0.165564 0.165564 0.165564
0.169485 0.169485 0.169485
0.173162 0.173162 0.173162
0.178003 0.178003 0.178003
0.180821 0.180821 0.180821
0.181250 0.181250 0.181250
0.185172 0.185172 0.185172
0.192586 0.192586 0.192586
0.193015 0.193015 0.193015
0.196936 0.196936 0.196936
0.200858 0.200858 0.200858
0.208885 0.208885 0.208885
0.214154 0.214154 0.214154
0.222488 0.222488 0.222488
0.224387 0.224387 0.224387
0.236152 0.236152 0.236152
0.240074 0.240074 0.240074
0.249694 0.249694 0.249694
0.251838 0.251838 0.251838
0.263603 0.263603 0.263603
0.268566 0.268566 0.268566
0.275368 0.275368 0.275368
0.285661 0.285661 0.285661
0.287133 0.287133 0.287133
0.299264 0.299264 0.299264
0.302819 0.302819 0.302819
0.312867 0.312867 0.312867
0.321629 0.321629 0.321629
0.330392 0.330392 0.330392
0.335662 0.335662 0.335662
0.344423 0.344423 0.344423
0.356678 0.356678 0.356678
0.365870 0.365870 0.365870
0.374632 0.374632 0.374632
0.383395 0.383395 0.383395
0.392157 0.392157 0.392157
0.404412 0.404412 0.404412
0.413174 0.413174 0.413174
0.421937 0.421937 0.421937
0.430698 0.430698 0.430698
0.439460 0.439460 0.439460
0.448223 0.448223 0.448223
0.456985 0.456985 0.456985
0.465747 0.465747 0.465747
0.474509 0.474509 0.474509
0.483272 0.483272 0.483272
0.488113 0.488113 0.488113
0.496876 0.496876 0.496876
0.505638 0.505638 0.505638
0.510478 0.510478 0.510478
0.514584 0.514584 0.514584
0.524081 0.524081 0.524081
0.529841 0.529841 0.529841
0.533762 0.533762 0.533762
0.151716 0.151716 0.151716
0.155637 0.155637 0.155637
0.155637 0.155637 0.155637
0.160968 0.160968 0.160968
0.159559 0.159559 0.159559
0.163480 0.163480 0.163480
0.166054 0.166054 0.166054
0.167402 0.167402 0.167402
0.173407 0.173407 0.173407
0.175245 0.175245 0.175245
0.179167 0.179167 0.179167
0.179167 0.179167 0.179167
0.183088 0.183088 0.183088
0.185846 0.185846 0.185846
0.190931 0.190931 0.190931
0.193505 0.193505 0.193505
0.194853 0.194853 0.194853
0.198774 0.198774 0.198774
0.202206 0.202206 0.202206
0.206618 0.206618 0.206618
0.210539 0.210539 0.210539
0.216728 0.216728 0.216728
0.222304 0.222304 0.222304
0.226225 0.226225 0.226225
0.235172 0.235172 0.235172
0.237990 0.237990 0.237990
0.246201 0.246201 0.246201
0.253615 0.253615 0.253615
0.262378 0.262378 0.262378
0.265441 0.265441 0.265441
0.273407 0.273407 0.273407
0.280821 0.280821 0.280821
0.289584 0.289584 0.289584
0.298346 0.298346 0.298346
0.303186 0.303186 0.303186
0.308027 0.308027 0.308027
0.316790 0.316790 0.316790
0.325552 0.325552 0.325552
0.334314 0.334314 0.334314
0.340503 0.340503 0.340503
0.347917 0.347917 0.347917
0.356679 0.356679 0.356679
0.368750 0.368750 0.368750
0.378126 0.378126 0.378126
0.386887 0.386887 0.386887
0.395650 0.395650 0.395650
0.404411 0.404411 0.404411
0.413174 0.413174 0.413174
0.423285 0.423285 0.423285
0.434621 0.434621 0.434621
0.443383 0.443383 0.443383
0.452145 0.452145 0.452145
0.460907 0.460907 0.460907
0.469669 0.469669 0.469669
0.473284 0.473284 0.473284
0.483272 0.483272 0.483272
0.492034 0.492034 0.492034
0.496814 0.496814 0.496814
0.505638 0.505638 0.505638
0.514399 0.514399 0.514399
0.519240 0.519240 0.519240
0.528002 0.528002 0.528002
0.536764 0.536764 0.536764
0.541606 0.541606 0.541606
0.543872 0.543872 0.543872
0.169240 0.169240 0.169240
0.167892 0.167892 0.167892
0.173162 0.173162 0.173162
0.173162 0.173162 0.173162
0.178492 0.178492 0.178492
0.175490 0.175490 0.175490
0.181005 0.181005 0.181005
0.185171 0.185171 0.185171
0.184926 0.184926 0.184926
0.188848 0.188848 0.188848
0.192769 0.192769 0.192769
0.196691 0.196691 0.196691
0.196691 0.196691 0.196691
0.198529 0.198529 0.198529
0.204534 0.204534 0.204534
0.208456 0.208456 0.208456
0.208456 0.208456 0.208456
0.212377 0.212377 0.212377
0.217157 0.217157 0.217157
0.219730 0.219730 0.219730
0.224142 0.224142 0.224142
0.228064 0.228064 0.228064
0.234253 0.234253 0.234253
0.241360 0.241360 0.241360
0.247855 0.247855 0.247855
0.251593 0.251593 0.251593
0.259804 0.259804 0.259804
0.266299 0.266299 0.266299
0.275122 0.275122 0.275122
0.282170 0.282170 0.282170
0.287010 0.287010 0.287010
0.295772 0.295772 0.295772
0.302267 0.302267 0.302267
0.311030 0.311030 0.311030
0.314338 0.314338 0.314338
0.322978 0.322978 0.322978
0.329473 0.329473 0.329473
0.336581 0.336581 0.336581
0.345344 0.345344 0.345344
0.354106 0.354106 0.354106
0.360601 0.360601 0.360601
0.369363 0.369363 0.369363
0.381434 0.381434 0.381434
0.387194 0.387194 0.387194
0.399571 0.399571 0.399571
0.408334 0.408334 0.408334
0.417096 0.417096 0.417096
0.425858 0.425858 0.425858
0.436887 0.436887 0.436887
0.445649 0.445649 0.445649
0.454412 0.454412 0.454412
0.463174 0.463174 0.463174
0.471936 0.471936 0.471936
0.480699 0.480699 0.480699
0.486887 0.486887 0.486887
0.495956 0.495956 0.495956
0.506495 0.506495 0.506495
0.509559 0.509559 0.509559
0.518322 0.518322 0.518322
0.527084 0.527084 0.527084
0.531924 0.531924 0.531924
0.539032 0.539032 0.539032
0.545527 0.545527 0.545527
0.549632 0.549632 0.549632
0.557475 0.557475 0.557475
0.186764 0.186764 0.186764
0.187684 0.187684 0.187684
0.190686 0.190686 0.190686
0.193872 0.193872 0.193872
0.194607 0.194607 0.194607
0.197794 0.197794 0.197794
0.198529 0.198529 0.198529
0.201042 0.201042 0.201042
0.202451 0.202451 0.202451
0.206372 0.206372 0.206372
0.207721 0.207721 0.207721
0.212561 0.212561 0.212561
0.214215 0.214215 0.214215
0.218137 0.218137 0.218137
0.222058 0.222058 0.222058
0.224081 0.224081 0.224081
0.225980 0.225980 0.225980
0.229902 0.229902 0.229902
0.233823 0.233823 0.233823
0.237745 0.237745 0.237745
0.241666 0.241666 0.241666
0.245588 0.245588 0.245588
0.250122 0.250122 0.250122
0.257353 0.257353 0.257353
0.263726 0.263726 0.263726
0.269117 0.269117 0.269117
0.277328 0.277328 0.277328
0.284804 0.284804 0.284804
0.290932 0.290932 0.290932
0.296568 0.296568 0.296568
0.301347 0.301347 0.301347
0.312255 0.312255 0.312255
0.318137 0.318137 0.318137
0.323713 0.323713 0.323713
0.331740 0.331740 0.331740
0.339705 0.339705 0.339705
0.345344 0.345344 0.345344
0.354106 0.354106 0.354106
0.359681 0.359681 0.359681
0.371078 0.371078 0.371078
0.376470 0.376470 0.376470
0.385233 0.385233 0.385233
0.393995 0.393995 0.393995
0.406679 0.406679 0.406679
0.415441 0.415441 0.415441
0.424203 0.424203 0.424203
0.432966 0.432966 0.432966
0.441728 0.441728 0.441728
0.450490 0.450490 0.450490
0.459988 0.459988 0.459988
0.468750 0.468750 0.468750
0.477512 0.477512 0.477512
0.486274 0.486274 0.486274
0.496568 0.496568 0.496568
0.503064 0.503064 0.503064
0.511826 0.511826 0.511826
0.517403 0.517403 0.517403
0.525429 0.525429 0.525429
0.531004 0.531004 0.531004
0.539767 0.539767 0.539767
0.544608 0.544608 0.544608
0.552635 0.552635 0.552635
0.558210 0.558210 0.558210
0.566237 0.566237 0.566237
0.571078 0.571078 0.571078
0.204290 0.204290 0.204290
0.204290 0.204290 0.204290
0.209865 0.209865 0.209865
0.208211 0.208211 0.208211
0.208211 0.208211 0.208211
0.212133 0.212133 0.212133
0.212133 0.212133 0.212133
0.216054 0.216054 0.216054
0.216054 0.216054 0.216054
0.219976 0.219976 0.219976
0.223897 0.223897 0.223897
0.229902 0.229902 0.229902
0.227819 0.227819 0.227819
0.231741 0.231741 0.231741
0.235662 0.235662 0.235662
0.241422 0.241422 0.241422
0.239584 0.239584 0.239584
0.243505 0.243505 0.243505
0.247427 0.247427 0.247427
0.251348 0.251348 0.251348
0.255270 0.255270 0.255270
0.259192 0.259192 0.259192
0.267464 0.267464 0.267464
0.270956 0.270956 0.270956
0.277329 0.277329 0.277329
0.282721 0.282721 0.282721
0.290931 0.290931 0.290931
0.299509 0.299509 0.299509
0.304535 0.304535 0.304535
0.313112 0.313112 0.313112
0.317953 0.317953 0.317953
0.326715 0.326715 0.326715
0.331740 0.331740 0.331740
0.340319 0.340319 0.340319
0.345342 0.345342 0.345342
0.353921 0.353921 0.353921
0.358946 0.358946 0.358946
0.367525 0.367525 0.367525
0.376286 0.376286 0.376286
