Black-and-White/Rollei/Rollei Ortho 25 65x.cube
TITLE "Rollei Ortho 25"
LUT_3D_SIZE 5
DOMAIN_MIN 0.000000 0.000000 0.000000
DOMAIN_MAX 1.000000 1.000000 1.000000
0.000000 0.000000 0.000000
0.000000 0.000000 0.000000
0.000000 0.000000 0.000000
0.003922 0.003922 0.003922
0.003922 0.003922 0.003922
0.108823 0.108823 0.108823
0.112745 0.112745 0.112745
0.120589 0.120589 0.120589
0.128432 0.128432 0.128432
0.133333 0.133333 0.133333
0.250980 0.250980 0.250980
0.252941 0.252941 0.252941
0.258823 0.258823 0.258823
0.264706 0.264706 0.264706
0.272549 0.272549 0.272549
0.481372 0.481372 0.481372
0.487255 0.487255 0.487255
0.493137 0.493137 0.493137
0.504902 0.504902 0.504902
0.517648 0.517648 0.517648
0.862745 0.862745 0.862745
0.862745 0.862745 0.862745
0.862745 0.862745 0.862745
0.870588 0.870588 0.870588
0.874510 0.874510 0.874510
0.112745 0.112745 0.112745
0.120589 0.120589 0.120589
0.128431 0.128431 0.128431
0.136274 0.136274 0.136274
0.144118 0.144118 0.144118
0.214706 0.214706 0.214706
0.218627 0.218627 0.218627
0.226470 0.226470 0.226470
0.234314 0.234314 0.234314
0.241176 0.241176 0.241176
0.342157 0.342157 0.342157
0.346079 0.346079 0.346079
0.353922 0.353922 0.353922
0.361765 0.361765 0.361765
0.369608 0.369608 0.369608
0.636275 0.636275 0.636275
0.640196 0.640196 0.640196
0.649020 0.649020 0.649020
0.662745 0.662745 0.662745
0.676471 0.676471 0.676471
0.890196 0.890196 0.890196
0.890196 0.890196 0.890196
0.894118 0.894118 0.894118
0.897059 0.897059 0.897059
0.901961 0.901961 0.901961
0.254902 0.254902 0.254902
0.266667 0.266667 0.266667
0.278431 0.278431 0.278431
0.288235 0.288235 0.288235
0.298040 0.298040 0.298040
0.375490 0.375490 0.375490
0.383333 0.383333 0.383333
0.395098 0.395098 0.395098
0.410784 0.410784 0.410784
0.422549 0.422549 0.422549
0.596078 0.596078 0.596078
0.604902 0.604902 0.604902
0.623530 0.623530 0.623530
0.645098 0.645098 0.645098
0.662745 0.662745 0.662745
0.810784 0.810784 0.810784
0.810784 0.810784 0.810784
0.816667 0.816667 0.816667
0.822549 0.822549 0.822549
0.830392 0.830392 0.830392
0.939215 0.939215 0.939215
0.941176 0.941176 0.941176
0.943137 0.943137 0.943137
0.945098 0.945098 0.945098
0.949020 0.949020 0.949020
0.513726 0.513726 0.513726
0.545098 0.545098 0.545098
0.577451 0.577451 0.577451
0.607843 0.607843 0.607843
0.634314 0.634314 0.634314
0.734313 0.734313 0.734313
0.742157 0.742157 0.742157
0.753922 0.753922 0.753922
0.766667 0.766667 0.766667
0.778432 0.778432 0.778432
0.836274 0.836274 0.836274
0.840196 0.840196 0.840196
0.846078 0.846078 0.846078
0.851961 0.851961 0.851961
0.859804 0.859804 0.859804
0.914706 0.914706 0.914706
0.915686 0.915686 0.915686
0.918627 0.918627 0.918627
0.923530 0.923530 0.923530
0.930392 0.930392 0.930392
0.988235 0.988235 0.988235
0.988235 0.988235 0.988235
0.988235 0.988235 0.988235
0.992157 0.992157 0.992157
0.992157 0.992157 0.992157
0.839216 0.839216 0.839216
0.850980 0.850980 0.850980
0.858824 0.858824 0.858824
0.866667 0.866667 0.866667
0.874510 0.874510 0.874510
0.904902 0.904902 0.904902
0.908824 0.908824 0.908824
0.913725 0.913725 0.913725
0.918627 0.918627 0.918627
0.925490 0.925490 0.925490
0.952941 0.952941 0.952941
0.954902 0.954902 0.954902
0.958824 0.958824 0.958824
0.964706 0.964706 0.964706
0.968627 0.968627 0.968627
0.992157 0.992157 0.992157
0.992157 0.992157 0.992157
0.996078 0.996078 0.996078
0.996078 0.996078 0.996078
1.000000 1.000000 1.000000
1.000000 1.000000 1.000000
1.000000 1.000000 1.000000
1.000000 1.000000 1.000000
1.000000 1.000000 1.000000
1.000000 1.000000 1.000000
