Black-and-White/Rollei/Rollei Retro 100 Tonal 65x.cube
TITLE "Rollei Retro 100 Tonal"
LUT_3D_SIZE 5
DOMAIN_MIN 0.000000 0.000000 0.000000
DOMAIN_MAX 1.000000 1.000000 1.000000
0.000000 0.000000 0.000000
0.000000 0.000000 0.000000
0.001961 0.001961 0.001961
0.007843 0.007843 0.007843
0.015686 0.015686 0.015686
0.163725 0.163725 0.163725
0.167647 0.167647 0.167647
0.175490 0.175490 0.175490
0.187255 0.187255 0.187255
0.199020 0.199020 0.199020
0.368627 0.368627 0.368627
0.370588 0.370588 0.370588
0.376471 0.376471 0.376471
0.383333 0.383333 0.383333
0.396079 0.396079 0.396079
0.604902 0.604902 0.604902
0.605883 0.605883 0.605883
0.609804 0.609804 0.609804
0.617647 0.617647 0.617647
0.625490 0.625490 0.625490
0.858824 0.858824 0.858824
0.858824 0.858824 0.858824
0.862745 0.862745 0.862745
0.866667 0.866667 0.866667
0.870588 0.870588 0.870588
0.104902 0.104902 0.104902
0.116667 0.116667 0.116667
0.124510 0.124510 0.124510
0.134314 0.134314 0.134314
0.148039 0.148039 0.148039
0.253922 0.253922 0.253922
0.260784 0.260784 0.260784
0.268627 0.268627 0.268627
0.280392 0.280392 0.280392
0.292157 0.292157 0.292157
0.432353 0.432353 0.432353
0.436275 0.436275 0.436275
0.443137 0.443137 0.443137
0.451961 0.451961 0.451961
0.462746 0.462746 0.462746
0.647059 0.647059 0.647059
0.649020 0.649020 0.649020
0.652941 0.652941 0.652941
0.659804 0.659804 0.659804
0.668628 0.668628 0.668628
0.874510 0.874510 0.874510
0.874510 0.874510 0.874510
0.878431 0.878431 0.878431
0.882353 0.882353 0.882353
0.886275 0.886275 0.886275
0.229412 0.229412 0.229412
0.244118 0.244118 0.244118
0.256863 0.256863 0.256863
0.268628 0.268628 0.268628
0.284314 0.284314 0.284314
0.393137 0.393137 0.393137
0.397059 0.397059 0.397059
0.408824 0.408824 0.408824
0.420588 0.420588 0.420588
0.433334 0.433334 0.433334
0.547059 0.547059 0.547059
0.549019 0.549019 0.549019
0.556863 0.556863 0.556863
0.568628 0.568628 0.568628
0.580392 0.580392 0.580392
0.728431 0.728431 0.728431
0.731373 0.731373 0.731373
0.735294 0.735294 0.735294
0.740196 0.740196 0.740196
0.748039 0.748039 0.748039
0.907843 0.907843 0.907843
0.907843 0.907843 0.907843
0.909804 0.909804 0.909804
0.913725 0.913725 0.913725
0.917647 0.917647 0.917647
0.424509 0.424509 0.424509
0.440196 0.440196 0.440196
0.451960 0.451960 0.451960
0.464706 0.464706 0.464706
0.479411 0.479411 0.479411
0.560784 0.560784 0.560784
0.565686 0.565686 0.565686
0.576471 0.576471 0.576471
0.589216 0.589216 0.589216
0.603922 0.603922 0.603922
0.689216 0.689216 0.689216
0.693137 0.693137 0.693137
0.700980 0.700980 0.700980
0.708823 0.708823 0.708823
0.720588 0.720588 0.720588
0.817647 0.817647 0.817647
0.820588 0.820588 0.820588
0.824510 0.824510 0.824510
0.829412 0.829412 0.829412
0.836274 0.836274 0.836274
0.942157 0.942157 0.942157
0.945098 0.945098 0.945098
0.945098 0.945098 0.945098
0.949020 0.949020 0.949020
0.950000 0.950000 0.950000
0.631373 0.631373 0.631373
0.643137 0.643137 0.643137
0.658824 0.658824 0.658824
0.670588 0.670588 0.670588
0.686275 0.686275 0.686275
0.740196 0.740196 0.740196
0.745098 0.745098 0.745098
0.755882 0.755882 0.755882
0.764706 0.764706 0.764706
0.776471 0.776471 0.776471
0.829412 0.829412 0.829412
0.833333 0.833333 0.833333
0.839216 0.839216 0.839216
0.847059 0.847059 0.847059
0.854902 0.854902 0.854902
0.913725 0.913725 0.913725
0.914705 0.914705 0.914705
0.918627 0.918627 0.918627
0.922549 0.922549 0.922549
0.929412 0.929412 0.929412
0.980392 0.980392 0.980392
0.980392 0.980392 0.980392
0.984314 0.984314 0.984314
0.988235 0.988235 0.988235
1.000000 1.000000 1.000000
