Color/Agfa/Agfa Ultra Color 100 65x.cube
TITLE "Agfa Ultra Color 100"
LUT_3D_SIZE 5
DOMAIN_MIN 0.000000 0.000000 0.000000
DOMAIN_MAX 1.000000 1.000000 1.000000
0.000000 0.000000 0.000000
0.112745 0.000000 0.000000
0.321569 0.000000 0.000000
0.649020 0.000000 0.000000
0.882353 0.000000 0.000000
0.116667 0.205882 0.039216
0.190196 0.174510 0.034314
0.409804 0.086275 0.014706
0.713725 0.000000 0.000000
0.912745 0.000000 0.006863
0.094118 0.586275 0.086275
0.263726 0.561764 0.086275
0.562745 0.492157 0.070588
0.858824 0.375490 0.054902
1.000000 0.237255 0.092157
0.351961 0.907843 0.000000
0.480392 0.891177 0.000000
0.753922 0.835294 0.026471
0.993137 0.766667 0.053921
1.000000 0.688236 0.121569
0.843137 1.000000 0.000000
0.897059 1.000000 0.000000
1.000000 1.000000 0.000000
1.000000 0.996078 0.000000
1.000000 0.949020 0.000000
0.000000 0.000000 0.116667
0.073529 0.000000 0.104902
0.290196 0.000000 0.085294
0.609804 0.000000 0.056863
0.831373 0.000000 0.097059
0.086275 0.186274 0.158823
0.154902 0.151961 0.151961
0.383333 0.063725 0.135294
0.672549 0.000000 0.111764
0.861765 0.000000 0.147059
0.042157 0.576470 0.191176
0.217647 0.553921 0.190196
0.531373 0.480393 0.178431
0.819608 0.367647 0.179412
0.998039 0.227451 0.233333
0.286275 0.907843 0.170588
0.433334 0.891177 0.170588
0.712745 0.835294 0.170588
0.947059 0.770588 0.202941
1.000000 0.692157 0.294118
0.808823 1.000000 0.000000
0.858824 1.000000 0.000000
0.974510 1.000000 0.000000
1.000000 1.000000 0.003922
1.000000 0.956863 0.228432
0.000000 0.000000 0.292157
0.019608 0.000000 0.292157
0.245098 0.000000 0.278431
0.553921 0.000000 0.262745
0.770588 0.000000 0.298040
0.016667 0.152941 0.371569
0.085294 0.120588 0.371569
0.314706 0.027451 0.356862
0.592157 0.000000 0.340196
0.776471 0.000000 0.367647
0.000000 0.550980 0.464706
0.046079 0.526470 0.460784
0.449020 0.449020 0.449020
0.727451 0.336274 0.445098
0.911764 0.190196 0.472549
0.000000 0.907843 0.523529
0.254902 0.888236 0.521568
0.599019 0.835294 0.515686
0.839216 0.773529 0.525490
1.000000 0.693137 0.556863
0.684314 1.000000 0.452941
0.731372 1.000000 0.452941
0.847059 1.000000 0.460784
0.993137 1.000000 0.484314
1.000000 0.976471 0.556863
0.000000 0.000000 0.574510
0.000000 0.000000 0.570588
0.172549 0.000000 0.550981
0.475490 0.000000 0.523530
0.698039 0.000000 0.526471
0.000000 0.087255 0.655882
0.003922 0.046078 0.649020
0.221568 0.000000 0.621569
0.490196 0.000000 0.589215
0.682353 0.000000 0.576471
0.000000 0.481373 0.736274
0.026470 0.453922 0.728431
0.378432 0.373529 0.703922
0.638235 0.260784 0.677451
0.818627 0.095098 0.661765
0.000000 0.887255 0.794118
0.093137 0.867647 0.787255
0.510784 0.817647 0.770588
0.757843 0.757843 0.757843
0.964706 0.673529 0.754902
0.555883 1.000000 0.794118
0.605882 1.000000 0.793137
0.727451 1.000000 0.786275
0.887255 1.000000 0.778432
1.000000 0.992157 0.793137
0.000000 0.000000 0.803922
0.000000 0.000000 0.784314
0.145098 0.000000 0.754902
0.428432 0.000000 0.717647
0.643137 0.000000 0.701961
0.000000 0.000000 0.846079
0.000000 0.000000 0.831373
0.168627 0.000000 0.804903
0.424509 0.000000 0.768627
0.631373 0.000000 0.749020
0.039216 0.303922 0.911764
0.110784 0.274510 0.900981
0.354902 0.184314 0.872549
0.550000 0.061765 0.841176
0.707843 0.000000 0.809804
0.009804 0.810784 0.977451
0.227451 0.794118 0.969607
0.495098 0.750981 0.952941
0.708823 0.685294 0.933333
0.899020 0.592157 0.910784
0.529412 1.000000 1.000000
0.571568 1.000000 1.000000
0.680392 1.000000 1.000000
0.824510 1.000000 1.000000
1.000000 0.996078 0.996078
