Color/Agfa/Agfa Precisa 100 65x.cube
TITLE "Agfa Precisa 100"
LUT_3D_SIZE 9
DOMAIN_MIN 0.000000 0.000000 0.000000
DOMAIN_MAX 1.000000 1.000000 1.000000
0.000000 0.000000 0.000000
0.077941 0.000000 0.003432
0.166666 0.003922 0.011765
0.276961 0.011765 0.031373
0.407844 0.025490 0.064706
0.565196 0.052451 0.107353
0.715687 0.079411 0.146079
0.859804 0.105882 0.184314
0.992157 0.129412 0.219608
0.046569 0.089706 0.019118
0.101471 0.097059 0.019118
0.191176 0.101471 0.019118
0.307843 0.113235 0.019608
0.431373 0.116667 0.045589
0.586765 0.109314 0.095588
0.727451 0.089706 0.146079
0.863725 0.105882 0.184804
0.995588 0.129412 0.219608
0.112745 0.194117 0.065687
0.144608 0.198039 0.065686
0.213725 0.201961 0.069608
0.326961 0.209804 0.070588
0.454902 0.217647 0.066667
0.608333 0.220098 0.072059
0.750000 0.201961 0.119609
0.879412 0.170098 0.170098
1.000000 0.129412 0.219608
0.099510 0.322549 0.112255
0.147059 0.326471 0.113725
0.241176 0.334314 0.113725
0.350000 0.342157 0.112255
0.484313 0.350000 0.105882
0.636765 0.355392 0.090196
0.779903 0.351471 0.086275
0.905392 0.308824 0.135294
1.000000 0.240196 0.193627
0.129412 0.480393 0.166666
0.177941 0.485784 0.166666
0.265686 0.490196 0.162745
0.379412 0.498040 0.156863
0.519608 0.511764 0.143137
0.661765 0.521568 0.122059
0.799999 0.525490 0.086275
0.930392 0.507844 0.076960
1.000000 0.445098 0.131373
0.188235 0.639706 0.242157
0.228432 0.642157 0.240686
0.310294 0.647549 0.240686
0.423530 0.657843 0.232843
0.552941 0.673529 0.217157
0.682843 0.686765 0.174020
0.813726 0.704902 0.106372
0.946078 0.714216 0.046569
1.000000 0.678922 0.051961
0.296079 0.782353 0.350981
0.329901 0.782353 0.350000
0.395098 0.790196 0.347059
0.488235 0.798039 0.339216
0.596078 0.813726 0.321569
0.708333 0.829412 0.286765
0.829412 0.849020 0.219608
0.950000 0.873039 0.022058
1.000000 0.889216 0.000000
0.436274 0.906372 0.479411
0.455391 0.906862 0.479411
0.501470 0.910784 0.479411
0.567647 0.918627 0.475490
0.651471 0.930392 0.463725
0.748039 0.946078 0.439216
0.848039 0.969117 0.392157
0.953431 0.996568 0.275000
1.000000 1.000000 0.000000
0.603922 0.992157 0.658824
0.615686 0.992157 0.658824
0.643137 0.996078 0.658824
0.684804 1.000000 0.658824
0.747059 1.000000 0.654902
0.821078 1.000000 0.647059
0.902941 1.000000 0.622549
0.984804 1.000000 0.564216
1.000000 1.000000 0.360784
0.000000 0.000000 0.046569
0.062255 0.000000 0.050490
0.155883 0.000000 0.050490
0.273039 0.007843 0.046569
0.407844 0.025490 0.064706
0.567647 0.052451 0.107353
0.719608 0.079412 0.146079
0.863725 0.105882 0.184804
0.996078 0.129412 0.219608
0.035294 0.081863 0.089216
0.089706 0.089216 0.089216
0.179412 0.093628 0.089706
0.295098 0.105392 0.093628
0.427451 0.116667 0.091177
0.587255 0.124510 0.092157
0.731373 0.104902 0.142647
0.867647 0.106372 0.184804
0.996078 0.129412 0.219608
0.105392 0.190196 0.121079
0.136765 0.194117 0.121079
0.202941 0.198039 0.124019
0.318628 0.205882 0.124510
0.450981 0.213725 0.121079
0.606863 0.218627 0.109314
0.753922 0.210784 0.119118
0.883333 0.177941 0.169117
1.000000 0.129412 0.223529
0.097059 0.318628 0.160294
0.139215 0.322549 0.160294
0.233333 0.330392 0.159314
0.345098 0.338235 0.155392
0.481373 0.346079 0.148530
0.632843 0.353922 0.132843
0.778432 0.353922 0.098039
0.908823 0.316667 0.133333
1.000000 0.247549 0.192157
0.121569 0.478432 0.209314
0.170098 0.480393 0.209314
0.259804 0.486274 0.206373
0.373529 0.494117 0.201471
0.515686 0.507844 0.187745
0.657843 0.519118 0.156373
0.798039 0.523529 0.120098
0.933823 0.515686 0.076470
1.000000 0.452451 0.129412
0.181863 0.636275 0.279412
0.220588 0.638235 0.279412
0.305882 0.646078 0.279412
0.420588 0.653922 0.273039
0.549019 0.669608 0.259804
0.681372 0.682843 0.226961
0.811765 0.698530 0.152451
0.942157 0.710294 0.073529
1.000000 0.684314 0.049510
0.295098 0.778432 0.380882
0.323530 0.778432 0.380882
0.391176 0.786275 0.378432
0.484314 0.794118 0.374020
0.593137 0.809804 0.358824
0.708333 0.825490 0.329412
0.825490 0.845098 0.270098
0.946078 0.868628 0.113725
1.000000 0.892157 0.000000
0.432353 0.902451 0.502451
0.451960 0.902941 0.502451
0.498039 0.910294 0.502451
0.567647 0.918137 0.498529
0.649510 0.929902 0.490686
0.744117 0.943137 0.469608
0.845098 0.962255 0.424019
0.950000 0.989215 0.317647
1.000000 1.000000 0.000000
0.603922 0.988235 0.674510
0.615686 0.988235 0.674510
0.643137 0.992157 0.674510
0.684804 1.000000 0.674510
0.747059 1.000000 0.670588
0.821078 1.000000 0.662745
0.899019 1.000000 0.643137
0.980882 1.000000 0.587745
1.000000 1.000000 0.399510
0.000000 0.000000 0.116667
0.053922 0.000000 0.116667
0.144118 0.000000 0.116667
0.263726 0.000000 0.116667
0.402941 0.015686 0.112745
0.571569 0.054902 0.107353
0.723530 0.079411 0.149020
0.867647 0.105882 0.184804
0.996078 0.129412 0.219608
0.026961 0.077451 0.159313
0.077941 0.081863 0.158823
0.170588 0.089216 0.155883
0.287255 0.100000 0.159313
0.421569 0.109314 0.155882
0.583333 0.121079 0.144118
0.735294 0.116667 0.141176
0.871568 0.106372 0.188235
1.000000 0.129412 0.219608
0.097059 0.183334 0.191176
0.127941 0.186274 0.191176
0.194117 0.191176 0.194117
0.308333 0.201471 0.191176
0.443137 0.208824 0.186274
0.602941 0.214706 0.171568
0.753922 0.217647 0.142157
0.887255 0.189706 0.168627
1.000000 0.129412 0.223529
0.095588 0.312255 0.230393
0.124510 0.314706 0.232843
0.221568 0.322549 0.233333
0.334314 0.330392 0.232843
0.474510 0.342157 0.222549
0.626470 0.350000 0.200000
0.773039 0.350000 0.165196
0.910784 0.330392 0.129902
1.000000 0.258333 0.189706
0.109803 0.472549 0.279412
0.152451 0.474510 0.279412
0.248039 0.480393 0.279412
0.365686 0.488235 0.279412
0.507844 0.500000 0.271569
0.650000 0.511764 0.245588
0.790196 0.519608 0.192157
0.930392 0.515686 0.124020
1.000000 0.464706 0.127451
0.166176 0.628921 0.348529
0.208824 0.630392 0.349020
0.294608 0.638235 0.349510
0.414216 0.646078 0.345588
0.543627 0.660785 0.333823
0.673529 0.673529 0.310294
0.805883 0.689216 0.257353
0.938235 0.702451 0.135784
1.000000 0.694608 0.045588
0.285294 0.770588 0.436275
0.316177 0.774510 0.436275
0.384314 0.778432 0.436275
0.480392 0.786275 0.435294
0.588236 0.800980 0.426471
0.702941 0.814216 0.403922
0.821569 0.833334 0.355882
0.942156 0.854412 0.250000
1.000000 0.880392 0.006863
0.428431 0.895098 0.546078
0.448039 0.898529 0.546078
0.494118 0.902451 0.548530
0.563725 0.910294 0.545098
0.647549 0.922059 0.541176
0.741667 0.934313 0.525490
0.841177 0.953431 0.493137
0.945588 0.977451 0.410294
1.000000 1.000000 0.144118
0.603922 0.984314 0.704902
0.615686 0.984314 0.704902
0.642157 0.988235 0.705882
0.684804 0.996078 0.705882
0.743137 1.000000 0.704902
0.817157 1.000000 0.699510
0.895098 1.000000 0.682353
0.974510 1.000000 0.637745
1.000000 1.000000 0.477451
0.000000 0.000000 0.194608
0.038726 0.000000 0.190686
0.131372 0.000000 0.190686
0.251961 0.000000 0.194608
0.392157 0.003922 0.186765
0.563725 0.036765 0.169608
0.727451 0.082353 0.149020
0.871568 0.106372 0.184804
1.000000 0.129412 0.219608
0.015686 0.066177 0.241667
0.063235 0.071078 0.241667
0.154902 0.077941 0.244118
0.275490 0.089706 0.245098
0.411764 0.100981 0.237745
0.575490 0.113235 0.225490
0.731373 0.117157 0.194608
0.875490 0.106372 0.188235
1.000000 0.129412 0.223529
0.081373 0.178431 0.275490
0.112745 0.179412 0.275980
0.178431 0.183824 0.279902
0.295588 0.191176 0.283334
0.433334 0.199020 0.279412
0.594118 0.206863 0.260294
0.746078 0.208824 0.227451
0.891176 0.201471 0.167157
1.000000 0.133333 0.223529
0.091667 0.306863 0.314706
0.112255 0.306863 0.314706
0.205882 0.314706 0.318628
0.322549 0.322549 0.322549
0.462746 0.330392 0.318628
0.616176 0.338235 0.302941
0.762745 0.342157 0.262745
0.906862 0.330392 0.196569
1.000000 0.271569 0.185784
0.103431 0.464706 0.365196
0.132353 0.466666 0.365686
0.230393 0.472549 0.369118
0.353432 0.480393 0.369118
0.496078 0.492157 0.365686
0.641667 0.501961 0.350490
0.782353 0.507844 0.313236
0.922549 0.507844 0.227941
1.000000 0.482843 0.119608
0.139216 0.618627 0.429902
0.187255 0.622549 0.431373
0.279412 0.626470 0.433824
0.402451 0.638235 0.435294
0.533334 0.649510 0.431373
0.665686 0.661765 0.415686
0.797059 0.673529 0.377941
0.927941 0.685294 0.295588
1.000000 0.690686 0.106863
0.272549 0.761764 0.509314
0.303432 0.762745 0.509314
0.372549 0.769607 0.511765
0.470098 0.778432 0.513235
0.579412 0.790196 0.510294
0.693137 0.801961 0.499510
0.813726 0.817647 0.468627
0.933823 0.837255 0.390196
1.000000 0.860785 0.166177
0.420588 0.887255 0.603432
0.440686 0.888726 0.606863
0.486275 0.894608 0.606863
0.556373 0.902451 0.607353
0.641667 0.910784 0.606863
0.735294 0.923530 0.599020
0.836765 0.940196 0.575490
0.938235 0.959314 0.516667
1.000000 0.994117 0.324020
0.603922 0.976471 0.743627
0.615686 0.980392 0.743627
0.642157 0.980882 0.745098
0.684804 0.988235 0.747549
0.739216 0.996078 0.747549
0.809314 1.000000 0.745098
0.891177 1.000000 0.734804
0.967157 1.000000 0.700000
1.000000 1.000000 0.571078
0.000000 0.000000 0.284314
0.023039 0.000000 0.286274
0.112745 0.000000 0.290196
0.232353 0.000000 0.292157
0.376471 0.000000 0.288235
0.551961 0.015196 0.265196
0.719608 0.059804 0.226470
0.871568 0.106372 0.188235
1.000000 0.129412 0.223529
0.007843 0.057844 0.330882
0.048039 0.061765 0.334804
0.136274 0.066177 0.338725
0.257353 0.075490 0.346569
0.396079 0.085785 0.346569
0.563725 0.097549 0.334804
0.719608 0.105392 0.298039
0.871568 0.098039 0.241667
1.000000 0.129412 0.223529
0.063725 0.168627 0.368627
0.094608 0.170588 0.369608
0.160784 0.176471 0.376471
0.277941 0.182353 0.384313
0.418627 0.190196 0.387255
0.579412 0.194117 0.380393
0.731373 0.195098 0.349019
0.879412 0.188235 0.281863
1.000000 0.149019 0.219608
0.085294 0.295098 0.412255
0.104902 0.299020 0.417157
0.182353 0.302941 0.422059
0.302941 0.310785 0.427941
0.447059 0.318628 0.431373
0.602941 0.326471 0.424020
0.750981 0.326961 0.397549
0.895098 0.318628 0.331373
1.000000 0.285294 0.206373
0.082353 0.454902 0.462746
0.113235 0.458333 0.462746
0.202941 0.462746 0.470588
0.332353 0.470588 0.474510
0.480393 0.480393 0.480393
0.626470 0.490196 0.474510
0.766667 0.494117 0.448039
0.906862 0.490196 0.389216
1.000000 0.474510 0.241177
0.090687 0.610294 0.517157
0.152941 0.610784 0.521078
0.256373 0.617157 0.525000
0.384314 0.626470 0.530882
0.519118 0.638235 0.534804
0.651471 0.646078 0.530882
0.782353 0.657843 0.510294
0.914705 0.665686 0.449510
1.000000 0.669118 0.297549
0.248039 0.750981 0.583333
0.283824 0.753922 0.587255
0.356863 0.758824 0.591176
0.456863 0.766667 0.595098
0.567647 0.778432 0.599019
0.684804 0.790196 0.595098
0.801961 0.801961 0.577451
0.922549 0.816176 0.529902
1.000000 0.833334 0.379412
0.409314 0.878921 0.665686
0.430392 0.879412 0.669118
0.478431 0.883333 0.669608
0.548039 0.891176 0.673039
0.633824 0.902451 0.676961
0.728431 0.913725 0.673529
0.829412 0.926470 0.661275
0.930392 0.942156 0.622059
1.000000 0.967647 0.491177
0.601961 0.970588 0.786274
0.611765 0.972549 0.788235
0.639216 0.976471 0.790196
0.682353 0.980392 0.794118
0.739216 0.988235 0.796078
0.805392 1.000000 0.796078
0.883333 1.000000 0.790196
0.957353 1.000000 0.766666
1.000000 1.000000 0.668627
0.000000 0.000000 0.389706
0.007843 0.000000 0.393627
0.086765 0.000000 0.399019
0.210294 0.000000 0.409314
0.356862 0.000000 0.414706
0.532353 0.000000 0.402941
0.700000 0.023039 0.362745
0.863725 0.078921 0.284804
1.000000 0.129412 0.223529
0.000000 0.046569 0.440196
0.026961 0.050000 0.445588
0.108823 0.053431 0.452941
0.232353 0.062255 0.465196
0.373039 0.070098 0.471569
0.544118 0.077941 0.469608
0.702941 0.081863 0.449510
0.855882 0.075980 0.386275
1.000000 0.124020 0.252941
0.042157 0.159804 0.477451
0.071569 0.162745 0.481372
0.137745 0.166666 0.489216
0.251961 0.174510 0.502451
0.396079 0.178431 0.510784
0.559804 0.182353 0.515687
0.713236 0.176961 0.497059
0.862745 0.165196 0.447059
1.000000 0.144118 0.322059
0.070588 0.288235 0.513726
0.091667 0.291177 0.517647
0.145588 0.295098 0.528431
0.275490 0.302941 0.540196
0.425981 0.310785 0.550000
0.583333 0.314706 0.555882
0.731373 0.314706 0.542647
0.875490 0.300000 0.498039
1.000000 0.266176 0.379412
0.049510 0.447059 0.555882
0.084314 0.450981 0.559804
0.165196 0.454902 0.564215
0.304902 0.462746 0.575980
0.460784 0.472549 0.587745
0.607353 0.478431 0.595098
0.750981 0.480393 0.587255
0.891176 0.474510 0.549020
1.000000 0.451471 0.437745
0.053431 0.599020 0.602941
0.099020 0.602941 0.605392
0.221568 0.606863 0.610784
0.361765 0.614706 0.622549
0.501961 0.626470 0.630392
0.638235 0.635784 0.635784
0.770588 0.643137 0.630392
0.899019 0.646078 0.599019
1.000000 0.642157 0.494608
0.213236 0.743137 0.657353
0.252451 0.743137 0.661275
0.333333 0.750000 0.665196
0.438725 0.757843 0.673529
0.552941 0.766667 0.681372
0.673039 0.778432 0.685294
0.790196 0.789706 0.681372
0.910784 0.798039 0.654412
1.000000 0.805883 0.560784
0.393137 0.867647 0.727451
0.415196 0.871078 0.730392
0.462745 0.875000 0.734313
0.536274 0.882843 0.739216
0.623039 0.890686 0.745098
0.719608 0.902451 0.747549
0.821569 0.914215 0.747059
0.922549 0.926470 0.723530
1.000000 0.942157 0.638725
0.596078 0.964706 0.828922
0.607843 0.964706 0.828922
0.635294 0.968627 0.832843
0.678431 0.972549 0.836765
0.735294 0.980392 0.843137
0.801471 0.992157 0.848529
0.875490 1.000000 0.848529
0.949510 1.000000 0.835294
1.000000 1.000000 0.766176
0.000000 0.000000 0.506862
0.000000 0.000000 0.514706
0.053921 0.000000 0.523530
0.177451 0.000000 0.539216
0.329411 0.000000 0.550981
0.504902 0.000000 0.554902
0.676471 0.000000 0.531373
0.839706 0.026961 0.468628
0.999019 0.104902 0.320588
0.000000 0.042647 0.545588
0.007843 0.046079 0.553431
0.075490 0.050000 0.565196
0.203431 0.052941 0.582353
0.349019 0.058334 0.598039
0.520588 0.062255 0.609804
0.680392 0.060784 0.605393
0.832353 0.050490 0.565686
0.984314 0.069608 0.445098
0.018627 0.155883 0.576471
0.044608 0.158823 0.582353
0.110784 0.162745 0.594118
0.222549 0.167647 0.611765
0.369608 0.174510 0.627451
0.538235 0.174510 0.642647
0.692157 0.165686 0.645098
0.840196 0.144117 0.618137
0.984314 0.114706 0.523529
0.046078 0.287255 0.608824
0.069118 0.289706 0.612745
0.118137 0.295098 0.623039
0.244118 0.299020 0.641177
0.400000 0.306863 0.657843
0.561275 0.310785 0.675000
0.711765 0.305882 0.678922
0.855882 0.287255 0.660785
0.992157 0.241667 0.583333
0.001961 0.443137 0.642157
0.039706 0.447059 0.646078
0.126470 0.450980 0.655883
0.269608 0.458823 0.669608
0.436275 0.466667 0.688236
0.587255 0.474510 0.701470
0.732353 0.474510 0.707843
0.871568 0.464216 0.696079
1.000000 0.429412 0.634314
0.028922 0.595098 0.680882
0.050980 0.595098 0.684804
0.164706 0.602941 0.692647
0.328431 0.610784 0.704412
0.478432 0.618627 0.720098
0.618627 0.630392 0.735294
0.754902 0.634314 0.739706
0.886275 0.634314 0.731373
1.000000 0.620098 0.674019
0.161765 0.735294 0.727451
0.205392 0.735294 0.731373
0.299019 0.742156 0.739216
0.413725 0.750000 0.750981
0.533334 0.758824 0.762745
0.657353 0.769607 0.773529
0.778432 0.778432 0.778432
0.899019 0.785294 0.770588
1.000000 0.782353 0.716667
0.369117 0.859804 0.785784
0.389706 0.862745 0.789706
0.442647 0.867157 0.793627
0.517157 0.871568 0.801471
0.608334 0.882843 0.812745
0.708333 0.891176 0.821078
0.813236 0.902941 0.825000
0.914706 0.914215 0.817647
1.000000 0.922059 0.767157
0.588235 0.956863 0.866667
0.600000 0.960784 0.867647
0.627451 0.960784 0.871568
0.673039 0.968627 0.876961
0.731372 0.974510 0.884314
0.797549 0.984314 0.891667
0.871568 0.992157 0.899020
0.941666 1.000000 0.898039
1.000000 1.000000 0.855883
0.000000 0.000000 0.612745
0.000000 0.000000 0.624019
0.022059 0.000000 0.636274
0.145588 0.000000 0.655882
0.299510 0.000000 0.675490
0.478432 0.000000 0.695098
0.645098 0.000000 0.699019
0.808823 0.000000 0.663235
0.972059 0.038726 0.546569
0.000000 0.047059 0.640196
0.000000 0.050000 0.651470
0.041176 0.053922 0.666667
0.169118 0.057844 0.685294
0.319118 0.058334 0.710784
0.494118 0.058334 0.734313
0.656863 0.052941 0.746078
0.808823 0.030392 0.737745
0.952941 0.007843 0.671569
0.003922 0.159804 0.667157
0.018628 0.162745 0.674020
0.079902 0.166666 0.687255
0.183333 0.171569 0.709314
0.339216 0.178431 0.731863
0.512745 0.178431 0.757843
0.672549 0.166666 0.775981
0.820588 0.136274 0.775981
0.959314 0.087745 0.729902
0.020098 0.291177 0.693137
0.031863 0.295098 0.698529
0.083824 0.299020 0.710784
0.199020 0.305392 0.732353
0.366667 0.310785 0.755392
0.536274 0.314706 0.781372
0.689216 0.306863 0.799019
0.836274 0.286765 0.803432
0.972549 0.232353 0.774020
0.000000 0.443138 0.720098
0.000000 0.447058 0.725980
0.071568 0.450981 0.735784
0.218137 0.458823 0.753921
0.401470 0.468628 0.777451
0.561275 0.475000 0.800980
0.711765 0.475000 0.818137
0.851961 0.464216 0.824510
0.985784 0.421569 0.802941
0.000000 0.591176 0.753431
0.013726 0.595098 0.757353
0.078431 0.599019 0.766667
0.280393 0.606863 0.782353
0.444608 0.618627 0.804412
0.592647 0.626470 0.824019
0.735294 0.630392 0.840196
0.867647 0.630392 0.847549
0.993137 0.608333 0.828431
0.059804 0.727451 0.792647
0.126471 0.731373 0.796568
0.239216 0.735294 0.804412
0.374509 0.743137 0.817157
0.506373 0.754902 0.832844
0.633824 0.762745 0.851470
0.762255 0.770588 0.864216
0.883333 0.774510 0.872059
0.996078 0.770588 0.855882
0.323039 0.851961 0.835784
0.349510 0.855392 0.839706
0.407843 0.859314 0.844117
0.489706 0.867157 0.855392
0.586765 0.875000 0.867647
0.692157 0.883333 0.882843
0.798039 0.894608 0.895098
0.902941 0.902941 0.902941
0.996078 0.906372 0.883333
0.572549 0.952941 0.894608
0.587255 0.952941 0.898039
0.614706 0.956863 0.901961
0.660784 0.962745 0.909804
0.719608 0.968627 0.918137
0.789706 0.977941 0.929902
0.867157 0.988235 0.941176
0.933823 0.996078 0.945588
1.000000 1.000000 0.933823
0.000000 0.000000 0.709804
0.000000 0.000000 0.721079
0.002942 0.000000 0.737255
0.106863 0.000000 0.759314
0.266667 0.000000 0.788235
0.451471 0.000000 0.817157
0.621569 0.000000 0.839216
0.781372 0.000000 0.838726
0.937255 0.000000 0.780392
0.000000 0.062255 0.725490
0.000000 0.065687 0.737255
0.011765 0.069608 0.752941
0.122549 0.073530 0.779902
0.286275 0.077451 0.807843
0.469118 0.073530 0.840686
0.633334 0.060785 0.870588
0.785784 0.026961 0.885785
0.929412 0.000000 0.866667
0.000000 0.174510 0.749020
0.000000 0.175490 0.755882
0.042157 0.178431 0.771568
0.145098 0.186274 0.794608
0.300000 0.189216 0.826471
0.484313 0.194117 0.858824
0.646078 0.185294 0.889216
0.797549 0.150980 0.908824
0.937255 0.084314 0.905882
0.003922 0.306863 0.768627
0.007843 0.306863 0.772549
0.030392 0.310785 0.786765
0.118627 0.318628 0.810294
0.319608 0.326471 0.839216
0.502451 0.330392 0.872059
0.664706 0.327942 0.901961
0.816666 0.302451 0.925490
0.952941 0.244118 0.929412
0.000000 0.450981 0.788235
0.000000 0.454902 0.792157
0.002942 0.458823 0.805882
0.130882 0.466667 0.825490
0.350981 0.478432 0.854902
0.525980 0.486274 0.883824
0.684314 0.488235 0.910784
0.832353 0.474509 0.935294
0.968627 0.435295 0.943137
0.000000 0.595098 0.811765
0.000000 0.595098 0.815686
0.006373 0.602941 0.827451
0.185294 0.610784 0.847059
0.393627 0.622549 0.872549
0.557353 0.631863 0.898039
0.707843 0.638235 0.922549
0.848039 0.634314 0.945098
0.976471 0.612255 0.956863
0.000000 0.727451 0.839216
0.000000 0.731373 0.843137
0.110785 0.735294 0.851961
0.302451 0.748529 0.867647
0.455882 0.754902 0.887255
0.599020 0.766667 0.910784
0.735294 0.774510 0.934313
0.863725 0.778432 0.956863
0.980392 0.766667 0.968627
0.218137 0.848039 0.870588
0.256372 0.851470 0.874510
0.333824 0.855392 0.882353
0.431372 0.863235 0.894118
0.545588 0.871568 0.909804
0.658333 0.882843 0.929412
0.775000 0.891176 0.949020
0.887255 0.902451 0.968627
0.984314 0.899019 0.980392
0.533333 0.945098 0.917647
0.545098 0.949020 0.917647
0.576471 0.952941 0.925490
0.629902 0.956863 0.933333
0.694117 0.964706 0.943137
0.770098 0.972549 0.956863
0.851961 0.984314 0.972549
0.925980 0.992157 0.988235
1.000000 1.000000 1.000000
