Color/Agfa/Agfa Ultra Color 100 65x.cube
TITLE "Agfa Ultra Color 100"
LUT_3D_SIZE 9
DOMAIN_MIN 0.000000 0.000000 0.000000
DOMAIN_MAX 1.000000 1.000000 1.000000
0.000000 0.000000 0.000000
0.046569 0.000000 0.000000
0.112745 0.000000 0.000000
0.198529 0.000000 0.000000
0.321569 0.000000 0.000000
0.481372 0.000000 0.000000
0.649020 0.000000 0.000000
0.773529 0.000000 0.000000
0.882353 0.000000 0.000000
0.050490 0.097549 0.007843
0.093628 0.081863 0.007353
0.159804 0.054412 0.003922
0.244118 0.023039 0.003432
0.364706 0.000000 0.000000
0.520098 0.000000 0.000000
0.672549 0.000000 0.000000
0.785294 0.000000 0.000000
0.881863 0.000000 0.000000
0.116667 0.205882 0.039216
0.143628 0.194117 0.038235
0.190196 0.174510 0.034314
0.283334 0.140686 0.026471
0.409804 0.086275 0.014706
0.566667 0.020098 0.003922
0.713725 0.000000 0.000000
0.823040 0.000000 0.000000
0.912745 0.000000 0.006863
0.096569 0.368137 0.073039
0.139215 0.361765 0.069608
0.225000 0.344608 0.069118
0.340686 0.310785 0.061275
0.480883 0.262255 0.047549
0.636765 0.194117 0.027451
0.776961 0.124020 0.019608
0.881372 0.046079 0.022059
0.963235 0.000000 0.041667
0.094118 0.586275 0.086275
0.150001 0.576961 0.086275
0.263726 0.561764 0.086275
0.402941 0.534804 0.078431
0.562745 0.492157 0.070588
0.726471 0.433824 0.058824
0.858824 0.375490 0.054902
0.963235 0.313235 0.064706
1.000000 0.237255 0.092157
0.161274 0.775490 0.062745
0.225981 0.771568 0.061275
0.342157 0.755882 0.065196
0.490196 0.729902 0.066667
0.650490 0.692647 0.066667
0.808334 0.650000 0.062745
0.931863 0.607353 0.070588
1.000000 0.560785 0.086765
1.000000 0.506373 0.125490
0.351961 0.907843 0.000000
0.394608 0.900490 0.000000
0.480392 0.891177 0.000000
0.606863 0.866176 0.014706
0.753922 0.835294 0.026471
0.881862 0.800490 0.038236
0.993137 0.766667 0.053921
1.000000 0.730882 0.078431
1.000000 0.688236 0.121569
0.566667 1.000000 0.000000
0.589707 1.000000 0.000000
0.657843 0.992647 0.000000
0.752942 0.971079 0.000000
0.863726 0.949510 0.000000
0.966667 0.925980 0.000000
1.000000 0.898529 0.000000
1.000000 0.867157 0.019118
1.000000 0.836274 0.101471
0.843137 1.000000 0.000000
0.858824 1.000000 0.000000
0.897059 1.000000 0.000000
0.951471 1.000000 0.000000
1.000000 1.000000 0.000000
1.000000 1.000000 0.000000
1.000000 0.996078 0.000000
1.000000 0.972549 0.000000
1.000000 0.949020 0.000000
0.000000 0.000000 0.046569
0.023529 0.000000 0.042647
0.089216 0.000000 0.038726
0.177941 0.000000 0.030883
0.304412 0.000000 0.019118
0.465686 0.000000 0.007843
0.625980 0.000000 0.003432
0.749510 0.000000 0.003922
0.854902 0.000000 0.015196
0.030883 0.085785 0.070098
0.070098 0.069608 0.066177
0.139706 0.042647 0.062255
0.225490 0.012745 0.055392
0.348529 0.000000 0.040196
0.500980 0.000000 0.023039
0.652941 0.000000 0.011275
0.764706 0.000000 0.011765
0.854902 0.000000 0.026961
0.104902 0.195098 0.093628
0.128432 0.186274 0.093137
0.174510 0.163725 0.088725
0.271569 0.128922 0.077941
0.399510 0.078431 0.062255
0.550981 0.013235 0.046569
0.695588 0.000000 0.030883
0.803432 0.000000 0.034804
0.890196 0.000000 0.058334
0.070588 0.361765 0.113235
0.119608 0.356372 0.113235
0.213235 0.336764 0.109314
0.328921 0.305392 0.101961
0.471569 0.256373 0.089706
0.626471 0.190196 0.074020
0.763235 0.116177 0.064706
0.865686 0.040196 0.070588
0.947549 0.000000 0.097549
0.078432 0.582353 0.117647
0.128921 0.576470 0.117157
0.251470 0.561274 0.117157
0.395098 0.531373 0.113235
0.552941 0.488235 0.105882
0.714706 0.429902 0.097549
0.847059 0.372549 0.097549
0.948039 0.309804 0.109804
1.000000 0.233333 0.142647
0.127941 0.775490 0.084314
0.202451 0.769608 0.084314
0.330392 0.755882 0.088235
0.478431 0.729902 0.091176
0.639216 0.692647 0.094118
0.796569 0.648529 0.097549
0.917647 0.606863 0.105392
1.000000 0.560784 0.125980
1.000000 0.506373 0.168137
0.332843 0.907843 0.000000
0.377941 0.903922 0.000000
0.470588 0.889216 0.006863
0.595098 0.867647 0.024020
0.742157 0.835294 0.045588
0.870588 0.801961 0.061275
0.978432 0.766667 0.080882
1.000000 0.731373 0.108824
1.000000 0.692157 0.183824
0.551471 1.000000 0.000000
0.578432 1.000000 0.000000
0.643627 0.993627 0.000000
0.743627 0.974510 0.000000
0.851471 0.949510 0.000000
0.952451 0.925980 0.000000
1.000000 0.898529 0.000000
1.000000 0.871078 0.043137
1.000000 0.839706 0.179902
0.835294 1.000000 0.000000
0.850980 1.000000 0.000000
0.885785 1.000000 0.000000
0.939706 1.000000 0.000000
1.000000 1.000000 0.000000
1.000000 1.000000 0.000000
1.000000 0.999019 0.000000
1.000000 0.975981 0.000000
1.000000 0.952941 0.037255
0.000000 0.000000 0.116667
0.011765 0.000000 0.108823
0.073529 0.000000 0.104902
0.163235 0.000000 0.097059
0.290196 0.000000 0.085294
0.452451 0.000000 0.067157
0.609804 0.000000 0.056863
0.729902 0.000000 0.065687
0.831373 0.000000 0.097059
0.015686 0.077451 0.136274
0.050000 0.058334 0.135784
0.117157 0.031373 0.131862
0.208824 0.007353 0.124019
0.329902 0.000000 0.108823
0.483333 0.000000 0.092647
0.629902 0.000000 0.080392
0.737745 0.000000 0.085785
0.824510 0.000000 0.112745
0.086275 0.186274 0.158823
0.108823 0.174510 0.155883
0.154902 0.151961 0.151961
0.252451 0.117157 0.147059
0.383333 0.063725 0.135294
0.533824 0.005392 0.119608
0.672549 0.000000 0.111764
0.775981 0.000000 0.119608
0.861765 0.000000 0.147059
0.050000 0.352451 0.179412
0.082843 0.345098 0.179412
0.187255 0.325981 0.177941
0.310294 0.293627 0.171569
0.452941 0.243628 0.162745
0.605392 0.174510 0.150980
0.736764 0.104412 0.147059
0.834314 0.030392 0.158823
0.916176 0.000000 0.186274
0.042157 0.576470 0.191176
0.095588 0.570588 0.191176
0.217647 0.553921 0.190196
0.371569 0.523529 0.186274
0.531373 0.480393 0.178431
0.694118 0.424510 0.174510
0.819608 0.367647 0.179412
0.919118 0.305392 0.198529
0.998039 0.227451 0.233333
0.059804 0.773039 0.190196
0.138725 0.767647 0.190196
0.292157 0.751961 0.186274
0.451961 0.728431 0.183334
0.616176 0.691177 0.182353
0.770098 0.646078 0.182353
0.888726 0.606863 0.196568
0.989215 0.560784 0.224020
1.000000 0.506373 0.268627
0.286275 0.907843 0.170588
0.336765 0.903922 0.170588
0.433334 0.891177 0.170588
0.566176 0.867647 0.168627
0.712745 0.835294 0.170588
0.840196 0.801961 0.181373
0.947059 0.770588 0.202941
1.000000 0.734804 0.238235
1.000000 0.692157 0.294118
0.516667 1.000000 0.133823
0.543627 1.000000 0.131372
0.609314 0.996568 0.129902
0.709314 0.976961 0.129902
0.817157 0.953431 0.137745
0.915686 0.929902 0.154902
1.000000 0.902451 0.185784
1.000000 0.875000 0.233824
1.000000 0.843627 0.307843
0.808823 1.000000 0.000000
0.824019 1.000000 0.000000
0.858824 1.000000 0.000000
0.912255 1.000000 0.000000
0.974510 1.000000 0.000000
1.000000 1.000000 0.000000
1.000000 1.000000 0.003922
1.000000 0.980392 0.091177
1.000000 0.956863 0.228432
0.000000 0.000000 0.190686
0.000981 0.000000 0.186765
0.050000 0.000000 0.185294
0.143627 0.000000 0.178922
0.274509 0.000000 0.167647
0.434314 0.000000 0.155392
0.586275 0.000000 0.150000
0.702451 0.000000 0.161765
0.803922 0.000000 0.193137
0.003922 0.063235 0.220588
0.023039 0.046569 0.217647
0.089216 0.023039 0.216667
0.178922 0.003432 0.210294
0.305883 0.000000 0.200981
0.457353 0.000000 0.186274
0.598039 0.000000 0.181373
0.702451 0.000000 0.189216
0.796078 0.000000 0.213725
0.057843 0.171569 0.248529
0.078431 0.160294 0.248529
0.124510 0.140196 0.248039
0.225000 0.101471 0.241667
0.353432 0.047059 0.232843
0.503922 0.001471 0.221078
0.637745 0.000000 0.216667
0.738235 0.000000 0.224510
0.824019 0.000000 0.248039
0.047059 0.338235 0.283334
0.065196 0.330392 0.283334
0.144608 0.310785 0.281863
0.277941 0.275490 0.275490
0.421569 0.225000 0.268137
0.574019 0.158823 0.259804
0.700000 0.088726 0.258333
0.796568 0.016177 0.267647
0.876961 0.000000 0.291177
0.000000 0.566666 0.314706
0.026471 0.560784 0.314706
0.154902 0.543138 0.312745
0.332353 0.515196 0.308824
0.496078 0.468627 0.304902
0.657353 0.414216 0.299020
0.779412 0.355882 0.302941
0.878921 0.293628 0.316667
0.962255 0.211765 0.344118
0.002451 0.770588 0.336765
0.030883 0.763725 0.336765
0.214706 0.749020 0.335784
0.398530 0.724510 0.334314
0.573529 0.687255 0.330392
0.727451 0.643628 0.330392
0.844118 0.603431 0.339215
0.948530 0.556863 0.358333
1.000000 0.501471 0.394608
0.162255 0.907843 0.350000
0.236275 0.903922 0.348529
0.360784 0.891177 0.348529
0.510294 0.867647 0.346078
0.661275 0.837255 0.346078
0.788725 0.805392 0.350980
0.897549 0.773529 0.364216
0.994608 0.735784 0.387745
1.000000 0.694608 0.432353
0.444608 1.000000 0.336764
0.474510 1.000000 0.336274
0.543627 0.997549 0.334314
0.650490 0.980882 0.336274
0.757353 0.957843 0.340196
0.858824 0.933823 0.350000
0.956863 0.909804 0.368137
1.000000 0.878921 0.397549
1.000000 0.848039 0.451961
0.758333 1.000000 0.217647
0.773529 1.000000 0.217647
0.805392 1.000000 0.217647
0.856373 1.000000 0.221569
0.917157 1.000000 0.229412
0.987255 1.000000 0.245098
1.000000 1.000000 0.271078
1.000000 0.991667 0.313725
1.000000 0.968627 0.403431
0.000000 0.000000 0.292157
0.000000 0.000000 0.292157
0.019608 0.000000 0.292157
0.112745 0.000000 0.288235
0.245098 0.000000 0.278431
0.406863 0.000000 0.266667
0.553921 0.000000 0.262745
0.669608 0.000000 0.272549
0.770588 0.000000 0.298040
0.000000 0.046569 0.332843
0.003922 0.026961 0.332843
0.044118 0.011275 0.330882
0.141176 0.000000 0.326961
0.266667 0.000000 0.317647
0.418627 0.000000 0.303921
0.556373 0.000000 0.297549
0.659314 0.000000 0.302451
0.758823 0.000000 0.329411
0.016667 0.152941 0.371569
0.035784 0.143137 0.371569
0.085294 0.120588 0.371569
0.182353 0.081863 0.365686
0.314706 0.027451 0.356862
0.462745 0.000000 0.344118
0.592157 0.000000 0.340196
0.691667 0.000000 0.348039
0.776471 0.000000 0.367647
0.027451 0.317157 0.418137
0.047549 0.307353 0.418137
0.114215 0.287745 0.415687
0.232353 0.251961 0.410294
0.378922 0.199510 0.402451
0.528921 0.131862 0.392157
0.649510 0.061275 0.390686
0.744117 0.004412 0.398530
0.824019 0.000000 0.416177
0.000000 0.550980 0.464706
0.000000 0.543138 0.462746
0.046079 0.526470 0.460784
0.275490 0.495588 0.456863
0.449020 0.449020 0.449020
0.610784 0.394118 0.443628
0.727451 0.336274 0.445098
0.825980 0.274020 0.455392
0.911764 0.190196 0.472549
0.000000 0.763725 0.499510
0.000000 0.755882 0.499510
0.092647 0.742647 0.496078
0.328431 0.716667 0.494118
0.519118 0.679412 0.488235
0.673039 0.638235 0.487745
0.790196 0.595588 0.491667
0.894608 0.549020 0.503431
0.987745 0.490687 0.521568
0.000000 0.907843 0.523529
0.056373 0.900490 0.522549
0.254902 0.888236 0.521568
0.438726 0.866177 0.517648
0.599019 0.835294 0.515686
0.727451 0.805392 0.517648
0.839216 0.773529 0.525490
0.944608 0.735784 0.537254
1.000000 0.693137 0.556863
0.346078 1.000000 0.525490
0.382843 1.000000 0.524020
0.461765 1.000000 0.523039
0.574020 0.984804 0.521568
0.684804 0.963725 0.523529
0.792157 0.940686 0.529411
0.894118 0.914215 0.537254
0.992647 0.883333 0.552941
1.000000 0.851961 0.580392
0.684314 1.000000 0.452941
0.697549 1.000000 0.452941
0.731372 1.000000 0.452941
0.782843 1.000000 0.452941
0.847059 1.000000 0.460784
0.917157 1.000000 0.468628
0.993137 1.000000 0.484314
1.000000 1.000000 0.507844
1.000000 0.976471 0.556863
0.000000 0.000000 0.422549
0.000000 0.000000 0.422549
0.000000 0.000000 0.422549
0.074020 0.000000 0.418627
0.211764 0.000000 0.410294
0.371568 0.000000 0.399019
0.514216 0.000000 0.395098
0.627941 0.000000 0.402941
0.731863 0.000000 0.421078
0.000000 0.023039 0.469118
0.000000 0.011275 0.469608
0.006863 0.000000 0.469118
0.089216 0.000000 0.465196
0.217647 0.000000 0.453922
0.371568 0.000000 0.441667
0.502451 0.000000 0.434314
0.615196 0.000000 0.440686
0.720098 0.000000 0.453922
0.000000 0.125980 0.515687
0.003922 0.114215 0.516667
0.035784 0.089216 0.515687
0.133333 0.049020 0.511765
0.264216 0.008823 0.501960
0.412255 0.000000 0.486765
0.536764 0.000000 0.478921
0.637255 0.000000 0.477451
0.725490 0.000000 0.482843
0.015686 0.283334 0.569118
0.042647 0.275490 0.567647
0.082353 0.252941 0.566176
0.183824 0.216667 0.558333
0.328431 0.162745 0.548529
0.478431 0.094608 0.533333
0.595098 0.027451 0.525490
0.691667 0.000000 0.521569
0.775000 0.000000 0.525490
0.000000 0.523529 0.618627
0.000000 0.516177 0.616667
0.021078 0.496569 0.612745
0.213725 0.467157 0.606863
0.402451 0.420098 0.595098
0.561765 0.363235 0.583333
0.677451 0.308334 0.575980
0.778922 0.242157 0.573529
0.864706 0.153431 0.575980
0.000000 0.748039 0.655392
0.000000 0.744117 0.653922
0.000000 0.728431 0.650000
0.258333 0.702451 0.642157
0.472059 0.665196 0.634314
0.624020 0.622549 0.624020
0.743627 0.583333 0.619117
0.851961 0.533333 0.618627
0.949020 0.471078 0.626470
0.000000 0.900000 0.677451
0.000000 0.896079 0.677451
0.135784 0.882843 0.673529
0.376470 0.859314 0.665686
0.546078 0.831373 0.657843
0.676961 0.800490 0.653922
0.793627 0.766667 0.650000
0.901961 0.731373 0.653431
0.996078 0.687746 0.661275
0.237745 1.000000 0.685294
0.287745 1.000000 0.685294
0.382843 1.000000 0.681373
0.506373 0.984804 0.675980
0.625980 0.965196 0.672549
0.735294 0.941666 0.669608
0.844608 0.914706 0.669608
0.948530 0.886765 0.673529
1.000000 0.851961 0.687745
0.606373 1.000000 0.651471
0.621568 1.000000 0.651471
0.656373 1.000000 0.650000
0.710784 1.000000 0.647549
0.776961 1.000000 0.646078
0.852451 1.000000 0.646078
0.933823 1.000000 0.650000
1.000000 1.000000 0.656863
1.000000 0.984314 0.681372
0.000000 0.000000 0.574510
0.000000 0.000000 0.570588
0.000000 0.000000 0.570588
0.032353 0.000000 0.562745
0.172549 0.000000 0.550981
0.336764 0.000000 0.534313
0.475490 0.000000 0.523530
0.592157 0.000000 0.522549
0.698039 0.000000 0.526471
0.000000 0.003432 0.617157
0.000000 0.000000 0.613726
0.000000 0.000000 0.609804
0.036275 0.000000 0.602941
0.169608 0.000000 0.586275
0.332353 0.000000 0.566667
0.467647 0.000000 0.557353
0.580882 0.000000 0.550981
0.686275 0.000000 0.553922
0.000000 0.087255 0.655882
0.000000 0.073039 0.652941
0.003922 0.046078 0.649020
0.090196 0.012255 0.637255
0.221568 0.000000 0.621569
0.369608 0.000000 0.601961
0.490196 0.000000 0.589215
0.590686 0.000000 0.580392
0.682353 0.000000 0.576471
0.006373 0.235294 0.696079
0.014216 0.225981 0.693627
0.064216 0.203922 0.688236
0.153922 0.164706 0.676471
0.293628 0.110294 0.660785
0.440686 0.040196 0.642647
0.548530 0.001471 0.629412
0.645098 0.000000 0.619117
0.730882 0.000000 0.615196
0.000000 0.481373 0.736274
0.000000 0.473530 0.735294
0.026470 0.453922 0.728431
0.189706 0.422549 0.719608
0.378432 0.373529 0.703922
0.526471 0.319118 0.688236
0.638235 0.260784 0.677451
0.735784 0.191177 0.669608
0.818627 0.095098 0.661765
0.000000 0.725000 0.771078
0.000000 0.718137 0.770588
0.000000 0.704902 0.765686
0.230883 0.676471 0.753921
0.445588 0.638725 0.743137
0.591666 0.599510 0.731373
0.708333 0.556372 0.723530
0.816666 0.506373 0.716177
0.910294 0.437255 0.715687
0.000000 0.887255 0.794118
0.000000 0.880392 0.794118
0.093137 0.867647 0.787255
0.345588 0.845098 0.778432
0.510784 0.817647 0.770588
0.641667 0.789706 0.762745
0.757843 0.757843 0.757843
0.867157 0.719608 0.753922
0.964706 0.673529 0.754902
0.153432 1.000000 0.805883
0.221569 1.000000 0.804902
0.336765 0.995588 0.800981
0.463726 0.980882 0.794118
0.580883 0.961274 0.790196
0.695588 0.938235 0.785785
0.805393 0.913725 0.781863
0.909804 0.883333 0.778432
1.000000 0.851961 0.785294
0.555883 1.000000 0.794118
0.571078 1.000000 0.794118
0.605882 1.000000 0.793137
0.660294 1.000000 0.790196
0.727451 1.000000 0.786275
0.804412 1.000000 0.782353
0.887255 1.000000 0.778432
0.972059 1.000000 0.778432
1.000000 0.992157 0.793137
0.000000 0.000000 0.702451
0.000000 0.000000 0.694608
0.000000 0.000000 0.688236
0.014216 0.000000 0.676961
0.152942 0.000000 0.659804
0.316667 0.000000 0.639706
0.449020 0.000000 0.627451
0.561764 0.000000 0.620098
0.670098 0.000000 0.616176
0.000000 0.000000 0.729902
0.000000 0.000000 0.725980
0.000000 0.000000 0.718627
0.018137 0.000000 0.706863
0.152942 0.000000 0.690686
0.312745 0.000000 0.673039
0.441177 0.000000 0.655392
0.553431 0.000000 0.647549
0.658824 0.000000 0.643627
0.000000 0.028922 0.757843
0.000000 0.018137 0.756373
0.000000 0.003922 0.748530
0.058823 0.000000 0.734313
0.187255 0.000000 0.719117
0.331373 0.000000 0.694608
0.444608 0.000000 0.678921
0.553431 0.000000 0.670098
0.654902 0.000000 0.666177
0.000000 0.169118 0.792647
0.006373 0.156372 0.788235
0.044608 0.133333 0.783333
0.134314 0.094608 0.769607
0.269118 0.039706 0.753921
0.400980 0.000000 0.734804
0.505393 0.000000 0.719608
0.598529 0.000000 0.706372
0.682353 0.000000 0.697059
0.000000 0.415196 0.832353
0.000000 0.407353 0.829902
0.012745 0.387255 0.824019
0.196078 0.351961 0.812255
0.366667 0.303431 0.794608
0.495098 0.247059 0.778922
0.599019 0.184804 0.765686
0.688726 0.110294 0.753431
0.768137 0.017157 0.743627
0.000000 0.682353 0.868628
0.000000 0.675000 0.867647
0.012255 0.657844 0.860785
0.247059 0.630392 0.851470
0.437255 0.596079 0.837255
0.567647 0.554412 0.825490
0.677451 0.510294 0.813726
0.778432 0.453432 0.805883
0.868137 0.375490 0.798039
0.000000 0.860785 0.895098
0.000000 0.856373 0.891667
0.094608 0.839216 0.887255
0.340196 0.821078 0.878921
0.491177 0.793137 0.868137
0.614216 0.766177 0.860294
0.727451 0.735294 0.851961
0.832844 0.696569 0.844608
0.929902 0.649510 0.840686
0.129902 0.996078 0.910784
0.205883 0.992647 0.910294
0.320589 0.984804 0.906372
0.436765 0.969117 0.900490
0.552941 0.950000 0.895098
0.664706 0.929902 0.887255
0.770588 0.902941 0.882353
0.875490 0.875490 0.875490
0.969117 0.840196 0.875000
0.521569 1.000000 0.918627
0.537255 1.000000 0.918137
0.571078 1.000000 0.914705
0.623529 1.000000 0.910784
0.691667 1.000000 0.906372
0.766176 1.000000 0.899019
0.848530 1.000000 0.894608
0.929902 1.000000 0.890686
1.000000 0.996078 0.890686
0.000000 0.000000 0.803922
0.000000 0.000000 0.796078
0.000000 0.000000 0.784314
0.011765 0.000000 0.772549
0.145098 0.000000 0.754902
0.304902 0.000000 0.733333
0.428432 0.000000 0.717647
0.538235 0.000000 0.705882
0.643137 0.000000 0.701961
0.000000 0.000000 0.827451
0.000000 0.000000 0.823039
0.000000 0.000000 0.811765
0.018137 0.000000 0.800000
0.149019 0.000000 0.780392
0.300980 0.000000 0.760784
0.421569 0.000000 0.745098
0.530392 0.000000 0.733333
0.635294 0.000000 0.728922
0.000000 0.000000 0.846079
0.000000 0.000000 0.843137
0.000000 0.000000 0.831373
0.033824 0.000000 0.819608
0.168627 0.000000 0.804903
0.308824 0.000000 0.783333
0.424509 0.000000 0.768627
0.529902 0.000000 0.756863
0.631373 0.000000 0.749020
0.000000 0.074020 0.876961
0.000000 0.063726 0.873039
0.025000 0.036275 0.865196
0.121078 0.007843 0.850980
0.244117 0.000000 0.831373
0.360785 0.000000 0.811765
0.458333 0.000000 0.796078
0.548039 0.000000 0.782843
0.631373 0.000000 0.768627
0.039216 0.303922 0.911764
0.054902 0.292648 0.909804
0.110784 0.274510 0.900981
0.222549 0.236765 0.890196
0.354902 0.184314 0.872549
0.460294 0.125490 0.856863
0.550000 0.061765 0.841176
0.633824 0.007353 0.825490
0.707843 0.000000 0.809804
0.000000 0.601961 0.952941
0.000000 0.594118 0.949020
0.106373 0.575491 0.942647
0.300490 0.547059 0.930882
0.438725 0.507353 0.917157
0.549510 0.464706 0.905882
0.649510 0.414215 0.891667
0.739706 0.348039 0.879411
0.821078 0.258333 0.864216
0.009804 0.810784 0.977451
0.074020 0.805883 0.976471
0.227451 0.794118 0.969607
0.374509 0.774510 0.961765
0.495098 0.750981 0.952941
0.606863 0.720588 0.945098
0.708823 0.685294 0.933333
0.809313 0.646568 0.921569
0.899020 0.592157 0.910784
0.240686 0.965686 0.996568
0.282842 0.961764 0.996078
0.356863 0.953921 0.992647
0.453921 0.942156 0.988235
0.553432 0.926470 0.980882
0.657843 0.902941 0.973039
0.755392 0.879411 0.964706
0.851961 0.848039 0.956863
0.941666 0.812745 0.949510
0.529412 1.000000 1.000000
0.541176 1.000000 1.000000
0.571568 1.000000 1.000000
0.618137 1.000000 1.000000
0.680392 1.000000 1.000000
0.750490 1.000000 1.000000
0.824510 1.000000 1.000000
0.898529 1.000000 0.996078
1.000000 0.996078 0.996078
