Color/Agfa/Agfa Vista 200 65x.cube
TITLE "Agfa Vista 200"
LUT_3D_SIZE 5
DOMAIN_MIN 0.000000 0.000000 0.000000
DOMAIN_MAX 1.000000 1.000000 1.000000
0.000000 0.000000 0.000000
0.143137 0.000000 0.000000
0.476471 0.000000 0.000000
0.790196 0.000000 0.000000
1.000000 0.000000 0.000000
0.078431 0.201961 0.046079
0.190196 0.189216 0.030392
0.523529 0.151961 0.000000
0.815687 0.084314 0.000000
1.000000 0.006863 0.000000
0.007843 0.576470 0.121569
0.257843 0.570588 0.109804
0.617647 0.552941 0.078431
0.881372 0.519608 0.045098
1.000000 0.439216 0.009804
0.336274 0.825490 0.185294
0.471569 0.824510 0.173529
0.706863 0.817647 0.137255
0.923530 0.805883 0.091176
1.000000 0.778432 0.070588
0.647059 0.988235 0.282353
0.697059 0.988235 0.278431
0.821568 0.988235 0.262745
0.985294 0.984314 0.239216
1.000000 0.980392 0.188235
0.000000 0.000000 0.092157
0.108823 0.000000 0.073529
0.454902 0.000000 0.026471
0.770588 0.000000 0.000000
1.000000 0.000000 0.000000
0.053921 0.170588 0.170588
0.158823 0.155883 0.155883
0.500000 0.119608 0.111764
0.786275 0.059804 0.060784
0.996078 0.000000 0.010784
0.000000 0.568628 0.282353
0.196078 0.562745 0.268627
0.583333 0.545098 0.233333
0.849020 0.507844 0.195098
1.000000 0.419608 0.152941
0.252941 0.828432 0.383333
0.416666 0.825490 0.374510
0.666667 0.817647 0.351961
0.887255 0.805883 0.328431
1.000000 0.778432 0.293137
0.600000 0.992157 0.464706
0.650980 0.992157 0.460784
0.779412 0.992157 0.449019
0.950000 0.988235 0.432353
1.000000 0.984314 0.398039
0.000000 0.000000 0.321569
0.050980 0.000000 0.309804
0.407844 0.000000 0.272549
0.727451 0.000000 0.231373
0.958824 0.000000 0.196078
0.003922 0.123529 0.426471
0.088235 0.107843 0.418627
0.435295 0.074510 0.379412
0.729412 0.022549 0.339216
0.941176 0.000000 0.297059
0.000000 0.547059 0.562745
0.027451 0.539215 0.550980
0.517648 0.517648 0.517648
0.792157 0.473529 0.486274
1.000000 0.368627 0.445098
0.045098 0.825490 0.648039
0.297059 0.821569 0.639215
0.595098 0.815686 0.619607
0.829412 0.801961 0.597059
1.000000 0.773529 0.569608
0.517647 1.000000 0.696079
0.577451 1.000000 0.692157
0.717647 0.998039 0.680392
0.898039 0.996078 0.664706
1.000000 0.992157 0.643138
0.000000 0.000000 0.589215
0.000000 0.000000 0.581373
0.343137 0.000000 0.542156
0.675490 0.000000 0.503922
0.909804 0.000000 0.475490
0.000000 0.045098 0.662745
0.009804 0.033334 0.651960
0.362745 0.012745 0.611765
0.667647 0.000000 0.569608
0.898039 0.000000 0.541176
0.000000 0.481373 0.767647
0.000000 0.472549 0.753922
0.460784 0.442157 0.716667
0.742156 0.384314 0.681372
0.950000 0.240196 0.636275
0.000000 0.809804 0.837255
0.139215 0.806863 0.828432
0.533334 0.798039 0.805883
0.782353 0.782353 0.782353
0.996078 0.747059 0.758824
0.426471 1.000000 0.880392
0.497059 1.000000 0.876471
0.656863 1.000000 0.867647
0.848039 1.000000 0.851961
1.000000 0.996078 0.832353
0.000000 0.000000 0.780392
0.000000 0.000000 0.772549
0.276471 0.000000 0.733333
0.629412 0.000000 0.693137
0.874510 0.000000 0.662745
0.000000 0.000000 0.831373
0.000000 0.000000 0.823529
0.280392 0.000000 0.784314
0.621569 0.000000 0.748040
0.862745 0.000000 0.720588
0.000000 0.288235 0.915686
0.030392 0.272549 0.903921
0.392157 0.221569 0.858824
0.673529 0.134313 0.815686
0.880392 0.013725 0.774510
0.000000 0.758824 0.996078
0.000000 0.754902 0.988235
0.455882 0.743137 0.959804
0.739216 0.719608 0.934313
0.964706 0.665686 0.905882
0.203922 1.000000 1.000000
0.343137 1.000000 1.000000
0.562745 1.000000 1.000000
0.789215 1.000000 1.000000
1.000000 1.000000 1.000000
