Color/Agfa/Agfa Vista 200 65x.cube
TITLE "Agfa Vista 200"
LUT_3D_SIZE 9
DOMAIN_MIN 0.000000 0.000000 0.000000
DOMAIN_MAX 1.000000 1.000000 1.000000
0.000000 0.000000 0.000000
0.050490 0.000000 0.000000
0.143137 0.000000 0.000000
0.293627 0.000000 0.000000
0.476471 0.000000 0.000000
0.653922 0.000000 0.000000
0.790196 0.000000 0.000000
0.906862 0.000000 0.000000
1.000000 0.000000 0.000000
0.023529 0.070098 0.007843
0.066177 0.065687 0.003922
0.162745 0.054412 0.000000
0.314706 0.042647 0.000000
0.492157 0.026961 0.000000
0.665686 0.011765 0.000000
0.794118 0.003922 0.000000
0.906372 0.000000 0.000000
1.000000 0.000000 0.000000
0.078431 0.201961 0.046079
0.113235 0.198039 0.042157
0.190196 0.189216 0.030392
0.352941 0.170588 0.011765
0.523529 0.151961 0.000000
0.689216 0.119608 0.000000
0.815687 0.084314 0.000000
0.922059 0.044608 0.000000
1.000000 0.006863 0.000000
0.001471 0.393137 0.092647
0.034314 0.388236 0.090196
0.212745 0.383824 0.077941
0.395588 0.372059 0.058824
0.570588 0.352451 0.035784
0.728431 0.327451 0.014216
0.850491 0.292648 0.003922
0.953921 0.240686 0.000000
1.000000 0.158824 0.000000
0.007843 0.576470 0.121569
0.083824 0.574510 0.117647
0.257843 0.570588 0.109804
0.440687 0.562745 0.098039
0.617647 0.552941 0.078431
0.759804 0.539215 0.063235
0.881372 0.519608 0.045098
0.990686 0.488236 0.028922
1.000000 0.439216 0.009804
0.128922 0.712745 0.138725
0.215686 0.711275 0.133333
0.353921 0.708824 0.121569
0.510784 0.704902 0.108824
0.662745 0.697059 0.101961
0.787255 0.689216 0.090196
0.900000 0.680392 0.082843
1.000000 0.665196 0.070588
1.000000 0.638235 0.054902
0.336274 0.825490 0.185294
0.381863 0.825490 0.184314
0.471569 0.824510 0.173529
0.590196 0.819117 0.157843
0.706863 0.817647 0.137255
0.814216 0.812745 0.118627
0.923530 0.805883 0.091176
1.000000 0.794118 0.078431
1.000000 0.778432 0.070588
0.503432 0.918137 0.247549
0.530392 0.918137 0.243627
0.588235 0.918137 0.236765
0.665686 0.918137 0.227941
0.755392 0.914215 0.218138
0.850000 0.914215 0.204412
0.946569 0.910294 0.188725
1.000000 0.902941 0.165196
1.000000 0.895098 0.129902
0.647059 0.988235 0.282353
0.662745 0.988235 0.278431
0.697059 0.988235 0.278431
0.751471 0.988235 0.270588
0.821568 0.988235 0.262745
0.899510 0.986765 0.253431
0.985294 0.984314 0.239216
1.000000 0.984314 0.219608
1.000000 0.980392 0.188235
0.000000 0.000000 0.026961
0.031373 0.000000 0.019118
0.124510 0.000000 0.011765
0.279412 0.000000 0.003922
0.465196 0.000000 0.000000
0.646078 0.000000 0.000000
0.778922 0.000000 0.000000
0.898529 0.000000 0.000000
1.000000 0.000000 0.000000
0.011765 0.057844 0.058334
0.050490 0.050490 0.050490
0.147059 0.042647 0.038726
0.301470 0.031863 0.019118
0.481863 0.019118 0.003922
0.653922 0.007843 0.000000
0.782353 0.000000 0.000000
0.895098 0.000000 0.000000
1.000000 0.000000 0.000000
0.073529 0.189706 0.093628
0.104411 0.182353 0.089706
0.178431 0.174510 0.077941
0.340686 0.158823 0.057353
0.515686 0.135294 0.028431
0.680882 0.107843 0.007843
0.803922 0.072549 0.000000
0.913725 0.033824 0.000000
1.000000 0.002942 0.000000
0.002941 0.385294 0.135784
0.019608 0.383823 0.131863
0.200490 0.375980 0.121079
0.383823 0.364216 0.104412
0.563235 0.344608 0.080882
0.720588 0.317157 0.055392
0.841177 0.281863 0.032353
0.948039 0.228922 0.011275
1.000000 0.144608 0.000000
0.001961 0.572549 0.164216
0.066176 0.572549 0.158824
0.240196 0.568628 0.148530
0.429412 0.560785 0.136765
0.605882 0.550980 0.121079
0.751961 0.535294 0.105882
0.871568 0.515686 0.089706
0.981372 0.484314 0.072059
1.000000 0.431372 0.048529
0.070588 0.712745 0.208333
0.186765 0.711275 0.204902
0.336274 0.708824 0.193627
0.495588 0.704902 0.177451
0.650490 0.697059 0.157353
0.775980 0.689216 0.136275
0.891176 0.679902 0.121569
0.996568 0.665196 0.113235
1.000000 0.638235 0.097549
0.311765 0.825490 0.259314
0.358333 0.825490 0.257844
0.455392 0.824510 0.248039
0.575000 0.821569 0.235784
0.694118 0.817647 0.223529
0.802941 0.812745 0.208333
0.910784 0.805883 0.191177
1.000000 0.797058 0.168627
1.000000 0.778432 0.137255
0.487255 0.922059 0.312746
0.514706 0.922059 0.309804
0.572549 0.918137 0.305392
0.652941 0.918137 0.298039
0.741667 0.916176 0.289706
0.837255 0.914215 0.277941
0.934804 0.910294 0.262745
1.000000 0.906372 0.246569
1.000000 0.898039 0.223039
0.631373 0.992157 0.348040
0.647059 0.992157 0.344608
0.681863 0.992157 0.344118
0.736275 0.988235 0.336765
0.805883 0.988235 0.332353
0.887745 0.988235 0.321079
0.973530 0.984314 0.311765
1.000000 0.984314 0.296569
1.000000 0.980392 0.269608
0.000000 0.000000 0.092157
0.019608 0.000000 0.081372
0.108823 0.000000 0.073529
0.267157 0.000000 0.050490
0.454902 0.000000 0.026471
0.634314 0.000000 0.007843
0.770588 0.000000 0.000000
0.888236 0.000000 0.000000
1.000000 0.000000 0.000000
0.003922 0.046569 0.127941
0.034804 0.039216 0.124019
0.128432 0.031373 0.112745
0.285784 0.023039 0.092647
0.468627 0.012255 0.065687
0.642157 0.003922 0.035784
0.770588 0.000000 0.017157
0.883333 0.000000 0.003922
0.993137 0.000000 0.000000
0.053921 0.170588 0.170588
0.081863 0.166666 0.166666
0.158823 0.155883 0.155883
0.321079 0.143137 0.135784
0.500000 0.119608 0.111764
0.665686 0.092157 0.084314
0.786275 0.059804 0.060784
0.898529 0.022549 0.035784
0.996078 0.000000 0.010784
0.006863 0.373039 0.225490
0.020098 0.372059 0.224019
0.169608 0.361765 0.213235
0.364216 0.349510 0.194117
0.544608 0.330392 0.174020
0.701961 0.301470 0.150490
0.821569 0.263726 0.129902
0.928431 0.209314 0.105882
1.000000 0.125000 0.071079
0.000000 0.568628 0.282353
0.009804 0.567647 0.278431
0.196078 0.562745 0.268627
0.402451 0.556372 0.252941
0.583333 0.545098 0.233333
0.731373 0.529902 0.211765
0.849020 0.507844 0.195098
0.961764 0.476470 0.173530
1.000000 0.419608 0.152941
0.000981 0.711275 0.332843
0.095098 0.708824 0.328922
0.291176 0.708824 0.321079
0.464706 0.703431 0.309314
0.625000 0.697059 0.292157
0.752941 0.689216 0.277941
0.868628 0.677451 0.262255
0.979412 0.661765 0.242647
1.000000 0.634314 0.219118
0.252941 0.828432 0.383333
0.308333 0.825490 0.379412
0.416666 0.825490 0.374510
0.544118 0.821569 0.363725
0.666667 0.817647 0.351961
0.778922 0.813726 0.340196
0.887255 0.805883 0.328431
0.992647 0.797058 0.312745
1.000000 0.778432 0.293137
0.445588 0.922059 0.433333
0.475980 0.922059 0.429902
0.538235 0.922059 0.425980
0.622059 0.919118 0.419118
0.712255 0.918137 0.412255
0.809804 0.914215 0.402451
0.911274 0.910784 0.390686
1.000000 0.906372 0.378922
1.000000 0.898529 0.359314
0.600000 0.992157 0.464706
0.615686 0.992157 0.460784
0.650980 0.992157 0.460784
0.708333 0.992157 0.454412
0.779412 0.992157 0.449019
0.862745 0.992157 0.441176
0.950000 0.988235 0.432353
1.000000 0.988235 0.417647
1.000000 0.984314 0.398039
0.000000 0.000000 0.186765
0.007353 0.000000 0.181373
0.085785 0.000000 0.173530
0.244118 0.000000 0.157843
0.437255 0.000000 0.132353
0.618627 0.000000 0.106863
0.752451 0.000000 0.087255
0.871568 0.000000 0.067647
0.984314 0.000000 0.044118
0.000000 0.034804 0.239706
0.012745 0.030883 0.236275
0.097549 0.023039 0.228922
0.255883 0.015196 0.212255
0.442647 0.007353 0.186765
0.617647 0.000000 0.161275
0.746079 0.000000 0.140686
0.863235 0.000000 0.118627
0.974020 0.000000 0.098530
0.024019 0.150980 0.294118
0.050980 0.147059 0.290196
0.125000 0.135294 0.282353
0.290196 0.119608 0.263726
0.470588 0.100000 0.240686
0.638235 0.071079 0.215686
0.761764 0.042157 0.196078
0.871078 0.012255 0.172549
0.972549 0.000000 0.145098
0.008334 0.356372 0.360294
0.026471 0.352451 0.356372
0.119118 0.344608 0.348529
0.330392 0.330392 0.330392
0.515686 0.309314 0.309314
0.673529 0.280392 0.285784
0.793137 0.238725 0.266176
0.899019 0.179902 0.242647
0.992157 0.099020 0.215196
0.000000 0.560785 0.422549
0.000000 0.560294 0.418627
0.133823 0.554902 0.408824
0.361765 0.547059 0.395098
0.552451 0.535294 0.375980
0.700980 0.519608 0.359804
0.821569 0.496078 0.344118
0.934313 0.462255 0.325980
1.000000 0.401470 0.300980
0.000000 0.708824 0.473039
0.000000 0.707353 0.471569
0.221079 0.704902 0.463726
0.422059 0.700980 0.451961
0.591176 0.693137 0.437745
0.722059 0.685294 0.425981
0.839216 0.673529 0.411765
0.951471 0.657353 0.398039
1.000000 0.627941 0.378922
0.145098 0.828432 0.523529
0.229412 0.825490 0.521079
0.360784 0.825490 0.515686
0.501471 0.821569 0.505392
0.629902 0.817647 0.496078
0.745588 0.812745 0.484314
0.856863 0.805883 0.475490
0.965196 0.794118 0.460784
1.000000 0.778432 0.445098
0.391176 0.925980 0.565686
0.422549 0.925980 0.562255
0.491667 0.922059 0.558333
0.581372 0.922059 0.553922
0.676961 0.919118 0.546078
0.778432 0.918137 0.538235
0.881863 0.914215 0.526961
0.981372 0.910294 0.515196
1.000000 0.899019 0.500980
0.558333 0.996078 0.589216
0.574020 0.996078 0.586765
0.612255 0.996078 0.585294
0.673039 0.996078 0.581373
0.747059 0.996078 0.575000
0.832843 0.992157 0.567157
0.922549 0.992157 0.557843
1.000000 0.992157 0.547549
1.000000 0.988235 0.531863
0.000000 0.000000 0.321569
0.000000 0.000000 0.317647
0.050980 0.000000 0.309804
0.213235 0.000000 0.294118
0.407844 0.000000 0.272549
0.591176 0.000000 0.250981
0.727451 0.000000 0.231373
0.846078 0.000000 0.217157
0.958824 0.000000 0.196078
0.000000 0.021078 0.375980
0.000000 0.017157 0.372059
0.058333 0.011765 0.364706
0.219118 0.007353 0.350000
0.409804 0.001471 0.326961
0.587255 0.000000 0.301960
0.717647 0.000000 0.285784
0.836274 0.000000 0.270098
0.947059 0.000000 0.250980
0.003922 0.123529 0.426471
0.017157 0.117647 0.426471
0.088235 0.107843 0.418627
0.252941 0.093628 0.400000
0.435295 0.074510 0.379412
0.603922 0.050000 0.355882
0.729412 0.022549 0.339216
0.840196 0.003922 0.320588
0.941176 0.000000 0.297059
0.015686 0.325490 0.496569
0.025000 0.323039 0.492647
0.090197 0.312745 0.484804
0.291667 0.297549 0.469118
0.480883 0.274510 0.447549
0.639216 0.241667 0.425981
0.759314 0.199020 0.406373
0.867157 0.140686 0.386765
0.960784 0.064216 0.359314
0.000000 0.547059 0.562745
0.000000 0.545098 0.558824
0.027451 0.539215 0.550980
0.317157 0.531373 0.535294
0.517648 0.517648 0.517648
0.669608 0.500000 0.501961
0.792157 0.473529 0.486274
0.902941 0.434804 0.468628
1.000000 0.368627 0.445098
0.000000 0.700980 0.611274
0.000000 0.700980 0.607353
0.112255 0.697059 0.600000
0.373529 0.693137 0.587745
0.552941 0.685294 0.572549
0.689216 0.677451 0.560785
0.809804 0.665686 0.548529
0.922549 0.646078 0.533334
1.000000 0.614706 0.515196
0.045098 0.825490 0.648039
0.117647 0.824510 0.646078
0.297059 0.821569 0.639215
0.458824 0.819608 0.630392
0.595098 0.815686 0.619607
0.714706 0.809804 0.607843
0.829412 0.801961 0.597059
0.940196 0.790196 0.584314
1.000000 0.773529 0.569608
0.328922 0.925980 0.678431
0.367647 0.925980 0.676470
0.445098 0.925980 0.671569
0.544117 0.922059 0.665196
0.645588 0.922059 0.657353
0.750000 0.918137 0.649510
0.856373 0.914215 0.638725
0.957843 0.910294 0.627451
1.000000 0.899019 0.615687
0.517647 1.000000 0.696079
0.534804 1.000000 0.694117
0.577451 1.000000 0.692157
0.639706 1.000000 0.687745
0.717647 0.998039 0.680392
0.805392 0.996078 0.673039
0.898039 0.996078 0.664706
0.984804 0.992157 0.654902
1.000000 0.992157 0.643138
0.000000 0.000000 0.457843
0.000000 0.000000 0.457843
0.014706 0.000000 0.453922
0.174510 0.000000 0.438235
0.376961 0.000000 0.414706
0.563725 0.000000 0.395098
0.699019 0.000000 0.379412
0.820098 0.000000 0.363725
0.931863 0.000000 0.348039
0.000000 0.007843 0.512255
0.000000 0.005882 0.508824
0.017157 0.003432 0.504412
0.175490 0.000000 0.488726
0.370588 0.000000 0.467156
0.555882 0.000000 0.444118
0.690686 0.000000 0.429902
0.808823 0.000000 0.414706
0.921569 0.000000 0.399019
0.000000 0.086765 0.559804
0.000000 0.080882 0.557353
0.042647 0.073529 0.549510
0.207353 0.057843 0.532353
0.398039 0.041667 0.510294
0.569117 0.021078 0.489216
0.696079 0.005883 0.471079
0.808333 0.000000 0.452451
0.917647 0.000000 0.435785
0.005392 0.278922 0.619608
0.025980 0.275000 0.615686
0.091667 0.264706 0.606373
0.252941 0.246568 0.588235
0.446079 0.222058 0.568137
0.606863 0.187255 0.545098
0.726471 0.144608 0.525490
0.833334 0.091667 0.504412
0.930392 0.026961 0.481372
0.000000 0.522059 0.677451
0.000000 0.519608 0.672058
0.000000 0.514216 0.664216
0.275000 0.503922 0.650000
0.488235 0.488235 0.630392
0.642647 0.468628 0.611274
0.766667 0.438236 0.595588
0.879412 0.395588 0.575980
0.976471 0.318137 0.552451
0.000000 0.689216 0.716667
0.000000 0.689216 0.712745
0.044118 0.685294 0.704902
0.330392 0.681372 0.693137
0.521568 0.673529 0.677451
0.664216 0.664216 0.664216
0.786275 0.650000 0.650000
0.902451 0.630392 0.634314
1.000000 0.595098 0.618627
0.000000 0.820588 0.747549
0.026471 0.817647 0.744117
0.227451 0.817647 0.738725
0.417647 0.813726 0.727941
0.564215 0.809804 0.716667
0.688726 0.804412 0.707353
0.805883 0.794118 0.695588
0.918627 0.782353 0.681373
1.000000 0.762745 0.669118
0.259314 0.925980 0.774020
0.309314 0.925980 0.770588
0.397549 0.925980 0.766667
0.505882 0.922059 0.758824
0.614216 0.922059 0.751961
0.723530 0.918137 0.743137
0.832844 0.914215 0.734804
0.937745 0.906862 0.723039
1.000000 0.898529 0.711765
0.474510 1.000000 0.789706
0.494118 1.000000 0.789706
0.538725 1.000000 0.785784
0.606373 1.000000 0.781863
0.688236 1.000000 0.775490
0.777941 1.000000 0.770098
0.875000 1.000000 0.759804
0.961274 0.996078 0.750490
1.000000 0.992157 0.740196
0.000000 0.000000 0.589215
0.000000 0.000000 0.586275
0.000000 0.000000 0.581373
0.134314 0.000000 0.565686
0.343137 0.000000 0.542156
0.536274 0.000000 0.522059
0.675490 0.000000 0.503922
0.796078 0.000000 0.491176
0.909804 0.000000 0.475490
0.000000 0.000000 0.625490
0.000000 0.000000 0.624019
0.000000 0.000000 0.617647
0.132843 0.000000 0.601961
0.339216 0.000000 0.578432
0.528431 0.000000 0.559804
0.667647 0.000000 0.542157
0.788235 0.000000 0.526961
0.900980 0.000000 0.514216
0.000000 0.045098 0.662745
0.000000 0.041177 0.659804
0.009804 0.033334 0.651960
0.164216 0.022549 0.635294
0.362745 0.012745 0.611765
0.538235 0.001961 0.588235
0.667647 0.000000 0.569608
0.785294 0.000000 0.554412
0.898039 0.000000 0.541176
0.000000 0.210294 0.709314
0.006373 0.206373 0.705392
0.070588 0.194608 0.697549
0.216667 0.178922 0.679412
0.411275 0.151471 0.656373
0.573039 0.120098 0.633334
0.696079 0.082353 0.614216
0.806373 0.038725 0.595098
0.905882 0.002451 0.573530
0.000000 0.481373 0.767647
0.000000 0.477451 0.763725
0.000000 0.472549 0.753922
0.236764 0.460294 0.738235
0.460784 0.442157 0.716667
0.618627 0.418628 0.697059
0.742156 0.384314 0.681372
0.855392 0.331863 0.661765
0.950000 0.240196 0.636275
0.000000 0.673529 0.806373
0.000000 0.672549 0.804902
0.006372 0.668628 0.794608
0.280882 0.661765 0.781372
0.491667 0.653922 0.766177
0.638725 0.642157 0.751471
0.765686 0.626961 0.739706
0.882843 0.603431 0.724020
0.984314 0.561274 0.708333
0.000000 0.809804 0.837255
0.000000 0.809804 0.833334
0.139215 0.806863 0.828432
0.372059 0.804902 0.817647
0.533334 0.798039 0.805883
0.661765 0.793137 0.794118
0.782353 0.782353 0.782353
0.899019 0.770588 0.770588
0.996078 0.747059 0.758824
0.149510 0.922549 0.863725
0.220098 0.922059 0.860295
0.339215 0.922059 0.856373
0.463236 0.918627 0.848530
0.579902 0.918137 0.840686
0.695588 0.914215 0.832844
0.808824 0.910294 0.824510
0.914706 0.902941 0.812745
1.000000 0.891176 0.801471
0.426471 1.000000 0.880392
0.449510 1.000000 0.879412
0.497059 1.000000 0.876471
0.570098 1.000000 0.872549
0.656863 1.000000 0.867647
0.750490 1.000000 0.859804
0.848039 1.000000 0.851961
0.937745 1.000000 0.844117
1.000000 0.996078 0.832353
0.000000 0.000000 0.690686
0.000000 0.000000 0.686765
0.000000 0.000000 0.682843
0.093137 0.000000 0.667157
0.311764 0.000000 0.642157
0.509804 0.000000 0.620098
0.652941 0.000000 0.603922
0.776961 0.000000 0.588725
0.890196 0.000000 0.573529
0.000000 0.000000 0.721569
0.000000 0.000000 0.718137
0.000000 0.000000 0.713726
0.089706 0.000000 0.699509
0.307353 0.000000 0.676471
0.501961 0.000000 0.651470
0.645098 0.000000 0.638235
0.769117 0.000000 0.620098
0.882353 0.000000 0.607843
0.000000 0.007843 0.748530
0.000000 0.006863 0.745588
0.000000 0.003922 0.737745
0.112745 0.000000 0.722549
0.322059 0.000000 0.697059
0.508824 0.000000 0.675000
0.645098 0.000000 0.659314
0.769117 0.000000 0.646569
0.881863 0.000000 0.632353
0.000000 0.124510 0.787255
0.000000 0.120588 0.784804
0.022549 0.109803 0.775490
0.174020 0.094608 0.757353
0.370588 0.075000 0.733823
0.538235 0.047549 0.710784
0.665686 0.023039 0.696079
0.776961 0.002451 0.675000
0.882353 0.000000 0.659314
0.000000 0.415196 0.847549
0.000000 0.411275 0.842647
0.000000 0.403431 0.833824
0.205882 0.387745 0.816176
0.430882 0.364216 0.794608
0.591176 0.332843 0.775000
0.713236 0.290686 0.755392
0.824019 0.225980 0.735294
0.915686 0.126471 0.708333
0.000000 0.642157 0.892157
0.000000 0.641667 0.890686
0.000000 0.637745 0.880392
0.226961 0.630392 0.867157
0.460294 0.619608 0.849020
0.614706 0.603922 0.835784
0.743137 0.584314 0.820588
0.863235 0.556863 0.805392
0.964706 0.499510 0.786275
0.000000 0.794118 0.923040
0.000000 0.793628 0.922059
0.013235 0.790196 0.914215
0.314705 0.786275 0.902451
0.498039 0.780392 0.890686
0.634804 0.774020 0.878921
0.762255 0.762745 0.867157
0.879412 0.747549 0.855392
0.980392 0.720098 0.840686
0.001471 0.918137 0.949510
0.056372 0.918137 0.946078
0.253922 0.914705 0.941666
0.409314 0.914215 0.933823
0.541177 0.910294 0.925980
0.665686 0.906862 0.914705
0.782353 0.902451 0.906372
0.895098 0.895098 0.895098
0.988235 0.882843 0.883333
0.356373 1.000000 0.965196
0.383824 1.000000 0.965196
0.445588 1.000000 0.961274
0.524020 1.000000 0.957353
0.619117 1.000000 0.949510
0.720098 1.000000 0.941666
0.824510 1.000000 0.933823
0.918137 1.000000 0.925980
1.000000 1.000000 0.918137
0.000000 0.000000 0.780392
0.000000 0.000000 0.776471
0.000000 0.000000 0.772549
0.046568 0.000000 0.756863
0.276471 0.000000 0.733333
0.482843 0.000000 0.709804
0.629412 0.000000 0.693137
0.757843 0.000000 0.678431
0.874510 0.000000 0.662745
0.000000 0.000000 0.811275
0.000000 0.000000 0.807843
0.000000 0.000000 0.803432
0.038726 0.000000 0.788235
0.268628 0.000000 0.766177
0.475000 0.000000 0.743136
0.621569 0.000000 0.721569
0.750000 0.000000 0.712745
0.866667 0.000000 0.697549
0.000000 0.000000 0.831373
0.000000 0.000000 0.830392
0.000000 0.000000 0.823529
0.058333 0.000000 0.807843
0.280392 0.000000 0.784314
0.480393 0.000000 0.766177
0.621569 0.000000 0.748040
0.746078 0.000000 0.733333
0.862745 0.000000 0.720588
0.000000 0.037745 0.862745
0.000000 0.032843 0.857844
0.000000 0.028431 0.850490
0.111765 0.018137 0.835294
0.318137 0.006373 0.810294
0.495588 0.000000 0.786765
0.629412 0.000000 0.768627
0.750000 0.000000 0.756863
0.862745 0.000000 0.745098
0.000000 0.288235 0.915686
0.000000 0.284314 0.911764
0.030392 0.272549 0.903921
0.180392 0.252941 0.884314
0.392157 0.221569 0.858824
0.550000 0.180882 0.837255
0.673529 0.134313 0.815686
0.782843 0.074020 0.797548
0.880392 0.013725 0.774510
0.000000 0.580882 0.970098
0.000000 0.580882 0.966176
0.000000 0.571568 0.956863
0.172549 0.565196 0.938725
0.429412 0.547059 0.921569
0.591176 0.525980 0.903431
0.719608 0.496568 0.887745
0.837745 0.450000 0.868137
0.937255 0.361765 0.844608
0.000000 0.758824 0.996078
0.000000 0.758824 0.996078
0.000000 0.754902 0.988235
0.235294 0.750981 0.976471
0.455882 0.743137 0.959804
0.606863 0.732353 0.949020
0.739216 0.719608 0.934313
0.859804 0.700490 0.922059
0.964706 0.665686 0.905882
0.000000 0.902451 1.000000
0.000000 0.902451 1.000000
0.070099 0.899019 1.000000
0.331372 0.895098 1.000000
0.494608 0.891176 0.990687
0.630392 0.887255 0.984314
0.758824 0.879411 0.972549
0.875490 0.871568 0.960784
0.973039 0.851961 0.949020
0.203922 1.000000 1.000000
0.254412 1.000000 1.000000
0.343137 1.000000 1.000000
0.449510 1.000000 1.000000
0.562745 1.000000 1.000000
0.675980 1.000000 1.000000
0.789215 1.000000 1.000000
0.891176 1.000000 1.000000
1.000000 1.000000 1.000000
