Color/Agfa/Agfa Ultra Color 100 65x.cube
TITLE "Agfa Ultra Color 100"
LUT_3D_SIZE 65
DOMAIN_MIN 0.000000 0.000000 0.000000
DOMAIN_MAX 1.000000 1.000000 1.000000
0.000000 0.000000 0.000000
0.000919 0.000000 0.000000
0.005760 0.000000 0.000000
0.011765 0.000000 0.000000
0.015686 0.000000 0.000000
0.024203 0.000000 0.000000
0.031373 0.000000 0.000000
0.037807 0.000000 0.000000
0.046569 0.000000 0.000000
0.055331 0.000000 0.000000
0.064093 0.000000 0.000000
0.072855 0.000000 0.000000
0.077696 0.000000 0.000000
0.086459 0.000000 0.000000
0.095221 0.000000 0.000000
0.103983 0.000000 0.000000
0.112745 0.000000 0.000000
0.121508 0.000000 0.000000
0.134191 0.000000 0.000000
0.142953 0.000000 0.000000
0.151716 0.000000 0.000000
0.164093 0.000000 0.000000
0.173774 0.000000 0.000000
0.185846 0.000000 0.000000
0.198529 0.000000 0.000000
0.210662 0.000000 0.000000
0.224264 0.000000 0.000000
0.237867 0.000000 0.000000
0.251471 0.000000 0.000000
0.268995 0.000000 0.000000
0.286520 0.000000 0.000000
0.304044 0.000000 0.000000
0.321569 0.000000 0.000000
0.339093 0.000000 0.000000
0.360416 0.000000 0.000000
0.378861 0.000000 0.000000
0.399510 0.000000 0.000000
0.420956 0.000000 0.000000
0.438481 0.000000 0.000000
0.460478 0.000000 0.000000
0.481372 0.000000 0.000000
0.502818 0.000000 0.000000
0.524265 0.000000 0.000000
0.546017 0.000000 0.000000
0.568383 0.000000 0.000000
0.588603 0.000000 0.000000
0.610049 0.000000 0.000000
0.631496 0.000000 0.000000
0.649020 0.000000 0.000000
0.666544 0.000000 0.000000
0.681250 0.000000 0.000000
0.697671 0.000000 0.000000
0.715197 0.000000 0.000000
0.728799 0.000000 0.000000
0.743750 0.000000 0.000000
0.759926 0.000000 0.000000
0.773529 0.000000 0.000000
0.787133 0.000000 0.000000
0.802329 0.000000 0.000000
0.815012 0.000000 0.000000
0.831618 0.000000 0.000000
0.844301 0.000000 0.000000
0.856986 0.000000 0.000000
0.869669 0.000000 0.000000
0.882353 0.000000 0.000000
0.000919 0.012684 0.000000
0.009681 0.008762 0.000000
0.017524 0.004841 0.000000
0.023285 0.004841 0.000000
0.032046 0.004841 0.000000
0.040809 0.000919 0.000000
0.046569 0.000919 0.000000
0.054412 0.000919 0.000000
0.063175 -0.002513 0.000000
0.071936 0.000000 0.000000
0.080698 0.000000 0.000000
0.087194 0.000000 0.000000
0.094301 0.000000 0.000000
0.103064 0.000000 0.000000
0.111826 0.000000 0.000000
0.120588 0.000000 0.000000
0.129350 0.000000 0.000000
0.138112 0.000000 0.000000
0.146875 0.000000 0.000000
0.155637 0.000000 0.000000
0.164399 0.000000 0.000000
0.176776 0.000000 0.000000
0.185846 0.000000 0.000000
0.198529 0.000000 0.000000
0.207292 0.000000 0.000000
0.219975 0.000000 0.000000
0.233027 0.000000 0.000000
0.246630 0.000000 0.000000
0.261949 0.000000 0.000000
0.277757 0.000000 0.000000
0.291360 0.000000 0.000000
0.308885 0.000000 0.000000
0.326409 0.000000 0.000000
0.343934 0.000000 0.000000
0.365380 0.000000 0.000000
0.382782 0.000000 0.000000
0.404351 0.000000 0.000000
0.421875 0.000000 0.000000
0.443321 0.000000 0.000000
0.464767 0.000000 0.000000
0.482291 0.000000 0.000000
0.503738 0.000000 0.000000
0.527574 0.000000 0.000000
0.546017 0.000000 0.000000
0.568383 0.000000 0.000000
0.588603 0.000000 0.000000
0.607047 0.000000 0.000000
0.627574 0.000000 0.000000
0.645098 0.000000 0.000000
0.662623 0.000000 0.000000
0.680147 0.000000 0.000000
0.697671 0.000000 0.000000
0.711275 0.000000 0.000000
0.728799 0.000000 0.000000
0.742402 0.000000 0.000000
0.756434 0.000000 0.000000
0.773039 0.000000 0.000000
0.785723 0.000000 0.000000
0.800735 0.000000 0.000000
0.814338 0.000000 0.000000
0.827022 0.000000 0.000000
0.841544 0.000000 0.000000
0.853064 0.000000 0.000000
0.865748 0.000000 0.000000
0.881434 0.000000 0.000000
0.005760 0.023284 0.000000
0.014522 0.017524 0.000000
0.021446 0.017524 0.000000
0.030209 0.013603 0.000000
0.036888 0.013603 0.000000
0.045649 0.009681 0.000000
0.054412 0.009681 0.000000
0.063175 0.007169 0.000000
0.071937 0.005760 0.000000
0.080698 0.003922 0.000000
0.087623 0.003922 0.000000
0.094301 0.003922 0.000000
0.103063 0.001838 0.000000
0.109988 0.000000 0.000000
0.118750 0.000000 0.000000
0.127512 0.000000 0.000000
0.136274 0.000000 0.000000
0.145037 0.000000 0.000000
0.153799 0.000000 0.000000
0.162561 0.000000 0.000000
0.173162 0.000000 0.000000
0.181925 0.000000 0.000000
0.194608 0.000000 0.000000
0.203064 0.000000 0.000000
0.216054 0.000000 0.000000
0.230270 0.000000 0.000000
0.241422 0.000000 0.000000
0.253554 0.000000 0.000000
0.268995 0.000000 0.000000
0.284682 0.000000 0.000000
0.300123 0.000000 0.000000
0.317647 0.000000 0.000000
0.335171 0.000000 0.000000
0.352696 0.000000 0.000000
0.370220 0.000000 0.000000
0.391667 0.000000 0.000000
0.409069 0.000000 0.000000
0.430637 0.000000 0.000000
0.448162 0.000000 0.000000
0.469608 0.000000 0.000000
0.491054 0.000000 0.000000
0.510968 0.000000 0.000000
0.530024 0.000000 0.000000
0.549939 0.000000 0.000000
0.572916 0.000000 0.000000
0.594669 0.000000 0.000000
0.611887 0.000000 0.000000
0.631496 0.000000 0.000000
0.649020 0.000000 0.000000
0.666544 0.000000 0.000000
0.680147 0.000000 0.000000
0.697671 0.000000 0.000000
0.711275 0.000000 0.000000
0.727145 0.000000 0.000000
0.742402 0.000000 0.000000
0.756005 0.000000 0.000000
0.769607 0.000000 0.000000
0.785723 0.000000 0.000000
0.798407 0.000000 0.000000
0.814338 0.000000 0.000000
0.827696 0.000000 0.000000
0.840380 0.000000 0.000000
0.853064 0.000000 0.000000
0.865748 0.000000 0.000000
0.878431 0.000000 0.000000
0.014522 0.034130 0.000000
0.019362 0.030209 0.000000
0.025367 0.026287 0.000000
0.034130 0.026287 0.000000
0.041728 0.021446 0.000000
0.050491 0.021692 0.000000
0.059252 0.018444 0.000000
0.068014 0.015931 0.000000
0.076777 0.014522 0.000000
0.085539 0.014094 0.000000
0.091544 0.010601 0.000000
0.100797 0.010601 0.000000
0.107905 0.007843 0.000000
0.116667 0.006679 0.000000
0.125429 0.003922 0.000000
0.134191 0.004657 0.000000
0.140196 0.002758 0.000000
0.148959 -0.001103 0.000000
0.160478 0.000000 0.000000
0.169240 0.000000 0.000000
0.178002 0.000000 0.000000
0.187929 0.000000 0.000000
0.199448 0.000000 0.000000
0.212132 0.000000 0.000000
0.220588 0.000000 0.000000
0.233578 0.000000 0.000000
0.246630 0.000000 0.000000
0.260233 0.000000 0.000000
0.275551 0.000000 0.000000
0.288235 0.000000 0.000000
0.304964 0.000000 0.000000
0.322488 0.000000 0.000000
0.340012 0.000000 0.000000
0.357537 0.000000 0.000000
0.380024 0.000000 0.000000
0.394547 0.000000 0.000000
0.417953 0.000000 0.000000
0.435478 0.000000 0.000000
0.454167 0.000000 0.000000
0.472242 0.000000 0.000000
0.495895 0.000000 0.000000
0.517341 0.000000 0.000000
0.539338 0.000000 0.000000
0.560233 0.000000 0.000000
0.576226 0.000000 0.000000
0.599204 0.000000 0.000000
0.616728 0.000000 0.000000
0.635417 0.000000 0.000000
0.652941 0.000000 0.000000
0.669302 0.000000 0.000000
0.684008 0.000000 0.000000
0.701593 0.000000 0.000000
0.717219 0.000000 0.000000
0.728799 0.000000 0.000000
0.742402 0.000000 0.000000
0.755270 0.000000 0.000000
0.769607 0.000000 0.000000
0.785723 0.000000 0.000000
0.798407 0.000000 0.000000
0.811091 0.000000 0.000000
0.827696 0.000000 0.000000
0.840380 0.000000 0.000000
0.853064 0.000000 0.000000
0.865748 0.000000 0.000000
0.878431 0.000000 0.000000
0.019363 0.046814 0.000000
0.027206 0.042892 0.000000
0.032965 0.038971 0.000000
0.038971 0.039890 0.000000
0.046569 0.035049 0.000000
0.055331 0.031128 0.000000
0.064094 0.033211 0.000000
0.072856 0.027206 0.000000
0.081618 0.023284 0.000000
0.086704 0.026532 0.000000
0.095466 0.019363 0.000000
0.105637 0.019363 0.000000
0.112745 0.015441 0.000000
0.121507 0.015258 0.000000
0.130269 0.011520 0.000000
0.139031 0.007843 0.000000
0.144118 0.008578 0.000000
0.152880 0.007598 0.000000
0.165318 0.003922 0.000000
0.174081 0.003677 0.000000
0.181863 0.003677 0.000000
0.191851 0.000000 0.000000
0.201225 0.000000 0.000000
0.216974 0.000000 0.000000
0.229657 0.000000 0.000000
0.238113 0.000000 0.000000
0.255025 0.000000 0.000000
0.267708 0.000000 0.000000
0.278922 0.000000 0.000000
0.296201 0.000000 0.000000
0.313603 0.000000 0.000000
0.327328 0.000000 0.000000
0.344853 0.000000 0.000000
0.362623 0.000000 0.000000
0.383946 0.000000 0.000000
0.401593 0.000000 0.000000
0.422794 0.000000 0.000000
0.439277 0.000000 0.000000
0.461765 0.000000 0.000000
0.476164 0.000000 0.000000
0.500735 0.000000 0.000000
0.522181 0.000000 0.000000
0.543627 0.000000 0.000000
0.565074 0.000000 0.000000
0.580147 0.000000 0.000000
0.604044 0.000000 0.000000
0.620956 0.000000 0.000000
0.639339 0.000000 0.000000
0.656863 0.000000 0.000000
0.674142 0.000000 0.000000
0.687990 0.000000 0.000000
0.705514 0.000000 0.000000
0.722058 0.000000 0.000000
0.734743 0.000000 0.000000
0.746324 0.000000 0.000000
0.759926 0.000000 0.000000
0.773039 0.000000 0.000000
0.785723 0.000000 0.000000
0.798407 0.000000 0.000000
0.811091 0.000000 0.000000
0.824019 0.000000 0.000000
0.840380 0.000000 0.000000
0.851226 0.000000 0.000000
0.864829 0.000000 0.000000
0.878431 0.000000 0.000000
0.028125 0.060172 0.000674
0.032966 0.059498 0.000674
0.037806 0.054412 0.000674
0.045895 0.052328 0.000000
0.047733 0.051654 0.000000
0.059498 0.047733 0.000000
0.068260 0.042892 0.000000
0.077022 0.040564 0.000000
0.085785 0.039890 0.000000
0.091299 0.035968 0.000000
0.098713 0.032721 0.000000
0.108149 0.032047 0.000000
0.116912 0.028125 0.000000
0.121937 0.024203 0.000000
0.134436 0.019853 0.000000
0.143198 0.020282 0.000000
0.148713 0.016360 0.000000
0.157475 0.012499 0.000000
0.169485 0.012439 0.000000
0.178248 0.008517 0.000000
0.189706 0.008517 0.000000
0.196447 0.007843 0.000000
0.209130 0.003922 0.000000
0.221140 0.003922 0.000000
0.230576 0.000674 0.000000
0.243260 0.000000 0.000000
0.255637 0.000000 0.000000
0.269914 0.000000 0.000000
0.286765 0.000000 0.000000
0.300368 0.000000 0.000000
0.314645 0.000000 0.000000
0.332169 0.000000 0.000000
0.349694 0.000000 0.000000
0.367218 0.000000 0.000000
0.387990 0.000000 0.000000
0.406189 0.000000 0.000000
0.426961 0.000000 0.000000
0.447120 0.000000 0.000000
0.462684 0.000000 0.000000
0.484130 0.000000 0.000000
0.506373 0.000000 0.000000
0.523100 0.000000 0.000000
0.544547 0.000000 0.000000
0.565625 0.000000 0.000000
0.587439 0.000000 0.000000
0.608211 0.000000 0.000000
0.628799 0.000000 0.000000
0.643934 0.000000 0.000000
0.660478 0.000000 0.000000
0.678309 0.000000 0.000000
0.695833 0.000000 0.000000
0.709436 0.000000 0.000000
0.722978 0.000000 0.000000
0.735661 0.000000 0.000000
0.748345 0.000000 0.000000
0.761030 0.000000 0.000000
0.777635 0.000000 0.000000
0.791054 0.000000 0.000000
0.804657 0.000000 0.000000
0.815012 0.000000 0.000000
0.827696 0.000000 0.000000
0.837132 0.000000 0.000000
0.851226 0.000000 0.000000
0.864829 0.000000 0.000000
0.877757 0.000000 0.000000
0.036887 0.073774 0.003922
0.040135 0.072855 0.003922
0.046568 0.068015 0.003922
0.051410 0.065931 0.003922
0.056250 0.064338 0.003922
0.061091 0.060417 0.003922
0.069853 0.058088 0.003922
0.078615 0.056495 0.003922
0.087377 0.050735 0.001593
0.094547 0.048652 0.001593
0.103309 0.046323 0.001593
0.112071 0.044730 0.001593
0.118505 0.039216 0.001593
0.127267 0.036887 0.001593
0.136029 0.032966 0.001593
0.144792 0.030637 0.000000
0.153554 0.029044 0.000000
0.162317 0.025122 0.000000
0.173407 0.021201 0.000000
0.182169 0.017096 0.000000
0.193627 0.014583 0.000000
0.201287 0.013358 0.000000
0.213971 0.009436 0.000000
0.226654 0.007843 0.000000
0.235417 0.005515 0.000000
0.248100 0.003922 0.000000
0.259559 0.001593 0.000000
0.277390 0.000000 0.000000
0.290687 0.000000 0.000000
0.302757 0.000000 0.000000
0.319485 0.000000 0.000000
0.337010 0.000000 0.000000
0.354534 0.000000 0.000000
0.372059 0.000000 0.000000
0.391912 0.000000 0.000000
0.411029 0.000000 0.000000
0.430882 0.000000 0.000000
0.450000 0.000000 0.000000
0.467525 0.000000 0.000000
0.488971 0.000000 0.000000
0.510416 0.000000 0.000000
0.530269 0.000000 0.000000
0.549387 0.000000 0.000000
0.569546 0.000000 0.000000
0.592279 0.000000 0.000000
0.612132 0.000000 0.000000
0.632720 0.000000 0.000000
0.648775 0.000000 0.000000
0.664706 0.000000 0.000000
0.682230 0.000000 0.000000
0.697426 0.000000 0.000000
0.713358 0.000000 0.000000
0.726961 0.000000 0.000000
0.740503 0.000000 0.000000
0.753187 0.000000 0.000000
0.765869 0.000000 0.000000
0.782475 0.000000 0.000000
0.795159 0.000000 0.000000
0.806250 0.000000 0.000000
0.816606 0.000000 0.000000
0.827941 0.000000 0.000000
0.841973 0.000000 0.000000
0.853064 0.000000 0.000000
0.863420 0.000000 0.000000
0.874510 0.000000 0.000000
0.041728 0.087377 0.003922
0.049571 0.086459 0.003922
0.053493 0.080944 0.003922
0.057415 0.079534 0.003922
0.061336 0.075858 0.003922
0.069179 0.073101 0.003922
0.072181 0.074020 0.003922
0.080944 0.069179 0.003922
0.089706 0.067769 0.003922
0.098468 0.063848 0.003922
0.108395 0.062500 0.003922
0.114583 0.057415 0.003922
0.123345 0.056005 0.003922
0.132108 0.049571 0.003922
0.140870 0.048161 0.003922
0.149632 0.046140 0.003922
0.158394 0.041728 0.003922
0.167156 0.036459 0.003922
0.174265 0.035539 0.002513
0.186091 0.030699 0.002513
0.197549 0.026042 0.002513
0.206127 0.022120 -0.001103
0.218811 0.018199 0.000000
0.231495 0.016666 0.000000
0.240196 0.011765 0.000000
0.252941 0.010356 0.000000
0.269547 0.009987 0.000000
0.282230 0.003922 0.000000
0.294914 0.003922 0.000000
0.307598 0.002513 0.000000
0.328124 0.000000 0.000000
0.341851 0.000000 0.000000
0.358823 0.000000 0.000000
0.378309 0.000000 0.000000
0.399632 0.000000 0.000000
0.414155 0.000000 0.000000
0.434804 0.000000 0.000000
0.454841 0.000000 0.000000
0.473775 0.000000 0.000000
0.491850 0.000000 0.000000
0.515258 0.000000 0.000000
0.534191 0.000000 0.000000
0.554228 0.000000 0.000000
0.573468 0.000000 0.000000
0.597120 0.000000 0.000000
0.616054 0.000000 0.000000
0.633578 0.000000 0.000000
0.653614 0.000000 0.000000
0.668628 0.000000 0.000000
0.686152 0.000000 0.000000
0.699449 0.000000 0.000000
0.717279 0.000000 0.000000
0.732660 0.000000 0.000000
0.744485 0.000000 0.000000
0.758027 0.000000 0.000000
0.770711 0.000000 0.000000
0.787317 0.000000 0.000000
0.797487 0.000000 0.000000
0.808579 0.000000 0.000000
0.821446 0.000000 0.000000
0.831863 0.000000 0.000000
0.846813 0.000000 0.000000
0.856986 0.000000 0.000000
0.868260 0.000000 0.000000
0.878431 0.000000 0.000000
0.050490 0.097549 0.007843
0.058334 0.097059 0.007843
0.062255 0.093628 0.007843
0.066177 0.094302 0.007843
0.070343 0.089461 0.007843
0.071262 0.089216 0.007353
0.079535 0.087623 0.007353
0.084866 0.081863 0.007353
0.093628 0.081863 0.007353
0.105392 0.080944 0.007353
0.107230 0.074020 0.003922
0.115992 0.073530 0.003922
0.124755 0.070343 0.003922
0.133517 0.069424 0.003922
0.142279 0.064584 0.003922
0.151042 0.059743 0.003922
0.159804 0.054412 0.003922
0.172426 0.050061 0.003922
0.180760 0.049142 0.003922
0.187868 0.044301 0.003922
0.198774 0.039461 0.003922
0.210968 0.034620 0.003922
0.223652 0.033702 0.003922
0.236336 0.028860 0.003432
0.244118 0.023039 0.003432
0.257721 0.019118 0.000000
0.274387 0.011765 0.000000
0.287071 0.011275 0.000000
0.298530 0.007843 0.000000
0.315564 0.007353 0.000000
0.329657 0.003922 0.000000
0.347181 0.000000 0.000000
0.364706 0.000000 0.000000
0.385662 0.000000 0.000000
0.403187 0.000000 0.000000
0.421201 0.000000 0.000000
0.442157 0.000000 0.000000
0.459681 0.000000 0.000000
0.477696 0.000000 0.000000
0.495772 0.000000 0.000000
0.520098 0.000000 0.000000
0.538112 0.000000 0.000000
0.558946 0.000000 0.000000
0.581005 0.000000 0.000000
0.601960 0.000000 0.000000
0.619975 0.000000 0.000000
0.637500 0.000000 0.000000
0.655025 0.000000 0.000000
0.672549 0.000000 0.000000
0.691606 0.000000 0.000000
0.703676 0.000000 0.000000
0.721201 0.000000 0.000000
0.737499 0.000000 0.000000
0.750183 0.000000 0.000000
0.762868 0.000000 0.000000
0.775613 0.000000 0.000000
0.785294 0.000000 0.000000
0.798897 0.000000 0.000000
0.812500 0.000000 0.000000
0.826287 0.000000 0.000000
0.838970 0.000000 0.000000
0.848223 0.000000 0.000000
0.859069 0.000000 0.000000
0.873101 0.000000 0.000000
0.881863 0.000000 0.000000
0.059253 0.110233 0.011765
0.063174 0.105821 0.011765
0.067096 0.106311 0.011765
0.071017 0.106311 0.011765
0.078186 0.102390 0.011765
0.078860 0.098897 0.011765
0.084375 0.098468 0.008272
0.092709 0.094976 0.008272
0.097549 0.094547 0.008272
0.102390 0.090625 0.008272
0.111152 0.087133 0.006924
0.119914 0.086704 0.007843
0.128677 0.082782 0.007843
0.137439 0.078860 0.007843
0.146201 0.074265 0.007843
0.154963 0.069424 0.007843
0.163725 0.071017 0.007843
0.176348 0.067096 0.007843
0.181679 0.058824 0.007843
0.193934 0.053983 0.007843
0.205392 0.049142 0.007843
0.211887 0.044301 0.004351
0.224571 0.043566 0.004351
0.238358 0.039645 0.003922
0.251961 0.035723 0.003922
0.265564 0.028432 0.003922
0.275245 0.023958 0.003922
0.287991 0.020037 0.003922
0.302880 0.016115 0.003922
0.319976 0.012194 0.000429
0.334007 0.007843 0.000000
0.351532 0.004351 0.000000
0.369057 0.003922 0.000000
0.386581 -0.002451 0.000000
0.407598 0.000000 0.000000
0.425551 0.000000 0.000000
0.443076 0.000000 0.000000
0.464094 0.000000 0.000000
0.482047 0.000000 0.000000
0.503615 0.000000 0.000000
0.521017 0.000000 0.000000
0.542464 0.000000 0.000000
0.566789 0.000000 0.000000
0.585356 0.000000 0.000000
0.606373 0.000000 0.000000
0.626042 0.000000 0.000000
0.641850 0.000000 0.000000
0.659375 0.000000 0.000000
0.675919 0.000000 0.000000
0.693995 0.000000 0.000000
0.708028 0.000000 0.000000
0.725122 0.000000 0.000000
0.738726 0.000000 0.000000
0.752329 0.000000 0.000000
0.765931 0.000000 0.000000
0.779534 0.000000 0.000000
0.792647 0.000000 0.000000
0.801838 0.000000 0.000000
0.814523 0.000000 0.000000
0.830025 0.000000 0.000000
0.839890 0.000000 0.000000
0.852144 0.000000 0.000000
0.861336 0.000000 0.000000
0.873591 0.000000 0.000000
0.882782 0.000000 0.000000
0.068015 0.120343 0.015686
0.071936 0.118995 0.015686
0.076348 0.118995 0.015686
0.078616 0.113664 0.015686
0.079779 0.115073 0.013113
0.087623 0.111152 0.013113
0.091789 0.111152 0.013113
0.096630 0.106066 0.013113
0.099387 0.107230 0.009682
0.106311 0.103309 0.011765
0.115073 0.099387 0.011765
0.123836 0.099387 0.011765
0.132598 0.095466 0.011765
0.141360 0.092708 0.011765
0.150123 0.087623 0.011765
0.158885 0.083027 0.011765
0.167647 0.081127 0.011765
0.176410 0.079779 0.011765
0.186520 0.071936 0.009191
0.195282 0.067586 0.009191
0.206618 0.062745 0.009191
0.216728 0.057904 0.005576
0.228676 0.056986 0.007843
0.242280 0.052328 0.007843
0.255883 0.048407 0.007843
0.269485 0.038542 0.005270
0.279166 0.037622 0.003922
0.292769 0.028799 0.003922
0.307721 0.024019 0.003922
0.323897 0.020956 0.003922
0.338848 0.016911 0.003922
0.356372 0.012071 0.004228
0.373897 0.007843 0.000000
0.393995 0.003922 0.000000
0.415318 -0.002451 0.000000
0.430392 0.000000 0.000000
0.447916 0.000000 0.000000
0.470650 0.000000 0.000000
0.486887 0.000000 0.000000
0.508333 0.000000 0.000000
0.525858 0.000000 0.000000
0.547304 0.000000 0.000000
0.570711 0.000000 0.000000
0.590196 0.000000 0.000000
0.607598 0.000000 0.000000
0.627819 0.000000 0.000000
0.646691 0.000000 0.000000
0.662868 0.000000 0.000000
0.680392 0.000000 0.000000
0.697917 0.000000 0.000000
0.710049 0.000000 0.000000
0.729044 0.000000 0.000000
0.743260 0.000000 0.000000
0.756250 0.000000 0.000000
0.769853 0.000000 0.000000
0.783456 0.000000 0.000000
0.793137 0.000000 0.000000
0.806741 0.000000 0.000000
0.820343 0.000000 0.000000
0.833946 0.000000 0.000000
0.843382 0.000000 0.000000
0.853309 0.000000 0.000000
0.866912 0.000000 0.000000
0.877512 0.000000 0.000000
0.886275 0.000000 0.000000
0.076777 0.133946 0.019608
0.080698 0.131679 0.019608
0.082537 0.130024 0.019608
0.084620 0.127267 0.019608
0.088542 0.127757 0.017953
0.090870 0.123836 0.017953
0.095711 0.124510 0.017953
0.100306 0.119669 0.017953
0.104228 0.119914 0.017953
0.110233 0.115992 0.015686
0.115073 0.114338 0.015686
0.126103 0.112071 0.015686
0.134865 0.107230 0.015686
0.143627 0.104228 0.015686
0.152390 0.100306 0.015686
0.161152 0.098652 0.014032
0.169914 0.096385 0.014032
0.180331 0.092463 0.014032
0.189093 0.089951 0.011765
0.200123 0.085111 0.011765
0.210539 0.080698 0.011765
0.221568 0.076777 0.011765
0.234253 0.070588 0.011765
0.246936 0.065748 0.010110
0.259804 0.061091 0.010110
0.273407 0.057169 0.007843
0.283088 0.051226 0.007843
0.296691 0.041483 0.007843
0.314277 0.037561 0.007904
0.326961 0.033640 0.006189
0.347487 0.025673 0.003922
0.359988 0.017953 0.003922
0.380393 0.014032 0.003922
0.400797 0.007230 0.003922
0.417708 0.006189 0.002267
0.435233 0.002267 0.000000
0.454412 0.000000 0.000000
0.474203 0.000000 0.000000
0.491728 0.000000 0.000000
0.513174 0.000000 0.000000
0.534620 0.000000 0.000000
0.552145 0.000000 0.000000
0.573591 0.000000 0.000000
0.595037 0.000000 0.000000
0.614216 0.000000 0.000000
0.634008 0.000000 0.000000
0.651532 0.000000 0.000000
0.669056 0.000000 0.000000
0.684314 0.000000 0.000000
0.702206 0.000000 0.000000
0.714890 0.000000 0.000000
0.731311 0.000000 0.000000
0.742647 0.000000 0.000000
0.760785 0.000000 0.000000
0.771201 0.000000 0.000000
0.783885 0.000000 0.000000
0.798836 0.000000 0.000000
0.811519 0.000000 0.000000
0.824265 0.000000 0.000000
0.834620 0.000000 0.000000
0.847304 0.000000 0.000000
0.857230 0.000000 0.000000
0.868750 0.000000 0.000000
0.879780 0.000000 0.000000
0.890196 0.000000 0.000000
0.085540 0.147549 0.023529
0.089461 0.147549 0.022794
0.091300 0.145710 0.022794
0.093383 0.143627 0.022794
0.097304 0.143627 0.022794
0.101226 0.139705 0.022794
0.105147 0.136520 0.022794
0.109069 0.135784 0.019608
0.112990 0.135784 0.019608
0.117341 0.131862 0.019608
0.122181 0.130515 0.019608
0.127757 0.127941 0.019608
0.139705 0.124019 0.019608
0.148468 0.120098 0.018873
0.157230 0.118995 0.018873
0.165992 0.112990 0.018873
0.174755 0.112254 0.018873
0.183518 0.108333 0.015012
0.193015 0.101226 0.015686
0.203554 0.097304 0.015686
0.217647 0.093383 0.015686
0.226409 0.092647 0.015686
0.236519 0.088113 0.011765
0.251777 0.080882 0.011765
0.264461 0.076960 0.011765
0.277328 0.069669 0.011765
0.290196 0.065196 0.011030
0.306434 0.059988 0.007843
0.318138 0.055147 0.007843
0.334927 0.046385 0.007843
0.349265 0.041544 0.010906
0.369976 0.032782 0.003922
0.387500 0.024754 0.003922
0.405024 0.018873 0.003922
0.422549 0.014951 0.003922
0.443995 0.010232 0.003922
0.461520 0.003922 0.005393
0.479044 0.003187 0.000000
0.500858 0.000000 0.000000
0.515380 0.000000 0.000000
0.539461 0.000000 0.000000
0.560907 0.000000 0.000000
0.578431 0.000000 0.000000
0.596997 0.000000 0.000000
0.621324 0.000000 0.000000
0.638848 0.000000 0.000000
0.656373 0.000000 0.000000
0.673897 0.000000 0.000000
0.688236 0.000000 0.000000
0.707047 0.000000 0.000000
0.719363 0.000000 0.000000
0.736887 0.000000 0.000000
0.749755 0.000000 0.000000
0.765624 0.000000 0.000000
0.778309 0.000000 0.000000
0.791299 0.000000 0.000000
0.803676 0.000000 0.000000
0.816361 0.000000 0.000000
0.829044 0.000000 0.000000
0.837807 0.000000 0.000000
0.851225 0.000000 0.000000
0.863175 0.000000 0.000000
0.872672 0.000000 0.000000
0.884620 0.000000 0.000000
0.894118 0.000000 0.000000
0.094302 0.160968 0.027451
0.098223 0.160968 0.027451
0.098223 0.157231 0.027451
0.102145 0.154473 0.027451
0.105822 0.157047 0.027451
0.110478 0.153309 0.023713
0.111581 0.153125 0.023713
0.113909 0.149388 0.023713
0.117831 0.145956 0.023713
0.125919 0.145466 0.023713
0.129596 0.145282 0.023529
0.133517 0.139276 0.023529
0.144363 0.137623 0.023529
0.149388 0.133701 0.023529
0.158150 0.133517 0.023529
0.166912 0.127757 0.019792
0.179412 0.125858 0.019792
0.188174 0.121937 0.019792
0.197120 0.117157 0.019608
0.211397 0.112316 0.019608
0.218566 0.110172 0.019608
0.234681 0.106250 0.019608
0.244362 0.102145 0.015870
0.257966 0.098223 0.014338
0.271569 0.094302 0.015686
0.285172 0.086643 0.015686
0.294669 0.082537 0.011581
0.308639 0.073591 0.011765
0.325981 0.068750 0.011765
0.339767 0.059988 0.011765
0.357292 0.055147 0.008027
0.374816 0.046385 0.007843
0.392340 0.037623 0.007843
0.409865 0.028860 0.004106
0.427391 0.023835 0.000307
0.449449 0.018995 0.003922
0.466360 0.011949 0.003922
0.483884 0.008027 0.003922
0.508701 0.004106 0.003922
