Color/Agfa/Agfa Precisa 100 65x.cube
TITLE "Agfa Precisa 100"
LUT_3D_SIZE 65
DOMAIN_MIN 0.000000 0.000000 0.000000
DOMAIN_MAX 1.000000 1.000000 1.000000
0.000000 0.000000 0.000000
0.004841 0.000000 0.000000
0.013603 0.000000 0.000000
0.022365 0.000000 0.000000
0.034804 0.000000 0.000000
0.043811 0.000000 0.000000
0.056495 0.000000 0.000000
0.065258 0.000000 0.000000
0.077941 0.000000 0.003432
0.087133 0.000000 0.003922
0.099387 0.000000 0.003922
0.108149 0.000000 0.003922
0.116912 0.000000 0.003922
0.129596 0.000000 0.007843
0.142279 0.003922 0.007843
0.154963 0.003922 0.007843
0.166666 0.003922 0.011765
0.176410 0.003922 0.011765
0.189951 0.003922 0.015686
0.203554 0.003922 0.015686
0.218382 0.006618 0.019608
0.234681 0.007843 0.023223
0.248284 0.007843 0.024142
0.261888 0.011765 0.027451
0.276961 0.011765 0.031373
0.293015 0.011765 0.035294
0.306617 0.015686 0.039216
0.324142 0.016973 0.043137
0.339461 0.019608 0.047059
0.355270 0.019608 0.050980
0.372794 0.023529 0.055025
0.390318 0.023529 0.059866
0.407844 0.025490 0.064706
0.425368 0.027451 0.069546
0.442892 0.031373 0.074510
0.464338 0.035294 0.079228
0.485784 0.039216 0.086275
0.505944 0.043137 0.090196
0.524755 0.046691 0.097671
0.546201 0.050980 0.101961
0.565196 0.052451 0.107353
0.585171 0.057292 0.112193
0.606005 0.058824 0.117034
0.624142 0.062745 0.121875
0.641667 0.066667 0.126716
0.663113 0.070588 0.131556
0.680637 0.073652 0.136397
0.698162 0.074571 0.141237
0.715687 0.079411 0.146079
0.737132 0.082353 0.150919
0.754657 0.086275 0.155760
0.772181 0.090196 0.160600
0.789706 0.094118 0.165441
0.807231 0.095772 0.170282
0.824755 0.098039 0.175123
0.842279 0.101961 0.179963
0.859804 0.105882 0.184314
0.877329 0.107291 0.188235
0.892525 0.109804 0.192157
0.908456 0.113725 0.196078
0.925980 0.117647 0.200245
0.943505 0.118811 0.205086
0.958946 0.121569 0.209927
0.974633 0.125490 0.214767
0.992157 0.129412 0.219608
0.000000 0.008762 0.000000
0.009681 0.009681 0.000000
0.021446 0.009681 0.000000
0.032966 0.009681 0.000000
0.039889 0.009681 0.000000
0.052573 0.012684 0.000000
0.065931 0.012684 0.000000
0.074019 0.012684 0.000000
0.085785 0.012684 0.000000
0.094976 0.012684 0.000000
0.108578 0.012684 0.000000
0.116912 0.012684 0.005270
0.125675 0.012684 0.003922
0.138358 0.012684 0.003922
0.151226 0.012684 0.003922
0.159804 0.012684 0.007843
0.172488 0.012684 0.007843
0.188112 0.012684 0.010846
0.197794 0.013603 0.011765
0.210539 0.013603 0.016544
0.223223 0.013603 0.015686
0.239522 0.013603 0.019608
0.253125 0.013603 0.023529
0.269731 0.013603 0.028064
0.281801 0.013603 0.032905
0.300858 0.016605 0.037745
0.315013 0.016605 0.038665
0.327696 0.017524 0.043137
0.345588 0.020527 0.047059
0.360110 0.020527 0.050980
0.376716 0.023529 0.055025
0.394240 0.024571 0.059866
0.411765 0.027451 0.063664
0.429289 0.030331 0.070588
0.447733 0.035171 0.078308
0.469179 0.036091 0.082353
0.489706 0.039216 0.087990
0.509866 0.043137 0.092831
0.528677 0.046691 0.097671
0.550123 0.050980 0.102512
0.569118 0.051899 0.107353
0.589093 0.057292 0.112193
0.606618 0.058824 0.117647
0.628064 0.063051 0.121875
0.645588 0.066667 0.126716
0.663113 0.070588 0.131556
0.681557 0.073652 0.134252
0.702084 0.078431 0.141237
0.719608 0.079411 0.146079
0.737132 0.082353 0.150919
0.754657 0.086275 0.155760
0.772181 0.090196 0.160784
0.789706 0.094118 0.165441
0.807231 0.095772 0.170282
0.824755 0.098039 0.175123
0.842279 0.101961 0.179963
0.859804 0.105882 0.184314
0.877329 0.107291 0.188235
0.894853 0.109804 0.192157
0.912377 0.113725 0.196078
0.925980 0.117647 0.200245
0.943505 0.118811 0.205086
0.961030 0.121569 0.209927
0.974633 0.125490 0.214767
0.992157 0.129412 0.219608
0.005760 0.019362 0.000000
0.014522 0.021446 0.000000
0.023284 0.021446 0.000000
0.034130 0.021446 0.000000
0.046569 0.025123 0.000000
0.057414 0.023284 0.000000
0.068260 0.023039 0.000000
0.079534 0.025367 0.000000
0.089706 0.025367 0.000000
0.098897 0.027206 0.000000
0.111152 0.027206 0.000000
0.119914 0.027206 0.000000
0.130514 0.027206 0.005270
0.143198 0.027206 0.003922
0.155882 0.027206 0.003922
0.166728 0.027206 0.003922
0.177328 0.027206 0.008946
0.192034 0.027206 0.007843
0.201716 0.027206 0.011765
0.215319 0.027206 0.011765
0.228064 0.027206 0.016544
0.246446 0.029289 0.015686
0.257966 0.031127 0.018383
0.273652 0.031127 0.023529
0.286642 0.031127 0.028064
0.304779 0.031127 0.032905
0.319853 0.031127 0.033823
0.331985 0.031127 0.038665
0.349510 0.031127 0.043137
0.361826 0.028003 0.050184
0.380637 0.029289 0.055025
0.398958 0.029289 0.059866
0.413603 0.029289 0.066790
0.433211 0.029289 0.070588
0.450735 0.033211 0.078308
0.469057 0.036091 0.082353
0.491544 0.039216 0.087990
0.511152 0.043137 0.092831
0.530515 0.047059 0.097671
0.551961 0.050980 0.102512
0.571569 0.054902 0.107353
0.589093 0.057292 0.111642
0.608456 0.058824 0.117647
0.628064 0.063051 0.121875
0.645588 0.066667 0.126716
0.664951 0.070588 0.131250
0.684559 0.074510 0.137255
0.702084 0.078431 0.141237
0.719608 0.079411 0.146079
0.737132 0.082353 0.150919
0.754657 0.086275 0.156863
0.772181 0.090196 0.160784
0.791544 0.094118 0.165441
0.807231 0.095772 0.170282
0.824755 0.098039 0.175123
0.842279 0.101961 0.179963
0.859804 0.105882 0.184314
0.877329 0.107291 0.188235
0.894853 0.109804 0.192157
0.912377 0.113725 0.196078
0.925980 0.117647 0.200245
0.943505 0.118811 0.205086
0.961030 0.121569 0.209927
0.974633 0.125490 0.214767
0.992157 0.129412 0.219608
0.010601 0.030209 0.002758
0.019362 0.032966 0.002758
0.028125 0.032966 0.002758
0.036888 0.034130 0.002758
0.046814 0.034130 0.002758
0.059498 0.034130 0.002758
0.068260 0.036888 0.002758
0.080944 0.036888 0.002758
0.093138 0.038052 0.002758
0.102390 0.038052 0.002758
0.113909 0.040809 0.002758
0.123836 0.040809 0.002758
0.132598 0.040809 0.002758
0.145282 0.041973 0.003922
0.157966 0.041973 0.003922
0.168750 0.041973 0.003922
0.182353 0.041973 0.003922
0.192096 0.041973 0.007843
0.205638 0.041973 0.005943
0.219240 0.044731 0.011765
0.232843 0.044731 0.011765
0.245589 0.044731 0.016544
0.260049 0.044731 0.019608
0.278799 0.044731 0.021140
0.291177 0.044731 0.023223
0.304166 0.044731 0.027451
0.321140 0.045895 0.031741
0.335906 0.045895 0.036581
0.349510 0.044731 0.043137
0.367034 0.044731 0.047427
0.383395 0.044731 0.051103
0.400919 0.044731 0.058824
0.418443 0.044731 0.061948
0.435968 0.044731 0.069546
0.453493 0.040931 0.075552
0.472181 0.041973 0.082353
0.493627 0.040931 0.087990
0.513909 0.043137 0.092831
0.532598 0.047059 0.097671
0.550674 0.050980 0.102512
0.571568 0.054902 0.107353
0.591483 0.057292 0.113725
0.610540 0.062132 0.117647
0.628064 0.063051 0.121875
0.646814 0.066667 0.126716
0.667034 0.070588 0.133333
0.684559 0.074510 0.137255
0.702084 0.078431 0.141237
0.719608 0.079411 0.146079
0.739890 0.082353 0.150919
0.758578 0.086275 0.156863
0.776103 0.090196 0.160784
0.793628 0.094118 0.165441
0.811152 0.095772 0.170282
0.828677 0.098039 0.175123
0.841544 0.101961 0.179963
0.859804 0.105882 0.184314
0.877329 0.109804 0.188235
0.894853 0.109804 0.192157
0.912377 0.113725 0.196078
0.925980 0.117647 0.200245
0.943505 0.118811 0.205086
0.961030 0.121569 0.209927
0.974387 0.125490 0.214767
0.992157 0.129412 0.219608
0.015686 0.042892 0.003922
0.024448 0.042892 0.003922
0.032965 0.042892 0.003922
0.041728 0.046569 0.003922
0.050490 0.046569 0.003922
0.059498 0.046814 0.003922
0.069853 0.046814 0.003922
0.080944 0.046814 0.003922
0.093138 0.050490 0.003922
0.106067 0.050735 0.003922
0.115073 0.050735 0.003922
0.123836 0.054412 0.003922
0.135784 0.054412 0.003922
0.145466 0.054657 0.003922
0.159069 0.054657 0.003922
0.174326 0.058334 0.003922
0.183333 0.058334 0.003922
0.195772 0.058334 0.003922
0.212377 0.058334 0.007843
0.225062 0.058334 0.005943
0.236765 0.058334 0.011765
0.250367 0.058272 0.011704
0.263970 0.058579 0.012622
0.277574 0.058579 0.019608
0.296323 0.062255 0.023529
0.308701 0.062255 0.026899
0.322304 0.062255 0.031373
0.342218 0.062255 0.035294
0.353432 0.062255 0.039216
0.371507 0.058579 0.043137
0.384559 0.062133 0.050980
0.402083 0.058334 0.054902
0.419607 0.058334 0.057109
0.437133 0.058334 0.065625
0.458456 0.058334 0.070711
0.476103 0.058334 0.075551
0.497304 0.054657 0.084069
0.515074 0.054657 0.089154
0.536275 0.054657 0.097671
0.554044 0.054657 0.102512
0.575244 0.054902 0.107353
0.593014 0.057292 0.113725
0.610540 0.062132 0.117647
0.628370 0.063051 0.121875
0.649510 0.067892 0.129412
0.667034 0.070588 0.133333
0.684559 0.074510 0.137255
0.705760 0.078431 0.141237
0.723530 0.079411 0.146079
0.741054 0.084253 0.152941
0.758578 0.086275 0.156863
0.776103 0.090196 0.160784
0.793628 0.094118 0.165441
0.811152 0.095772 0.170282
0.828677 0.098039 0.175123
0.846201 0.101961 0.179963
0.859804 0.105882 0.184314
0.877329 0.109804 0.188235
0.894853 0.112132 0.192157
0.912377 0.113725 0.196078
0.933334 0.117647 0.200245
0.943505 0.118811 0.205086
0.961030 0.121569 0.209927
0.975552 0.125490 0.214767
0.992157 0.129412 0.219608
0.024203 0.055576 0.007843
0.032047 0.055576 0.007843
0.041054 0.056250 0.007843
0.046568 0.056250 0.004596
0.054657 0.056250 0.004596
0.063419 0.059498 0.004596
0.073774 0.059498 0.004596
0.084866 0.059498 0.004596
0.097059 0.060172 0.004596
0.106311 0.063419 0.004596
0.116421 0.063419 0.004596
0.124510 0.063419 0.004596
0.136520 0.064093 0.007843
0.149878 0.067341 0.007843
0.162990 0.067341 0.007843
0.174571 0.067341 0.007843
0.186274 0.068015 0.007843
0.199877 0.071262 0.007843
0.213481 0.072120 0.007843
0.227083 0.071936 0.007843
0.240686 0.071936 0.010539
0.251349 0.071936 0.011765
0.267892 0.075184 0.015686
0.280637 0.075184 0.015686
0.299020 0.075184 0.019608
0.312623 0.075858 0.026225
0.326225 0.075858 0.027451
0.343750 0.075858 0.031986
0.357353 0.073652 0.036826
0.374878 0.075184 0.039216
0.388480 0.075184 0.043260
0.406005 0.075184 0.051348
0.423530 0.071936 0.054902
0.441054 0.075184 0.061703
0.462377 0.075184 0.069792
0.480024 0.071936 0.074633
0.499265 0.071936 0.078431
0.518996 0.071262 0.088236
0.540073 0.071262 0.090196
0.557966 0.068015 0.098591
0.576961 0.067341 0.106678
0.593688 0.064093 0.112193
0.614461 0.063419 0.120282
0.631986 0.063725 0.125490
0.649510 0.067341 0.129412
0.669179 0.070588 0.133333
0.688480 0.074510 0.137255
0.706005 0.078431 0.141237
0.723530 0.079105 0.149020
0.741054 0.084253 0.152941
0.758578 0.086275 0.156863
0.776103 0.090196 0.160784
0.793628 0.094118 0.165441
0.811152 0.094792 0.170282
0.828677 0.098039 0.175123
0.846201 0.101961 0.179963
0.863725 0.105882 0.184314
0.881250 0.109804 0.188235
0.894853 0.112132 0.192157
0.912377 0.113725 0.196078
0.929902 0.117647 0.200245
0.943014 0.118811 0.205086
0.961030 0.121569 0.209927
0.978554 0.125490 0.214767
0.992157 0.129412 0.219608
0.031373 0.068260 0.009436
0.037806 0.068260 0.009436
0.044730 0.068260 0.009436
0.051410 0.068260 0.009436
0.060171 0.071937 0.009436
0.067341 0.069853 0.009436
0.076103 0.072181 0.009436
0.087377 0.072181 0.009436
0.097549 0.072181 0.009436
0.107904 0.073774 0.009436
0.118995 0.073529 0.009436
0.127757 0.076103 0.009436
0.139705 0.076103 0.009436
0.149388 0.077696 0.009436
0.162990 0.077206 0.009436
0.174571 0.080024 0.009436
0.187255 0.080024 0.009436
0.199939 0.083885 0.009436
0.213481 0.083946 0.009436
0.226899 0.083946 0.009436
0.244608 0.085539 0.011765
0.258211 0.085539 0.011765
0.272794 0.087868 0.011765
0.285417 0.089461 0.015686
0.300490 0.089461 0.020466
0.316544 0.089461 0.019608
0.331373 0.089461 0.022303
0.343750 0.089461 0.027145
0.361275 0.089461 0.031373
0.373346 0.089461 0.035294
0.392402 0.087868 0.043137
0.409926 0.087868 0.046508
0.427451 0.087868 0.052941
0.444976 0.087868 0.060111
0.462500 0.087868 0.062745
0.480821 0.088665 0.069791
0.501470 0.085539 0.076225
0.520588 0.085539 0.083395
0.540441 0.085539 0.089828
0.558517 0.084988 0.094669
0.579412 0.081618 0.101838
0.596936 0.080024 0.108272
0.616054 0.077696 0.113725
0.633579 0.076103 0.120282
0.653431 0.074878 0.126716
0.670956 0.072181 0.133333
0.688480 0.074510 0.137255
0.706005 0.078431 0.145098
0.723530 0.082353 0.149020
0.741054 0.084253 0.152941
0.758578 0.086275 0.156863
0.776103 0.090196 0.160784
0.793628 0.094118 0.165441
0.811152 0.098039 0.170282
0.828677 0.098039 0.175123
0.846201 0.101961 0.178064
0.863725 0.105882 0.184804
0.881250 0.109804 0.189828
0.896446 0.112132 0.192157
0.912377 0.113725 0.196078
0.929902 0.117647 0.200245
0.947855 0.118811 0.205086
0.961030 0.121569 0.209927
0.978554 0.125490 0.214767
0.992157 0.129412 0.219608
0.037807 0.079534 0.011765
0.046568 0.079534 0.011765
0.051409 0.080944 0.011765
0.057415 0.080944 0.011765
0.065013 0.080944 0.011765
0.071262 0.080944 0.011765
0.080024 0.083456 0.011765
0.088787 0.083456 0.011765
0.100981 0.084866 0.011765
0.110233 0.084866 0.011765
0.118995 0.084866 0.011765
0.130269 0.087377 0.011765
0.140441 0.087377 0.011765
0.153125 0.088787 0.014277
0.165809 0.088787 0.014277
0.176593 0.091299 0.014277
0.190196 0.091299 0.014277
0.203799 0.092709 0.014277
0.216544 0.095220 0.014277
0.231740 0.094485 0.014277
0.244608 0.096630 0.014277
0.257108 0.100245 0.014277
0.271813 0.100552 0.015686
0.290319 0.103063 0.015686
0.302941 0.103063 0.015686
0.315686 0.103063 0.019608
0.330147 0.103063 0.023529
0.347671 0.103063 0.027451
0.361275 0.103063 0.031373
0.378799 0.103063 0.035907
0.394915 0.103063 0.036827
0.412439 0.100552 0.044179
0.429963 0.100552 0.050980
0.447488 0.100552 0.054902
0.466422 0.099265 0.062622
0.486459 0.100552 0.067463
0.505392 0.100552 0.074510
0.525552 0.099142 0.078431
0.542953 0.099142 0.085907
0.564399 0.096630 0.094118
0.580882 0.095220 0.096997
0.600858 0.095220 0.105882
0.618383 0.092709 0.109804
0.635907 0.091299 0.115441
0.655943 0.090074 0.125490
0.673468 0.084866 0.129044
0.690993 0.084866 0.136397
0.708516 0.080944 0.141237
0.726042 0.082353 0.149020
0.744975 0.084253 0.152941
0.762500 0.089093 0.156863
0.780024 0.090196 0.164522
0.797549 0.094118 0.168627
0.813664 0.098039 0.172549
0.828615 0.098039 0.176471
0.846201 0.101961 0.180392
0.863725 0.105882 0.184804
0.881250 0.109804 0.189644
0.898775 0.112132 0.194669
0.911642 0.113725 0.199326
0.929902 0.117647 0.203922
0.947426 0.118811 0.205086
0.961030 0.123652 0.209927
0.978554 0.125490 0.214767
0.992157 0.129412 0.219608
0.046569 0.089706 0.019118
0.054412 0.093138 0.019118
0.060171 0.093138 0.019118
0.065013 0.093138 0.019118
0.070343 0.093628 0.019118
0.075184 0.093628 0.019118
0.083946 0.093628 0.019118
0.092709 0.093628 0.019118
0.101471 0.097059 0.019118
0.110233 0.094056 0.019118
0.122426 0.097549 0.019118
0.131679 0.097549 0.019118
0.143873 0.097549 0.019118
0.153309 0.100981 0.019118
0.169241 0.101471 0.019118
0.178493 0.101471 0.019118
0.191176 0.101471 0.019118
0.203370 0.104902 0.019118
0.217402 0.105392 0.019118
0.231005 0.105392 0.019608
0.244608 0.108824 0.019608
0.262132 0.109314 0.019608
0.275735 0.112745 0.019608
0.289339 0.113235 0.019118
0.307843 0.113235 0.019608
0.320466 0.116667 0.019608
0.334068 0.116667 0.023529
0.353738 0.116667 0.021384
0.365196 0.116667 0.027451
0.383027 0.116667 0.031067
0.396323 0.116667 0.039216
0.413848 0.116667 0.043137
0.431373 0.116667 0.045589
0.448897 0.116667 0.053860
0.469853 0.116667 0.059192
0.487868 0.113235 0.066667
0.508824 0.113235 0.068872
0.526839 0.113235 0.077144
0.547917 0.113235 0.082353
0.565809 0.112745 0.087316
0.586765 0.109314 0.095588
0.604289 0.108824 0.100919
0.622304 0.108824 0.109191
0.639829 0.104902 0.114031
0.657353 0.101471 0.119363
0.674877 0.100981 0.127635
0.692402 0.097917 0.133333
0.709927 0.096997 0.137806
0.727451 0.089706 0.146079
0.744975 0.089706 0.152941
0.762500 0.089093 0.156863
0.780024 0.090196 0.164522
0.797549 0.094118 0.168627
0.815074 0.098039 0.172549
0.832598 0.101471 0.176471
0.849632 0.101961 0.180392
0.863725 0.105882 0.184804
0.881250 0.109804 0.189644
0.898775 0.112132 0.194485
0.916299 0.113725 0.199326
0.929902 0.117647 0.203922
0.947426 0.121569 0.207843
0.962868 0.123652 0.209927
0.978554 0.125490 0.214767
0.995588 0.129412 0.219608
0.055331 0.102390 0.023958
0.060172 0.102390 0.023958
0.068505 0.102390 0.023958
0.073346 0.102390 0.023958
0.074939 0.102819 0.023958
0.082782 0.102819 0.023958
0.091789 0.106311 0.022365
0.097059 0.106311 0.023529
0.105392 0.106311 0.023529
0.114154 0.106311 0.023529
0.122917 0.107659 0.023529
0.133946 0.106740 0.023958
0.144363 0.110233 0.023958
0.157476 0.110233 0.023958
0.169730 0.110233 0.023958
0.178922 0.110662 0.023958
0.194117 0.114154 0.023958
0.207720 0.114154 0.023958
0.221324 0.114154 0.023958
0.234927 0.114583 0.027451
0.248529 0.118076 0.030147
0.258946 0.118076 0.027880
0.279044 0.121998 0.027880
0.293260 0.121998 0.026348
0.304841 0.124449 0.023958
0.324387 0.125919 0.023958
0.337990 0.125919 0.023958
0.350736 0.127206 0.023958
0.369118 0.126348 0.027451
0.386642 0.129841 0.030576
0.400245 0.126348 0.035294
0.417769 0.126348 0.039216
0.435294 0.126348 0.045098
0.455699 0.126348 0.053431
0.470772 0.126348 0.054902
0.491789 0.126348 0.062745
0.509742 0.126348 0.068382
0.530760 0.125919 0.076716
0.551838 0.125919 0.078431
0.569730 0.125919 0.086826
0.587255 0.120956 0.095160
0.605208 0.121998 0.098039
0.622732 0.121998 0.105269
0.643750 0.118076 0.110110
0.661275 0.114583 0.118444
0.678799 0.114154 0.121569
0.696323 0.110662 0.132047
0.713849 0.106740 0.136887
0.731373 0.106311 0.142157
0.748897 0.102390 0.150491
0.762929 0.096079 0.155760
0.780453 0.091238 0.164092
0.797549 0.094547 0.168627
0.815074 0.098039 0.172549
0.832598 0.100613 0.176471
0.850122 0.101961 0.180392
0.867647 0.105882 0.184804
0.880269 0.109804 0.189644
0.898775 0.112132 0.194485
0.916299 0.113725 0.199326
0.933578 0.117647 0.203922
0.947426 0.121569 0.207843
0.964951 0.123652 0.211765
0.978554 0.125490 0.215686
0.996078 0.129412 0.219608
0.064093 0.112500 0.028799
0.067586 0.112071 0.028799
0.071936 0.115073 0.028799
0.075858 0.115073 0.028799
0.083456 0.115073 0.028799
0.088297 0.115073 0.028799
0.095711 0.115073 0.028799
0.101899 0.117586 0.028799
0.109314 0.116421 0.028799
0.115502 0.118995 0.028799
0.124265 0.118995 0.028799
0.135600 0.118995 0.028799
0.145711 0.118995 0.028799
0.160968 0.120343 0.031373
0.170833 0.122917 0.032721
0.182414 0.122917 0.032721
0.195098 0.122917 0.032721
0.207782 0.126778 0.032721
0.221324 0.126838 0.032721
0.234498 0.126838 0.032721
0.252451 0.126838 0.032721
0.266054 0.128186 0.038910
0.279657 0.130760 0.036642
0.293076 0.132292 0.032721
0.310785 0.134681 0.032721
0.324387 0.134681 0.032721
0.337990 0.136029 0.032721
0.355514 0.138603 0.032721
0.370466 0.138603 0.032721
0.386642 0.138603 0.032721
0.404167 0.139951 0.035294
0.421691 0.139951 0.036336
0.439215 0.139951 0.043750
0.456740 0.139951 0.047059
0.478063 0.139951 0.054779
0.495711 0.138603 0.059620
0.514951 0.138603 0.067035
0.532108 0.138603 0.070588
0.552206 0.138603 0.078063
0.570281 0.136029 0.086275
0.591176 0.134681 0.090196
0.608701 0.134681 0.096507
0.626226 0.132108 0.103922
0.645098 0.130760 0.109804
0.662623 0.128186 0.113602
0.680148 0.126838 0.119792
0.697672 0.124265 0.125490
0.715196 0.120343 0.132046
0.732721 0.119363 0.141176
0.748345 0.115073 0.145098
0.766421 0.109681 0.154411
0.783946 0.104841 0.156863
0.801471 0.102574 0.165441
0.816422 0.099387 0.172549
0.832598 0.099387 0.176471
0.850122 0.101961 0.180392
0.867647 0.105882 0.184804
0.885172 0.109804 0.189644
0.897795 0.112132 0.194485
0.916299 0.113725 0.199326
0.933823 0.117647 0.203922
0.947426 0.121569 0.207843
0.964951 0.123652 0.211765
0.979473 0.125490 0.215686
0.996078 0.129412 0.219608
0.072855 0.126103 0.037561
0.076777 0.126103 0.037561
0.080698 0.126103 0.037561
0.084620 0.126103 0.037561
0.088542 0.127757 0.037561
0.096385 0.127757 0.037561
0.099632 0.127757 0.037561
0.108395 0.127757 0.037561
0.112071 0.127757 0.037561
0.120343 0.130024 0.037561
0.126838 0.130024 0.037561
0.137867 0.131679 0.037561
0.151470 0.131679 0.037561
0.163235 0.131679 0.037561
0.173652 0.133946 0.037561
0.184436 0.133946 0.037561
0.197365 0.135600 0.039216
0.210050 0.135600 0.043076
0.226654 0.137867 0.041483
0.238848 0.137377 0.041483
0.252022 0.139522 0.041483
0.264706 0.139522 0.041483
0.282966 0.140135 0.041483
0.297182 0.143443 0.041483
0.310601 0.145895 0.041483
0.328309 0.145711 0.041483
0.341911 0.147365 0.041483
0.355514 0.147365 0.041483
0.373039 0.149632 0.041483
0.390564 0.149632 0.041483
0.406434 0.151287 0.039216
0.423959 0.153554 0.039216
0.441483 0.153554 0.041176
0.460662 0.153554 0.046017
0.478186 0.153554 0.052512
0.496508 0.151287 0.058824
0.517157 0.151287 0.062193
0.536948 0.151287 0.069301
0.556128 0.151287 0.074510
0.575919 0.149632 0.080637
0.593444 0.147365 0.087745
0.612622 0.147365 0.094241
0.630147 0.145711 0.098039
0.647672 0.143443 0.106188
0.665196 0.141789 0.111029
0.682721 0.139522 0.117647
0.700245 0.137867 0.124632
0.717770 0.137806 0.129473
0.735294 0.132966 0.135968
0.752819 0.127757 0.143076
0.770343 0.126103 0.149572
0.787867 0.122181 0.156679
0.801471 0.117524 0.164706
0.818995 0.112684 0.168014
0.836520 0.105576 0.175123
0.848897 0.104228 0.180392
0.867647 0.108149 0.184804
0.885172 0.109804 0.189644
0.902696 0.112132 0.194485
0.915319 0.113725 0.199326
0.933823 0.117647 0.203922
0.952451 0.121569 0.207843
0.964951 0.123652 0.211765
0.982476 0.125490 0.215686
0.996078 0.129412 0.219608
0.081618 0.139705 0.042402
0.085540 0.139705 0.042402
0.089461 0.139705 0.042402
0.093383 0.139276 0.042402
0.097794 0.140441 0.042402
0.101899 0.140441 0.042402
0.109069 0.140441 0.042402
0.112316 0.143627 0.042402
0.120343 0.143627 0.042402
0.128677 0.143627 0.042402
0.133946 0.143627 0.042402
0.142708 0.142708 0.042402
0.152206 0.144363 0.043137
0.164890 0.147549 0.043137
0.174755 0.147549 0.043137
0.189522 0.147549 0.046324
0.202206 0.147304 0.046324
0.215563 0.148285 0.046324
0.225245 0.151470 0.046324
0.244179 0.151470 0.044914
0.256863 0.152206 0.047059
0.269975 0.152206 0.050674
0.283578 0.155392 0.050245
0.297182 0.153738 0.050245
0.314706 0.156128 0.047059
0.328125 0.159313 0.047059
0.341911 0.156495 0.047059
0.359436 0.160049 0.047059
0.376225 0.160049 0.048039
0.390564 0.163235 0.046324
0.408088 0.163971 0.046324
0.425613 0.163971 0.043137
0.446323 0.167156 0.043137
0.463848 0.167156 0.042831
0.482108 0.167156 0.047059
0.502819 0.167156 0.052512
0.521078 0.167156 0.060539
0.541789 0.167156 0.066116
0.559314 0.167156 0.074142
0.577574 0.166605 0.078983
0.598285 0.163235 0.086275
0.615809 0.160049 0.089399
0.633333 0.160049 0.097426
0.651593 0.156128 0.102267
0.669118 0.158088 0.107843
0.686642 0.155392 0.112683
0.704166 0.152328 0.121569
0.721692 0.151410 0.129412
0.739216 0.144363 0.131127
0.756005 0.143627 0.139154
0.773530 0.140809 0.144730
0.787867 0.135968 0.152757
0.805393 0.128677 0.160784
0.824449 0.126287 0.166360
0.836520 0.121446 0.171936
0.854044 0.116912 0.179963
0.874264 0.109804 0.184804
0.885172 0.109804 0.189644
0.902696 0.112132 0.194485
0.920221 0.116973 0.199326
0.933823 0.117647 0.203922
0.951348 0.121569 0.207843
0.964951 0.123652 0.211765
0.982476 0.125490 0.215686
0.996078 0.129412 0.219608
0.090380 0.153125 0.047243
0.091299 0.153125 0.047243
0.096140 0.153125 0.047243
0.098223 0.153125 0.047243
0.102145 0.153309 0.047243
0.109988 0.153309 0.047243
0.113909 0.153309 0.047243
0.117831 0.153309 0.047243
0.125185 0.153309 0.047243
0.133762 0.157047 0.047243
0.138787 0.157047 0.047243
0.147549 0.157047 0.047243
0.156311 0.157231 0.050980
0.168811 0.157231 0.050980
0.178677 0.160968 0.052083
0.192279 0.160968 0.051164
0.205882 0.160968 0.051164
0.219485 0.164828 0.051164
0.228493 0.161152 0.051164
0.246691 0.164890 0.054902
0.260294 0.164890 0.054902
0.273897 0.165074 0.054902
0.287500 0.165074 0.055086
0.299754 0.168811 0.055086
0.318628 0.168811 0.055086
0.332230 0.168995 0.051715
0.345649 0.172733 0.054902
0.363357 0.172733 0.054902
0.374938 0.172733 0.054902
0.394485 0.172917 0.054902
0.412010 0.176655 0.051164
0.429534 0.176655 0.051164
0.447059 0.178616 0.049203
0.464768 0.176839 0.047243
0.486030 0.180576 0.047243
0.503738 0.180576 0.051777
0.525000 0.180576 0.060356
0.545160 0.180576 0.062745
0.560233 0.180576 0.070220
