Color/Agfa/Agfa Precisa 100 65x.cube
TITLE "Agfa Precisa 100"
LUT_3D_SIZE 5
DOMAIN_MIN 0.000000 0.000000 0.000000
DOMAIN_MAX 1.000000 1.000000 1.000000
0.000000 0.000000 0.000000
0.166666 0.003922 0.011765
0.407844 0.025490 0.064706
0.715687 0.079411 0.146079
0.992157 0.129412 0.219608
0.112745 0.194117 0.065687
0.213725 0.201961 0.069608
0.454902 0.217647 0.066667
0.750000 0.201961 0.119609
1.000000 0.129412 0.219608
0.129412 0.480393 0.166666
0.265686 0.490196 0.162745
0.519608 0.511764 0.143137
0.799999 0.525490 0.086275
1.000000 0.445098 0.131373
0.296079 0.782353 0.350981
0.395098 0.790196 0.347059
0.596078 0.813726 0.321569
0.829412 0.849020 0.219608
1.000000 0.889216 0.000000
0.603922 0.992157 0.658824
0.643137 0.996078 0.658824
0.747059 1.000000 0.654902
0.902941 1.000000 0.622549
1.000000 1.000000 0.360784
0.000000 0.000000 0.116667
0.144118 0.000000 0.116667
0.402941 0.015686 0.112745
0.723530 0.079411 0.149020
0.996078 0.129412 0.219608
0.097059 0.183334 0.191176
0.194117 0.191176 0.194117
0.443137 0.208824 0.186274
0.753922 0.217647 0.142157
1.000000 0.129412 0.223529
0.109803 0.472549 0.279412
0.248039 0.480393 0.279412
0.507844 0.500000 0.271569
0.790196 0.519608 0.192157
1.000000 0.464706 0.127451
0.285294 0.770588 0.436275
0.384314 0.778432 0.436275
0.588236 0.800980 0.426471
0.821569 0.833334 0.355882
1.000000 0.880392 0.006863
0.603922 0.984314 0.704902
0.642157 0.988235 0.705882
0.743137 1.000000 0.704902
0.895098 1.000000 0.682353
1.000000 1.000000 0.477451
0.000000 0.000000 0.284314
0.112745 0.000000 0.290196
0.376471 0.000000 0.288235
0.719608 0.059804 0.226470
1.000000 0.129412 0.223529
0.063725 0.168627 0.368627
0.160784 0.176471 0.376471
0.418627 0.190196 0.387255
0.731373 0.195098 0.349019
1.000000 0.149019 0.219608
0.082353 0.454902 0.462746
0.202941 0.462746 0.470588
0.480393 0.480393 0.480393
0.766667 0.494117 0.448039
1.000000 0.474510 0.241177
0.248039 0.750981 0.583333
0.356863 0.758824 0.591176
0.567647 0.778432 0.599019
0.801961 0.801961 0.577451
1.000000 0.833334 0.379412
0.601961 0.970588 0.786274
0.639216 0.976471 0.790196
0.739216 0.988235 0.796078
0.883333 1.000000 0.790196
1.000000 1.000000 0.668627
0.000000 0.000000 0.506862
0.053921 0.000000 0.523530
0.329411 0.000000 0.550981
0.676471 0.000000 0.531373
0.999019 0.104902 0.320588
0.018627 0.155883 0.576471
0.110784 0.162745 0.594118
0.369608 0.174510 0.627451
0.692157 0.165686 0.645098
0.984314 0.114706 0.523529
0.001961 0.443137 0.642157
0.126470 0.450980 0.655883
0.436275 0.466667 0.688236
0.732353 0.474510 0.707843
1.000000 0.429412 0.634314
0.161765 0.735294 0.727451
0.299019 0.742156 0.739216
0.533334 0.758824 0.762745
0.778432 0.778432 0.778432
1.000000 0.782353 0.716667
0.588235 0.956863 0.866667
0.627451 0.960784 0.871568
0.731372 0.974510 0.884314
0.871568 0.992157 0.899020
1.000000 1.000000 0.855883
0.000000 0.000000 0.709804
0.002942 0.000000 0.737255
0.266667 0.000000 0.788235
0.621569 0.000000 0.839216
0.937255 0.000000 0.780392
0.000000 0.174510 0.749020
0.042157 0.178431 0.771568
0.300000 0.189216 0.826471
0.646078 0.185294 0.889216
0.937255 0.084314 0.905882
0.000000 0.450981 0.788235
0.002942 0.458823 0.805882
0.350981 0.478432 0.854902
0.684314 0.488235 0.910784
0.968627 0.435295 0.943137
0.000000 0.727451 0.839216
0.110785 0.735294 0.851961
0.455882 0.754902 0.887255
0.735294 0.774510 0.934313
0.980392 0.766667 0.968627
0.533333 0.945098 0.917647
0.576471 0.952941 0.925490
0.694117 0.964706 0.943137
0.851961 0.984314 0.972549
1.000000 1.000000 1.000000
