Color/Agfa/Agfa Vista 200 65x.cube
TITLE "Agfa Vista 200"
LUT_3D_SIZE 65
DOMAIN_MIN 0.000000 0.000000 0.000000
DOMAIN_MAX 1.000000 1.000000 1.000000
0.000000 0.000000 0.000000
0.000919 0.000000 0.000000
0.005760 0.000000 0.000000
0.010601 0.000000 0.000000
0.015686 0.000000 0.000000
0.024203 0.000000 0.000000
0.031373 0.000000 0.000000
0.037807 0.000000 0.000000
0.050490 0.000000 0.000000
0.059253 0.000000 0.000000
0.069363 0.000000 0.000000
0.080698 0.000000 0.000000
0.089461 0.000000 0.000000
0.102145 0.000000 0.000000
0.114828 0.000000 0.000000
0.129534 0.000000 0.000000
0.143137 0.000000 0.000000
0.156740 0.000000 0.000000
0.174265 0.000000 0.000000
0.191789 0.000000 0.000000
0.209314 0.000000 0.000000
0.230454 0.000000 0.000000
0.248897 0.000000 0.000000
0.271262 0.000000 0.000000
0.293627 0.000000 0.000000
0.315993 0.000000 0.000000
0.338358 0.000000 0.000000
0.360723 0.000000 0.000000
0.384804 0.000000 0.000000
0.409375 0.000000 0.000000
0.431618 0.000000 0.000000
0.454105 0.000000 0.000000
0.476471 0.000000 0.000000
0.499878 0.000000 0.000000
0.525122 0.000000 0.000000
0.547488 0.000000 0.000000
0.569853 0.000000 0.000000
0.593505 0.000000 0.000000
0.614951 0.000000 0.000000
0.636397 0.000000 0.000000
0.653922 0.000000 0.000000
0.675367 0.000000 0.000000
0.692893 0.000000 0.000000
0.710417 0.000000 0.000000
0.727941 0.000000 0.000000
0.741544 0.000000 0.000000
0.759068 0.000000 0.000000
0.772672 0.000000 0.000000
0.790196 0.000000 0.000000
0.803799 0.000000 0.000000
0.821323 0.000000 0.000000
0.834926 0.000000 0.000000
0.848530 0.000000 0.000000
0.864400 0.000000 0.000000
0.877083 0.000000 0.000000
0.893260 0.000000 0.000000
0.906862 0.000000 0.000000
0.920466 0.000000 0.000000
0.935662 0.000000 0.000000
0.948346 0.000000 0.000000
0.964951 0.000000 0.000000
0.977635 0.000000 0.000000
0.990319 0.000000 0.000000
0.999081 0.000000 0.000000
1.000000 0.000000 0.000000
0.000000 0.004841 0.000000
0.004841 0.003922 0.000000
0.009681 0.003922 0.000000
0.014522 0.003922 0.000000
0.019608 0.003922 0.000000
0.028125 0.003922 0.000000
0.036887 0.000919 0.000000
0.045650 0.000919 0.000000
0.054412 0.000919 0.000000
0.064093 0.000919 0.000000
0.075858 0.000919 0.000000
0.084620 0.000919 0.000000
0.096568 0.000919 0.000000
0.106985 0.000000 0.000000
0.119853 0.000000 0.000000
0.133456 0.000000 0.000000
0.145037 0.000000 0.000000
0.161581 0.000000 0.000000
0.178187 0.000000 0.000000
0.195711 0.000000 0.000000
0.215931 0.000000 0.000000
0.231678 0.000000 0.000000
0.252818 0.000000 0.000000
0.275184 0.000000 0.000000
0.297549 0.000000 0.000000
0.319915 0.000000 0.000000
0.341911 0.000000 0.000000
0.364644 0.000000 0.000000
0.387010 0.000000 0.000000
0.409375 0.000000 0.000000
0.431741 0.000000 0.000000
0.454105 0.000000 0.000000
0.475429 0.000000 0.000000
0.499878 0.000000 0.000000
0.525122 0.000000 0.000000
0.547610 0.000000 0.000000
0.569853 0.000000 0.000000
0.592218 0.000000 0.000000
0.614583 0.000000 0.000000
0.633027 0.000000 0.000000
0.653922 0.000000 0.000000
0.671446 0.000000 0.000000
0.691973 0.000000 0.000000
0.706495 0.000000 0.000000
0.724020 0.000000 0.000000
0.741544 0.000000 0.000000
0.756005 0.000000 0.000000
0.772672 0.000000 0.000000
0.789277 0.000000 0.000000
0.803799 0.000000 0.000000
0.817402 0.000000 0.000000
0.831189 0.000000 0.000000
0.847794 0.000000 0.000000
0.862133 0.000000 0.000000
0.875735 0.000000 0.000000
0.889767 0.000000 0.000000
0.906372 0.000000 0.000000
0.919056 0.000000 0.000000
0.934069 0.000000 0.000000
0.947672 0.000000 0.000000
0.961274 0.000000 0.000000
0.974877 0.000000 0.000000
0.991483 0.000000 0.000000
0.999081 0.000000 0.000000
1.000000 0.000000 0.000000
0.001838 0.009681 0.000000
0.004841 0.009681 0.000000
0.009681 0.009681 0.000000
0.015686 0.009681 0.000000
0.023284 0.009681 0.000000
0.029963 0.007843 0.000000
0.038725 0.007843 0.000000
0.047487 0.007843 0.000000
0.058334 0.007843 0.000000
0.067096 0.005760 0.000000
0.077696 0.005760 0.000000
0.086458 0.005760 0.000000
0.097304 0.005760 0.000000
0.109988 0.005760 0.000000
0.124510 0.003922 0.000000
0.137377 0.003922 0.000000
0.150980 0.003922 0.000000
0.164583 0.003922 0.000000
0.182108 0.003922 0.000000
0.199632 0.003983 0.000000
0.217157 0.001838 0.000000
0.238297 0.001838 0.000000
0.257966 0.001838 0.000000
0.279412 0.001838 0.000000
0.299020 0.001838 0.000000
0.323836 0.001838 0.000000
0.342279 0.000000 0.000000
0.364644 0.000000 0.000000
0.390931 0.000000 0.000000
0.413296 0.000000 0.000000
0.435539 0.000000 0.000000
0.458824 0.000000 0.000000
0.480393 0.000000 0.000000
0.502757 0.000000 0.000000
0.523162 0.000000 0.000000
0.547488 0.000000 0.000000
0.569853 0.000000 0.000000
0.593505 0.000000 0.000000
0.614951 0.000000 0.000000
0.633027 0.000000 0.000000
0.653922 0.000000 0.000000
0.671446 0.000000 0.000000
0.687500 0.000000 0.000000
0.706495 0.000000 0.000000
0.724020 0.000000 0.000000
0.741544 0.000000 0.000000
0.756005 0.000000 0.000000
0.772672 0.000000 0.000000
0.786275 0.000000 0.000000
0.801900 0.000000 0.000000
0.817402 0.000000 0.000000
0.831189 0.000000 0.000000
0.847794 0.000000 0.000000
0.862133 0.000000 0.000000
0.875735 0.000000 0.000000
0.891422 0.000000 0.000000
0.902941 0.000000 0.000000
0.919056 0.000000 0.000000
0.934069 0.000000 0.000000
0.947672 0.000000 0.000000
0.961274 0.000000 0.000000
0.974877 0.000000 0.000000
0.988481 0.000000 0.000000
0.999081 0.000000 0.000000
1.000000 0.000000 0.000000
0.003922 0.018444 0.000000
0.010601 0.015686 0.000000
0.014522 0.015686 0.000000
0.018444 0.014522 0.000000
0.022365 0.014522 0.000000
0.032047 0.014522 0.000000
0.040809 0.014522 0.000000
0.049571 0.014522 0.000000
0.058334 0.011765 0.000000
0.071017 0.011765 0.000000
0.079779 0.011765 0.000000
0.088542 0.010601 0.000000
0.100490 0.010601 0.000000
0.110172 0.010601 0.000000
0.123775 0.010601 0.000000
0.137377 0.010601 0.000000
0.150796 0.007843 0.000000
0.168504 0.007843 0.000000
0.184865 0.007843 0.000000
0.199632 0.006679 0.000000
0.219914 0.006679 0.000000
0.238603 0.006679 0.000000
0.260049 0.006679 0.000000
0.279106 0.003922 0.000000
0.301470 0.003922 0.000000
0.323223 0.003922 0.000000
0.348591 0.003922 0.000000
0.368566 0.003922 0.000000
0.390931 0.002758 0.000000
0.412929 0.002758 0.000000
0.435662 0.002758 0.000000
0.458027 0.000000 0.000000
0.480393 0.000000 0.000000
0.506679 0.000000 0.000000
0.529044 0.000000 0.000000
0.553370 0.000000 0.000000
0.573774 0.000000 0.000000
0.596262 0.000000 0.000000
0.614951 0.000000 0.000000
0.636397 0.000000 0.000000
0.655392 0.000000 0.000000
0.675367 0.000000 0.000000
0.692893 0.000000 0.000000
0.712867 0.000000 0.000000
0.724020 0.000000 0.000000
0.741544 0.000000 0.000000
0.756005 0.000000 0.000000
0.772672 0.000000 0.000000
0.786275 0.000000 0.000000
0.801900 0.000000 0.000000
0.817402 0.000000 0.000000
0.832170 0.000000 0.000000
0.847794 0.000000 0.000000
0.859375 0.000000 0.000000
0.875735 0.000000 0.000000
0.889338 0.000000 0.000000
0.902941 0.000000 0.000000
0.919056 0.000000 0.000000
0.931311 0.000000 0.000000
0.947672 0.000000 0.000000
0.961029 0.000000 0.000000
0.974877 0.000000 0.000000
0.988481 0.000000 0.000000
0.999081 0.000000 0.000000
1.000000 0.000000 0.000000
0.007843 0.023529 0.000000
0.011765 0.023284 0.000000
0.013603 0.023284 0.000000
0.018444 0.023284 0.000000
0.023529 0.023284 0.000000
0.032047 0.023284 0.000000
0.040809 0.019608 0.000000
0.049571 0.019363 0.000000
0.062255 0.019363 0.000000
0.071017 0.019363 0.000000
0.079779 0.019363 0.000000
0.092219 0.019363 0.000000
0.101226 0.019363 0.000000
0.113909 0.015686 0.000000
0.130269 0.015441 0.000000
0.142954 0.015441 0.000000
0.154902 0.015441 0.000000
0.168321 0.011581 0.000000
0.186030 0.011765 0.000000
0.203554 0.013665 0.000000
0.221078 0.011520 0.000000
0.242279 0.011520 0.000000
0.263725 0.011520 0.000000
0.285171 0.011520 0.000000
0.306618 0.011520 0.000000
0.328064 0.007843 0.000000
0.346201 0.007843 0.000000
0.371201 0.007598 0.000000
0.396324 0.003922 0.000000
0.417770 0.003922 0.000000
0.439461 0.003922 0.000000
0.464583 0.003922 0.000000
0.484314 0.003922 0.000000
0.506679 0.003677 0.000000
0.528922 -0.000123 0.000000
0.551410 0.000000 0.000000
0.573774 0.000000 0.000000
0.596140 0.000000 0.000000
0.618505 0.000000 0.000000
0.636948 0.000000 0.000000
0.657843 0.000000 0.000000
0.675367 0.000000 0.000000
0.692893 0.000000 0.000000
0.710417 0.000000 0.000000
0.730392 0.000000 0.000000
0.741544 0.000000 0.000000
0.759068 0.000000 0.000000
0.772672 0.000000 0.000000
0.786275 0.000000 0.000000
0.801900 0.000000 0.000000
0.817402 0.000000 0.000000
0.831005 0.000000 0.000000
0.844608 0.000000 0.000000
0.860478 0.000000 0.000000
0.875735 0.000000 0.000000
0.889338 0.000000 0.000000
0.902941 0.000000 0.000000
0.919056 0.000000 0.000000
0.931740 0.000000 0.000000
0.947672 0.000000 0.000000
0.961029 0.000000 0.000000
0.971201 0.000000 0.000000
0.984804 0.000000 0.000000
0.999081 0.000000 0.000000
1.000000 0.000000 0.000000
0.011765 0.035968 0.000674
0.016605 0.035968 0.000674
0.019608 0.032721 -0.001164
0.023529 0.032047 0.000000
0.031128 0.032047 0.000000
0.035968 0.032047 0.000000
0.044730 0.032047 0.000000
0.053493 0.032047 0.000000
0.062255 0.025368 0.000000
0.071446 0.028125 0.000000
0.083701 0.028125 0.000000
0.092463 0.028125 0.000000
0.104411 0.024877 0.000000
0.114093 0.024203 0.000000
0.130515 0.024203 0.000000
0.143198 0.024203 0.000000
0.155882 0.024203 0.000000
0.172426 0.020282 0.000000
0.189951 0.020282 0.000000
0.207476 0.020282 0.000000
0.225000 0.017586 0.000000
0.246140 0.016360 0.000000
0.264645 0.016360 0.000000
0.286949 0.016360 0.000000
0.306863 0.016360 0.000000
0.328309 0.012990 0.000000
0.350123 0.012439 0.000000
0.371875 0.012439 0.000000
0.396569 0.011765 0.000000
0.421139 0.008517 0.000000
0.439584 0.008517 0.000000
0.464828 0.008517 0.000000
0.488235 0.007843 0.000000
0.510601 0.007843 0.000000
0.532965 0.004596 0.000000
0.555331 0.003922 0.000000
0.577696 0.003922 0.000000
0.600062 0.003922 0.000000
0.622426 0.003922 0.000000
0.640319 0.000674 0.000000
0.658517 -0.000797 0.000000
0.679289 0.000000 0.000000
0.696814 0.000000 0.000000
0.714706 0.000000 0.000000
0.727941 0.000000 0.000000
0.745466 0.000000 0.000000
0.756678 0.000000 0.000000
0.776532 0.000000 0.000000
0.790196 0.000000 0.000000
0.803799 0.000000 0.000000
0.815258 0.000000 0.000000
0.831189 0.000000 0.000000
0.847794 0.000000 0.000000
0.860478 0.000000 0.000000
0.875735 0.000000 0.000000
0.889338 0.000000 0.000000
0.902941 0.000000 0.000000
0.916544 0.000000 0.000000
0.931740 0.000000 0.000000
0.944424 0.000000 0.000000
0.961029 0.000000 0.000000
0.973713 0.000000 0.000000
0.986397 0.000000 0.000000
0.999081 0.000000 0.000000
1.000000 0.000000 0.000000
0.015686 0.046323 0.003922
0.019608 0.044730 0.003922
0.021201 0.044730 0.003922
0.025122 0.044730 0.003922
0.029044 0.044730 0.003922
0.037561 0.042402 0.001593
0.044730 0.040809 0.001593
0.053493 0.040809 -0.000919
0.063849 0.040809 0.000000
0.074939 0.038480 0.000000
0.083701 0.038480 0.000000
0.092463 0.036887 0.000000
0.105147 0.036887 0.000000
0.119424 0.038296 0.000000
0.131618 0.032966 0.000000
0.145221 0.032966 0.000000
0.158823 0.032966 0.000000
0.176348 0.032966 0.000000
0.189951 0.029044 0.000000
0.207476 0.029044 0.000000
0.226594 0.026348 0.000000
0.246446 0.025122 0.000000
0.267892 0.025122 0.000000
0.286949 0.025122 0.000000
0.308456 0.025122 0.000000
0.329902 0.021752 0.000000
0.355270 0.021201 0.000000
0.376409 0.019914 0.000000
0.398775 0.017279 0.000000
0.419608 0.017279 0.000000
0.443505 0.017156 0.000000
0.465870 0.013358 0.000000
0.488236 0.011397 0.000000
0.509314 0.011765 0.000000
0.536887 0.009436 0.000000
0.555331 0.007843 0.000000
0.579902 0.007843 0.000000
0.601348 0.007843 0.000000
0.622794 0.005515 0.000000
0.640870 0.003922 0.000000
0.661765 0.003922 0.000000
0.679289 0.003922 0.000000
0.696814 0.001593 0.000000
0.714339 0.000000 0.000000
0.732231 0.000000 0.000000
0.745466 0.000000 0.000000
0.762990 0.000000 0.000000
0.776594 0.000000 0.000000
0.790196 0.000000 0.000000
0.805821 0.000000 0.000000
0.821323 0.000000 0.000000
0.834926 0.000000 0.000000
0.849388 0.000000 0.000000
0.862133 0.000000 0.000000
0.875735 0.000000 0.000000
0.889338 0.000000 0.000000
0.902941 0.000000 0.000000
0.916544 0.000000 0.000000
0.931740 0.000000 0.000000
0.944424 0.000000 0.000000
0.961029 0.000000 0.000000
0.973713 0.000000 0.000000
0.986397 0.000000 0.000000
0.999081 0.000000 0.000000
1.000000 0.000000 0.000000
0.019608 0.057415 0.003922
0.023529 0.057415 0.003922
0.025367 0.057415 0.003922
0.029964 0.057415 0.003922
0.037562 0.056005 0.003922
0.042402 0.053493 0.003922
0.048652 0.053493 0.003922
0.057415 0.053493 0.003922
0.066177 0.053493 0.003922
0.074939 0.049571 0.003922
0.086213 0.049571 0.002513
0.096385 0.049571 0.002513
0.108333 0.049571 -0.000674
0.118015 0.045650 0.000000
0.134436 0.045650 0.000000
0.147120 0.046140 0.000000
0.162745 0.041299 0.000000
0.176348 0.041728 0.000000
0.193873 0.043382 0.000000
0.211397 0.037807 0.000000
0.231617 0.037807 0.000000
0.248958 0.037807 0.000000
0.268505 0.033885 0.000000
0.290870 0.033885 0.000000
0.313296 0.033885 0.000000
0.335601 0.033885 0.000000
0.354044 0.029964 0.000000
0.379044 0.026042 0.000000
0.403002 0.026042 0.000000
0.425061 0.022916 0.000000
0.443505 0.022120 0.000000
0.468750 0.022120 0.000000
0.492708 0.020160 0.000000
0.514522 0.018199 0.000000
0.536887 0.014399 0.000000
0.559253 0.014277 0.000000
0.581618 0.011765 0.000000
0.603983 0.011765 0.000000
0.626348 0.010356 0.000000
0.644240 0.007843 0.000000
0.664277 0.007843 0.000000
0.683211 0.006434 0.000000
0.700736 0.003126 0.000000
0.714339 0.003922 0.000000
0.731863 0.003922 0.000000
0.749755 0.003922 0.000000
0.762990 0.003922 0.000000
0.776594 0.002513 0.000000
0.793137 0.000000 0.000000
0.807721 0.000000 0.000000
0.821323 0.000000 0.000000
0.833701 0.000000 0.000000
0.848530 0.000000 0.000000
0.862133 0.000000 0.000000
0.877083 0.000000 0.000000
0.889767 0.000000 0.000000
0.902941 0.000000 0.000000
0.916544 0.000000 0.000000
0.931740 0.000000 0.000000
0.944424 0.000000 0.000000
0.957353 0.000000 0.000000
0.973713 0.000000 0.000000
0.986397 0.000000 0.000000
0.999081 0.000000 0.000000
1.000000 0.000000 0.000000
0.023529 0.070098 0.007843
0.030883 0.070098 0.007843
0.034804 0.071691 0.007843
0.038726 0.069608 0.008517
0.042892 0.069608 0.007353
0.047242 0.066177 0.007353
0.052573 0.066177 0.003922
0.060845 0.067096 0.003922
0.066177 0.065687 0.003922
0.075368 0.062255 0.003922
0.087623 0.062255 0.003922
0.096385 0.063419 0.003922
0.109069 0.061765 0.003922
0.125185 0.058334 0.003922
0.135539 0.060662 0.003432
0.149142 0.057844 0.003432
0.162745 0.054412 0.000000
0.180269 0.054412 0.000000
0.197304 0.053922 0.000000
0.214829 0.050490 0.000000
0.232843 0.051225 0.000000
0.253983 0.050000 0.000000
0.275245 0.046569 0.000000
0.296691 0.046569 0.000000
0.314706 0.042647 0.000000
0.336152 0.042647 0.000000
0.357966 0.038726 0.000000
0.380331 0.040870 0.000000
0.402696 0.034804 0.000000
0.425061 0.034804 0.000000
0.447427 0.030883 0.000000
0.469792 0.030883 0.000000
0.492157 0.026961 0.000000
0.515564 0.026961 0.000000
0.540808 0.023039 0.000000
0.562377 0.023039 0.000000
0.583823 0.019118 0.000000
0.605270 0.019118 0.000000
0.626225 0.015563 0.000000
0.644791 0.015196 0.000000
0.665686 0.011765 0.000000
0.683211 0.012807 0.000000
0.700736 0.011275 0.000000
0.718260 0.007843 0.000000
0.731863 0.007353 0.000000
0.749387 0.007353 0.000000
0.762990 0.007353 0.000000
0.780453 0.003922 0.000000
0.794118 0.003922 0.000000
0.807721 0.000000 0.000000
0.822426 0.000000 0.000000
0.838848 0.000000 0.000000
0.851715 0.000000 0.000000
0.864400 0.000000 0.000000
0.880515 0.000000 0.000000
0.893260 0.000000 0.000000
0.906372 0.000000 0.000000
0.919056 0.000000 0.000000
0.931740 0.000000 0.000000
0.944424 0.000000 0.000000
0.957353 0.000000 0.000000
0.973713 0.000000 0.000000
0.986397 0.000000 0.000000
0.999081 0.000000 0.000000
1.000000 0.000000 0.000000
0.031373 0.082782 0.011765
0.036213 0.082782 0.011765
0.037561 0.082782 0.011765
0.039645 0.079289 0.011765
0.047242 0.079289 0.008272
0.051409 0.078860 0.008272
0.056924 0.078860 0.008272
0.065258 0.078860 0.007843
0.070528 0.075368 0.007843
0.078860 0.074939 0.007843
0.087623 0.074939 0.007843
0.100306 0.074939 0.007843
0.112254 0.074939 0.004351
0.126103 0.071017 0.003922
0.139461 0.071017 0.003922
0.153064 0.067525 0.003922
0.166666 0.067096 0.003922
0.184191 0.067096 0.003922
0.198223 0.062745 0.000429
0.215748 0.063174 -0.001348
0.236765 0.063174 0.000000
0.257905 0.056066 0.000000
0.276348 0.059253 0.000000
0.298713 0.059253 0.000000
0.321078 0.053309 0.000000
0.343444 0.055331 0.000000
0.361887 0.051409 0.000000
0.383394 0.046630 0.000000
0.404841 0.047488 0.000000
0.426288 0.040870 0.000000
0.451348 0.043566 0.000000
0.473713 0.039645 0.000000
0.494546 0.039645 0.000000
0.519486 0.035723 0.000000
0.544730 0.031924 0.000000
0.562806 0.031802 0.000000
0.584252 0.027880 0.000000
0.605698 0.025245 0.000000
0.630270 0.023958 0.000000
0.648162 0.023529 0.000000
0.666115 0.020037 0.000000
0.687132 0.019608 0.000000
0.704657 0.016115 0.000000
0.718260 0.012194 0.000000
0.735784 0.012194 0.000000
0.753309 0.011765 0.000000
0.766911 0.011765 0.000000
0.780515 0.007843 0.000000
0.793566 0.007843 0.000000
0.811642 0.002452 0.000000
0.825245 0.003922 0.000000
0.838848 0.003922 0.000000
0.852451 -0.000306 0.000000
0.866054 0.000000 0.000000
0.879657 0.000000 0.000000
0.890197 0.000000 0.000000
0.906862 0.000000 0.000000
0.920466 0.000000 0.000000
0.934069 0.000000 0.000000
0.947672 0.000000 0.000000
0.961029 0.000000 0.000000
0.973713 0.000000 0.000000
0.986397 0.000000 0.000000
0.999081 0.000000 0.000000
1.000000 0.000000 0.000000
0.036642 0.095466 0.015686
0.040564 0.095466 0.015686
0.044485 0.092892 0.013113
0.049816 0.092892 0.013113
0.054657 0.092892 0.013113
0.056924 0.091544 0.011765
0.064338 0.091544 0.011765
0.068015 0.091544 0.011765
0.075367 0.088971 0.011765
0.083701 0.088971 0.012684
0.091544 0.087623 0.009191
0.100306 0.087623 0.009191
0.112990 0.085049 0.007843
0.125858 0.083701 0.007843
0.139461 0.083946 0.007843
0.152390 0.081127 0.007843
0.170588 0.079779 0.005270
0.185539 0.079779 0.003922
0.201716 0.075858 0.003922
0.221017 0.075858 0.003922
0.238113 0.073284 0.003922
0.258211 0.071936 0.001348
0.281004 0.069363 0.000000
0.301103 0.067831 0.000000
0.319976 0.068015 0.000000
0.341421 0.065441 0.000000
0.365809 0.065073 0.000000
0.388174 0.060172 0.000000
0.410539 0.060172 0.000000
0.432904 0.056250 0.000000
0.456495 0.052328 0.000000
0.477941 0.052635 0.000000
0.500000 0.048407 0.000000
0.520834 0.048407 0.000000
0.542279 0.044485 0.000000
0.567096 0.040564 0.000000
0.589461 0.036275 0.000000
0.611826 0.036642 0.000000
0.630638 0.030515 0.000000
0.652083 0.032170 0.000000
0.669608 0.027328 0.000000
0.687132 0.024877 0.000000
0.704657 0.021568 0.000000
0.722182 0.020956 0.000000
0.738480 0.017034 0.000000
0.753309 0.017034 0.000000
0.765195 0.013970 0.000000
0.784375 0.013113 0.000000
0.798039 0.012133 0.000000
0.811642 0.007291 0.000000
0.823775 0.007843 0.000000
0.839032 0.005270 0.000000
0.852451 0.003922 0.000000
0.868321 0.003922 0.000000
0.881005 0.001348 0.000000
0.893689 0.001348 0.000000
0.906862 0.000000 0.000000
0.920404 0.000000 0.000000
0.933089 0.000000 0.000000
0.948346 0.000000 0.000000
0.962377 0.000000 0.000000
0.975061 0.000000 0.000000
0.986397 0.000000 0.000000
0.999081 0.000000 0.000000
1.000000 0.000000 0.000000
0.043137 0.110416 0.019608
0.046323 0.110416 0.020956
0.051164 0.108149 0.017953
0.053247 0.108149 0.017953
0.057169 0.108149 0.017953
0.065012 0.106495 0.017953
0.068260 0.106495 0.015686
0.075367 0.106495 0.015686
0.081863 0.104228 0.015686
0.086704 0.102573 0.014032
0.093811 0.102573 0.014032
0.102573 0.100306 0.011765
0.116176 0.100306 0.011765
0.131863 0.098652 0.013849
0.144546 0.096385 0.010110
0.156985 0.094730 0.007843
0.169914 0.094730 0.007843
0.188112 0.090870 0.007843
0.205638 0.090809 0.006189
0.223162 0.088542 0.003922
0.242953 0.086887 0.003922
0.262132 0.086887 0.003922
0.285846 0.086275 0.005577
0.302635 0.082966 0.000000
0.324816 0.080698 0.000000
0.346263 0.079044 0.000000
0.371629 0.078677 0.000000
0.393076 0.072855 0.000000
0.414522 0.072917 0.000000
0.436826 0.068076 0.000000
0.455270 0.067279 0.000000
0.482781 0.066238 0.000000
0.504228 0.061091 0.000000
0.526287 0.059436 0.000000
0.548652 0.057169 0.000000
0.572487 0.053247 0.000000
0.593934 0.049326 0.000000
0.613113 0.049326 0.000000
0.632904 0.045404 0.000000
0.654350 0.041483 0.000000
0.671078 0.037561 0.000000
0.691054 0.035171 0.000000
0.708579 0.033640 0.000000
0.722182 0.029718 0.000000
0.739706 0.025796 0.000000
0.753309 0.025796 0.000000
0.770833 0.022732 0.000000
0.784437 0.021814 0.000000
0.798039 0.015686 0.000000
0.813664 0.014032 0.000000
0.829167 0.011765 0.000000
0.842769 0.010110 0.000000
0.857904 0.007843 0.000000
0.870589 0.006189 0.000000
0.883579 0.003616 0.000000
0.897181 0.003922 0.000000
0.910294 0.005699 0.000000
0.925246 0.000000 0.000000
0.937990 0.000000 0.000000
0.951593 0.000000 0.000000
0.961274 0.000000 0.000000
0.974877 0.000000 0.000000
0.988481 0.000000 0.000000
0.999081 0.000000 0.000000
1.000000 0.000000 0.000000
0.050245 0.127941 0.023529
0.055086 0.127941 0.023529
0.056740 0.127941 0.022794
0.062010 0.128370 0.022794
0.065932 0.124019 0.022794
0.070528 0.124019 0.022794
0.075367 0.124019 0.019608
0.081618 0.124019 0.019608
0.085540 0.124019 0.019608
0.093811 0.120098 0.018873
0.099387 0.120098 0.018873
0.108149 0.120098 0.015686
0.120098 0.116176 0.015686
0.129780 0.116176 0.014951
0.143382 0.118260 0.011765
0.162071 0.112254 0.011765
0.174510 0.112254 0.011765
0.192034 0.108395 0.011030
0.209559 0.108333 0.007843
0.227083 0.106556 0.007843
0.247794 0.104411 0.008333
0.266054 0.104411 0.003493
0.290686 0.100490 0.003922
0.306557 0.100490 0.003922
0.328921 0.096568 0.003187
0.351103 0.096568 0.000000
0.376471 0.092647 0.000000
0.397917 0.091361 0.000000
0.419362 0.088725 0.000000
0.440809 0.085601 0.000000
0.459192 0.084681 0.000000
0.484743 0.077696 0.000000
0.509069 0.076960 0.000000
0.530515 0.074081 0.000000
0.552573 0.073039 0.000000
0.574142 0.069117 0.000000
0.593382 0.067402 0.000000
0.615748 0.062010 0.000000
0.637745 0.061274 0.000000
0.656005 0.054167 0.000000
0.676716 0.053431 0.000000
0.694240 0.049509 0.000000
0.708456 0.046324 0.000000
0.726103 0.045282 0.000000
0.745588 0.038481 0.000000
0.757230 0.039522 0.000000
0.770833 0.034559 0.000000
0.784437 0.033763 0.000000
0.804166 0.026716 0.000000
0.815564 0.022794 0.000000
0.829167 0.018873 0.000000
0.842218 0.018873 0.000000
0.856373 0.014951 0.000000
0.869976 0.013297 0.000000
0.883579 0.011030 0.000000
0.897610 0.007537 0.000000
0.910784 0.007108 0.000000
0.924388 0.003922 0.000000
0.937990 0.003187 0.000000
0.951532 0.000000 0.000000
0.964951 0.000000 0.000000
0.977635 0.000000 0.000000
0.990319 0.000000 0.000000
0.999081 0.000000 0.000000
1.000000 0.000000 0.000000
0.059008 0.145466 0.027635
0.062929 0.145466 0.027635
0.066851 0.145466 0.027635
0.070772 0.141544 0.024877
0.074448 0.141544 0.027451
0.078615 0.141544 0.027451
0.082537 0.141544 0.023713
0.086459 0.141544 0.023713
0.093811 0.141544 0.023713
0.098652 0.137623 0.023529
0.107414 0.137623 0.023529
0.116176 0.137623 0.019792
0.124939 0.133701 0.019792
0.133701 0.133701 0.019608
0.146385 0.132598 0.019608
0.164828 0.129780 0.015870
0.178615 0.129780 0.015686
0.192279 0.125919 0.015686
0.214338 0.125858 0.011091
0.231189 0.125674 0.011765
0.252451 0.121937 0.011765
0.270159 0.118321 0.004411
0.291605 0.118015 0.007843
0.313052 0.117831 0.002574
0.334498 0.114093 0.003922
0.355944 0.110722 0.003922
0.377758 0.109804 0.000184
0.398835 0.106250 0.000000
0.420282 0.104044 0.000000
0.441728 0.102329 0.000000
0.467096 0.098407 0.000000
0.489400 0.094486 0.000000
0.509987 0.092525 0.000000
0.531434 0.090564 0.000000
0.552880 0.090380 0.000000
0.578861 0.082721 0.000000
0.601225 0.082537 0.000000
0.620956 0.076164 0.000000
0.638665 0.074878 0.000000
