Black-and-White/Agfa/Agfa APX 100 65x.cube
TITLE "Agfa APX 100"
LUT_3D_SIZE 65
DOMAIN_MIN 0.000000 0.000000 0.000000
DOMAIN_MAX 1.000000 1.000000 1.000000
0.000000 0.000000 0.000000
0.000000 0.000000 0.000000
0.000000 0.000000 0.000000
0.000000 0.000000 0.000000
0.003922 0.003922 0.003922
0.003922 0.003922 0.003922
0.005515 0.005515 0.005515
0.007843 0.007843 0.007843
0.007843 0.007843 0.007843
0.011765 0.011765 0.011765
0.013113 0.013113 0.013113
0.015686 0.015686 0.015686
0.019608 0.019608 0.019608
0.019792 0.019792 0.019792
0.023529 0.023529 0.023529
0.027451 0.027451 0.027451
0.027451 0.027451 0.027451
0.031373 0.031373 0.031373
0.035294 0.035294 0.035294
0.037071 0.037071 0.037071
0.041912 0.041912 0.041912
0.046753 0.046753 0.046753
0.050980 0.050980 0.050980
0.054902 0.054902 0.054902
0.054902 0.054902 0.054902
0.058824 0.058824 0.058824
0.062745 0.062745 0.062745
0.066667 0.066667 0.066667
0.070588 0.070588 0.070588
0.074510 0.074510 0.074510
0.078431 0.078431 0.078431
0.082353 0.082353 0.082353
0.088235 0.088235 0.088235
0.093076 0.093076 0.093076
0.097916 0.097916 0.097916
0.101961 0.101961 0.101961
0.107598 0.107598 0.107598
0.112438 0.112438 0.112438
0.121201 0.121201 0.121201
0.126042 0.126042 0.126042
0.130882 0.130882 0.130882
0.137255 0.137255 0.137255
0.144485 0.144485 0.144485
0.153247 0.153247 0.153247
0.162010 0.162010 0.162010
0.170772 0.170772 0.170772
0.179534 0.179534 0.179534
0.188358 0.188358 0.188358
0.201961 0.201961 0.201961
0.213664 0.213664 0.213664
0.222426 0.222426 0.222426
0.235110 0.235110 0.235110
0.244608 0.244608 0.244608
0.258211 0.258211 0.258211
0.271814 0.271814 0.271814
0.285846 0.285846 0.285846
0.298529 0.298529 0.298529
0.308701 0.308701 0.308701
0.322304 0.322304 0.322304
0.339828 0.339828 0.339828
0.353186 0.353186 0.353186
0.367034 0.367034 0.367034
0.380638 0.380638 0.380638
0.398162 0.398162 0.398162
0.415686 0.415686 0.415686
0.018443 0.018443 0.018443
0.025367 0.025367 0.025367
0.026286 0.026286 0.026286
0.030208 0.030208 0.030208
0.036887 0.036887 0.036887
0.038051 0.038051 0.038051
0.038051 0.038051 0.038051
0.043566 0.043566 0.043566
0.044975 0.044975 0.044975
0.049816 0.049816 0.049816
0.049816 0.049816 0.049816
0.055085 0.055085 0.055085
0.056740 0.056740 0.056740
0.056924 0.056924 0.056924
0.061581 0.061581 0.061581
0.064583 0.064583 0.064583
0.065502 0.065502 0.065502
0.072365 0.072365 0.072365
0.073345 0.073345 0.073345
0.073345 0.073345 0.073345
0.077267 0.077267 0.077267
0.083884 0.083884 0.083884
0.085110 0.085110 0.085110
0.089645 0.089645 0.089645
0.092034 0.092034 0.092034
0.092953 0.092953 0.092953
0.096324 0.096324 0.096324
0.100796 0.100796 0.100796
0.106005 0.106005 0.106005
0.110846 0.110846 0.110846
0.111765 0.111765 0.111765
0.116482 0.116482 0.116482
0.120404 0.120404 0.120404
0.130208 0.130208 0.130208
0.135049 0.135049 0.135049
0.136887 0.136887 0.136887
0.144730 0.144730 0.144730
0.150490 0.150490 0.150490
0.155698 0.155698 0.155698
0.164093 0.164093 0.164093
0.172855 0.172855 0.172855
0.181618 0.181618 0.181618
0.189767 0.189767 0.189767
0.199142 0.199142 0.199142
0.207905 0.207905 0.207905
0.216667 0.216667 0.216667
0.225429 0.225429 0.225429
0.234192 0.234192 0.234192
0.246875 0.246875 0.246875
0.255637 0.255637 0.255637
0.264400 0.264400 0.264400
0.277084 0.277084 0.277084
0.286581 0.286581 0.286581
0.298530 0.298530 0.298530
0.312867 0.312867 0.312867
0.322978 0.322978 0.322978
0.335661 0.335661 0.335661
0.345343 0.345343 0.345343
0.358027 0.358027 0.358027
0.370710 0.370710 0.370710
0.386642 0.386642 0.386642
0.400000 0.400000 0.400000
0.417770 0.417770 0.417770
0.429289 0.429289 0.429289
0.448897 0.448897 0.448897
0.038970 0.038970 0.038970
0.043811 0.043811 0.043811
0.046813 0.046813 0.046813
0.050735 0.050735 0.050735
0.050735 0.050735 0.050735
0.053493 0.053493 0.053493
0.058578 0.058578 0.058578
0.061091 0.061091 0.061091
0.062500 0.062500 0.062500
0.066421 0.066421 0.066421
0.070343 0.070343 0.070343
0.070343 0.070343 0.070343
0.074264 0.074264 0.074264
0.078186 0.078186 0.078186
0.077451 0.077451 0.077451
0.082108 0.082108 0.082108
0.082108 0.082108 0.082108
0.086029 0.086029 0.086029
0.089951 0.089951 0.089951
0.093872 0.093872 0.093872
0.093872 0.093872 0.093872
0.097794 0.097794 0.097794
0.101715 0.101715 0.101715
0.105637 0.105637 0.105637
0.110171 0.110171 0.110171
0.109558 0.109558 0.109558
0.115563 0.115563 0.115563
0.116850 0.116850 0.116850
0.121323 0.121323 0.121323
0.125245 0.125245 0.125245
0.129289 0.129289 0.129289
0.134130 0.134130 0.134130
0.141054 0.141054 0.141054
0.144853 0.144853 0.144853
0.152574 0.152574 0.152574
0.157414 0.157414 0.157414
0.162255 0.162255 0.162255
0.171017 0.171017 0.171017
0.179780 0.179780 0.179780
0.184620 0.184620 0.184620
0.193382 0.193382 0.193382
0.202144 0.202144 0.202144
0.210907 0.210907 0.210907
0.219669 0.219669 0.219669
0.228431 0.228431 0.228431
0.237194 0.237194 0.237194
0.245956 0.245956 0.245956
0.252941 0.252941 0.252941
0.267402 0.267402 0.267402
0.276164 0.276164 0.276164
0.284926 0.284926 0.284926
0.295772 0.295772 0.295772
0.305270 0.305270 0.305270
0.319057 0.319057 0.319057
0.327819 0.327819 0.327819
0.340502 0.340502 0.340502
0.353187 0.353187 0.353187
0.365870 0.365870 0.365870
0.376961 0.376961 0.376961
0.392647 0.392647 0.392647
0.402329 0.402329 0.402329
0.417770 0.417770 0.417770
0.433456 0.433456 0.433456
0.448897 0.448897 0.448897
0.464583 0.464583 0.464583
0.056495 0.056495 0.056495
0.060417 0.060417 0.060417
0.061581 0.061581 0.061581
0.064339 0.064339 0.064339
0.065503 0.065503 0.065503
0.069424 0.069424 0.069424
0.072182 0.072182 0.072182
0.073346 0.073346 0.073346
0.076103 0.076103 0.076103
0.080025 0.080025 0.080025
0.081189 0.081189 0.081189
0.083456 0.083456 0.083456
0.088296 0.088296 0.088296
0.089032 0.089032 0.089032
0.090135 0.090135 0.090135
0.095711 0.095711 0.095711
0.095711 0.095711 0.095711
0.100736 0.100736 0.100736
0.103554 0.103554 0.103554
0.104718 0.104718 0.104718
0.107414 0.107414 0.107414
0.112254 0.112254 0.112254
0.115319 0.115319 0.115319
0.116483 0.116483 0.116483
0.120405 0.120405 0.120405
0.123162 0.123162 0.123162
0.128248 0.128248 0.128248
0.129534 0.129534 0.129534
0.134375 0.134375 0.134375
0.138848 0.138848 0.138848
0.146691 0.146691 0.146691
0.150613 0.150613 0.150613
0.153738 0.153738 0.153738
0.158456 0.158456 0.158456
0.167340 0.167340 0.167340
0.174142 0.174142 0.174142
0.179779 0.179779 0.179779
0.185784 0.185784 0.185784
0.193382 0.193382 0.193382
0.202144 0.202144 0.202144
0.210907 0.210907 0.210907
0.216912 0.216912 0.216912
0.225674 0.225674 0.225674
0.234437 0.234437 0.234437
0.243199 0.243199 0.243199
0.254719 0.254719 0.254719
0.260723 0.260723 0.260723
0.272243 0.272243 0.272243
0.281006 0.281006 0.281006
0.290932 0.290932 0.290932
0.299694 0.299694 0.299694
0.312194 0.312194 0.312194
0.317954 0.317954 0.317954
0.332659 0.332659 0.332659
0.341238 0.341238 0.341238
0.354841 0.354841 0.354841
0.366789 0.366789 0.366789
0.376715 0.376715 0.376715
0.387806 0.387806 0.387806
0.400920 0.400920 0.400920
0.415012 0.415012 0.415012
0.428615 0.428615 0.428615
0.446814 0.446814 0.446814
0.459742 0.459742 0.459742
0.477267 0.477267 0.477267
0.070098 0.070098 0.070098
0.074020 0.074020 0.074020
0.074265 0.074265 0.074265
0.077941 0.077941 0.077941
0.078186 0.078186 0.078186
0.078861 0.078861 0.078861
0.085785 0.085785 0.085785
0.086030 0.086030 0.086030
0.089706 0.089706 0.089706
0.093628 0.093628 0.093628
0.091300 0.091300 0.091300
0.097549 0.097549 0.097549
0.097794 0.097794 0.097794
0.097979 0.097979 0.097979
0.105392 0.105392 0.105392
0.105637 0.105637 0.105637
0.109314 0.109314 0.109314
0.109559 0.109559 0.109559
0.113480 0.113480 0.113480
0.115258 0.115258 0.115258
0.121079 0.121079 0.121079
0.121324 0.121324 0.121324
0.125245 0.125245 0.125245
0.126778 0.126778 0.126778
0.131617 0.131617 0.131617
0.136765 0.136765 0.136765
0.137377 0.137377 0.137377
0.142218 0.142218 0.142218
0.147059 0.147059 0.147059
0.151899 0.151899 0.151899
0.160294 0.160294 0.160294
0.164216 0.164216 0.164216
0.166421 0.166421 0.166421
0.174939 0.174939 0.174939
0.180024 0.180024 0.180024
0.184865 0.184865 0.184865
0.195588 0.195588 0.195588
0.202145 0.202145 0.202145
0.207230 0.207230 0.207230
0.219118 0.219118 0.219118
0.224510 0.224510 0.224510
0.233272 0.233272 0.233272
0.242034 0.242034 0.242034
0.250796 0.250796 0.250796
0.259558 0.259558 0.259558
0.268321 0.268321 0.268321
0.277083 0.277083 0.277083
0.285845 0.285845 0.285845
0.294608 0.294608 0.294608
0.303615 0.303615 0.303615
0.312378 0.312378 0.312378
0.321140 0.321140 0.321140
0.330637 0.330637 0.330637
0.342586 0.342586 0.342586
0.355025 0.355025 0.355025
0.364032 0.364032 0.364032
0.376715 0.376715 0.376715
0.386887 0.386887 0.386887
0.400491 0.400491 0.400491
0.414093 0.414093 0.414093
0.431127 0.431127 0.431127
0.441299 0.441299 0.441299
0.454902 0.454902 0.454902
0.473101 0.473101 0.473101
0.489706 0.489706 0.489706
0.083701 0.083701 0.083701
0.086949 0.086949 0.086949
0.087623 0.087623 0.087623
0.090870 0.090870 0.090870
0.094546 0.094546 0.094546
0.094792 0.094792 0.094792
0.095466 0.095466 0.095466
0.098713 0.098713 0.098713
0.099387 0.099387 0.099387
0.103309 0.103309 0.103309
0.106556 0.106556 0.106556
0.108823 0.108823 0.108823
0.110478 0.110478 0.110478
0.110662 0.110662 0.110662
0.115502 0.115502 0.115502
0.118321 0.118321 0.118321
0.118995 0.118995 0.118995
0.122243 0.122243 0.122243
0.126164 0.126164 0.126164
0.126838 0.126838 0.126838
0.132782 0.132782 0.132782
0.137622 0.137622 0.137622
0.138603 0.138603 0.138603
0.143382 0.143382 0.143382
0.148223 0.148223 0.148223
0.146446 0.146446 0.146446
0.154289 0.154289 0.154289
0.158824 0.158824 0.158824
0.163664 0.163664 0.163664
0.168505 0.168505 0.168505
0.173897 0.173897 0.173897
0.178187 0.178187 0.178187
0.181740 0.181740 0.181740
0.188542 0.188542 0.188542
0.193505 0.193505 0.193505
0.202145 0.202145 0.202145
0.209191 0.209191 0.209191
0.215747 0.215747 0.215747
0.224510 0.224510 0.224510
0.232598 0.232598 0.232598
0.238113 0.238113 0.238113
0.246875 0.246875 0.246875
0.255637 0.255637 0.255637
0.263725 0.263725 0.263725
0.272487 0.272487 0.272487
0.281250 0.281250 0.281250
0.290013 0.290013 0.290013
0.298774 0.298774 0.298774
0.307537 0.307537 0.307537
0.316973 0.316973 0.316973
0.325735 0.325735 0.325735
0.334497 0.334497 0.334497
0.346507 0.346507 0.346507
0.355944 0.355944 0.355944
0.364706 0.364706 0.364706
0.380208 0.380208 0.380208
0.389399 0.389399 0.389399
0.398835 0.398835 0.398835
0.413174 0.413174 0.413174
0.426778 0.426778 0.426778
0.440135 0.440135 0.440135
0.453982 0.453982 0.453982
0.467586 0.467586 0.467586
0.485110 0.485110 0.485110
0.499387 0.499387 0.499387
0.097304 0.097304 0.097304
0.099632 0.099632 0.099632
0.101225 0.101225 0.101225
0.103554 0.103554 0.103554
0.107231 0.107231 0.107231
0.107475 0.107475 0.107475
0.109068 0.109068 0.109068
0.109068 0.109068 0.109068
0.114829 0.114829 0.114829
0.115318 0.115318 0.115318
0.116912 0.116912 0.116912
0.119240 0.119240 0.119240
0.120833 0.120833 0.120833
0.123346 0.123346 0.123346
0.128676 0.128676 0.128676
0.128676 0.128676 0.128676
0.133946 0.133946 0.133946
0.134926 0.134926 0.134926
0.138848 0.138848 0.138848
0.140441 0.140441 0.140441
0.144363 0.144363 0.144363
0.150306 0.150306 0.150306
0.152206 0.152206 0.152206
0.156127 0.156127 0.156127
0.160907 0.160907 0.160907
0.165747 0.165747 0.165747
0.166667 0.166667 0.166667
0.171507 0.171507 0.171507
0.175735 0.175735 0.175735
0.182782 0.182782 0.182782
0.186030 0.186030 0.186030
0.192463 0.192463 0.192463
0.197304 0.197304 0.197304
0.206066 0.206066 0.206066
0.213235 0.213235 0.213235
0.218076 0.218076 0.218076
0.224510 0.224510 0.224510
0.230637 0.230637 0.230637
0.240441 0.240441 0.240441
0.246875 0.246875 0.246875
0.254044 0.254044 0.254044
0.262807 0.262807 0.262807
0.269240 0.269240 0.269240
0.278003 0.278003 0.278003
0.286765 0.286765 0.286765
0.295527 0.295527 0.295527
0.301225 0.301225 0.301225
0.311458 0.311458 0.311458
0.320220 0.320220 0.320220
0.330882 0.330882 0.330882
0.339338 0.339338 0.339338
0.348100 0.348100 0.348100
0.356005 0.356005 0.356005
0.367953 0.367953 0.367953
0.378309 0.378309 0.378309
0.389400 0.389400 0.389400
0.398651 0.398651 0.398651
0.412439 0.412439 0.412439
0.425858 0.425858 0.425858
0.436214 0.436214 0.436214
0.449143 0.449143 0.449143
0.462745 0.462745 0.462745
0.480270 0.480270 0.480270
0.492463 0.492463 0.492463
0.511397 0.511397 0.511397
0.110906 0.110906 0.110906
0.114828 0.114828 0.114828
0.114828 0.114828 0.114828
0.116238 0.116238 0.116238
0.119914 0.119914 0.119914
0.116912 0.116912 0.116912
0.122671 0.122671 0.122671
0.122671 0.122671 0.122671
0.127513 0.127513 0.127513
0.128003 0.128003 0.128003
0.130514 0.130514 0.130514
0.131924 0.131924 0.131924
0.134436 0.134436 0.134436
0.136029 0.136029 0.136029
0.142279 0.142279 0.142279
0.141789 0.141789 0.141789
0.146201 0.146201 0.146201
0.151470 0.151470 0.151470
0.154044 0.154044 0.154044
0.153309 0.153309 0.153309
0.157965 0.157965 0.157965
0.161887 0.161887 0.161887
0.163909 0.163909 0.163909
0.168750 0.168750 0.168750
0.173652 0.173652 0.173652
0.177573 0.177573 0.177573
0.185416 0.185416 0.185416
0.189338 0.189338 0.189338
0.193259 0.193259 0.193259
0.197181 0.197181 0.197181
0.205024 0.205024 0.205024
0.208946 0.208946 0.208946
0.214828 0.214828 0.214828
0.221078 0.221078 0.221078
0.228432 0.228432 0.228432
0.233272 0.233272 0.233272
0.239522 0.239522 0.239522
0.246875 0.246875 0.246875
0.255638 0.255638 0.255638
0.263848 0.263848 0.263848
0.269240 0.269240 0.269240
0.275490 0.275490 0.275490
0.284253 0.284253 0.284253
0.291606 0.291606 0.291606
0.300368 0.300368 0.300368
0.309130 0.309130 0.309130
0.317892 0.317892 0.317892
0.324143 0.324143 0.324143
0.332905 0.332905 0.332905
0.341667 0.341667 0.341667
0.352941 0.352941 0.352941
0.361704 0.361704 0.361704
0.368689 0.368689 0.368689
0.380638 0.380638 0.380638
0.391973 0.391973 0.391973
0.400674 0.400674 0.400674
0.413358 0.413358 0.413358
0.426042 0.426042 0.426042
0.436214 0.436214 0.436214
0.447487 0.447487 0.447487
0.464093 0.464093 0.464093
0.475429 0.475429 0.475429
0.489032 0.489032 0.489032
0.506556 0.506556 0.506556
0.524081 0.524081 0.524081
0.125000 0.125000 0.125000
0.128432 0.128432 0.128432
0.126839 0.126839 0.126839
0.128922 0.128922 0.128922
0.132353 0.132353 0.132353
0.132843 0.132843 0.132843
0.136275 0.136275 0.136275
0.135356 0.135356 0.135356
0.140196 0.140196 0.140196
0.144118 0.144118 0.144118
0.142035 0.142035 0.142035
0.148040 0.148040 0.148040
0.147794 0.147794 0.147794
0.148713 0.148713 0.148713
0.155883 0.155883 0.155883
0.159804 0.159804 0.159804
0.159313 0.159313 0.159313
0.163726 0.163726 0.163726
0.167647 0.167647 0.167647
0.171569 0.171569 0.171569
0.175490 0.175490 0.175490
0.179595 0.179595 0.179595
0.183334 0.183334 0.183334
0.187255 0.187255 0.187255
0.191177 0.191177 0.191177
0.195098 0.195098 0.195098
0.199388 0.199388 0.199388
0.204228 0.204228 0.204228
0.209069 0.209069 0.209069
0.214706 0.214706 0.214706
0.218750 0.218750 0.218750
0.226471 0.226471 0.226471
0.230393 0.230393 0.230393
0.237194 0.237194 0.237194
0.242524 0.242524 0.242524
0.247365 0.247365 0.247365
0.255638 0.255638 0.255638
0.260968 0.260968 0.260968
0.269240 0.269240 0.269240
0.274570 0.274570 0.274570
0.285295 0.285295 0.285295
0.291606 0.291606 0.291606
0.296936 0.296936 0.296936
0.305208 0.305208 0.305208
0.313970 0.313970 0.313970
0.322733 0.322733 0.322733
0.331495 0.331495 0.331495
0.340257 0.340257 0.340257
0.345588 0.345588 0.345588
0.354351 0.354351 0.354351
0.366544 0.366544 0.366544
0.375307 0.375307 0.375307
0.384069 0.384069 0.384069
0.393320 0.393320 0.393320
0.402084 0.402084 0.402084
0.414277 0.414277 0.414277
0.426962 0.426962 0.426962
0.436214 0.436214 0.436214
0.447304 0.447304 0.447304
0.460907 0.460907 0.460907
0.477696 0.477696 0.477696
0.490380 0.490380 0.490380
0.501715 0.501715 0.501715
0.519241 0.519241 0.519241
0.536765 0.536765 0.536765
0.141605 0.141605 0.141605
0.142034 0.142034 0.142034
0.142034 0.142034 0.142034
0.145527 0.145527 0.145527
0.145956 0.145956 0.145956
0.145956 0.145956 0.145956
0.149878 0.149878 0.149878
0.149878 0.149878 0.149878
0.156801 0.156801 0.156801
0.153799 0.153799 0.153799
0.157721 0.157721 0.157721
0.163480 0.163480 0.163480
0.161642 0.161642 0.161642
0.165319 0.165319 0.165319
0.169485 0.169485 0.169485
0.175000 0.175000 0.175000
0.176348 0.176348 0.176348
0.177329 0.177329 0.177329
0.181250 0.181250 0.181250
0.185172 0.185172 0.185172
0.189093 0.189093 0.189093
0.193015 0.193015 0.193015
0.197549 0.197549 0.197549
0.200858 0.200858 0.200858
0.204780 0.204780 0.204780
0.208701 0.208701 0.208701
0.216544 0.216544 0.216544
0.221324 0.221324 0.221324
0.226164 0.226164 0.226164
0.228309 0.228309 0.228309
0.236152 0.236152 0.236152
0.240074 0.240074 0.240074
0.243995 0.243995 0.243995
0.250797 0.250797 0.250797
0.259129 0.259129 0.259129
0.263603 0.263603 0.263603
0.269240 0.269240 0.269240
0.275368 0.275368 0.275368
0.282842 0.282842 0.282842
0.291176 0.291176 0.291176
0.296446 0.296446 0.296446
0.304780 0.304780 0.304780
0.313541 0.313541 0.313541
0.318382 0.318382 0.318382
0.327144 0.327144 0.327144
0.335906 0.335906 0.335906
0.344669 0.344669 0.344669
0.349939 0.349939 0.349939
0.358701 0.358701 0.358701
0.368934 0.368934 0.368934
0.376226 0.376226 0.376226
0.384988 0.384988 0.384988
0.393750 0.393750 0.393750
0.406005 0.406005 0.406005
0.414768 0.414768 0.414768
0.423959 0.423959 0.423959
0.436703 0.436703 0.436703
0.448897 0.448897 0.448897
0.458089 0.458089 0.458089
0.473591 0.473591 0.473591
0.487378 0.487378 0.487378
0.500796 0.500796 0.500796
0.512745 0.512745 0.512745
0.531924 0.531924 0.531924
0.549449 0.549449 0.549449
0.155637 0.155637 0.155637
0.155208 0.155208 0.155208
0.159559 0.159559 0.159559
0.159559 0.159559 0.159559
0.159559 0.159559 0.159559
0.163480 0.163480 0.163480
0.163480 0.163480 0.163480
0.167402 0.167402 0.167402
0.167402 0.167402 0.167402
0.171323 0.171323 0.171323
0.172671 0.172671 0.172671
0.175245 0.175245 0.175245
0.179167 0.179167 0.179167
0.183088 0.183088 0.183088
0.187010 0.187010 0.187010
0.187010 0.187010 0.187010
0.190931 0.190931 0.190931
0.194853 0.194853 0.194853
0.198774 0.198774 0.198774
0.202696 0.202696 0.202696
0.207966 0.207966 0.207966
0.212806 0.212806 0.212806
0.214461 0.214461 0.214461
0.218382 0.218382 0.218382
0.223407 0.223407 0.223407
0.225675 0.225675 0.225675
0.229167 0.229167 0.229167
0.234008 0.234008 0.234008
0.240196 0.240196 0.240196
0.245037 0.245037 0.245037
0.249878 0.249878 0.249878
0.254718 0.254718 0.254718
0.259559 0.259559 0.259559
0.266973 0.266973 0.266973
0.269363 0.269363 0.269363
0.278003 0.278003 0.278003
0.285417 0.285417 0.285417
0.288971 0.288971 0.288971
0.296446 0.296446 0.296446
0.303861 0.303861 0.303861
0.310049 0.310049 0.310049
0.316422 0.316422 0.316422
0.326226 0.326226 0.326226
0.331067 0.331067 0.331067
0.339829 0.339829 0.339829
0.348590 0.348590 0.348590
0.357352 0.357352 0.357352
0.363541 0.363541 0.363541
0.370956 0.370956 0.370956
0.379719 0.379719 0.379719
0.388481 0.388481 0.388481
0.398591 0.398591 0.398591
0.407353 0.407353 0.407353
0.416115 0.416115 0.416115
0.427451 0.427451 0.427451
0.439706 0.439706 0.439706
0.448897 0.448897 0.448897
0.459007 0.459007 0.459007
0.472672 0.472672 0.472672
0.486274 0.486274 0.486274
0.495956 0.495956 0.495956
0.513664 0.513664 0.513664
0.527083 0.527083 0.527083
0.544608 0.544608 0.544608
0.562132 0.562132 0.562132
0.173162 0.173162 0.173162
0.173162 0.173162 0.173162
0.177083 0.177083 0.177083
0.177083 0.177083 0.177083
0.177083 0.177083 0.177083
0.181005 0.181005 0.181005
0.181005 0.181005 0.181005
0.184926 0.184926 0.184926
0.184926 0.184926 0.184926
0.188848 0.188848 0.188848
0.190196 0.190196 0.190196
0.192769 0.192769 0.192769
0.196691 0.196691 0.196691
0.200613 0.200613 0.200613
0.201715 0.201715 0.201715
0.204534 0.204534 0.204534
0.208456 0.208456 0.208456
0.213970 0.213970 0.213970
0.216299 0.216299 0.216299
0.218076 0.218076 0.218076
0.222917 0.222917 0.222917
0.227758 0.227758 0.227758
0.231985 0.231985 0.231985
0.233517 0.233517 0.233517
0.238358 0.238358 0.238358
0.243199 0.243199 0.243199
0.247671 0.247671 0.247671
0.251593 0.251593 0.251593
0.255515 0.255515 0.255515
0.259436 0.259436 0.259436
0.267279 0.267279 0.267279
0.271201 0.271201 0.271201
0.275122 0.275122 0.275122
0.279044 0.279044 0.279044
0.286764 0.286764 0.286764
0.294730 0.294730 0.294730
0.298101 0.298101 0.298101
0.305208 0.305208 0.305208
0.310417 0.310417 0.310417
0.316545 0.316545 0.316545
0.326103 0.326103 0.326103
0.332414 0.332414 0.332414
0.338909 0.338909 0.338909
0.346017 0.346017 0.346017
0.352513 0.352513 0.352513
0.361275 0.361275 0.361275
0.370037 0.370037 0.370037
0.377145 0.377145 0.377145
0.383639 0.383639 0.383639
0.392402 0.392402 0.392402
0.401164 0.401164 0.401164
0.409927 0.409927 0.409927
0.420956 0.420956 0.420956
0.429718 0.429718 0.429718
0.438480 0.438480 0.438480
0.448897 0.448897 0.448897
0.458150 0.458150 0.458150
0.472610 0.472610 0.472610
0.485355 0.485355 0.485355
0.495710 0.495710 0.495710
0.508639 0.508639 0.508639
0.527267 0.527267 0.527267
0.539767 0.539767 0.539767
0.557292 0.557292 0.557292
0.574816 0.574816 0.574816
0.190686 0.190686 0.190686
0.191605 0.191605 0.191605
0.194607 0.194607 0.194607
0.194607 0.194607 0.194607
0.198284 0.198284 0.198284
0.198529 0.198529 0.198529
0.200123 0.200123 0.200123
0.202451 0.202451 0.202451
0.202451 0.202451 0.202451
0.206372 0.206372 0.206372
0.207721 0.207721 0.207721
0.210294 0.210294 0.210294
0.214215 0.214215 0.214215
0.218137 0.218137 0.218137
0.219240 0.219240 0.219240
0.222058 0.222058 0.222058
0.225980 0.225980 0.225980
0.229841 0.229841 0.229841
0.233823 0.233823 0.233823
0.235601 0.235601 0.235601
0.237255 0.237255 0.237255
0.241666 0.241666 0.241666
0.246201 0.246201 0.246201
0.247855 0.247855 0.247855
0.253431 0.253431 0.253431
0.257353 0.257353 0.257353
0.261642 0.261642 0.261642
0.266483 0.266483 0.266483
0.271324 0.271324 0.271324
0.276164 0.276164 0.276164
0.277819 0.277819 0.277819
0.285845 0.285845 0.285845
0.290686 0.290686 0.290686
0.296568 0.296568 0.296568
0.300490 0.300490 0.300490
0.305944 0.305944 0.305944
0.313970 0.313970 0.313970
0.320098 0.320098 0.320098
0.327574 0.327574 0.327574
0.332414 0.332414 0.332414
0.337990 0.337990 0.337990
0.346018 0.346018 0.346018
0.351470 0.351470 0.351470
0.359620 0.359620 0.359620
0.365195 0.365195 0.365195
0.373958 0.373958 0.373958
0.382843 0.382843 0.382843
0.390748 0.390748 0.390748
0.396324 0.396324 0.396324
0.405086 0.405086 0.405086
0.413848 0.413848 0.413848
0.422610 0.422610 0.422610
0.431372 0.431372 0.431372
0.443321 0.443321 0.443321
0.451471 0.451471 0.451471
0.461581 0.461581 0.461581
0.470833 0.470833 0.470833
0.486213 0.486213 0.486213
0.498897 0.498897 0.498897
0.511643 0.511643 0.511643
0.521324 0.521324 0.521324
0.540870 0.540870 0.540870
0.552451 0.552451 0.552451
0.569975 0.569975 0.569975
0.586764 0.586764 0.586764
0.208211 0.208211 0.208211
0.209130 0.209130 0.209130
0.212133 0.212133 0.212133
0.212133 0.212133 0.212133
0.212133 0.212133 0.212133
0.216054 0.216054 0.216054
0.216054 0.216054 0.216054
0.222304 0.222304 0.222304
0.219976 0.219976 0.219976
0.223897 0.223897 0.223897
0.223897 0.223897 0.223897
0.227819 0.227819 0.227819
0.231005 0.231005 0.231005
0.231741 0.231741 0.231741
0.235662 0.235662 0.235662
0.241422 0.241422 0.241422
0.239584 0.239584 0.239584
0.243505 0.243505 0.243505
0.247427 0.247427 0.247427
0.252941 0.252941 0.252941
0.257782 0.257782 0.257782
0.255270 0.255270 0.255270
0.263541 0.263541 0.263541
0.264645 0.264645 0.264645
0.267035 0.267035 0.267035
0.270956 0.270956 0.270956
0.275245 0.275245 0.275245
0.280085 0.280085 0.280085
0.284927 0.284927 0.284927
0.289767 0.289767 0.289767
0.294424 0.294424 0.294424
0.298407 0.298407 0.298407
0.302329 0.302329 0.302329
0.309129 0.309129 0.309129
0.317709 0.317709 0.317709
0.322549 0.322549 0.322549
0.325858 0.325858 0.325858
0.336151 0.336151 0.336151
0.340993 0.340993 0.340993
