Black-and-White/Agfa/Agfa APX 100 65x.cube
TITLE "Agfa APX 100"
LUT_3D_SIZE 9
DOMAIN_MIN 0.000000 0.000000 0.000000
DOMAIN_MAX 1.000000 1.000000 1.000000
0.000000 0.000000 0.000000
0.007843 0.007843 0.007843
0.027451 0.027451 0.027451
0.054902 0.054902 0.054902
0.088235 0.088235 0.088235
0.130882 0.130882 0.130882
0.201961 0.201961 0.201961
0.298529 0.298529 0.298529
0.415686 0.415686 0.415686
0.125000 0.125000 0.125000
0.140196 0.140196 0.140196
0.159313 0.159313 0.159313
0.191177 0.191177 0.191177
0.230393 0.230393 0.230393
0.285295 0.285295 0.285295
0.345588 0.345588 0.345588
0.426962 0.426962 0.426962
0.536765 0.536765 0.536765
0.260784 0.260784 0.260784
0.272059 0.272059 0.272059
0.288235 0.288235 0.288235
0.315686 0.315686 0.315686
0.346079 0.346079 0.346079
0.394117 0.394117 0.394117
0.450000 0.450000 0.450000
0.525001 0.525001 0.525001
0.633333 0.633333 0.633333
0.404902 0.404902 0.404902
0.408824 0.408824 0.408824
0.424510 0.424510 0.424510
0.444118 0.444118 0.444118
0.475490 0.475490 0.475490
0.518628 0.518628 0.518628
0.574509 0.574509 0.574509
0.644608 0.644608 0.644608
0.712255 0.712255 0.712255
0.582353 0.582353 0.582353
0.590196 0.590196 0.590196
0.602941 0.602941 0.602941
0.617647 0.617647 0.617647
0.643138 0.643138 0.643138
0.674509 0.674509 0.674509
0.705882 0.705882 0.705882
0.739706 0.739706 0.739706
0.782353 0.782353 0.782353
0.738725 0.738725 0.738725
0.740196 0.740196 0.740196
0.744117 0.744117 0.744117
0.751961 0.751961 0.751961
0.764215 0.764215 0.764215
0.777941 0.777941 0.777941
0.793627 0.793627 0.793627
0.813235 0.813235 0.813235
0.839216 0.839216 0.839216
0.828432 0.828432 0.828432
0.828432 0.828432 0.828432
0.832353 0.832353 0.832353
0.836275 0.836275 0.836275
0.840196 0.840196 0.840196
0.848039 0.848039 0.848039
0.859804 0.859804 0.859804
0.871569 0.871569 0.871569
0.886275 0.886275 0.886275
0.894608 0.894608 0.894608
0.894608 0.894608 0.894608
0.898039 0.898039 0.898039
0.898529 0.898529 0.898529
0.902451 0.902451 0.902451
0.906372 0.906372 0.906372
0.910294 0.910294 0.910294
0.918137 0.918137 0.918137
0.929412 0.929412 0.929412
0.952941 0.952941 0.952941
0.952941 0.952941 0.952941
0.952941 0.952941 0.952941
0.956863 0.956863 0.956863
0.956863 0.956863 0.956863
0.960784 0.960784 0.960784
0.964706 0.964706 0.964706
0.968627 0.968627 0.968627
0.976471 0.976471 0.976471
0.030883 0.030883 0.030883
0.062255 0.062255 0.062255
0.085785 0.085785 0.085785
0.108333 0.108333 0.108333
0.140686 0.140686 0.140686
0.193627 0.193627 0.193627
0.267157 0.267157 0.267157
0.353921 0.353921 0.353921
0.470588 0.470588 0.470588
0.175000 0.175000 0.175000
0.190686 0.190686 0.190686
0.214215 0.214215 0.214215
0.244608 0.244608 0.244608
0.281373 0.281373 0.281373
0.330392 0.330392 0.330392
0.392157 0.392157 0.392157
0.467157 0.467157 0.467157
0.583334 0.583334 0.583334
0.296569 0.296569 0.296569
0.307353 0.307353 0.307353
0.323529 0.323529 0.323529
0.347549 0.347549 0.347549
0.380883 0.380883 0.380883
0.423529 0.423529 0.423529
0.481373 0.481373 0.481373
0.559314 0.559314 0.559314
0.657843 0.657843 0.657843
0.428431 0.428431 0.428431
0.435785 0.435785 0.435785
0.448039 0.448039 0.448039
0.470098 0.470098 0.470098
0.500980 0.500980 0.500980
0.545588 0.545588 0.545588
0.601961 0.601961 0.601961
0.661765 0.661765 0.661765
0.724020 0.724020 0.724020
0.605882 0.605882 0.605882
0.609804 0.609804 0.609804
0.621568 0.621568 0.621568
0.637745 0.637745 0.637745
0.660784 0.660784 0.660784
0.686275 0.686275 0.686275
0.717647 0.717647 0.717647
0.750981 0.750981 0.750981
0.790196 0.790196 0.790196
0.746569 0.746569 0.746569
0.748039 0.748039 0.748039
0.751961 0.751961 0.751961
0.759804 0.759804 0.759804
0.771568 0.771568 0.771568
0.783333 0.783333 0.783333
0.800981 0.800981 0.800981
0.819608 0.819608 0.819608
0.843137 0.843137 0.843137
0.832353 0.832353 0.832353
0.832353 0.832353 0.832353
0.836274 0.836274 0.836274
0.840196 0.840196 0.840196
0.844118 0.844118 0.844118
0.851961 0.851961 0.851961
0.859804 0.859804 0.859804
0.871568 0.871568 0.871568
0.887255 0.887255 0.887255
0.898529 0.898529 0.898529
0.898529 0.898529 0.898529
0.898529 0.898529 0.898529
0.901961 0.901961 0.901961
0.902451 0.902451 0.902451
0.906372 0.906372 0.906372
0.914215 0.914215 0.914215
0.921569 0.921569 0.921569
0.929902 0.929902 0.929902
0.956863 0.956863 0.956863
0.956863 0.956863 0.956863
0.956863 0.956863 0.956863
0.956863 0.956863 0.956863
0.960294 0.960294 0.960294
0.960784 0.960784 0.960784
0.964706 0.964706 0.964706
0.968627 0.968627 0.968627
0.976471 0.976471 0.976471
0.073529 0.073529 0.073529
0.100981 0.100981 0.100981
0.120589 0.120589 0.120589
0.147549 0.147549 0.147549
0.189216 0.189216 0.189216
0.243627 0.243627 0.243627
0.313726 0.313726 0.313726
0.395588 0.395588 0.395588
0.512745 0.512745 0.512745
0.221568 0.221568 0.221568
0.238236 0.238236 0.238236
0.260784 0.260784 0.260784
0.288725 0.288725 0.288725
0.324020 0.324020 0.324020
0.371078 0.371078 0.371078
0.430883 0.430883 0.430883
0.506372 0.506372 0.506372
0.619118 0.619118 0.619118
0.339215 0.339215 0.339215
0.347059 0.347059 0.347059
0.362745 0.362745 0.362745
0.386274 0.386274 0.386274
0.419608 0.419608 0.419608
0.462255 0.462255 0.462255
0.520589 0.520589 0.520589
0.598530 0.598530 0.598530
0.685294 0.685294 0.685294
0.467647 0.467647 0.467647
0.474510 0.474510 0.474510
0.486274 0.486274 0.486274
0.509804 0.509804 0.509804
0.543137 0.543137 0.543137
0.586765 0.586765 0.586765
0.637255 0.637255 0.637255
0.689216 0.689216 0.689216
0.743627 0.743627 0.743627
0.639215 0.639215 0.639215
0.643138 0.643138 0.643138
0.653922 0.653922 0.653922
0.666667 0.666667 0.666667
0.686275 0.686275 0.686275
0.709804 0.709804 0.709804
0.736274 0.736274 0.736274
0.766666 0.766666 0.766666
0.801961 0.801961 0.801961
0.762255 0.762255 0.762255
0.763725 0.763725 0.763725
0.767647 0.767647 0.767647
0.774020 0.774020 0.774020
0.784804 0.784804 0.784804
0.796569 0.796569 0.796569
0.810294 0.810294 0.810294
0.828922 0.828922 0.828922
0.850980 0.850980 0.850980
0.840196 0.840196 0.840196
0.843137 0.843137 0.843137
0.844118 0.844118 0.844118
0.848039 0.848039 0.848039
0.851961 0.851961 0.851961
0.859804 0.859804 0.859804
0.867647 0.867647 0.867647
0.879412 0.879412 0.879412
0.895098 0.895098 0.895098
0.902451 0.902451 0.902451
0.902451 0.902451 0.902451
0.902451 0.902451 0.902451
0.906372 0.906372 0.906372
0.909804 0.909804 0.909804
0.913725 0.913725 0.913725
0.918137 0.918137 0.918137
0.925490 0.925490 0.925490
0.933823 0.933823 0.933823
0.956863 0.956863 0.956863
0.956863 0.956863 0.956863
0.960784 0.960784 0.960784
0.960784 0.960784 0.960784
0.960784 0.960784 0.960784
0.964706 0.964706 0.964706
0.968627 0.968627 0.968627
0.972549 0.972549 0.972549
0.980392 0.980392 0.980392
0.113725 0.113725 0.113725
0.143627 0.143627 0.143627
0.167157 0.167157 0.167157
0.200981 0.200981 0.200981
0.243628 0.243628 0.243628
0.295588 0.295588 0.295588
0.361764 0.361764 0.361764
0.442157 0.442157 0.442157
0.563235 0.563235 0.563235
0.275980 0.275980 0.275980
0.291667 0.291667 0.291667
0.311765 0.311765 0.311765
0.339215 0.339215 0.339215
0.373530 0.373530 0.373530
0.419117 0.419117 0.419117
0.477451 0.477451 0.477451
0.558823 0.558823 0.558823
0.658334 0.658334 0.658334
0.386274 0.386274 0.386274
0.396568 0.396568 0.396568
0.412255 0.412255 0.412255
0.435785 0.435785 0.435785
0.467157 0.467157 0.467157
0.512745 0.512745 0.512745
0.571569 0.571569 0.571569
0.642647 0.642647 0.642647
0.712746 0.712746 0.712746
0.517157 0.517157 0.517157
0.525000 0.525000 0.525000
0.540686 0.540686 0.540686
0.562745 0.562745 0.562745
0.595588 0.595588 0.595588
0.633824 0.633824 0.633824
0.675490 0.675490 0.675490
0.718628 0.718628 0.718628
0.767157 0.767157 0.767157
0.676961 0.676961 0.676961
0.680883 0.680883 0.680883
0.688726 0.688726 0.688726
0.700490 0.700490 0.700490
0.717647 0.717647 0.717647
0.737254 0.737254 0.737254
0.759804 0.759804 0.759804
0.786274 0.786274 0.786274
0.817647 0.817647 0.817647
0.781863 0.781863 0.781863
0.783333 0.783333 0.783333
0.785784 0.785784 0.785784
0.793627 0.793627 0.793627
0.801471 0.801471 0.801471
0.813235 0.813235 0.813235
0.825000 0.825000 0.825000
0.840686 0.840686 0.840686
0.861275 0.861275 0.861275
0.851961 0.851961 0.851961
0.851961 0.851961 0.851961
0.855883 0.855883 0.855883
0.859804 0.859804 0.859804
0.863726 0.863726 0.863726
0.869118 0.869118 0.869118
0.876961 0.876961 0.876961
0.887255 0.887255 0.887255
0.901961 0.901961 0.901961
0.909804 0.909804 0.909804
0.910294 0.910294 0.910294
0.910294 0.910294 0.910294
0.912255 0.912255 0.912255
0.914215 0.914215 0.914215
0.918137 0.918137 0.918137
0.922059 0.922059 0.922059
0.929902 0.929902 0.929902
0.939706 0.939706 0.939706
0.963235 0.963235 0.963235
0.964216 0.964216 0.964216
0.964706 0.964706 0.964706
0.964706 0.964706 0.964706
0.964706 0.964706 0.964706
0.968627 0.968627 0.968627
0.972549 0.972549 0.972549
0.976471 0.976471 0.976471
0.984314 0.984314 0.984314
0.170588 0.170588 0.170588
0.205882 0.205882 0.205882
0.233333 0.233333 0.233333
0.266667 0.266667 0.266667
0.305883 0.305883 0.305883
0.356372 0.356372 0.356372
0.418627 0.418627 0.418627
0.500490 0.500490 0.500490
0.617647 0.617647 0.617647
0.338235 0.338235 0.338235
0.353922 0.353922 0.353922
0.373530 0.373530 0.373530
0.397549 0.397549 0.397549
0.432353 0.432353 0.432353
0.477451 0.477451 0.477451
0.539216 0.539216 0.539216
0.617647 0.617647 0.617647
0.699510 0.699510 0.699510
0.447059 0.447059 0.447059
0.454902 0.454902 0.454902
0.471569 0.471569 0.471569
0.498039 0.498039 0.498039
0.531373 0.531373 0.531373
0.578922 0.578922 0.578922
0.633333 0.633333 0.633333
0.687745 0.687745 0.687745
0.744117 0.744117 0.744117
0.587255 0.587255 0.587255
0.593137 0.593137 0.593137
0.606863 0.606863 0.606863
0.626471 0.626471 0.626471
0.653432 0.653432 0.653432
0.682843 0.682843 0.682843
0.714216 0.714216 0.714216
0.749510 0.749510 0.749510
0.790196 0.790196 0.790196
0.717647 0.717647 0.717647
0.721569 0.721569 0.721569
0.725491 0.725491 0.725491
0.737254 0.737254 0.737254
0.749019 0.749019 0.749019
0.766666 0.766666 0.766666
0.784314 0.784314 0.784314
0.806373 0.806373 0.806373
0.833333 0.833333 0.833333
0.803431 0.803431 0.803431
0.805392 0.805392 0.805392
0.809314 0.809314 0.809314
0.813235 0.813235 0.813235
0.821078 0.821078 0.821078
0.828922 0.828922 0.828922
0.840686 0.840686 0.840686
0.856373 0.856373 0.856373
0.872549 0.872549 0.872549
0.864706 0.864706 0.864706
0.867647 0.867647 0.867647
0.867647 0.867647 0.867647
0.871568 0.871568 0.871568
0.875490 0.875490 0.875490
0.880392 0.880392 0.880392
0.887255 0.887255 0.887255
0.898039 0.898039 0.898039
0.910784 0.910784 0.910784
0.917647 0.917647 0.917647
0.918137 0.918137 0.918137
0.918137 0.918137 0.918137
0.919608 0.919608 0.919608
0.922059 0.922059 0.922059
0.925980 0.925980 0.925980
0.929902 0.929902 0.929902
0.937255 0.937255 0.937255
0.945588 0.945588 0.945588
0.968627 0.968627 0.968627
0.968627 0.968627 0.968627
0.968627 0.968627 0.968627
0.968627 0.968627 0.968627
0.972549 0.972549 0.972549
0.972549 0.972549 0.972549
0.976471 0.976471 0.976471
0.980392 0.980392 0.980392
0.988235 0.988235 0.988235
0.253922 0.253922 0.253922
0.287745 0.287745 0.287745
0.315196 0.315196 0.315196
0.346569 0.346569 0.346569
0.379902 0.379902 0.379902
0.430392 0.430392 0.430392
0.490196 0.490196 0.490196
0.578432 0.578432 0.578432
0.675980 0.675980 0.675980
0.412745 0.412745 0.412745
0.427941 0.427941 0.427941
0.447059 0.447059 0.447059
0.474020 0.474020 0.474020
0.508824 0.508824 0.508824
0.559314 0.559314 0.559314
0.617647 0.617647 0.617647
0.678431 0.678431 0.678431
0.738725 0.738725 0.738725
0.528922 0.528922 0.528922
0.536765 0.536765 0.536765
0.556373 0.556373 0.556373
0.580882 0.580882 0.580882
0.615196 0.615196 0.615196
0.652941 0.652941 0.652941
0.690686 0.690686 0.690686
0.731373 0.731373 0.731373
0.775491 0.775491 0.775491
0.658824 0.658824 0.658824
0.664706 0.664706 0.664706
0.673039 0.673039 0.673039
0.688726 0.688726 0.688726
0.706863 0.706863 0.706863
0.729412 0.729412 0.729412
0.752941 0.752941 0.752941
0.781863 0.781863 0.781863
0.814216 0.814216 0.814216
0.756372 0.756372 0.756372
0.758823 0.758823 0.758823
0.764215 0.764215 0.764215
0.772059 0.772059 0.772059
0.782353 0.782353 0.782353
0.795588 0.795588 0.795588
0.810784 0.810784 0.810784
0.829412 0.829412 0.829412
0.852451 0.852451 0.852451
0.825000 0.825000 0.825000
0.828922 0.828922 0.828922
0.828922 0.828922 0.828922
0.834314 0.834314 0.834314
0.840686 0.840686 0.840686
0.848529 0.848529 0.848529
0.859804 0.859804 0.859804
0.871078 0.871078 0.871078
0.887745 0.887745 0.887745
0.879412 0.879412 0.879412
0.879412 0.879412 0.879412
0.883333 0.883333 0.883333
0.883824 0.883824 0.883824
0.887745 0.887745 0.887745
0.894118 0.894118 0.894118
0.899019 0.899019 0.899019
0.907353 0.907353 0.907353
0.919118 0.919118 0.919118
0.925980 0.925980 0.925980
0.925980 0.925980 0.925980
0.925980 0.925980 0.925980
0.929412 0.929412 0.929412
0.929902 0.929902 0.929902
0.933823 0.933823 0.933823
0.937745 0.937745 0.937745
0.945098 0.945098 0.945098
0.952941 0.952941 0.952941
0.974020 0.974020 0.974020
0.976471 0.976471 0.976471
0.976471 0.976471 0.976471
0.976471 0.976471 0.976471
0.976471 0.976471 0.976471
0.980392 0.980392 0.980392
0.984314 0.984314 0.984314
0.988235 0.988235 0.988235
0.993627 0.993627 0.993627
0.353921 0.353921 0.353921
0.385294 0.385294 0.385294
0.409804 0.409804 0.409804
0.437255 0.437255 0.437255
0.473529 0.473529 0.473529
0.524020 0.524020 0.524020
0.587255 0.587255 0.587255
0.660295 0.660295 0.660295
0.726471 0.726471 0.726471
0.507353 0.507353 0.507353
0.523039 0.523039 0.523039
0.546078 0.546078 0.546078
0.572549 0.572549 0.572549
0.607353 0.607353 0.607353
0.649019 0.649019 0.649019
0.688236 0.688236 0.688236
0.730392 0.730392 0.730392
0.775981 0.775981 0.775981
0.626471 0.626471 0.626471
0.634804 0.634804 0.634804
0.648039 0.648039 0.648039
0.666667 0.666667 0.666667
0.688235 0.688235 0.688235
0.712255 0.712255 0.712255
0.741176 0.741176 0.741176
0.772059 0.772059 0.772059
0.806863 0.806863 0.806863
0.721078 0.721078 0.721078
0.724020 0.724020 0.724020
0.730882 0.730882 0.730882
0.740686 0.740686 0.740686
0.755392 0.755392 0.755392
0.772059 0.772059 0.772059
0.790686 0.790686 0.790686
0.812745 0.812745 0.812745
0.837745 0.837745 0.837745
0.794118 0.794118 0.794118
0.795098 0.795098 0.795098
0.799019 0.799019 0.799019
0.805883 0.805883 0.805883
0.813725 0.813725 0.813725
0.824510 0.824510 0.824510
0.836274 0.836274 0.836274
0.851961 0.851961 0.851961
0.870588 0.870588 0.870588
0.848529 0.848529 0.848529
0.851961 0.851961 0.851961
0.852451 0.852451 0.852451
0.856373 0.856373 0.856373
0.860294 0.860294 0.860294
0.868137 0.868137 0.868137
0.875980 0.875980 0.875980
0.887255 0.887255 0.887255
0.901961 0.901961 0.901961
0.895098 0.895098 0.895098
0.895098 0.895098 0.895098
0.898039 0.898039 0.898039
0.899020 0.899020 0.899020
0.902941 0.902941 0.902941
0.906862 0.906862 0.906862
0.913725 0.913725 0.913725
0.921569 0.921569 0.921569
0.930392 0.930392 0.930392
0.937255 0.937255 0.937255
0.937255 0.937255 0.937255
0.937745 0.937745 0.937745
0.937745 0.937745 0.937745
0.941176 0.941176 0.941176
0.942647 0.942647 0.942647
0.946079 0.946079 0.946079
0.952941 0.952941 0.952941
0.960784 0.960784 0.960784
0.981372 0.981372 0.981372
0.984314 0.984314 0.984314
0.984314 0.984314 0.984314
0.984314 0.984314 0.984314
0.984314 0.984314 0.984314
0.988235 0.988235 0.988235
0.992157 0.992157 0.992157
0.996078 0.996078 0.996078
1.000000 1.000000 1.000000
0.463725 0.463725 0.463725
0.495098 0.495098 0.495098
0.518627 0.518627 0.518627
0.550000 0.550000 0.550000
0.590686 0.590686 0.590686
0.633824 0.633824 0.633824
0.679902 0.679902 0.679902
0.725980 0.725980 0.725980
0.773039 0.773039 0.773039
0.624019 0.624019 0.624019
0.638726 0.638726 0.638726
0.653922 0.653922 0.653922
0.673040 0.673040 0.673040
0.696078 0.696078 0.696078
0.721569 0.721569 0.721569
0.749020 0.749020 0.749020
0.776961 0.776961 0.776961
0.811765 0.811765 0.811765
0.709314 0.709314 0.709314
0.713236 0.713236 0.713236
0.721079 0.721079 0.721079
0.736275 0.736275 0.736275
0.747549 0.747549 0.747549
0.768137 0.768137 0.768137
0.785784 0.785784 0.785784
0.810785 0.810785 0.810785
0.835784 0.835784 0.835784
0.773039 0.773039 0.773039
0.775490 0.775490 0.775490
0.779412 0.779412 0.779412
0.787255 0.787255 0.787255
0.799019 0.799019 0.799019
0.809804 0.809804 0.809804
0.825980 0.825980 0.825980
0.842157 0.842157 0.842157
0.862745 0.862745 0.862745
0.829412 0.829412 0.829412
0.829412 0.829412 0.829412
0.833334 0.833334 0.833334
0.837255 0.837255 0.837255
0.845098 0.845098 0.845098
0.852941 0.852941 0.852941
0.863235 0.863235 0.863235
0.875000 0.875000 0.875000
0.890196 0.890196 0.890196
0.874510 0.874510 0.874510
0.875000 0.875000 0.875000
0.875980 0.875980 0.875980
0.879902 0.879902 0.879902
0.883824 0.883824 0.883824
0.890686 0.890686 0.890686
0.895098 0.895098 0.895098
0.906372 0.906372 0.906372
0.917647 0.917647 0.917647
0.913725 0.913725 0.913725
0.913725 0.913725 0.913725
0.916666 0.916666 0.916666
0.917647 0.917647 0.917647
0.918627 0.918627 0.918627
0.922549 0.922549 0.922549
0.926471 0.926471 0.926471
0.934314 0.934314 0.934314
0.942156 0.942156 0.942156
0.949020 0.949020 0.949020
0.949020 0.949020 0.949020
0.949510 0.949510 0.949510
0.949510 0.949510 0.949510
0.952941 0.952941 0.952941
0.953431 0.953431 0.953431
0.957353 0.957353 0.957353
0.961274 0.961274 0.961274
0.969117 0.969117 0.969117
0.992157 0.992157 0.992157
0.992157 0.992157 0.992157
0.992157 0.992157 0.992157
0.992647 0.992647 0.992647
0.996078 0.996078 0.996078
0.996078 0.996078 0.996078
1.000000 1.000000 1.000000
1.000000 1.000000 1.000000
1.000000 1.000000 1.000000
0.607843 0.607843 0.607843
0.635294 0.635294 0.635294
0.653922 0.653922 0.653922
0.674510 0.674510 0.674510
0.698039 0.698039 0.698039
0.723039 0.723039 0.723039
0.752941 0.752941 0.752941
0.780882 0.780882 0.780882
0.815686 0.815686 0.815686
0.721079 0.721079 0.721079
0.728922 0.728922 0.728922
0.736274 0.736274 0.736274
0.752451 0.752451 0.752451
0.762745 0.762745 0.762745
0.783824 0.783824 0.783824
0.800000 0.800000 0.800000
0.823039 0.823039 0.823039
0.846569 0.846569 0.846569
0.775491 0.775491 0.775491
0.779902 0.779902 0.779902
0.784314 0.784314 0.784314
0.792157 0.792157 0.792157
0.803922 0.803922 0.803922
0.815686 0.815686 0.815686
0.828431 0.828431 0.828431
0.847059 0.847059 0.847059
0.866667 0.866667 0.866667
0.822059 0.822059 0.822059
0.823529 0.823529 0.823529
0.827451 0.827451 0.827451
0.833824 0.833824 0.833824
0.841667 0.841667 0.841667
0.849510 0.849510 0.849510
0.861275 0.861275 0.861275
0.873039 0.873039 0.873039
0.888726 0.888726 0.888726
0.862745 0.862745 0.862745
0.864706 0.864706 0.864706
0.866667 0.866667 0.866667
0.870588 0.870588 0.870588
0.876470 0.876470 0.876470
0.882353 0.882353 0.882353
0.890196 0.890196 0.890196
0.900000 0.900000 0.900000
0.913725 0.913725 0.913725
0.899510 0.899510 0.899510
0.899510 0.899510 0.899510
0.901961 0.901961 0.901961
0.905882 0.905882 0.905882
0.909804 0.909804 0.909804
0.913725 0.913725 0.913725
0.919118 0.919118 0.919118
0.925490 0.925490 0.925490
0.937255 0.937255 0.937255
0.933333 0.933333 0.933333
0.933333 0.933333 0.933333
0.934313 0.934313 0.934313
0.937255 0.937255 0.937255
0.938235 0.938235 0.938235
0.941176 0.941176 0.941176
0.946079 0.946079 0.946079
0.949510 0.949510 0.949510
0.957843 0.957843 0.957843
0.964706 0.964706 0.964706
0.964706 0.964706 0.964706
0.964706 0.964706 0.964706
0.965196 0.965196 0.965196
0.968627 0.968627 0.968627
0.969117 0.969117 0.969117
0.973039 0.973039 0.973039
0.976961 0.976961 0.976961
0.984804 0.984804 0.984804
1.000000 1.000000 1.000000
1.000000 1.000000 1.000000
1.000000 1.000000 1.000000
1.000000 1.000000 1.000000
1.000000 1.000000 1.000000
1.000000 1.000000 1.000000
1.000000 1.000000 1.000000
1.000000 1.000000 1.000000
1.000000 1.000000 1.000000
