Black-and-White/Agfa/Agfa APX 100 65x.cube
TITLE "Agfa APX 100"
LUT_3D_SIZE 5
DOMAIN_MIN 0.000000 0.000000 0.000000
DOMAIN_MAX 1.000000 1.000000 1.000000
0.000000 0.000000 0.000000
0.027451 0.027451 0.027451
0.088235 0.088235 0.088235
0.201961 0.201961 0.201961
0.415686 0.415686 0.415686
0.260784 0.260784 0.260784
0.288235 0.288235 0.288235
0.346079 0.346079 0.346079
0.450000 0.450000 0.450000
0.633333 0.633333 0.633333
0.582353 0.582353 0.582353
0.602941 0.602941 0.602941
0.643138 0.643138 0.643138
0.705882 0.705882 0.705882
0.782353 0.782353 0.782353
0.828432 0.828432 0.828432
0.832353 0.832353 0.832353
0.840196 0.840196 0.840196
0.859804 0.859804 0.859804
0.886275 0.886275 0.886275
0.952941 0.952941 0.952941
0.952941 0.952941 0.952941
0.956863 0.956863 0.956863
0.964706 0.964706 0.964706
0.976471 0.976471 0.976471
0.073529 0.073529 0.073529
0.120589 0.120589 0.120589
0.189216 0.189216 0.189216
0.313726 0.313726 0.313726
0.512745 0.512745 0.512745
0.339215 0.339215 0.339215
0.362745 0.362745 0.362745
0.419608 0.419608 0.419608
0.520589 0.520589 0.520589
0.685294 0.685294 0.685294
0.639215 0.639215 0.639215
0.653922 0.653922 0.653922
0.686275 0.686275 0.686275
0.736274 0.736274 0.736274
0.801961 0.801961 0.801961
0.840196 0.840196 0.840196
0.844118 0.844118 0.844118
0.851961 0.851961 0.851961
0.867647 0.867647 0.867647
0.895098 0.895098 0.895098
0.956863 0.956863 0.956863
0.960784 0.960784 0.960784
0.960784 0.960784 0.960784
0.968627 0.968627 0.968627
0.980392 0.980392 0.980392
0.170588 0.170588 0.170588
0.233333 0.233333 0.233333
0.305883 0.305883 0.305883
0.418627 0.418627 0.418627
0.617647 0.617647 0.617647
0.447059 0.447059 0.447059
0.471569 0.471569 0.471569
0.531373 0.531373 0.531373
0.633333 0.633333 0.633333
0.744117 0.744117 0.744117
0.717647 0.717647 0.717647
0.725491 0.725491 0.725491
0.749019 0.749019 0.749019
0.784314 0.784314 0.784314
0.833333 0.833333 0.833333
0.864706 0.864706 0.864706
0.867647 0.867647 0.867647
0.875490 0.875490 0.875490
0.887255 0.887255 0.887255
0.910784 0.910784 0.910784
0.968627 0.968627 0.968627
0.968627 0.968627 0.968627
0.972549 0.972549 0.972549
0.976471 0.976471 0.976471
0.988235 0.988235 0.988235
0.353921 0.353921 0.353921
0.409804 0.409804 0.409804
0.473529 0.473529 0.473529
0.587255 0.587255 0.587255
0.726471 0.726471 0.726471
0.626471 0.626471 0.626471
0.648039 0.648039 0.648039
0.688235 0.688235 0.688235
0.741176 0.741176 0.741176
0.806863 0.806863 0.806863
0.794118 0.794118 0.794118
0.799019 0.799019 0.799019
0.813725 0.813725 0.813725
0.836274 0.836274 0.836274
0.870588 0.870588 0.870588
0.895098 0.895098 0.895098
0.898039 0.898039 0.898039
0.902941 0.902941 0.902941
0.913725 0.913725 0.913725
0.930392 0.930392 0.930392
0.981372 0.981372 0.981372
0.984314 0.984314 0.984314
0.984314 0.984314 0.984314
0.992157 0.992157 0.992157
1.000000 1.000000 1.000000
0.607843 0.607843 0.607843
0.653922 0.653922 0.653922
0.698039 0.698039 0.698039
0.752941 0.752941 0.752941
0.815686 0.815686 0.815686
0.775491 0.775491 0.775491
0.784314 0.784314 0.784314
0.803922 0.803922 0.803922
0.828431 0.828431 0.828431
0.866667 0.866667 0.866667
0.862745 0.862745 0.862745
0.866667 0.866667 0.866667
0.876470 0.876470 0.876470
0.890196 0.890196 0.890196
0.913725 0.913725 0.913725
0.933333 0.933333 0.933333
0.934313 0.934313 0.934313
0.938235 0.938235 0.938235
0.946079 0.946079 0.946079
0.957843 0.957843 0.957843
1.000000 1.000000 1.000000
1.000000 1.000000 1.000000
1.000000 1.000000 1.000000
1.000000 1.000000 1.000000
1.000000 1.000000 1.000000
