Black-and-White/Agfa/Agfa APX 25 65x.cube
TITLE "Agfa APX 25"
LUT_3D_SIZE 9
DOMAIN_MIN 0.000000 0.000000 0.000000
DOMAIN_MAX 1.000000 1.000000 1.000000
0.000000 0.000000 0.000000
0.000000 0.000000 0.000000
0.007843 0.007843 0.007843
0.019608 0.019608 0.019608
0.050980 0.050980 0.050980
0.115196 0.115196 0.115196
0.225490 0.225490 0.225490
0.357353 0.357353 0.357353
0.509804 0.509804 0.509804
0.034804 0.034804 0.034804
0.050490 0.050490 0.050490
0.073040 0.073040 0.073040
0.107843 0.107843 0.107843
0.165686 0.165686 0.165686
0.245588 0.245588 0.245588
0.345099 0.345099 0.345099
0.455391 0.455391 0.455391
0.579902 0.579902 0.579902
0.135294 0.135294 0.135294
0.150980 0.150980 0.150980
0.178431 0.178431 0.178431
0.221568 0.221568 0.221568
0.274510 0.274510 0.274510
0.345588 0.345588 0.345588
0.431372 0.431372 0.431372
0.525490 0.525490 0.525490
0.626470 0.626470 0.626470
0.283334 0.283334 0.283334
0.293627 0.293627 0.293627
0.314706 0.314706 0.314706
0.348529 0.348529 0.348529
0.395098 0.395098 0.395098
0.457353 0.457353 0.457353
0.525000 0.525000 0.525000
0.599019 0.599019 0.599019
0.676961 0.676961 0.676961
0.452941 0.452941 0.452941
0.458823 0.458823 0.458823
0.474509 0.474509 0.474509
0.498040 0.498040 0.498040
0.533334 0.533334 0.533334
0.574019 0.574019 0.574019
0.618627 0.618627 0.618627
0.673039 0.673039 0.673039
0.735294 0.735294 0.735294
0.606863 0.606863 0.606863
0.610784 0.610784 0.610784
0.618627 0.618627 0.618627
0.635295 0.635295 0.635295
0.654412 0.654412 0.654412
0.679902 0.679902 0.679902
0.711275 0.711275 0.711275
0.747059 0.747059 0.747059
0.793627 0.793627 0.793627
0.726471 0.726471 0.726471
0.727451 0.727451 0.727451
0.731373 0.731373 0.731373
0.742156 0.742156 0.742156
0.753921 0.753921 0.753921
0.771078 0.771078 0.771078
0.790196 0.790196 0.790196
0.816666 0.816666 0.816666
0.851961 0.851961 0.851961
0.827941 0.827941 0.827941
0.827941 0.827941 0.827941
0.831863 0.831863 0.831863
0.838235 0.838235 0.838235
0.843627 0.843627 0.843627
0.855392 0.855392 0.855392
0.867157 0.867157 0.867157
0.886765 0.886765 0.886765
0.910294 0.910294 0.910294
0.925490 0.925490 0.925490
0.925490 0.925490 0.925490
0.929412 0.929412 0.929412
0.929412 0.929412 0.929412
0.933333 0.933333 0.933333
0.941176 0.941176 0.941176
0.945098 0.945098 0.945098
0.953431 0.953431 0.953431
0.968627 0.968627 0.968627
0.000000 0.000000 0.000000
0.007843 0.007843 0.007843
0.022549 0.022549 0.022549
0.042647 0.042647 0.042647
0.083824 0.083824 0.083824
0.161765 0.161765 0.161765
0.268628 0.268628 0.268628
0.396568 0.396568 0.396568
0.541176 0.541176 0.541176
0.058334 0.058334 0.058334
0.077451 0.077451 0.077451
0.104411 0.104411 0.104411
0.146569 0.146569 0.146569
0.204902 0.204902 0.204902
0.282843 0.282843 0.282843
0.374020 0.374020 0.374020
0.482843 0.482843 0.482843
0.599510 0.599510 0.599510
0.162745 0.162745 0.162745
0.178431 0.178431 0.178431
0.205882 0.205882 0.205882
0.247549 0.247549 0.247549
0.298530 0.298530 0.298530
0.368627 0.368627 0.368627
0.451961 0.451961 0.451961
0.544118 0.544118 0.544118
0.638235 0.638235 0.638235
0.302941 0.302941 0.302941
0.314216 0.314216 0.314216
0.334314 0.334314 0.334314
0.368137 0.368137 0.368137
0.414706 0.414706 0.414706
0.473039 0.473039 0.473039
0.538235 0.538235 0.538235
0.606863 0.606863 0.606863
0.684804 0.684804 0.684804
0.466666 0.466666 0.466666
0.472549 0.472549 0.472549
0.488235 0.488235 0.488235
0.512255 0.512255 0.512255
0.544608 0.544608 0.544608
0.584313 0.584313 0.584313
0.630392 0.630392 0.630392
0.680882 0.680882 0.680882
0.739216 0.739216 0.739216
0.614706 0.614706 0.614706
0.618627 0.618627 0.618627
0.626470 0.626470 0.626470
0.640196 0.640196 0.640196
0.661765 0.661765 0.661765
0.685294 0.685294 0.685294
0.716177 0.716177 0.716177
0.750981 0.750981 0.750981
0.797549 0.797549 0.797549
0.730392 0.730392 0.730392
0.731373 0.731373 0.731373
0.738235 0.738235 0.738235
0.746079 0.746079 0.746079
0.758824 0.758824 0.758824
0.774510 0.774510 0.774510
0.794118 0.794118 0.794118
0.820588 0.820588 0.820588
0.854902 0.854902 0.854902
0.831373 0.831373 0.831373
0.831863 0.831863 0.831863
0.835784 0.835784 0.835784
0.839706 0.839706 0.839706
0.847549 0.847549 0.847549
0.856863 0.856863 0.856863
0.871078 0.871078 0.871078
0.886765 0.886765 0.886765
0.910294 0.910294 0.910294
0.929412 0.929412 0.929412
0.929412 0.929412 0.929412
0.929412 0.929412 0.929412
0.933333 0.933333 0.933333
0.937255 0.937255 0.937255
0.941176 0.941176 0.941176
0.949020 0.949020 0.949020
0.956863 0.956863 0.956863
0.968627 0.968627 0.968627
0.003922 0.003922 0.003922
0.019608 0.019608 0.019608
0.038235 0.038235 0.038235
0.062745 0.062745 0.062745
0.114706 0.114706 0.114706
0.196569 0.196569 0.196569
0.301961 0.301961 0.301961
0.424509 0.424509 0.424509
0.564706 0.564706 0.564706
0.081863 0.081863 0.081863
0.103921 0.103921 0.103921
0.135294 0.135294 0.135294
0.177941 0.177941 0.177941
0.236275 0.236275 0.236275
0.313726 0.313726 0.313726
0.403431 0.403431 0.403431
0.506372 0.506372 0.506372
0.615196 0.615196 0.615196
0.197059 0.197059 0.197059
0.209804 0.209804 0.209804
0.240196 0.240196 0.240196
0.276470 0.276470 0.276470
0.329412 0.329412 0.329412
0.396568 0.396568 0.396568
0.477451 0.477451 0.477451
0.564216 0.564216 0.564216
0.653922 0.653922 0.653922
0.334314 0.334314 0.334314
0.342157 0.342157 0.342157
0.364706 0.364706 0.364706
0.396078 0.396078 0.396078
0.442157 0.442157 0.442157
0.497059 0.497059 0.497059
0.559314 0.559314 0.559314
0.625490 0.625490 0.625490
0.697059 0.697059 0.697059
0.490197 0.490197 0.490197
0.497059 0.497059 0.497059
0.509804 0.509804 0.509804
0.532353 0.532353 0.532353
0.564705 0.564705 0.564705
0.602451 0.602451 0.602451
0.644118 0.644118 0.644118
0.692647 0.692647 0.692647
0.750981 0.750981 0.750981
0.630392 0.630392 0.630392
0.631863 0.631863 0.631863
0.639706 0.639706 0.639706
0.653922 0.653922 0.653922
0.673529 0.673529 0.673529
0.697059 0.697059 0.697059
0.726961 0.726961 0.726961
0.762255 0.762255 0.762255
0.805392 0.805392 0.805392
0.739216 0.739216 0.739216
0.742156 0.742156 0.742156
0.747059 0.747059 0.747059
0.754902 0.754902 0.754902
0.767647 0.767647 0.767647
0.782843 0.782843 0.782843
0.801961 0.801961 0.801961
0.828432 0.828432 0.828432
0.859804 0.859804 0.859804
0.836274 0.836274 0.836274
0.838726 0.838726 0.838726
0.840196 0.840196 0.840196
0.846078 0.846078 0.846078
0.851961 0.851961 0.851961
0.863235 0.863235 0.863235
0.875000 0.875000 0.875000
0.891176 0.891176 0.891176
0.916666 0.916666 0.916666
0.933333 0.933333 0.933333
0.933333 0.933333 0.933333
0.933333 0.933333 0.933333
0.937255 0.937255 0.937255
0.941176 0.941176 0.941176
0.945098 0.945098 0.945098
0.951961 0.951961 0.951961
0.960784 0.960784 0.960784
0.971569 0.971569 0.971569
0.014216 0.014216 0.014216
0.035294 0.035294 0.035294
0.057843 0.057843 0.057843
0.092647 0.092647 0.092647
0.150981 0.150981 0.150981
0.235294 0.235294 0.235294
0.337745 0.337745 0.337745
0.455882 0.455882 0.455882
0.586765 0.586765 0.586765
0.115686 0.115686 0.115686
0.140196 0.140196 0.140196
0.173530 0.173530 0.173530
0.217647 0.217647 0.217647
0.274510 0.274510 0.274510
0.348529 0.348529 0.348529
0.436765 0.436765 0.436765
0.533823 0.533823 0.533823
0.634804 0.634804 0.634804
0.236765 0.236765 0.236765
0.249019 0.249019 0.249019
0.276470 0.276470 0.276470
0.314216 0.314216 0.314216
0.364706 0.364706 0.364706
0.430882 0.430882 0.430882
0.505882 0.505882 0.505882
0.586274 0.586274 0.586274
0.669608 0.669608 0.669608
0.369608 0.369608 0.369608
0.379902 0.379902 0.379902
0.400000 0.400000 0.400000
0.430882 0.430882 0.430882
0.473529 0.473529 0.473529
0.525490 0.525490 0.525490
0.582353 0.582353 0.582353
0.642157 0.642157 0.642157
0.712255 0.712255 0.712255
0.520098 0.520098 0.520098
0.525490 0.525490 0.525490
0.539706 0.539706 0.539706
0.559314 0.559314 0.559314
0.588236 0.588236 0.588236
0.623530 0.623530 0.623530
0.662745 0.662745 0.662745
0.708333 0.708333 0.708333
0.762745 0.762745 0.762745
0.650000 0.650000 0.650000
0.651961 0.651961 0.651961
0.658824 0.658824 0.658824
0.673529 0.673529 0.673529
0.690196 0.690196 0.690196
0.712745 0.712745 0.712745
0.739706 0.739706 0.739706
0.774020 0.774020 0.774020
0.815686 0.815686 0.815686
0.753922 0.753922 0.753922
0.754902 0.754902 0.754902
0.760294 0.760294 0.760294
0.768137 0.768137 0.768137
0.779902 0.779902 0.779902
0.794608 0.794608 0.794608
0.812745 0.812745 0.812745
0.836275 0.836275 0.836275
0.867647 0.867647 0.867647
0.846078 0.846078 0.846078
0.847549 0.847549 0.847549
0.850000 0.850000 0.850000
0.855392 0.855392 0.855392
0.861765 0.861765 0.861765
0.871078 0.871078 0.871078
0.882843 0.882843 0.882843
0.898529 0.898529 0.898529
0.922059 0.922059 0.922059
0.937255 0.937255 0.937255
0.937255 0.937255 0.937255
0.941176 0.941176 0.941176
0.941176 0.941176 0.941176
0.945098 0.945098 0.945098
0.949020 0.949020 0.949020
0.956863 0.956863 0.956863
0.963235 0.963235 0.963235
0.972549 0.972549 0.972549
0.033334 0.033334 0.033334
0.062255 0.062255 0.062255
0.092157 0.092157 0.092157
0.135294 0.135294 0.135294
0.200000 0.200000 0.200000
0.281863 0.281863 0.281863
0.379412 0.379412 0.379412
0.492647 0.492647 0.492647
0.609804 0.609804 0.609804
0.163726 0.163726 0.163726
0.189216 0.189216 0.189216
0.222549 0.222549 0.222549
0.265687 0.265687 0.265687
0.319118 0.319118 0.319118
0.391176 0.391176 0.391176
0.475000 0.475000 0.475000
0.563235 0.563235 0.563235
0.656863 0.656863 0.656863
0.284314 0.284314 0.284314
0.298039 0.298039 0.298039
0.323529 0.323529 0.323529
0.360294 0.360294 0.360294
0.410784 0.410784 0.410784
0.473039 0.473039 0.473039
0.540196 0.540196 0.540196
0.611275 0.611275 0.611275
0.690196 0.690196 0.690196
0.416667 0.416667 0.416667
0.426471 0.426471 0.426471
0.446078 0.446078 0.446078
0.473529 0.473529 0.473529
0.512745 0.512745 0.512745
0.559314 0.559314 0.559314
0.611274 0.611274 0.611274
0.665686 0.665686 0.665686
0.731372 0.731372 0.731372
0.556863 0.556863 0.556863
0.560785 0.560785 0.560785
0.572549 0.572549 0.572549
0.592156 0.592156 0.592156
0.617647 0.617647 0.617647
0.650490 0.650490 0.650490
0.685294 0.685294 0.685294
0.727941 0.727941 0.727941
0.778431 0.778431 0.778431
0.673529 0.673529 0.673529
0.675980 0.675980 0.675980
0.681863 0.681863 0.681863
0.693627 0.693627 0.693627
0.711275 0.711275 0.711275
0.732353 0.732353 0.732353
0.758333 0.758333 0.758333
0.789706 0.789706 0.789706
0.828922 0.828922 0.828922
0.769607 0.769607 0.769607
0.771568 0.771568 0.771568
0.775490 0.775490 0.775490
0.783333 0.783333 0.783333
0.794118 0.794118 0.794118
0.808823 0.808823 0.808823
0.824510 0.824510 0.824510
0.848039 0.848039 0.848039
0.879412 0.879412 0.879412
0.855882 0.855882 0.855882
0.857353 0.857353 0.857353
0.859314 0.859314 0.859314
0.863725 0.863725 0.863725
0.871078 0.871078 0.871078
0.880392 0.880392 0.880392
0.891176 0.891176 0.891176
0.906372 0.906372 0.906372
0.929902 0.929902 0.929902
0.945098 0.945098 0.945098
0.945098 0.945098 0.945098
0.945098 0.945098 0.945098
0.949020 0.949020 0.949020
0.952941 0.952941 0.952941
0.956863 0.956863 0.956863
0.960784 0.960784 0.960784
0.968627 0.968627 0.968627
0.976471 0.976471 0.976471
0.066667 0.066667 0.066667
0.107353 0.107353 0.107353
0.148039 0.148039 0.148039
0.197549 0.197549 0.197549
0.258333 0.258333 0.258333
0.336274 0.336274 0.336274
0.429902 0.429902 0.429902
0.531373 0.531373 0.531373
0.639216 0.639216 0.639216
0.227941 0.227941 0.227941
0.251470 0.251470 0.251470
0.282353 0.282353 0.282353
0.325980 0.325980 0.325980
0.375490 0.375490 0.375490
0.445588 0.445588 0.445588
0.519608 0.519608 0.519608
0.598039 0.598039 0.598039
0.681863 0.681863 0.681863
0.344608 0.344608 0.344608
0.356373 0.356373 0.356373
0.383824 0.383824 0.383824
0.419118 0.419118 0.419118
0.464706 0.464706 0.464706
0.519608 0.519608 0.519608
0.578922 0.578922 0.578922
0.642647 0.642647 0.642647
0.712746 0.712746 0.712746
0.471569 0.471569 0.471569
0.480392 0.480392 0.480392
0.496569 0.496569 0.496569
0.522549 0.522549 0.522549
0.556863 0.556863 0.556863
0.596078 0.596078 0.596078
0.642647 0.642647 0.642647
0.693137 0.693137 0.693137
0.751471 0.751471 0.751471
0.595588 0.595588 0.595588
0.601471 0.601471 0.601471
0.609314 0.609314 0.609314
0.626961 0.626961 0.626961
0.650490 0.650490 0.650490
0.677941 0.677941 0.677941
0.709314 0.709314 0.709314
0.747549 0.747549 0.747549
0.794118 0.794118 0.794118
0.699510 0.699510 0.699510
0.700980 0.700980 0.700980
0.708824 0.708824 0.708824
0.719118 0.719118 0.719118
0.734804 0.734804 0.734804
0.751961 0.751961 0.751961
0.775490 0.775490 0.775490
0.805392 0.805392 0.805392
0.840686 0.840686 0.840686
0.789216 0.789216 0.789216
0.789216 0.789216 0.789216
0.793137 0.793137 0.793137
0.800980 0.800980 0.800980
0.810294 0.810294 0.810294
0.824509 0.824509 0.824509
0.840196 0.840196 0.840196
0.859804 0.859804 0.859804
0.890196 0.890196 0.890196
0.868628 0.868628 0.868628
0.871078 0.871078 0.871078
0.871568 0.871568 0.871568
0.876471 0.876471 0.876471
0.882843 0.882843 0.882843
0.890686 0.890686 0.890686
0.902451 0.902451 0.902451
0.915686 0.915686 0.915686
0.937745 0.937745 0.937745
0.952941 0.952941 0.952941
0.952941 0.952941 0.952941
0.952941 0.952941 0.952941
0.956863 0.956863 0.956863
0.956863 0.956863 0.956863
0.960784 0.960784 0.960784
0.964706 0.964706 0.964706
0.972549 0.972549 0.972549
0.980392 0.980392 0.980392
0.134314 0.134314 0.134314
0.184804 0.184804 0.184804
0.224510 0.224510 0.224510
0.270098 0.270098 0.270098
0.328431 0.328431 0.328431
0.402451 0.402451 0.402451
0.488236 0.488236 0.488236
0.577941 0.577941 0.577941
0.667647 0.667647 0.667647
0.301961 0.301961 0.301961
0.325490 0.325490 0.325490
0.352451 0.352451 0.352451
0.392647 0.392647 0.392647
0.441666 0.441666 0.441666
0.503921 0.503921 0.503921
0.566177 0.566177 0.566177
0.635294 0.635294 0.635294
0.709314 0.709314 0.709314
0.414706 0.414706 0.414706
0.426471 0.426471 0.426471
0.450000 0.450000 0.450000
0.480883 0.480883 0.480883
0.521569 0.521569 0.521569
0.567157 0.567157 0.567157
0.619608 0.619608 0.619608
0.674020 0.674020 0.674020
0.738235 0.738235 0.738235
0.528921 0.528921 0.528921
0.535294 0.535294 0.535294
0.550980 0.550980 0.550980
0.572059 0.572059 0.572059
0.601471 0.601471 0.601471
0.635295 0.635295 0.635295
0.674019 0.674019 0.674019
0.720588 0.720588 0.720588
0.773529 0.773529 0.773529
0.635294 0.635294 0.635294
0.639215 0.639215 0.639215
0.650000 0.650000 0.650000
0.663236 0.663236 0.663236
0.682353 0.682353 0.682353
0.708823 0.708823 0.708823
0.736274 0.736274 0.736274
0.771078 0.771078 0.771078
0.813725 0.813725 0.813725
0.727941 0.727941 0.727941
0.730882 0.730882 0.730882
0.735784 0.735784 0.735784
0.746569 0.746569 0.746569
0.759314 0.759314 0.759314
0.777941 0.777941 0.777941
0.797549 0.797549 0.797549
0.824509 0.824509 0.824509
0.856373 0.856373 0.856373
0.808823 0.808823 0.808823
0.809804 0.809804 0.809804
0.813726 0.813726 0.813726
0.820588 0.820588 0.820588
0.828432 0.828432 0.828432
0.840196 0.840196 0.840196
0.855883 0.855883 0.855883
0.875490 0.875490 0.875490
0.902941 0.902941 0.902941
0.882843 0.882843 0.882843
0.883824 0.883824 0.883824
0.886765 0.886765 0.886765
0.890686 0.890686 0.890686
0.895589 0.895589 0.895589
0.903432 0.903432 0.903432
0.914215 0.914215 0.914215
0.925980 0.925980 0.925980
0.945588 0.945588 0.945588
0.960784 0.960784 0.960784
0.960784 0.960784 0.960784
0.960784 0.960784 0.960784
0.963235 0.963235 0.963235
0.964706 0.964706 0.964706
0.968627 0.968627 0.968627
0.972549 0.972549 0.972549
0.976471 0.976471 0.976471
0.984314 0.984314 0.984314
0.227941 0.227941 0.227941
0.275490 0.275490 0.275490
0.310784 0.310784 0.310784
0.355882 0.355882 0.355882
0.410294 0.410294 0.410294
0.476471 0.476471 0.476471
0.546569 0.546569 0.546569
0.620588 0.620588 0.620588
0.701961 0.701961 0.701961
0.387745 0.387745 0.387745
0.407353 0.407353 0.407353
0.435294 0.435294 0.435294
0.470588 0.470588 0.470588
0.513726 0.513726 0.513726
0.562255 0.562255 0.562255
0.616177 0.616177 0.616177
0.671568 0.671568 0.671568
0.737745 0.737745 0.737745
0.492647 0.492647 0.492647
0.501471 0.501471 0.501471
0.521079 0.521079 0.521079
0.547059 0.547059 0.547059
0.578922 0.578922 0.578922
0.617647 0.617647 0.617647
0.660295 0.660295 0.660295
0.709314 0.709314 0.709314
0.765196 0.765196 0.765196
0.589706 0.589706 0.589706
0.595098 0.595098 0.595098
0.606863 0.606863 0.606863
0.625000 0.625000 0.625000
0.650000 0.650000 0.650000
0.678432 0.678432 0.678432
0.712745 0.712745 0.712745
0.751961 0.751961 0.751961
0.798529 0.798529 0.798529
0.680882 0.680882 0.680882
0.684804 0.684804 0.684804
0.692157 0.692157 0.692157
0.704412 0.704412 0.704412
0.720098 0.720098 0.720098
0.743137 0.743137 0.743137
0.766177 0.766177 0.766177
0.798529 0.798529 0.798529
0.835784 0.835784 0.835784
0.762255 0.762255 0.762255
0.762745 0.762745 0.762745
0.766667 0.766667 0.766667
0.777941 0.777941 0.777941
0.789706 0.789706 0.789706
0.802941 0.802941 0.802941
0.821079 0.821079 0.821079
0.845098 0.845098 0.845098
0.875980 0.875980 0.875980
0.832844 0.832844 0.832844
0.832843 0.832843 0.832843
0.836765 0.836765 0.836765
0.844117 0.844117 0.844117
0.851961 0.851961 0.851961
0.863235 0.863235 0.863235
0.875490 0.875490 0.875490
0.891667 0.891667 0.891667
0.917647 0.917647 0.917647
0.902451 0.902451 0.902451
0.902451 0.902451 0.902451
0.902941 0.902941 0.902941
0.906372 0.906372 0.906372
0.914215 0.914215 0.914215
0.918137 0.918137 0.918137
0.929902 0.929902 0.929902
0.937745 0.937745 0.937745
0.956863 0.956863 0.956863
0.968627 0.968627 0.968627
0.968627 0.968627 0.968627
0.968627 0.968627 0.968627
0.972549 0.972549 0.972549
0.972549 0.972549 0.972549
0.976471 0.976471 0.976471
0.980392 0.980392 0.980392
0.984314 0.984314 0.984314
0.992157 0.992157 0.992157
0.337255 0.337255 0.337255
0.380392 0.380392 0.380392
0.411765 0.411765 0.411765
0.453431 0.453431 0.453431
0.500000 0.500000 0.500000
0.552941 0.552941 0.552941
0.608824 0.608824 0.608824
0.670588 0.670588 0.670588
0.737255 0.737255 0.737255
0.485295 0.485295 0.485295
0.501471 0.501471 0.501471
0.524019 0.524019 0.524019
0.552451 0.552451 0.552451
0.585784 0.585784 0.585784
0.626961 0.626961 0.626961
0.670098 0.670098 0.670098
0.714216 0.714216 0.714216
0.772059 0.772059 0.772059
0.571568 0.571568 0.571568
0.579412 0.579412 0.579412
0.595098 0.595098 0.595098
0.614216 0.614216 0.614216
0.642157 0.642157 0.642157
0.672059 0.672059 0.672059
0.706862 0.706862 0.706862
0.748529 0.748529 0.748529
0.796078 0.796078 0.796078
0.653431 0.653431 0.653431
0.657353 0.657353 0.657353
0.665196 0.665196 0.665196
0.680882 0.680882 0.680882
0.700000 0.700000 0.700000
0.725491 0.725491 0.725491
0.755392 0.755392 0.755392
0.784804 0.784804 0.784804
0.825980 0.825980 0.825980
0.729411 0.729411 0.729411
0.731372 0.731372 0.731372
0.739216 0.739216 0.739216
0.749510 0.749510 0.749510
0.762745 0.762745 0.762745
0.782353 0.782353 0.782353
0.800981 0.800981 0.800981
0.829412 0.829412 0.829412
0.860785 0.860785 0.860785
0.797549 0.797549 0.797549
0.801471 0.801471 0.801471
0.805392 0.805392 0.805392
0.813235 0.813235 0.813235
0.821078 0.821078 0.821078
0.836765 0.836765 0.836765
0.852451 0.852451 0.852451
0.872059 0.872059 0.872059
0.898039 0.898039 0.898039
0.863726 0.863726 0.863726
0.863726 0.863726 0.863726
0.867647 0.867647 0.867647
0.871568 0.871568 0.871568
0.879412 0.879412 0.879412
0.887255 0.887255 0.887255
0.899020 0.899020 0.899020
0.914705 0.914705 0.914705
0.934313 0.934313 0.934313
0.922059 0.922059 0.922059
0.925490 0.925490 0.925490
0.925980 0.925980 0.925980
0.929902 0.929902 0.929902
0.933823 0.933823 0.933823
0.937745 0.937745 0.937745
0.945588 0.945588 0.945588
0.956863 0.956863 0.956863
0.968627 0.968627 0.968627
0.980392 0.980392 0.980392
0.980392 0.980392 0.980392
0.980392 0.980392 0.980392
0.980392 0.980392 0.980392
0.984314 0.984314 0.984314
0.984314 0.984314 0.984314
0.988235 0.988235 0.988235
0.996078 0.996078 0.996078
1.000000 1.000000 1.000000
