Black-and-White/Agfa/Agfa APX 25 65x.cube
TITLE "Agfa APX 25"
LUT_3D_SIZE 65
DOMAIN_MIN 0.000000 0.000000 0.000000
DOMAIN_MAX 1.000000 1.000000 1.000000
0.000000 0.000000 0.000000
0.000000 0.000000 0.000000
0.000000 0.000000 0.000000
0.000000 0.000000 0.000000
0.000000 0.000000 0.000000
0.000000 0.000000 0.000000
0.000000 0.000000 0.000000
0.000000 0.000000 0.000000
0.000000 0.000000 0.000000
0.000429 0.000429 0.000429
0.003922 0.003922 0.003922
0.003922 0.003922 0.003922
0.003922 0.003922 0.003922
0.003922 0.003922 0.003922
0.003922 0.003922 0.003922
0.007843 0.007843 0.007843
0.007843 0.007843 0.007843
0.007843 0.007843 0.007843
0.008701 0.008701 0.008701
0.011765 0.011765 0.011765
0.011765 0.011765 0.011765
0.015380 0.015380 0.015380
0.016299 0.016299 0.016299
0.019608 0.019608 0.019608
0.019608 0.019608 0.019608
0.023529 0.023529 0.023529
0.023897 0.023897 0.023897
0.028738 0.028738 0.028738
0.031373 0.031373 0.031373
0.035294 0.035294 0.035294
0.039339 0.039339 0.039339
0.044179 0.044179 0.044179
0.050980 0.050980 0.050980
0.057782 0.057782 0.057782
0.062622 0.062622 0.062622
0.067463 0.067463 0.067463
0.076225 0.076225 0.076225
0.084988 0.084988 0.084988
0.093750 0.093750 0.093750
0.103064 0.103064 0.103064
0.115196 0.115196 0.115196
0.126348 0.126348 0.126348
0.136642 0.136642 0.136642
0.153247 0.153247 0.153247
0.165931 0.165931 0.165931
0.180760 0.180760 0.180760
0.194362 0.194362 0.194362
0.207966 0.207966 0.207966
0.225490 0.225490 0.225490
0.241115 0.241115 0.241115
0.253799 0.253799 0.253799
0.270220 0.270220 0.270220
0.287746 0.287746 0.287746
0.301348 0.301348 0.301348
0.321446 0.321446 0.321446
0.340318 0.340318 0.340318
0.357353 0.357353 0.357353
0.372855 0.372855 0.372855
0.392892 0.392892 0.392892
0.413664 0.413664 0.413664
0.431863 0.431863 0.431863
0.450552 0.450552 0.450552
0.470834 0.470834 0.470834
0.492280 0.492280 0.492280
0.509804 0.509804 0.509804
0.000000 0.000000 0.000000
0.000919 0.000919 0.000919
0.003922 0.003922 0.003922
0.003922 0.003922 0.003922
0.003922 0.003922 0.003922
0.004841 0.004841 0.004841
0.004841 0.004841 0.004841
0.007843 0.007843 0.007843
0.007843 0.007843 0.007843
0.008762 0.008762 0.008762
0.008762 0.008762 0.008762
0.011765 0.011765 0.011765
0.012684 0.012684 0.012684
0.012684 0.012684 0.012684
0.016789 0.016789 0.016789
0.016605 0.016605 0.016605
0.016605 0.016605 0.016605
0.020527 0.020527 0.020527
0.021385 0.021385 0.021385
0.024448 0.024448 0.024448
0.027145 0.027145 0.027145
0.028370 0.028370 0.028370
0.033211 0.033211 0.033211
0.036213 0.036213 0.036213
0.037132 0.037132 0.037132
0.041054 0.041054 0.041054
0.044424 0.044424 0.044424
0.048897 0.048897 0.048897
0.052818 0.052818 0.052818
0.056740 0.056740 0.056740
0.064583 0.064583 0.064583
0.069547 0.069547 0.069547
0.076348 0.076348 0.076348
0.083149 0.083149 0.083149
0.091912 0.091912 0.091912
0.100674 0.100674 0.100674
0.109436 0.109436 0.109436
0.118198 0.118198 0.118198
0.127880 0.127880 0.127880
0.140564 0.140564 0.140564
0.153799 0.153799 0.153799
0.162010 0.162010 0.162010
0.174694 0.174694 0.174694
0.191299 0.191299 0.191299
0.204289 0.204289 0.204289
0.216667 0.216667 0.216667
0.229350 0.229350 0.229350
0.245956 0.245956 0.245956
0.258701 0.258701 0.258701
0.276226 0.276226 0.276226
0.289828 0.289828 0.289828
0.303432 0.303432 0.303432
0.317954 0.317954 0.317954
0.334559 0.334559 0.334559
0.352083 0.352083 0.352083
0.369608 0.369608 0.369608
0.387133 0.387133 0.387133
0.400735 0.400735 0.400735
0.422182 0.422182 0.422182
0.439706 0.439706 0.439706
0.457230 0.457230 0.457230
0.474755 0.474755 0.474755
0.495282 0.495282 0.495282
0.513725 0.513725 0.513725
0.531250 0.531250 0.531250
0.003922 0.003922 0.003922
0.005760 0.005760 0.005760
0.005760 0.005760 0.005760
0.007843 0.007843 0.007843
0.007843 0.007843 0.007843
0.009681 0.009681 0.009681
0.009681 0.009681 0.009681
0.011765 0.011765 0.011765
0.011765 0.011765 0.011765
0.013603 0.013603 0.013603
0.015686 0.015686 0.015686
0.017953 0.017953 0.017953
0.017524 0.017524 0.017524
0.021446 0.021446 0.021446
0.021446 0.021446 0.021446
0.025551 0.025551 0.025551
0.025367 0.025367 0.025367
0.025367 0.025367 0.025367
0.028309 0.028309 0.028309
0.033211 0.033211 0.033211
0.035907 0.035907 0.035907
0.037132 0.037132 0.037132
0.041667 0.041667 0.041667
0.044975 0.044975 0.044975
0.048897 0.048897 0.048897
0.052818 0.052818 0.052818
0.057108 0.057108 0.057108
0.062500 0.062500 0.062500
0.066789 0.066789 0.066789
0.071630 0.071630 0.071630
0.076471 0.076471 0.076471
0.083149 0.083149 0.083149
0.090074 0.090074 0.090074
0.098836 0.098836 0.098836
0.107598 0.107598 0.107598
0.116360 0.116360 0.116360
0.126961 0.126961 0.126961
0.135723 0.135723 0.135723
0.150122 0.150122 0.150122
0.161091 0.161091 0.161091
0.169486 0.169486 0.169486
0.182537 0.182537 0.182537
0.195221 0.195221 0.195221
0.206373 0.206373 0.206373
0.219975 0.219975 0.219975
0.233272 0.233272 0.233272
0.245956 0.245956 0.245956
0.260785 0.260785 0.260785
0.274387 0.274387 0.274387
0.291912 0.291912 0.291912
0.305515 0.305515 0.305515
0.317219 0.317219 0.317219
0.334559 0.334559 0.334559
0.350245 0.350245 0.350245
0.367769 0.367769 0.367769
0.383211 0.383211 0.383211
0.398896 0.398896 0.398896
0.416422 0.416422 0.416422
0.433946 0.433946 0.433946
0.451470 0.451470 0.451470
0.468995 0.468995 0.468995
0.486520 0.486520 0.486520
0.507966 0.507966 0.507966
0.525490 0.525490 0.525490
0.543014 0.543014 0.543014
0.006679 0.006679 0.006679
0.007843 0.007843 0.007843
0.010601 0.010601 0.010601
0.010601 0.010601 0.010601
0.011765 0.011765 0.011765
0.011765 0.011765 0.011765
0.014522 0.014522 0.014522
0.014277 0.014277 0.014277
0.019118 0.019118 0.019118
0.016115 0.016115 0.016115
0.019608 0.019608 0.019608
0.022365 0.022365 0.022365
0.022365 0.022365 0.022365
0.026287 0.026287 0.026287
0.024632 0.024632 0.024632
0.030209 0.030209 0.030209
0.030209 0.030209 0.030209
0.034130 0.034130 0.034130
0.038052 0.038052 0.038052
0.039828 0.039828 0.039828
0.041973 0.041973 0.041973
0.045895 0.045895 0.045895
0.049816 0.049816 0.049816
0.053738 0.053738 0.053738
0.057660 0.057660 0.057660
0.061581 0.061581 0.061581
0.065870 0.065870 0.065870
0.070711 0.070711 0.070711
0.075551 0.075551 0.075551
0.081189 0.081189 0.081189
0.089032 0.089032 0.089032
0.093995 0.093995 0.093995
0.102757 0.102757 0.102757
0.111519 0.111519 0.111519
0.119118 0.119118 0.119118
0.129044 0.129044 0.129044
0.140563 0.140563 0.140563
0.149203 0.149203 0.149203
0.162806 0.162806 0.162806
0.174693 0.174693 0.174693
0.182169 0.182169 0.182169
0.195772 0.195772 0.195772
0.209375 0.209375 0.209375
0.219056 0.219056 0.219056
0.232660 0.232660 0.232660
0.246262 0.246262 0.246262
0.259559 0.259559 0.259559
0.276164 0.276164 0.276164
0.287071 0.287071 0.287071
0.300674 0.300674 0.300674
0.315380 0.315380 0.315380
0.331801 0.331801 0.331801
0.345404 0.345404 0.345404
0.361275 0.361275 0.361275
0.376532 0.376532 0.376532
0.394056 0.394056 0.394056
0.411090 0.411090 0.411090
0.425184 0.425184 0.425184
0.442708 0.442708 0.442708
0.460233 0.460233 0.460233
0.477758 0.477758 0.477758
0.495282 0.495282 0.495282
0.512806 0.512806 0.512806
0.530331 0.530331 0.530331
0.547856 0.547856 0.547856
0.011520 0.011520 0.011520
0.011765 0.011765 0.011765
0.011765 0.011765 0.011765
0.015441 0.015441 0.015441
0.015441 0.015441 0.015441
0.019363 0.019363 0.019363
0.019363 0.019363 0.019363
0.018199 0.018199 0.018199
0.023284 0.023284 0.023284
0.020037 0.020037 0.020037
0.027206 0.027206 0.027206
0.027206 0.027206 0.027206
0.027451 0.027451 0.027451
0.027635 0.027635 0.027635
0.035049 0.035049 0.035049
0.033395 0.033395 0.033395
0.038971 0.038971 0.038971
0.043076 0.043076 0.043076
0.043751 0.043751 0.043751
0.046814 0.046814 0.046814
0.050735 0.050735 0.050735
0.054657 0.054657 0.054657
0.058579 0.058579 0.058579
0.062500 0.062500 0.062500
0.066422 0.066422 0.066422
0.070343 0.070343 0.070343
0.074632 0.074632 0.074632
0.079473 0.079473 0.079473
0.084314 0.084314 0.084314
0.093628 0.093628 0.093628
0.097917 0.097917 0.097917
0.109314 0.109314 0.109314
0.115196 0.115196 0.115196
0.123958 0.123958 0.123958
0.132720 0.132720 0.132720
0.138603 0.138603 0.138603
0.150490 0.150490 0.150490
0.162929 0.162929 0.162929
0.171936 0.171936 0.171936
0.184619 0.184619 0.184619
0.194853 0.194853 0.194853
0.209743 0.209743 0.209743
0.222426 0.222426 0.222426
0.231741 0.231741 0.231741
0.245343 0.245343 0.245343
0.260478 0.260478 0.260478
0.273162 0.273162 0.273162
0.282229 0.282229 0.282229
0.298775 0.298775 0.298775
0.315135 0.315135 0.315135
0.326961 0.326961 0.326961
0.340563 0.340563 0.340563
0.354166 0.354166 0.354166
0.371692 0.371692 0.371692
0.385294 0.385294 0.385294
0.402819 0.402819 0.402819
0.420343 0.420343 0.420343
0.433946 0.433946 0.433946
0.451471 0.451471 0.451471
0.468995 0.468995 0.468995
0.486520 0.486520 0.486520
0.504044 0.504044 0.504044
0.521569 0.521569 0.521569
0.539093 0.539093 0.539093
0.556618 0.556618 0.556618
0.016360 0.016360 0.016360
0.016360 0.016360 0.016360
0.019608 0.019608 0.019608
0.022365 0.022365 0.022365
0.020282 0.020282 0.020282
0.023529 0.023529 0.023529
0.024203 0.024203 0.024203
0.024203 0.024203 0.024203
0.030883 0.030883 0.030883
0.027880 0.027880 0.027880
0.032047 0.032047 0.032047
0.032047 0.032047 0.032047
0.035968 0.035968 0.035968
0.039890 0.039890 0.039890
0.039890 0.039890 0.039890
0.043811 0.043811 0.043811
0.046752 0.046752 0.046752
0.047733 0.047733 0.047733
0.051654 0.051654 0.051654
0.055576 0.055576 0.055576
0.059498 0.059498 0.059498
0.063114 0.063114 0.063114
0.067341 0.067341 0.067341
0.071262 0.071262 0.071262
0.075184 0.075184 0.075184
0.079105 0.079105 0.079105
0.083395 0.083395 0.083395
0.092157 0.092157 0.092157
0.096998 0.096998 0.096998
0.102512 0.102512 0.102512
0.110601 0.110601 0.110601
0.119363 0.119363 0.119363
0.124878 0.124878 0.124878
0.133640 0.133640 0.133640
0.145650 0.145650 0.145650
0.155208 0.155208 0.155208
0.163848 0.163848 0.163848
0.175858 0.175858 0.175858
0.185294 0.185294 0.185294
0.197978 0.197978 0.197978
0.209987 0.209987 0.209987
0.219424 0.219424 0.219424
0.234743 0.234743 0.234743
0.244424 0.244424 0.244424
0.258027 0.258027 0.258027
0.271630 0.271630 0.271630
0.285232 0.285232 0.285232
0.294914 0.294914 0.294914
0.308210 0.308210 0.308210
0.320895 0.320895 0.320895
0.336825 0.336825 0.336825
0.353247 0.353247 0.353247
0.366851 0.366851 0.366851
0.380454 0.380454 0.380454
0.397979 0.397979 0.397979
0.411581 0.411581 0.411581
0.429105 0.429105 0.429105
0.445220 0.445220 0.445220
0.460233 0.460233 0.460233
0.477757 0.477757 0.477757
0.495282 0.495282 0.495282
0.511642 0.511642 0.511642
0.526410 0.526410 0.526410
0.543934 0.543934 0.543934
0.561458 0.561458 0.561458
0.021201 0.021201 0.021201
0.023529 0.023529 0.023529
0.025122 0.025122 0.025122
0.025122 0.025122 0.025122
0.025122 0.025122 0.025122
0.029044 0.029044 0.029044
0.029044 0.029044 0.029044
0.032966 0.032966 0.032966
0.032966 0.032966 0.032966
0.036887 0.036887 0.036887
0.038235 0.038235 0.038235
0.040809 0.040809 0.040809
0.043996 0.043996 0.043996
0.044914 0.044914 0.044914
0.048652 0.048652 0.048652
0.052573 0.052573 0.052573
0.055515 0.055515 0.055515
0.056495 0.056495 0.056495
0.060417 0.060417 0.060417
0.064338 0.064338 0.064338
0.068260 0.068260 0.068260
0.072181 0.072181 0.072181
0.077696 0.077696 0.077696
0.081618 0.081618 0.081618
0.086397 0.086397 0.086397
0.091238 0.091238 0.091238
0.096079 0.096079 0.096079
0.100919 0.100919 0.100919
0.109681 0.109681 0.109681
0.112990 0.112990 0.112990
0.123285 0.123285 0.123285
0.129718 0.129718 0.129718
0.138480 0.138480 0.138480
0.147242 0.147242 0.147242
0.158333 0.158333 0.158333
0.168689 0.168689 0.168689
0.177451 0.177451 0.177451
0.188542 0.188542 0.188542
0.198898 0.198898 0.198898
0.211581 0.211581 0.211581
0.222672 0.222672 0.222672
0.233027 0.233027 0.233027
0.247426 0.247426 0.247426
0.258395 0.258395 0.258395
0.269486 0.269486 0.269486
0.282169 0.282169 0.282169
0.292525 0.292525 0.292525
0.309129 0.309129 0.309129
0.321814 0.321814 0.321814
0.334804 0.334804 0.334804
0.348406 0.348406 0.348406
0.362010 0.362010 0.362010
0.375613 0.375613 0.375613
0.391482 0.391482 0.391482
0.406740 0.406740 0.406740
0.420771 0.420771 0.420771
0.437868 0.437868 0.437868
0.453983 0.453983 0.453983
0.468995 0.468995 0.468995
0.486519 0.486519 0.486519
0.502451 0.502451 0.502451
0.517647 0.517647 0.517647
0.535172 0.535172 0.535172
0.549693 0.549693 0.549693
0.566299 0.566299 0.566299
0.027451 0.027451 0.027451
0.029964 0.029964 0.029964
0.029289 0.029289 0.029289
0.033885 0.033885 0.033885
0.033885 0.033885 0.033885
0.037807 0.037807 0.037807
0.037807 0.037807 0.037807
0.040318 0.040318 0.040318
0.041728 0.041728 0.041728
0.045650 0.045650 0.045650
0.045650 0.045650 0.045650
0.049571 0.049571 0.049571
0.052758 0.052758 0.052758
0.053676 0.053676 0.053676
0.057415 0.057415 0.057415
0.061336 0.061336 0.061336
0.064277 0.064277 0.064277
0.065258 0.065258 0.065258
0.071691 0.071691 0.071691
0.073101 0.073101 0.073101
0.077022 0.077022 0.077022
0.080944 0.080944 0.080944
0.085478 0.085478 0.085478
0.090319 0.090319 0.090319
0.095159 0.095159 0.095159
0.103921 0.103921 0.103921
0.110906 0.110906 0.110906
0.113603 0.113603 0.113603
0.120956 0.120956 0.120956
0.126593 0.126593 0.126593
0.135967 0.135967 0.135967
0.143322 0.143322 0.143322
0.152083 0.152083 0.152083
0.160846 0.160846 0.160846
0.171017 0.171017 0.171017
0.182292 0.182292 0.182292
0.191054 0.191054 0.191054
0.201226 0.201226 0.201226
0.212500 0.212500 0.212500
0.225184 0.225184 0.225184
0.232905 0.232905 0.232905
0.246630 0.246630 0.246630
0.256802 0.256802 0.256802
0.269486 0.269486 0.269486
0.279473 0.279473 0.279473
0.293076 0.293076 0.293076
0.306679 0.306679 0.306679
0.316360 0.316360 0.316360
0.329963 0.329963 0.329963
0.343566 0.343566 0.343566
0.358272 0.358272 0.358272
0.374694 0.374694 0.374694
0.387562 0.387562 0.387562
0.401899 0.401899 0.401899
0.415502 0.415502 0.415502
0.433027 0.433027 0.433027
0.446630 0.446630 0.446630
0.465258 0.465258 0.465258
0.477757 0.477757 0.477757
0.495282 0.495282 0.495282
0.508884 0.508884 0.508884
0.526409 0.526409 0.526409
0.541851 0.541851 0.541851
0.557537 0.557537 0.557537
0.572549 0.572549 0.572549
0.034804 0.034804 0.034804
0.038726 0.038726 0.038726
0.038726 0.038726 0.038726
0.042647 0.042647 0.042647
0.042647 0.042647 0.042647
0.043322 0.043322 0.043322
0.046569 0.046569 0.046569
0.049080 0.049080 0.049080
0.050490 0.050490 0.050490
0.054412 0.054412 0.054412
0.054412 0.054412 0.054412
0.058334 0.058334 0.058334
0.061519 0.061519 0.061519
0.062440 0.062440 0.062440
0.066177 0.066177 0.066177
0.070098 0.070098 0.070098
0.073040 0.073040 0.073040
0.077879 0.077879 0.077879
0.078799 0.078799 0.078799
0.083640 0.083640 0.083640
0.088480 0.088480 0.088480
0.093138 0.093138 0.093138
0.100981 0.100981 0.100981
0.103002 0.103002 0.103002
0.107843 0.107843 0.107843
0.112683 0.112683 0.112683
0.124510 0.124510 0.124510
0.126287 0.126287 0.126287
0.134559 0.134559 0.134559
0.143321 0.143321 0.143321
0.148651 0.148651 0.148651
0.159804 0.159804 0.159804
0.165686 0.165686 0.165686
0.173897 0.173897 0.173897
0.183701 0.183701 0.183701
0.195894 0.195894 0.195894
0.202941 0.202941 0.202941
0.213909 0.213909 0.213909
0.226103 0.226103 0.226103
0.238787 0.238787 0.238787
0.245588 0.245588 0.245588
0.260233 0.260233 0.260233
0.269485 0.269485 0.269485
0.278554 0.278554 0.278554
0.294363 0.294363 0.294363
0.307046 0.307046 0.307046
0.319731 0.319731 0.319731
0.329044 0.329044 0.329044
0.345099 0.345099 0.345099
0.356250 0.356250 0.356250
0.369853 0.369853 0.369853
0.383456 0.383456 0.383456
0.397059 0.397059 0.397059
0.410662 0.410662 0.410662
0.425613 0.425613 0.425613
0.441789 0.441789 0.441789
0.455391 0.455391 0.455391
0.472916 0.472916 0.472916
0.486519 0.486519 0.486519
0.504044 0.504044 0.504044
0.517647 0.517647 0.517647
0.531740 0.531740 0.531740
0.548774 0.548774 0.548774
0.562868 0.562868 0.562868
0.579902 0.579902 0.579902
0.043566 0.043566 0.043566
0.047488 0.047488 0.047488
0.047488 0.047488 0.047488
0.047917 0.047917 0.047917
0.051409 0.051409 0.051409
0.052083 0.052083 0.052083
0.055331 0.055331 0.055331
0.057843 0.057843 0.057843
0.059253 0.059253 0.059253
0.063174 0.063174 0.063174
0.063174 0.063174 0.063174
0.067096 0.067096 0.067096
0.070282 0.070282 0.070282
0.071201 0.071201 0.071201
0.076042 0.076042 0.076042
0.078860 0.078860 0.078860
0.082782 0.082782 0.082782
0.086704 0.086704 0.086704
0.091483 0.091483 0.091483
0.096324 0.096324 0.096324
0.101164 0.101164 0.101164
0.106005 0.106005 0.106005
0.110846 0.110846 0.110846
0.115686 0.115686 0.115686
0.118505 0.118505 0.118505
0.129289 0.129289 0.129289
0.134130 0.134130 0.134130
0.139400 0.139400 0.139400
0.147733 0.147733 0.147733
0.156495 0.156495 0.156495
0.161764 0.161764 0.161764
0.169485 0.169485 0.169485
0.178861 0.178861 0.178861
0.187623 0.187623 0.187623
0.196814 0.196814 0.196814
0.205576 0.205576 0.205576
0.217830 0.217830 0.217830
0.227021 0.227021 0.227021
0.235784 0.235784 0.235784
0.248591 0.248591 0.248591
0.257231 0.257231 0.257231
0.271875 0.271875 0.271875
0.282169 0.282169 0.282169
0.291238 0.291238 0.291238
0.304841 0.304841 0.304841
0.316300 0.316300 0.316300
0.328982 0.328982 0.328982
0.342095 0.342095 0.342095
0.354350 0.354350 0.354350
0.367035 0.367035 0.367035
0.379719 0.379719 0.379719
0.392401 0.392401 0.392401
0.405515 0.405515 0.405515
0.421691 0.421691 0.421691
0.436949 0.436949 0.436949
0.450551 0.450551 0.450551
0.464154 0.464154 0.464154
0.480269 0.480269 0.480269
0.495282 0.495282 0.495282
0.512378 0.512378 0.512378
0.526164 0.526164 0.526164
0.540013 0.540013 0.540013
0.557108 0.557108 0.557108
0.568138 0.568138 0.568138
0.584743 0.584743 0.584743
0.056250 0.056250 0.056250
0.056250 0.056250 0.056250
0.057598 0.057598 0.057598
0.060172 0.060172 0.060172
0.060172 0.060172 0.060172
0.064093 0.064093 0.064093
0.064093 0.064093 0.064093
0.068015 0.068015 0.068015
0.068015 0.068015 0.068015
0.071936 0.071936 0.071936
0.073284 0.073284 0.073284
0.078125 0.078125 0.078125
0.079779 0.079779 0.079779
0.083701 0.083701 0.083701
0.087623 0.087623 0.087623
0.088971 0.088971 0.088971
0.092892 0.092892 0.092892
0.099327 0.099327 0.099327
0.103309 0.103309 0.103309
0.109007 0.109007 0.109007
0.113848 0.113848 0.113848
0.118689 0.118689 0.118689
0.124265 0.124265 0.124265
0.128370 0.128370 0.128370
0.132108 0.132108 0.132108
0.141973 0.141973 0.141973
0.146814 0.146814 0.146814
0.153003 0.153003 0.153003
0.159559 0.159559 0.159559
0.169179 0.169179 0.169179
0.175368 0.175368 0.175368
0.184130 0.184130 0.184130
0.191544 0.191544 0.191544
0.200306 0.200306 0.200306
0.210416 0.210416 0.210416
0.218627 0.218627 0.218627
0.230515 0.230515 0.230515
0.241912 0.241912 0.241912
0.249387 0.249387 0.249387
0.260724 0.260724 0.260724
0.270833 0.270833 0.270833
0.282169 0.282169 0.282169
0.292279 0.292279 0.292279
0.304964 0.304964 0.304964
0.316299 0.316299 0.316299
0.326409 0.326409 0.326409
0.340809 0.340809 0.340809
0.350490 0.350490 0.350490
0.364093 0.364093 0.364093
0.377696 0.377696 0.377696
0.391299 0.391299 0.391299
0.404902 0.404902 0.404902
0.417769 0.417769 0.417769
0.432108 0.432108 0.432108
0.445711 0.445711 0.445711
0.459313 0.459313 0.459313
0.472917 0.472917 0.472917
0.489032 0.489032 0.489032
0.504044 0.504044 0.504044
0.517647 0.517647 0.517647
0.531250 0.531250 0.531250
0.547610 0.547610 0.547610
0.560294 0.560294 0.560294
0.575980 0.575980 0.575980
0.592157 0.592157 0.592157
0.065012 0.065012 0.065012
0.065931 0.065931 0.065931
0.068934 0.068934 0.068934
0.071691 0.071691 0.071691
0.071201 0.071201 0.071201
0.075122 0.075122 0.075122
0.074448 0.074448 0.074448
0.079289 0.079289 0.079289
0.079044 0.079044 0.079044
0.081127 0.081127 0.081127
0.086887 0.086887 0.086887
0.088542 0.088542 0.088542
0.090809 0.090809 0.090809
0.092647 0.092647 0.092647
0.097488 0.097488 0.097488
0.102328 0.102328 0.102328
0.107169 0.107169 0.107169
0.112009 0.112009 0.112009
0.112929 0.112929 0.112929
0.120036 0.120036 0.120036
0.126532 0.126532 0.126532
0.131372 0.131372 0.131372
0.137867 0.137867 0.137867
0.141054 0.141054 0.141054
0.148161 0.148161 0.148161
0.154657 0.154657 0.154657
0.159498 0.159498 0.159498
0.169240 0.169240 0.169240
0.175367 0.175367 0.175367
0.181863 0.181863 0.181863
0.188971 0.188971 0.188971
0.197733 0.197733 0.197733
0.206495 0.206495 0.206495
0.215257 0.215257 0.215257
0.224020 0.224020 0.224020
0.231312 0.231312 0.231312
0.243199 0.243199 0.243199
0.254596 0.254596 0.254596
0.262991 0.262991 0.262991
0.273406 0.273406 0.273406
0.284436 0.284436 0.284436
0.293199 0.293199 0.293199
0.306924 0.306924 0.306924
0.316300 0.316300 0.316300
0.326287 0.326287 0.326287
0.340012 0.340012 0.340012
0.350429 0.350429 0.350429
0.365380 0.365380 0.365380
0.375796 0.375796 0.375796
0.386458 0.386458 0.386458
0.399510 0.399510 0.399510
0.412193 0.412193 0.412193
0.427267 0.427267 0.427267
0.440870 0.440870 0.440870
0.454473 0.454473 0.454473
0.468505 0.468505 0.468505
0.481678 0.481678 0.481678
0.497795 0.497795 0.497795
0.512806 0.512806 0.512806
0.526409 0.526409 0.526409
0.540013 0.540013 0.540013
0.553615 0.553615 0.553615
0.569056 0.569056 0.569056
0.581741 0.581741 0.581741
0.598345 0.598345 0.598345
0.077696 0.077696 0.077696
0.080882 0.080882 0.080882
0.079535 0.079535 0.079535
0.081618 0.081618 0.081618
0.084804 0.084804 0.084804
0.085540 0.085540 0.085540
0.088725 0.088725 0.088725
0.089461 0.089461 0.089461
0.092647 0.092647 0.092647
0.096568 0.096568 0.096568
0.097304 0.097304 0.097304
0.099571 0.099571 0.099571
0.104411 0.104411 0.104411
0.105331 0.105331 0.105331
0.110171 0.110171 0.110171
0.115012 0.115012 0.115012
0.119853 0.119853 0.119853
0.124019 0.124019 0.124019
0.131862 0.131862 0.131862
0.135784 0.135784 0.135784
0.139215 0.139215 0.139215
0.143627 0.143627 0.143627
0.148897 0.148897 0.148897
0.156924 0.156924 0.156924
0.163235 0.163235 0.163235
0.167156 0.167156 0.167156
0.175367 0.175367 0.175367
0.180944 0.180944 0.180944
0.188971 0.188971 0.188971
0.197733 0.197733 0.197733
0.203308 0.203308 0.203308
0.214215 0.214215 0.214215
0.220098 0.220098 0.220098
0.228861 0.228861 0.228861
0.237623 0.237623 0.237623
0.247119 0.247119 0.247119
0.255883 0.255883 0.255883
0.267831 0.267831 0.267831
0.276593 0.276593 0.276593
0.286090 0.286090 0.286090
0.298039 0.298039 0.298039
0.306801 0.306801 0.306801
0.316299 0.316299 0.316299
0.325368 0.325368 0.325368
0.340931 0.340931 0.340931
0.350429 0.350429 0.350429
0.362255 0.362255 0.362255
0.371935 0.371935 0.371935
0.385539 0.385539 0.385539
0.400429 0.400429 0.400429
0.413113 0.413113 0.413113
0.426348 0.426348 0.426348
0.436029 0.436029 0.436029
0.449632 0.449632 0.449632
0.464584 0.464584 0.464584
0.477267 0.477267 0.477267
0.490441 0.490441 0.490441
0.506557 0.506557 0.506557
0.519241 0.519241 0.519241
0.531924 0.531924 0.531924
0.548529 0.548529 0.548529
0.559191 0.559191 0.559191
0.575980 0.575980 0.575980
0.589583 0.589583 0.589583
0.603187 0.603187 0.603187
0.090564 0.090564 0.090564
0.090564 0.090564 0.090564
0.094302 0.094302 0.094302
0.094486 0.094486 0.094486
0.094486 0.094486 0.094486
0.098407 0.098407 0.098407
0.102145 0.102145 0.102145
0.102329 0.102329 0.102329
0.106066 0.106066 0.106066
0.106250 0.106250 0.106250
0.110172 0.110172 0.110172
0.116176 0.116176 0.116176
0.121017 0.121017 0.121017
0.121937 0.121937 0.121937
0.126777 0.126777 0.126777
0.131618 0.131618 0.131618
0.136458 0.136458 0.136458
0.141300 0.141300 0.141300
0.142401 0.142401 0.142401
0.150981 0.150981 0.150981
0.155821 0.155821 0.155821
0.157231 0.157231 0.157231
0.165503 0.165503 0.165503
0.168995 0.168995 0.168995
0.179106 0.179106 0.179106
0.183945 0.183945 0.183945
0.188603 0.188603 0.188603
0.197549 0.197549 0.197549
0.202574 0.202574 0.202574
0.211151 0.211151 0.211151
0.216176 0.216176 0.216176
0.224938 0.224938 0.224938
0.233518 0.233518 0.233518
0.242280 0.242280 0.242280
0.251042 0.251042 0.251042
0.259804 0.259804 0.259804
0.270282 0.270282 0.270282
0.277513 0.277513 0.277513
0.286275 0.286275 0.286275
