Black-and-White/Agfa/Agfa APX 25 65x.cube
TITLE "Agfa APX 25"
LUT_3D_SIZE 5
DOMAIN_MIN 0.000000 0.000000 0.000000
DOMAIN_MAX 1.000000 1.000000 1.000000
0.000000 0.000000 0.000000
0.007843 0.007843 0.007843
0.050980 0.050980 0.050980
0.225490 0.225490 0.225490
0.509804 0.509804 0.509804
0.135294 0.135294 0.135294
0.178431 0.178431 0.178431
0.274510 0.274510 0.274510
0.431372 0.431372 0.431372
0.626470 0.626470 0.626470
0.452941 0.452941 0.452941
0.474509 0.474509 0.474509
0.533334 0.533334 0.533334
0.618627 0.618627 0.618627
0.735294 0.735294 0.735294
0.726471 0.726471 0.726471
0.731373 0.731373 0.731373
0.753921 0.753921 0.753921
0.790196 0.790196 0.790196
0.851961 0.851961 0.851961
0.925490 0.925490 0.925490
0.929412 0.929412 0.929412
0.933333 0.933333 0.933333
0.945098 0.945098 0.945098
0.968627 0.968627 0.968627
0.003922 0.003922 0.003922
0.038235 0.038235 0.038235
0.114706 0.114706 0.114706
0.301961 0.301961 0.301961
0.564706 0.564706 0.564706
0.197059 0.197059 0.197059
0.240196 0.240196 0.240196
0.329412 0.329412 0.329412
0.477451 0.477451 0.477451
0.653922 0.653922 0.653922
0.490197 0.490197 0.490197
0.509804 0.509804 0.509804
0.564705 0.564705 0.564705
0.644118 0.644118 0.644118
0.750981 0.750981 0.750981
0.739216 0.739216 0.739216
0.747059 0.747059 0.747059
0.767647 0.767647 0.767647
0.801961 0.801961 0.801961
0.859804 0.859804 0.859804
0.933333 0.933333 0.933333
0.933333 0.933333 0.933333
0.941176 0.941176 0.941176
0.951961 0.951961 0.951961
0.971569 0.971569 0.971569
0.033334 0.033334 0.033334
0.092157 0.092157 0.092157
0.200000 0.200000 0.200000
0.379412 0.379412 0.379412
0.609804 0.609804 0.609804
0.284314 0.284314 0.284314
0.323529 0.323529 0.323529
0.410784 0.410784 0.410784
0.540196 0.540196 0.540196
0.690196 0.690196 0.690196
0.556863 0.556863 0.556863
0.572549 0.572549 0.572549
0.617647 0.617647 0.617647
0.685294 0.685294 0.685294
0.778431 0.778431 0.778431
0.769607 0.769607 0.769607
0.775490 0.775490 0.775490
0.794118 0.794118 0.794118
0.824510 0.824510 0.824510
0.879412 0.879412 0.879412
0.945098 0.945098 0.945098
0.945098 0.945098 0.945098
0.952941 0.952941 0.952941
0.960784 0.960784 0.960784
0.976471 0.976471 0.976471
0.134314 0.134314 0.134314
0.224510 0.224510 0.224510
0.328431 0.328431 0.328431
0.488236 0.488236 0.488236
0.667647 0.667647 0.667647
0.414706 0.414706 0.414706
0.450000 0.450000 0.450000
0.521569 0.521569 0.521569
0.619608 0.619608 0.619608
0.738235 0.738235 0.738235
0.635294 0.635294 0.635294
0.650000 0.650000 0.650000
0.682353 0.682353 0.682353
0.736274 0.736274 0.736274
0.813725 0.813725 0.813725
0.808823 0.808823 0.808823
0.813726 0.813726 0.813726
0.828432 0.828432 0.828432
0.855883 0.855883 0.855883
0.902941 0.902941 0.902941
0.960784 0.960784 0.960784
0.960784 0.960784 0.960784
0.964706 0.964706 0.964706
0.972549 0.972549 0.972549
0.984314 0.984314 0.984314
0.337255 0.337255 0.337255
0.411765 0.411765 0.411765
0.500000 0.500000 0.500000
0.608824 0.608824 0.608824
0.737255 0.737255 0.737255
0.571568 0.571568 0.571568
0.595098 0.595098 0.595098
0.642157 0.642157 0.642157
0.706862 0.706862 0.706862
0.796078 0.796078 0.796078
0.729411 0.729411 0.729411
0.739216 0.739216 0.739216
0.762745 0.762745 0.762745
0.800981 0.800981 0.800981
0.860785 0.860785 0.860785
0.863726 0.863726 0.863726
0.867647 0.867647 0.867647
0.879412 0.879412 0.879412
0.899020 0.899020 0.899020
0.934313 0.934313 0.934313
0.980392 0.980392 0.980392
0.980392 0.980392 0.980392
0.984314 0.984314 0.984314
0.988235 0.988235 0.988235
1.000000 1.000000 1.000000
