Color/Lomography/Lomography Redscale 100 65x.cube
TITLE "Lomography Redscale 100"
LUT_3D_SIZE 65
DOMAIN_MIN 0.000000 0.000000 0.000000
DOMAIN_MAX 1.000000 1.000000 1.000000
0.000000 0.000000 0.000000
0.003922 0.000000 0.000000
0.009681 0.000000 0.000000
0.015686 0.000000 0.000000
0.023284 0.000000 0.003677
0.032047 0.000000 0.003922
0.044730 0.000000 0.003922
0.053493 0.000000 0.006434
0.062255 0.000000 0.007843
0.074939 0.000000 0.008272
0.083701 0.000000 0.011765
0.092463 0.000000 0.014032
0.101226 0.000000 0.015686
0.110172 0.000000 0.019608
0.122672 0.001103 0.023529
0.133456 0.003922 0.027451
0.144118 0.003922 0.030392
0.152880 0.003922 0.035233
0.165564 0.003922 0.039216
0.174326 0.003922 0.043137
0.187010 0.003922 0.049755
0.199387 0.007843 0.054596
0.212378 0.007843 0.059437
0.225061 0.007843 0.064277
0.240196 0.011765 0.073039
0.253799 0.011765 0.077880
0.267402 0.011765 0.082721
0.283640 0.015686 0.091483
0.298530 0.017892 0.096324
0.312133 0.019608 0.105086
0.329657 0.023529 0.109927
0.347181 0.023529 0.118689
0.360784 0.027451 0.123529
0.378309 0.030331 0.132291
0.395833 0.031373 0.141053
0.413358 0.035294 0.145895
0.430882 0.039216 0.154657
0.448407 0.041850 0.163419
0.462010 0.043137 0.168259
0.479534 0.047059 0.177022
0.493137 0.050980 0.181863
0.510662 0.054902 0.190625
0.524265 0.058211 0.195465
0.537868 0.058824 0.203922
0.554167 0.062745 0.209069
0.566850 0.064890 0.213909
0.579534 0.066667 0.219608
0.592280 0.070588 0.227451
0.605883 0.071569 0.231373
0.617586 0.074510 0.237194
0.630270 0.077328 0.242034
0.642953 0.078431 0.246875
0.655637 0.082353 0.251715
0.664400 0.082353 0.256557
0.677083 0.086275 0.261397
0.685846 0.086275 0.266238
0.698529 0.090196 0.271078
0.708701 0.091605 0.275919
0.719976 0.094118 0.280760
0.728738 0.097365 0.285601
0.737500 0.098039 0.290196
0.750184 0.099203 0.294118
0.758946 0.101961 0.296201
0.767708 0.101961 0.301042
0.776471 0.105882 0.305882
0.000000 0.000000 0.000000
0.000919 0.000000 0.000000
0.005760 0.000000 0.000000
0.010601 0.000000 0.000000
0.018443 0.003677 0.000000
0.024203 0.000919 0.000674
0.032047 0.000919 0.003922
0.041728 0.003922 0.003922
0.053492 0.003922 0.003922
0.062255 0.003922 0.007843
0.071936 0.003922 0.009191
0.080698 0.003922 0.011765
0.089461 0.004841 0.011765
0.101226 0.004841 0.014951
0.110907 0.007843 0.019608
0.122672 0.007843 0.023529
0.131434 0.007843 0.026471
0.141115 0.008762 0.027451
0.153799 0.008762 0.035294
0.162561 0.011765 0.039216
0.177023 0.011765 0.043137
0.187010 0.012684 0.047059
0.200613 0.012378 0.054596
0.213909 0.017218 0.060356
0.227512 0.016605 0.068199
0.238664 0.019608 0.070588
0.254718 0.020527 0.077879
0.272242 0.023529 0.086643
0.285846 0.024448 0.092402
0.303370 0.030576 0.100245
0.316973 0.028493 0.106005
0.334497 0.032292 0.113848
0.352022 0.036213 0.119608
0.369546 0.039093 0.128370
0.387071 0.040135 0.133333
0.404596 0.044056 0.141973
0.422120 0.045772 0.150735
0.439645 0.047978 0.156863
0.454167 0.051899 0.167341
0.470772 0.055821 0.173101
0.488297 0.055821 0.180943
0.502818 0.059743 0.186703
0.519424 0.066054 0.192157
0.533639 0.063051 0.199387
0.546324 0.067586 0.205147
0.561152 0.067586 0.211765
0.574755 0.071507 0.218750
0.588296 0.070649 0.223590
0.600980 0.075490 0.228432
0.613664 0.075429 0.236274
0.628247 0.078431 0.239216
0.638848 0.079350 0.243137
0.648530 0.082353 0.250980
0.660478 0.083272 0.254902
0.674816 0.086275 0.258824
0.681924 0.089767 0.266238
0.694608 0.090196 0.270588
0.703370 0.091605 0.274510
0.716054 0.094118 0.278431
0.724816 0.094118 0.282353
0.737500 0.098039 0.286520
0.746262 0.098039 0.291360
0.755025 0.101961 0.296201
0.763787 0.101961 0.298039
0.772549 0.105882 0.301961
0.000000 0.000000 0.000000
0.000919 0.001838 0.000000
0.003922 0.001838 0.000000
0.007843 0.003922 0.000000
0.015441 0.003922 0.000000
0.020282 0.003922 0.000674
0.029044 0.003922 0.003922
0.037807 0.003922 0.003922
0.046569 0.007353 0.003922
0.059253 0.005760 0.007843
0.068015 0.007843 0.007843
0.076777 0.007843 0.011765
0.085540 0.007843 0.011765
0.096384 0.009681 0.015686
0.106985 0.009681 0.019608
0.117831 0.011765 0.021630
0.129534 0.011765 0.023529
0.137194 0.011765 0.027451
0.149878 0.013603 0.032231
0.158640 0.013542 0.037071
0.172181 0.015686 0.041912
0.182169 0.019302 0.048836
0.196691 0.019608 0.051593
0.209375 0.021446 0.058824
0.222671 0.021446 0.062745
0.234743 0.023529 0.070037
0.249877 0.023897 0.078431
0.265318 0.029289 0.083640
0.281005 0.029289 0.090564
0.296446 0.033211 0.097243
0.312133 0.037132 0.105882
0.329657 0.041054 0.110846
0.347182 0.041054 0.119608
0.364706 0.044975 0.126532
0.382230 0.044975 0.133210
0.399755 0.047855 0.141973
0.417279 0.052818 0.150735
0.434007 0.057537 0.157660
0.452328 0.056740 0.164338
0.467770 0.059375 0.171262
0.485294 0.064583 0.177941
0.500429 0.069056 0.186703
0.516422 0.068505 0.191544
0.530025 0.072426 0.200000
0.546324 0.071814 0.205147
0.559007 0.076348 0.211765
0.574755 0.076348 0.218750
0.588296 0.080269 0.223590
0.600980 0.079411 0.228432
0.613664 0.084253 0.233272
0.625245 0.084191 0.239216
0.638848 0.084191 0.243137
0.648530 0.088113 0.250980
0.660478 0.087929 0.254902
0.673162 0.092770 0.258824
0.681924 0.092034 0.266238
0.694608 0.090686 0.270588
0.703370 0.094118 0.274510
0.716054 0.094118 0.278431
0.724816 0.097365 0.282353
0.733578 0.098039 0.286520
0.746262 0.098039 0.291360
0.755025 0.101961 0.294118
0.763787 0.101961 0.298039
0.772549 0.105882 0.301961
0.000000 0.003922 0.000000
0.000919 0.003922 0.000000
0.003922 0.003922 0.000000
0.007843 0.003922 0.000000
0.011765 0.003922 0.000000
0.020282 0.006679 0.000000
0.026287 0.006679 0.003922
0.035049 0.007843 0.003922
0.046569 0.007843 0.003922
0.055331 0.007843 0.007843
0.064093 0.007843 0.007843
0.072855 0.010601 0.011765
0.082782 0.010601 0.011765
0.094302 0.011765 0.015686
0.101409 0.011765 0.016789
0.115747 0.011765 0.018873
0.124510 0.014522 0.023529
0.133272 0.015686 0.027451
0.145956 0.018444 0.029474
0.155883 0.018444 0.034313
0.167402 0.019608 0.041912
0.180086 0.019608 0.046753
0.192770 0.020221 0.051593
0.205454 0.023529 0.056434
0.217831 0.026287 0.062745
0.234191 0.027451 0.070037
0.247794 0.027819 0.074878
0.264032 0.034130 0.082353
0.276164 0.033579 0.088481
0.293689 0.038052 0.094118
0.310049 0.041973 0.102084
0.327573 0.045895 0.110846
0.345098 0.045098 0.117647
0.362623 0.049816 0.124448
0.380147 0.054779 0.133210
0.397671 0.057660 0.141973
0.415196 0.056618 0.149020
0.432721 0.061581 0.155576
0.450245 0.066299 0.164338
0.467770 0.069424 0.172549
0.482537 0.068137 0.177941
0.498897 0.073346 0.186703
0.516422 0.073346 0.191544
0.530025 0.074816 0.200000
0.546324 0.081189 0.205147
0.559007 0.081189 0.209988
0.574755 0.082353 0.218750
0.588296 0.085111 0.223590
0.600980 0.089032 0.228432
0.613664 0.089032 0.233272
0.625184 0.089032 0.239216
0.638848 0.093934 0.246875
0.648530 0.090931 0.250980
0.660478 0.094118 0.254902
0.673162 0.096875 0.261581
0.685417 0.096875 0.266238
0.694608 0.098039 0.270588
0.704780 0.098039 0.274510
0.716054 0.100797 0.278431
0.724816 0.100797 0.282353
0.733578 0.100797 0.286520
0.746262 0.101961 0.291360
0.755025 0.101961 0.294118
0.763787 0.101961 0.298039
0.772549 0.105882 0.301961
0.000000 0.003922 0.000000
0.000919 0.003922 0.000000
0.003922 0.007598 0.000000
0.007843 0.007598 0.000000
0.011765 0.007843 0.000000
0.019608 0.007843 0.000000
0.025122 0.007843 0.003922
0.033885 0.007843 0.003922
0.042647 0.011520 0.003922
0.055331 0.011765 0.007843
0.064093 0.011765 0.007843
0.072855 0.011765 0.010110
0.081618 0.011765 0.011765
0.086888 0.015441 0.015686
0.103064 0.015686 0.016789
0.111826 0.015686 0.019608
0.120834 0.019363 0.023529
0.133272 0.019363 0.027390
0.145956 0.019608 0.031373
0.154718 0.023284 0.035294
0.167402 0.023284 0.039216
0.176103 0.023529 0.043076
0.189460 0.027206 0.050980
0.203064 0.027451 0.056434
0.216667 0.031128 0.061275
0.230821 0.031373 0.066361
0.247427 0.031741 0.074878
0.257721 0.038971 0.079718
0.275000 0.039216 0.088481
0.292525 0.042892 0.094118
0.306373 0.043260 0.102084
0.323652 0.050735 0.107170
0.341176 0.050980 0.115686
0.358701 0.053860 0.124448
0.376471 0.058579 0.133210
0.397671 0.062500 0.141176
0.415196 0.060539 0.146814
0.432721 0.066422 0.155576
0.450245 0.070343 0.164338
0.467770 0.074265 0.172549
0.483824 0.072059 0.177941
0.498897 0.078186 0.186703
0.516422 0.078431 0.191544
0.530025 0.078737 0.200000
0.543627 0.086030 0.205147
0.559007 0.084498 0.209988
0.574755 0.089951 0.218750
0.588296 0.086336 0.223590
0.600980 0.093873 0.228431
0.613664 0.092096 0.235294
0.626348 0.094118 0.239216
0.638848 0.097794 0.246875
0.648530 0.098039 0.250980
0.664155 0.101716 0.258579
0.673162 0.101716 0.261397
0.685417 0.101532 0.266238
0.694608 0.101961 0.270588
0.707291 0.105637 0.274510
0.716054 0.105637 0.278431
0.724816 0.105637 0.282353
0.737500 0.105882 0.286520
0.746262 0.105882 0.291360
0.755025 0.105882 0.296201
0.763787 0.105882 0.298039
0.772549 0.105882 0.301961
0.000000 0.007843 0.000000
0.003922 0.007843 0.000000
0.005760 0.009681 0.000000
0.007843 0.008517 0.000000
0.011765 0.008517 0.000000
0.016360 0.011765 0.000674
0.025122 0.011765 0.003922
0.033885 0.011765 0.003922
0.042647 0.015196 0.003922
0.051409 0.012439 0.007843
0.060172 0.015686 0.007843
0.068934 0.015686 0.007843
0.077696 0.018873 0.011765
0.090380 0.015870 0.011949
0.099142 0.019608 0.015686
0.111152 0.021630 0.019608
0.120589 0.020282 0.022549
0.129351 0.023529 0.027390
0.142034 0.024387 0.031557
0.150797 0.024203 0.035294
0.163480 0.027451 0.039216
0.179106 0.031067 0.043137
0.188848 0.031373 0.047672
0.202390 0.032047 0.054902
0.215993 0.035294 0.061275
0.226899 0.035968 0.066115
0.243505 0.039890 0.074510
0.257475 0.043137 0.079718
0.274326 0.043811 0.086275
0.288603 0.050184 0.093321
0.306127 0.051654 0.101410
0.322611 0.054902 0.106924
0.342463 0.055576 0.115686
0.358701 0.061703 0.124448
0.376226 0.062745 0.133210
0.393750 0.063419 0.138051
0.411274 0.067341 0.146814
0.432047 0.073223 0.155576
0.449571 0.071262 0.164338
0.463848 0.075061 0.169179
0.481373 0.079105 0.177941
0.498897 0.084743 0.184314
0.513113 0.083027 0.191544
0.530025 0.086949 0.200000
0.543627 0.091422 0.205147
0.559007 0.090870 0.209988
0.574755 0.094118 0.218750
0.588296 0.094792 0.223590
0.600980 0.098039 0.228432
0.613664 0.098713 0.235294
0.626348 0.098713 0.239216
0.639032 0.105698 0.246875
0.651715 0.102635 0.250980
0.661153 0.105882 0.256557
0.673162 0.106556 0.261397
0.685846 0.106556 0.266238
0.695098 0.109804 0.271262
0.707291 0.109804 0.275919
0.718383 0.110478 0.280760
0.728738 0.110478 0.285601
0.737500 0.110478 0.286520
0.746262 0.110478 0.291360
0.755025 0.110478 0.296201
0.763787 0.110478 0.301042
0.772549 0.110478 0.301961
0.000000 0.011765 0.000000
0.003922 0.011765 0.000000
0.005515 0.011765 0.000000
0.010601 0.011765 0.000000
0.011765 0.011765 0.000000
0.016360 0.013358 0.000674
0.025122 0.013358 0.003922
0.032292 0.015686 0.003922
0.044485 0.015686 0.003922
0.051409 0.017279 0.007843
0.060172 0.017034 0.007843
0.068934 0.019608 0.007843
0.077696 0.019608 0.011765
0.085049 0.021201 0.011949
0.099142 0.023529 0.015686
0.107904 0.023529 0.019608
0.116667 0.025122 0.022549
0.129351 0.025122 0.023529
0.137377 0.029044 0.028309
0.150797 0.029044 0.033150
0.164583 0.031373 0.040319
0.172243 0.032966 0.043137
0.185539 0.036887 0.047672
0.197549 0.036887 0.054902
0.210294 0.039216 0.058824
0.226348 0.040809 0.066115
0.239951 0.044730 0.070956
0.256189 0.048652 0.079718
0.271079 0.048652 0.084559
0.285478 0.052573 0.093321
0.302206 0.056495 0.101961
0.319730 0.060417 0.106924
0.337255 0.060417 0.115686
0.354780 0.064338 0.124448
0.378431 0.070465 0.129412
0.393750 0.072181 0.138051
0.411274 0.072181 0.146814
0.428799 0.076103 0.155576
0.446324 0.081985 0.164338
0.463848 0.082353 0.169179
0.481372 0.083824 0.177941
0.498897 0.088664 0.184314
0.513113 0.087868 0.191544
0.530025 0.090502 0.200000
0.543627 0.095711 0.205147
0.559007 0.095711 0.209988
0.574755 0.101103 0.218750
0.588296 0.098100 0.223590
0.600980 0.103554 0.228432
0.613664 0.103554 0.235294
0.626348 0.105882 0.242034
0.639032 0.107475 0.246875
0.651715 0.109804 0.251715
0.664400 0.111397 0.256557
0.675735 0.111397 0.261397
0.685846 0.111397 0.266238
0.698529 0.113725 0.271078
0.707291 0.115318 0.275919
0.719976 0.115318 0.280760
0.728738 0.115318 0.285601
0.737500 0.117647 0.290196
0.747855 0.117647 0.294118
0.758946 0.117647 0.296201
0.765379 0.117647 0.301042
0.774142 0.117647 0.305882
0.003922 0.014277 0.000000
0.003922 0.014277 0.000000
0.007843 0.015686 0.000000
0.010601 0.015686 0.000000
0.011765 0.015686 0.000000
0.016360 0.018199 0.000674
0.025122 0.018199 0.003922
0.029964 0.019608 0.003922
0.038726 0.019608 0.003922
0.047488 0.022120 0.007843
0.056250 0.022120 0.007843
0.065012 0.021875 0.007843
0.075184 0.023529 0.011765
0.086459 0.026042 0.011949
0.099142 0.024632 0.015686
0.107904 0.027451 0.019608
0.116667 0.029964 0.022549
0.125429 0.029964 0.023529
0.138113 0.033885 0.028309
0.150797 0.033150 0.033150
0.159559 0.037990 0.037990
0.172243 0.037807 0.042831
0.184927 0.041728 0.047672
0.197610 0.041728 0.052512
0.210294 0.045650 0.058824
0.222978 0.045650 0.066115
0.237439 0.047427 0.070956
0.253554 0.053493 0.078431
0.268566 0.053186 0.084559
0.284682 0.057415 0.093321
0.302206 0.061336 0.098162
0.319730 0.065258 0.106924
0.337255 0.064706 0.115686
0.354780 0.069179 0.121569
0.372304 0.074387 0.129289
0.393750 0.077022 0.138051
0.411274 0.076225 0.146814
0.428799 0.080944 0.155576
0.446324 0.085907 0.160784
0.463848 0.088787 0.169179
0.481372 0.087745 0.177941
0.498897 0.092709 0.184314
0.513113 0.097426 0.191544
0.530025 0.098039 0.200000
0.543627 0.100552 0.205147
0.561520 0.101961 0.209988
0.574755 0.104473 0.218750
0.590808 0.105882 0.223590
0.601961 0.108395 0.228432
0.615564 0.107782 0.235294
0.629167 0.112622 0.242034
0.639032 0.112316 0.246875
0.654228 0.116238 0.251715
0.664400 0.116238 0.256557
0.675674 0.116238 0.261397
0.685846 0.117647 0.265258
0.698529 0.120160 0.271078
0.708701 0.120160 0.275919
0.719976 0.120160 0.280760
0.728738 0.121569 0.285601
0.741421 0.121569 0.290196
0.750184 0.121569 0.294118
0.758946 0.124081 0.298039
0.767708 0.124081 0.300552
0.776471 0.124081 0.305882
0.003922 0.019118 0.000000
0.004841 0.019118 0.000000
0.007843 0.019608 0.000000
0.011765 0.019608 0.000000
0.015441 0.019608 0.000000
0.019608 0.023039 0.003922
0.025122 0.023039 0.003922
0.029964 0.022120 0.003922
0.038726 0.023529 0.003922
0.047488 0.026961 0.007843
0.056250 0.026961 0.007843
0.065012 0.025796 0.007843
0.073775 0.027451 0.011765
0.086459 0.030883 0.011949
0.095221 0.031373 0.015686
0.104473 0.034804 0.019608
0.116666 0.034804 0.022549
0.125429 0.035294 0.023529
0.138113 0.038726 0.028309
0.145221 0.039216 0.033150
0.159559 0.042647 0.037990
0.172243 0.042647 0.042831
0.184927 0.046569 0.047672
0.197610 0.044669 0.052512
0.208824 0.050490 0.058824
0.222978 0.050429 0.066115
0.239584 0.051348 0.070956
0.253554 0.058334 0.078431
0.267157 0.062255 0.084559
0.284682 0.061949 0.093321
0.302206 0.062868 0.098162
0.319730 0.070098 0.106924
0.337255 0.074020 0.115686
0.354780 0.073468 0.121569
0.372304 0.077941 0.129289
0.393750 0.081863 0.138051
0.411274 0.085785 0.146814
0.428799 0.084988 0.155576
0.446324 0.089706 0.160784
0.463848 0.093628 0.169179
0.481372 0.097549 0.177941
0.498897 0.096507 0.184314
0.513113 0.101471 0.191544
0.530025 0.105392 0.200000
0.543627 0.105392 0.205147
0.561152 0.109314 0.211765
0.574755 0.109314 0.218750
0.588358 0.113235 0.223590
0.601961 0.113235 0.228431
0.615564 0.113725 0.235294
0.629167 0.117157 0.242034
0.642769 0.117157 0.246875
0.652451 0.121079 0.251715
0.664400 0.121079 0.256557
0.677083 0.121569 0.261397
0.689338 0.125061 0.266667
0.701960 0.125000 0.271078
0.711213 0.125000 0.275919
0.719976 0.125490 0.280760
0.731985 0.125490 0.285601
0.741421 0.128922 0.290196
0.750184 0.128922 0.294118
0.758946 0.128922 0.298039
0.767708 0.128922 0.301961
0.776471 0.128922 0.305882
0.004351 0.023529 0.000429
0.008762 0.023529 0.000429
0.011765 0.023958 0.003922
0.014522 0.023958 0.003922
0.019363 0.023958 0.003922
0.020282 0.027451 0.003922
0.025122 0.027451 0.003922
0.033885 0.027880 0.003922
0.039154 0.027880 0.003922
0.047488 0.031373 0.007843
0.056250 0.032721 0.007843
0.065012 0.031802 0.010110
0.073775 0.031802 0.011765
0.086459 0.035723 0.011949
0.095221 0.035723 0.015686
0.103983 0.039216 0.019608
0.119178 0.039645 0.022549
0.125429 0.039645 0.023529
0.138113 0.043995 0.028309
0.146875 0.043566 0.033150
0.159559 0.049755 0.037990
0.171936 0.047488 0.042831
0.184927 0.051409 0.047672
0.195221 0.051409 0.052512
0.208824 0.057353 0.058824
0.222426 0.055331 0.066115
0.236029 0.059253 0.070956
0.252267 0.064032 0.078431
0.267157 0.063174 0.084559
0.284682 0.067096 0.093321
0.302206 0.071017 0.098162
0.319730 0.075552 0.106924
0.337254 0.074939 0.115686
0.354780 0.078860 0.120527
0.372304 0.086152 0.129289
0.390257 0.087071 0.138051
0.411274 0.086704 0.146814
0.428799 0.090625 0.155576
0.446324 0.097671 0.164338
0.463848 0.098591 0.169179
0.481372 0.098468 0.177941
0.498897 0.102390 0.186703
0.516422 0.105882 0.191544
0.530025 0.106188 0.200000
0.546324 0.110233 0.205147
0.561152 0.110233 0.211765
0.575613 0.114154 0.218750
0.588358 0.117647 0.223590
0.604902 0.118076 0.231373
0.617586 0.118076 0.237194
0.630270 0.124387 0.242034
0.639460 0.121998 0.246875
0.655637 0.125490 0.251715
0.664828 0.125919 0.255331
0.679657 0.125919 0.262745
0.689767 0.129412 0.266667
0.702451 0.129902 0.271017
0.712623 0.129841 0.278431
0.723897 0.129841 0.282353
0.732659 0.129841 0.286275
0.741850 0.133333 0.290441
0.754105 0.133333 0.295282
0.762868 0.133333 0.298039
0.771630 0.136336 0.301961
0.780392 0.133762 0.305882
0.007843 0.027451 0.003922
0.011765 0.028799 0.003922
0.013603 0.028799 0.003922
0.015686 0.028799 0.003922
0.017034 0.031373 0.003922
0.023529 0.032721 0.003922
0.027451 0.032721 0.003922
0.033885 0.032721 0.003922
0.042647 0.032721 0.007353
0.047488 0.036642 0.007843
0.056250 0.036642 0.007843
0.065012 0.036642 0.010110
0.073775 0.039216 0.011765
0.086459 0.040564 0.015686
0.095221 0.040319 0.015686
0.103983 0.045159 0.019608
0.115686 0.044485 0.022549
0.125429 0.047059 0.027390
0.138113 0.048407 0.028309
0.146875 0.050980 0.033150
0.159559 0.052328 0.037990
0.171936 0.052328 0.040564
0.184927 0.056250 0.047672
0.195221 0.058824 0.052512
0.208824 0.060172 0.058824
0.222426 0.060172 0.066115
0.236029 0.063113 0.070956
0.252267 0.068015 0.078431
0.267157 0.072794 0.084559
0.284682 0.071936 0.093321
0.302206 0.074633 0.098162
0.319730 0.079779 0.106924
0.337255 0.082353 0.115686
0.354780 0.083701 0.120527
0.372304 0.087623 0.129289
0.393750 0.091544 0.138051
0.411274 0.095833 0.146814
0.428799 0.095466 0.155576
0.446324 0.099387 0.164338
0.463848 0.103309 0.169179
0.481372 0.105882 0.177941
0.498897 0.107230 0.186703
0.516422 0.113112 0.191544
0.530025 0.113725 0.201348
0.547549 0.115073 0.205147
0.561152 0.117647 0.213909
0.575613 0.118995 0.218750
0.592218 0.122917 0.223590
0.604902 0.122917 0.231373
0.617586 0.122917 0.237194
0.630270 0.126838 0.242034
0.642953 0.126838 0.247059
0.655637 0.130760 0.251715
0.668321 0.130760 0.258824
0.678432 0.130760 0.262745
0.693260 0.136826 0.270159
0.702451 0.134681 0.274510
0.712561 0.134681 0.278431
0.723897 0.134681 0.282353
0.735907 0.137255 0.286275
0.745343 0.138603 0.290441
0.754105 0.138603 0.295282
0.762868 0.138603 0.300123
0.771630 0.138603 0.304963
0.780392 0.138603 0.305882
0.010110 0.033640 0.003922
0.011765 0.033640 0.003922
0.015686 0.035294 0.003922
0.018444 0.035294 0.003922
0.019608 0.037561 0.003922
0.024203 0.037561 0.003922
0.029044 0.037561 0.006189
0.033640 0.039216 0.006189
0.039216 0.041483 0.007843
0.047488 0.041483 0.007843
0.056250 0.041483 0.007843
0.065012 0.043137 0.010110
0.073775 0.045404 0.011765
0.086459 0.047059 0.015686
0.095221 0.049326 0.017953
0.103983 0.049326 0.019608
0.115686 0.050980 0.022549
0.125429 0.053247 0.027390
0.135049 0.054902 0.028309
0.146875 0.057169 0.033150
0.159559 0.057169 0.037990
0.171936 0.062439 0.043137
0.181617 0.059437 0.047672
0.195221 0.065012 0.052512
0.208824 0.065012 0.058824
0.222426 0.070037 0.066115
0.236029 0.072855 0.070956
0.249632 0.071875 0.075797
0.267157 0.076777 0.084559
0.284682 0.078431 0.090196
0.302084 0.082353 0.098162
0.315809 0.083395 0.106924
0.337255 0.088542 0.115686
0.354780 0.093076 0.120527
0.372304 0.092463 0.129289
0.393750 0.094914 0.138051
0.411274 0.100306 0.146814
0.428799 0.101961 0.155576
0.446324 0.104228 0.164338
0.463848 0.108149 0.169179
0.481372 0.112071 0.177941
0.498897 0.112071 0.186703
0.516422 0.115992 0.191544
0.530025 0.119914 0.200306
0.547549 0.118873 0.205147
0.561152 0.123836 0.213909
0.578676 0.123836 0.218750
0.592218 0.127757 0.223590
0.607170 0.126470 0.233640
0.619485 0.131679 0.237194
0.633088 0.131679 0.242034
0.646691 0.133333 0.247059
0.656373 0.135600 0.254902
0.668321 0.134988 0.258824
0.681005 0.137255 0.265319
0.692035 0.139522 0.270159
0.702941 0.139522 0.274510
0.715135 0.138664 0.278431
0.726226 0.141176 0.284682
0.736581 0.143443 0.289522
0.745343 0.143443 0.290441
0.756372 0.143443 0.295282
0.765134 0.143443 0.300123
0.773897 0.143443 0.304963
0.782659 0.143443 0.308149
0.011765 0.039216 0.003922
0.012684 0.042402 0.003922
0.018873 0.042402 0.003922
0.019608 0.042402 0.007108
0.022794 0.042402 0.007108
0.027451 0.043137 0.007843
0.031373 0.046324 0.007843
0.035294 0.046324 0.007843
0.042647 0.046324 0.007843
0.047488 0.047059 0.007843
0.056250 0.050245 0.007843
0.065012 0.050245 0.011765
0.073775 0.050245 0.011765
0.083273 0.054167 0.015686
0.095221 0.054167 0.016789
0.103983 0.058089 0.019608
0.112745 0.058089 0.022549
0.126103 0.058089 0.027390
0.134191 0.062010 0.028309
0.146875 0.062010 0.033150
0.158333 0.065932 0.037990
0.168321 0.065932 0.042831
0.181617 0.069853 0.047672
0.193689 0.069853 0.052512
0.206373 0.073775 0.058824
0.219056 0.073775 0.066115
0.235662 0.077696 0.070956
0.249632 0.081618 0.075797
0.263971 0.081618 0.084559
0.280760 0.085540 0.090196
0.298284 0.089461 0.098162
0.315809 0.090503 0.106924
0.333333 0.092157 0.112499
0.354780 0.097304 0.120527
0.372304 0.097304 0.129289
0.387438 0.098836 0.138051
0.411274 0.103676 0.146814
0.428799 0.109069 0.155576
0.446324 0.113357 0.164338
0.463848 0.110355 0.169179
0.481372 0.116912 0.177941
0.498897 0.120834 0.186703
0.516422 0.120834 0.191544
0.533639 0.124755 0.200306
0.547549 0.128677 0.205147
0.562929 0.128677 0.213909
0.578676 0.129412 0.218750
0.592280 0.132598 0.227451
0.605883 0.133333 0.232353
0.619485 0.136520 0.237194
0.633088 0.136152 0.243137
0.646691 0.140441 0.247059
0.656373 0.137990 0.254902
0.669976 0.144363 0.258824
0.681005 0.144363 0.265319
0.693689 0.144363 0.270159
0.706372 0.145098 0.274510
0.715135 0.148285 0.279840
0.727819 0.148285 0.284682
0.736581 0.148285 0.289522
0.745588 0.148285 0.294118
0.758027 0.146262 0.298039
0.766789 0.149020 0.300123
0.775552 0.149020 0.304963
0.784314 0.149020 0.309804
0.015686 0.047243 0.007843
0.015870 0.047243 0.007843
0.019608 0.047243 0.007843
0.019792 0.047243 0.007843
0.027206 0.050980 0.007843
0.028125 0.051164 0.007843
0.032966 0.051164 0.007843
0.037807 0.051164 0.007843
0.042647 0.051164 0.007843
0.047488 0.055331 0.008027
0.056250 0.055086 0.011765
0.065012 0.055086 0.011765
0.073775 0.058824 0.011765
0.082537 0.059008 0.015686
0.091299 0.059008 0.016789
0.105821 0.062745 0.019608
0.112745 0.062929 0.023529
0.121508 0.062929 0.027390
0.134191 0.066851 0.028309
0.144730 0.066851 0.033150
0.155637 0.073284 0.037990
0.168321 0.070772 0.042831
0.181005 0.075123 0.047672
0.193689 0.074694 0.052512
0.206373 0.080882 0.058824
0.219056 0.078615 0.066115
0.232108 0.082537 0.070956
0.248346 0.087562 0.075797
0.263236 0.086459 0.084559
0.280760 0.093321 0.089400
0.298284 0.094302 0.098162
0.315809 0.094302 0.106924
0.333334 0.098223 0.115502
0.350858 0.104840 0.120527
0.372304 0.102145 0.129289
0.389828 0.106066 0.138051
0.411274 0.109988 0.146814
0.428799 0.116360 0.155576
0.446324 0.113909 0.164338
