Color/Lomography/Lomography Redscale 100 65x.cube
TITLE "Lomography Redscale 100"
LUT_3D_SIZE 5
DOMAIN_MIN 0.000000 0.000000 0.000000
DOMAIN_MAX 1.000000 1.000000 1.000000
0.000000 0.000000 0.000000
0.144118 0.003922 0.030392
0.360784 0.027451 0.123529
0.605883 0.071569 0.231373
0.776471 0.105882 0.305882
0.023529 0.069608 0.010784
0.108823 0.082353 0.023529
0.333334 0.115686 0.111765
0.609804 0.159804 0.232353
0.792157 0.171568 0.312746
0.041177 0.247058 0.037255
0.089216 0.254902 0.047059
0.309804 0.286274 0.115686
0.637255 0.329411 0.248039
0.843137 0.341176 0.337255
0.000000 0.515687 0.094118
0.000000 0.515687 0.075490
0.008823 0.531373 0.084314
0.617647 0.590196 0.244118
0.914706 0.625490 0.372549
0.000000 0.788235 0.129412
0.000000 0.788235 0.086275
0.000000 0.792157 0.047059
0.000000 0.792157 0.039216
0.933333 0.909804 0.388235
0.015686 0.003922 0.062745
0.201961 0.023529 0.082353
0.419608 0.060784 0.150981
0.635294 0.093137 0.244118
0.784314 0.105882 0.309804
0.061765 0.103921 0.089216
0.154902 0.116667 0.097059
0.384313 0.151961 0.135294
0.639216 0.188235 0.247059
0.807843 0.199020 0.317647
0.062745 0.278431 0.118627
0.107843 0.290196 0.120588
0.355882 0.321569 0.147059
0.664706 0.364706 0.259804
0.860785 0.372549 0.343137
0.000000 0.531373 0.155883
0.000000 0.531373 0.136274
0.107843 0.554902 0.123529
0.649020 0.613726 0.259804
0.928432 0.645098 0.376471
0.000000 0.796078 0.253922
0.000000 0.796078 0.222549
0.000000 0.800000 0.088236
0.000000 0.800000 0.039216
0.945098 0.917647 0.392157
0.064706 0.033334 0.201961
0.259804 0.064706 0.209804
0.470588 0.100000 0.217647
0.667647 0.129412 0.258824
0.803922 0.135294 0.317647
0.120588 0.159804 0.251961
0.216667 0.175490 0.258823
0.449020 0.209804 0.267647
0.683334 0.242157 0.266667
0.834314 0.246078 0.329412
0.054902 0.341176 0.305883
0.145098 0.352942 0.313725
0.433334 0.386274 0.329411
0.715687 0.424510 0.292157
0.888235 0.435295 0.356863
0.000000 0.566667 0.345098
0.000000 0.567647 0.335294
0.229411 0.602941 0.356863
0.705882 0.657843 0.332353
0.950981 0.684314 0.388235
0.000000 0.811765 0.433334
0.000000 0.811765 0.417647
0.000000 0.811765 0.362745
0.000000 0.820588 0.156863
0.972549 0.939215 0.403922
0.157843 0.105882 0.390196
0.352941 0.138235 0.429412
0.532353 0.169608 0.441177
0.710784 0.193137 0.353921
0.832353 0.193137 0.329412
0.223529 0.258824 0.462745
0.334313 0.278431 0.487255
0.534314 0.309804 0.517647
0.730392 0.333333 0.466667
0.873529 0.333333 0.349020
0.188235 0.444118 0.519608
0.300980 0.457843 0.541176
0.538235 0.491177 0.584314
0.758824 0.518628 0.567647
0.927451 0.526471 0.376471
0.000000 0.628432 0.538235
0.000000 0.639216 0.558824
0.428431 0.676471 0.621569
0.754902 0.716667 0.650000
0.981372 0.743137 0.403922
0.000000 0.827451 0.577451
0.000000 0.827451 0.573530
0.000000 0.831373 0.553921
0.000000 0.856863 0.556863
1.000000 0.964706 0.419608
0.325490 0.239216 0.588235
0.489216 0.270588 0.635294
0.621568 0.294118 0.662745
0.757843 0.309804 0.650980
0.878431 0.309804 0.419608
0.423529 0.410784 0.670588
0.508824 0.426471 0.697059
0.649019 0.450000 0.731372
0.789215 0.469608 0.744117
0.905882 0.473529 0.610784
0.462745 0.582353 0.741176
0.528431 0.594118 0.760784
0.674509 0.617647 0.798039
0.820588 0.638235 0.819608
0.941176 0.649020 0.747059
0.379412 0.746079 0.784314
0.476471 0.757843 0.807843
0.660784 0.785294 0.860784
0.837255 0.809804 0.899020
0.976471 0.828432 0.859804
0.000000 0.854902 0.662745
0.000000 0.854902 0.662745
0.000000 0.860785 0.676470
0.593137 0.942157 0.867647
1.000000 1.000000 0.984314
