Color/Lomography/Lomography X-Pro Slide 200 65x.cube
TITLE "Lomography X-Pro Slide 200"
LUT_3D_SIZE 5
DOMAIN_MIN 0.000000 0.000000 0.000000
DOMAIN_MAX 1.000000 1.000000 1.000000
0.000000 0.000000 0.000000
0.155883 0.000000 0.000000
0.419608 0.009804 0.000000
0.786275 0.048039 0.004902
1.000000 0.168627 0.007843
0.100981 0.194117 0.058824
0.191176 0.205882 0.065687
0.456863 0.237255 0.074510
0.801961 0.286274 0.081372
0.996078 0.399020 0.057844
0.011764 0.511764 0.133333
0.213725 0.519608 0.137255
0.511764 0.539215 0.141176
0.817647 0.576470 0.138235
0.976471 0.654902 0.100000
0.257843 0.813726 0.264706
0.385294 0.813726 0.268628
0.636275 0.816666 0.276471
0.828432 0.820588 0.275490
0.960784 0.836274 0.240196
0.698039 0.956863 0.533333
0.725490 0.956863 0.537255
0.790196 0.956863 0.537255
0.874510 0.960784 0.537255
0.976471 0.964706 0.505882
0.000000 0.000000 0.116667
0.155883 0.000000 0.128432
0.425490 0.003922 0.140196
0.795098 0.036275 0.148040
1.000000 0.160784 0.124510
0.100981 0.182353 0.190196
0.195098 0.194117 0.194117
0.464706 0.224510 0.205882
0.809804 0.280392 0.209804
0.997059 0.395098 0.174510
0.013725 0.511764 0.268627
0.217647 0.517648 0.275490
0.519608 0.535294 0.283334
0.821569 0.574510 0.284314
0.976471 0.654902 0.249019
0.254902 0.817647 0.396078
0.386274 0.817647 0.400000
0.636275 0.820588 0.408824
0.828432 0.825490 0.411765
0.960784 0.844118 0.387255
0.698039 0.960784 0.634314
0.725490 0.960784 0.634314
0.790196 0.960784 0.638235
0.871568 0.964706 0.638235
0.976471 0.972549 0.618628
0.000000 0.000000 0.301960
0.151961 0.000000 0.317647
0.429412 0.000000 0.333334
0.801961 0.023529 0.347059
1.000000 0.145098 0.325491
0.097059 0.160784 0.402941
0.198039 0.172549 0.410784
0.469608 0.201961 0.427451
0.817647 0.260784 0.439215
1.000000 0.380392 0.422549
0.033334 0.498039 0.503922
0.221568 0.503922 0.511764
0.523529 0.523529 0.523529
0.825490 0.565686 0.535294
0.980392 0.650980 0.519608
0.243138 0.821569 0.632353
0.380392 0.821569 0.636275
0.636275 0.824510 0.648039
0.828432 0.832353 0.655882
0.960784 0.848039 0.644118
0.698039 0.968627 0.772549
0.725490 0.968627 0.774510
0.788235 0.972549 0.778431
0.870588 0.972549 0.782353
0.976471 0.980392 0.774510
0.000000 0.003922 0.562745
0.140196 0.000000 0.585294
0.423530 0.000000 0.607843
0.802941 0.003922 0.629412
1.000000 0.109804 0.622549
0.081373 0.118627 0.679412
0.194117 0.126471 0.688236
0.469608 0.150000 0.707843
0.821569 0.209804 0.726471
1.000000 0.340196 0.722549
0.096078 0.459804 0.753922
0.233333 0.467647 0.760784
0.531373 0.488235 0.773529
0.833334 0.531373 0.787255
0.984314 0.627451 0.785294
0.223529 0.817647 0.804902
0.370588 0.817647 0.808823
0.635294 0.820588 0.820588
0.828432 0.828432 0.828432
0.960784 0.848039 0.832353
0.698039 0.976471 0.870588
0.725490 0.976471 0.871568
0.788235 0.976471 0.875490
0.870588 0.980392 0.879412
0.984314 0.988235 0.882353
0.000000 0.003922 0.803922
0.116667 0.003922 0.819608
0.409804 0.000000 0.839216
0.799019 0.000000 0.862745
1.000000 0.039216 0.870588
0.065687 0.030392 0.861765
0.174510 0.037255 0.869608
0.457843 0.056863 0.884314
0.820588 0.103921 0.902941
1.000000 0.238236 0.909804
0.123529 0.354902 0.890196
0.260784 0.362745 0.898039
0.539215 0.384314 0.909804
0.845098 0.433334 0.925490
0.996078 0.543138 0.925490
0.183333 0.786275 0.909804
0.349019 0.789215 0.913725
0.623530 0.790196 0.925490
0.832353 0.801961 0.937255
0.968627 0.832353 0.941176
0.686275 0.980392 0.960784
0.713726 0.980392 0.964706
0.782353 0.980392 0.968627
0.867647 0.984314 0.980392
1.000000 1.000000 0.996078
