Color/Lomography/Lomography X-Pro Slide 200 65x.cube
TITLE "Lomography X-Pro Slide 200"
LUT_3D_SIZE 9
DOMAIN_MIN 0.000000 0.000000 0.000000
DOMAIN_MAX 1.000000 1.000000 1.000000
0.000000 0.000000 0.000000
0.074020 0.000000 0.000000
0.155883 0.000000 0.000000
0.275490 0.003922 0.000000
0.419608 0.009804 0.000000
0.600490 0.021078 0.003922
0.786275 0.048039 0.004902
0.922059 0.090686 0.007843
1.000000 0.168627 0.007843
0.038726 0.089706 0.015196
0.089706 0.097059 0.015686
0.175000 0.101471 0.019608
0.295098 0.113235 0.023529
0.437255 0.128432 0.030883
0.612255 0.148530 0.038726
0.794118 0.180883 0.039216
0.922059 0.234804 0.034804
1.000000 0.304902 0.019608
0.100981 0.194117 0.058824
0.128922 0.198039 0.061765
0.191176 0.205882 0.065687
0.315196 0.217157 0.069608
0.456863 0.237255 0.074510
0.630392 0.260784 0.078431
0.801961 0.286274 0.081372
0.922059 0.335294 0.074510
0.996078 0.399020 0.057844
0.064216 0.338235 0.100490
0.092157 0.338235 0.100490
0.209804 0.346079 0.104412
0.334314 0.353922 0.105882
0.484804 0.369608 0.109804
0.651471 0.389216 0.113725
0.813726 0.416667 0.112255
0.918137 0.456372 0.101961
0.992157 0.512255 0.084804
0.011764 0.511764 0.133333
0.073529 0.515686 0.135294
0.213725 0.519608 0.137255
0.353922 0.527941 0.139706
0.511764 0.539215 0.141176
0.678922 0.554902 0.141176
0.817647 0.576470 0.138235
0.910294 0.608334 0.121569
0.976471 0.654902 0.100000
0.012745 0.697059 0.177941
0.075000 0.698530 0.177941
0.232353 0.700980 0.181863
0.390686 0.704902 0.185784
0.550490 0.708824 0.189706
0.704902 0.716667 0.189706
0.816667 0.728431 0.185784
0.898529 0.744117 0.170098
0.964706 0.763725 0.136274
0.257843 0.813726 0.264706
0.300491 0.813726 0.267647
0.385294 0.813726 0.268628
0.504902 0.816667 0.272549
0.636275 0.816666 0.276471
0.743627 0.816667 0.279411
0.828432 0.820588 0.275490
0.898529 0.828432 0.263726
0.960784 0.836274 0.240196
0.507843 0.886765 0.385294
0.527451 0.886765 0.385294
0.580392 0.886765 0.389215
0.646569 0.886765 0.389215
0.720098 0.886765 0.393137
0.789706 0.890196 0.393137
0.848530 0.890686 0.389215
0.906372 0.894608 0.380882
0.964706 0.898529 0.357843
0.698039 0.956863 0.533333
0.705882 0.956863 0.536765
0.725490 0.956863 0.537255
0.752941 0.956863 0.537255
0.790196 0.956863 0.537255
0.831373 0.956863 0.537255
0.874510 0.960784 0.537255
0.918137 0.960784 0.529412
0.976471 0.964706 0.505882
0.000000 0.000000 0.050490
0.073530 0.000000 0.057844
0.155883 0.000000 0.062255
0.275490 0.000000 0.066177
0.423530 0.005882 0.074020
0.604412 0.015686 0.081863
0.790196 0.040686 0.081863
0.925980 0.086275 0.077941
1.000000 0.164706 0.062255
0.038726 0.081863 0.085785
0.089706 0.089216 0.089216
0.174510 0.097059 0.093138
0.296078 0.105392 0.097549
0.441176 0.120589 0.105392
0.618627 0.142157 0.109314
0.798039 0.176961 0.113235
0.922549 0.227451 0.105392
1.000000 0.301471 0.085785
0.100981 0.190196 0.116667
0.131862 0.194117 0.117157
0.194117 0.201961 0.121079
0.314706 0.213725 0.125000
0.460784 0.229412 0.128922
0.634314 0.252941 0.132843
0.805883 0.284314 0.132843
0.922059 0.328922 0.125000
0.996078 0.398039 0.105392
0.064216 0.334314 0.144608
0.093628 0.338235 0.147059
0.213235 0.342157 0.150980
0.336764 0.352941 0.152451
0.488235 0.365686 0.156373
0.656372 0.386765 0.159314
0.817647 0.416667 0.156373
0.920098 0.455882 0.144608
0.992157 0.512255 0.124020
0.011764 0.511764 0.177941
0.075490 0.515686 0.177941
0.213725 0.519608 0.181863
0.355882 0.527451 0.185784
0.515686 0.539215 0.189706
0.682843 0.554412 0.189706
0.820588 0.577451 0.185784
0.910294 0.608334 0.170098
0.976471 0.654902 0.136765
0.012745 0.698530 0.228431
0.073039 0.700980 0.232353
0.234804 0.700980 0.232353
0.390686 0.704902 0.239706
0.552451 0.712745 0.243627
0.706373 0.720588 0.244118
0.817647 0.728431 0.242647
0.898529 0.744117 0.231373
0.964706 0.766176 0.204412
0.254902 0.816667 0.311275
0.298040 0.816667 0.314216
0.386274 0.816667 0.315196
0.504902 0.816667 0.319118
0.636275 0.816667 0.323039
0.746569 0.820588 0.325980
0.828432 0.824509 0.322059
0.898529 0.828432 0.314216
0.960784 0.840196 0.290686
0.507843 0.890686 0.423529
0.530883 0.890686 0.424019
0.580392 0.890686 0.424509
0.650000 0.890686 0.427941
0.720098 0.890686 0.431373
0.788725 0.890686 0.431863
0.848529 0.890686 0.427941
0.906372 0.894608 0.420098
0.964706 0.898529 0.400490
0.698039 0.956863 0.568137
0.705882 0.956863 0.568137
0.725490 0.956863 0.568137
0.752941 0.956863 0.572059
0.790196 0.960294 0.572059
0.831373 0.960784 0.572059
0.874510 0.960784 0.572059
0.918137 0.964706 0.564216
0.976471 0.968627 0.544608
0.000000 0.000000 0.116667
0.073530 0.000000 0.124510
0.155883 0.000000 0.128432
0.275490 0.000000 0.132353
0.425490 0.003922 0.140196
0.608333 0.013235 0.148039
0.795098 0.036275 0.148040
0.926470 0.078921 0.144117
1.000000 0.160784 0.124510
0.038726 0.077941 0.155392
0.089706 0.081863 0.159313
0.175490 0.089706 0.163235
0.299020 0.100981 0.167647
0.445098 0.113235 0.175000
0.622549 0.136275 0.178922
0.801961 0.171569 0.179412
0.925980 0.223529 0.171569
1.000000 0.297549 0.151961
0.100981 0.182353 0.190196
0.131862 0.186274 0.190196
0.195098 0.194117 0.194117
0.318628 0.205882 0.201471
0.464706 0.224510 0.205882
0.638235 0.249019 0.209804
0.809804 0.280392 0.209804
0.925980 0.325000 0.199019
0.997059 0.395098 0.174510
0.068137 0.330392 0.228922
0.099020 0.334314 0.228922
0.213725 0.338235 0.233333
0.338235 0.348529 0.237255
0.492157 0.361765 0.244608
0.660294 0.384804 0.245098
0.819117 0.412745 0.245098
0.922059 0.452451 0.235294
0.992157 0.510784 0.209314
0.013725 0.511764 0.268627
0.076961 0.511764 0.271569
0.217647 0.517648 0.275490
0.357843 0.524020 0.279412
0.519608 0.535294 0.283334
0.685294 0.552941 0.287255
0.821569 0.574510 0.284314
0.910294 0.609804 0.275000
0.976471 0.654902 0.249019
0.010294 0.700980 0.318137
0.074510 0.700980 0.321079
0.236274 0.702451 0.322059
0.393137 0.706373 0.326961
0.554412 0.712745 0.332843
0.708824 0.720588 0.336765
0.818137 0.732353 0.333823
0.898529 0.747059 0.325981
0.964706 0.767647 0.306372
0.254902 0.817647 0.396078
0.297549 0.817647 0.397059
0.386274 0.817647 0.400000
0.508824 0.817647 0.404902
0.636275 0.820588 0.408824
0.747549 0.820588 0.412745
0.828432 0.825490 0.411765
0.898529 0.832353 0.404902
0.960784 0.844118 0.387255
0.507843 0.893137 0.500490
0.530882 0.893137 0.500490
0.580392 0.890686 0.501961
0.646569 0.890686 0.505882
0.720098 0.890686 0.508333
0.786275 0.894608 0.509804
0.848039 0.894608 0.509804
0.906372 0.898529 0.504412
0.964706 0.902451 0.488725
0.698039 0.960784 0.634314
0.705882 0.960784 0.634314
0.725490 0.960784 0.634314
0.752941 0.960784 0.638236
0.790196 0.960784 0.638235
0.828922 0.964706 0.641176
0.871568 0.964706 0.638235
0.917647 0.968627 0.634314
0.976471 0.972549 0.618628
0.000000 0.000000 0.197059
0.070098 0.000000 0.204902
0.155882 0.000000 0.210294
0.275490 0.000000 0.218137
0.427451 0.003922 0.225980
0.612255 0.010784 0.229902
0.798039 0.032353 0.233824
0.929902 0.075000 0.227941
1.000000 0.156863 0.208824
0.038726 0.071078 0.249019
0.089706 0.077941 0.252941
0.174510 0.085294 0.258823
0.299020 0.093628 0.264706
0.446568 0.107353 0.272549
0.626470 0.128432 0.279412
0.805883 0.162255 0.280392
0.929902 0.215686 0.272549
1.000000 0.293138 0.251961
0.098039 0.174510 0.287745
0.128922 0.178431 0.291177
0.198039 0.186274 0.295588
0.319118 0.198039 0.302941
0.468627 0.214706 0.307353
0.642157 0.240196 0.314706
0.813726 0.272549 0.315196
0.926470 0.320098 0.309314
1.000000 0.390196 0.287745
0.073529 0.322549 0.330392
0.106862 0.326471 0.330392
0.217157 0.332843 0.334314
0.342157 0.342157 0.342157
0.496078 0.355882 0.348039
0.664216 0.377451 0.353922
0.821569 0.405882 0.353922
0.924020 0.448529 0.348039
0.996078 0.508333 0.328921
0.023529 0.507844 0.375490
0.077941 0.507844 0.377451
0.217647 0.513726 0.381373
0.361765 0.520098 0.387255
0.521568 0.532843 0.392647
0.689216 0.550490 0.399020
0.824510 0.573529 0.399020
0.912745 0.608334 0.393137
0.978432 0.654902 0.375490
0.012745 0.698530 0.432353
0.073039 0.700980 0.433824
0.234804 0.700980 0.437745
0.394608 0.704902 0.441667
0.556373 0.712745 0.449510
0.708824 0.720588 0.453432
0.820588 0.732353 0.454902
0.898529 0.748039 0.449510
0.964706 0.770098 0.437745
0.250980 0.820588 0.507843
0.293627 0.820588 0.507843
0.384314 0.820588 0.511765
0.506373 0.820588 0.515686
0.636275 0.821569 0.523529
0.744117 0.824509 0.527451
0.828432 0.828432 0.527451
0.898529 0.836275 0.523529
0.960784 0.848039 0.511765
0.507353 0.894608 0.603432
0.530392 0.894608 0.605392
0.580392 0.894608 0.607353
0.646569 0.894608 0.609804
0.720098 0.894608 0.613235
0.786275 0.896569 0.617157
0.848039 0.898529 0.617157
0.906372 0.902451 0.613235
0.964706 0.906372 0.601471
0.698039 0.964706 0.708333
0.705882 0.964706 0.708333
0.724510 0.964706 0.712255
0.752941 0.964706 0.712255
0.788235 0.967157 0.716177
0.828922 0.968627 0.716177
0.871568 0.968627 0.716177
0.914215 0.972549 0.716177
0.976471 0.976471 0.704412
0.000000 0.000000 0.301960
0.070098 0.000000 0.309804
0.151961 0.000000 0.317647
0.275490 0.000000 0.325491
0.429412 0.000000 0.333334
0.614706 0.007843 0.341176
0.801961 0.023529 0.347059
0.930392 0.070588 0.344608
1.000000 0.145098 0.325491
0.034804 0.062255 0.356862
0.089706 0.066177 0.360784
0.175000 0.074020 0.368137
0.299020 0.083334 0.375000
0.447059 0.097549 0.384313
0.627941 0.117157 0.392157
0.809804 0.149510 0.396079
0.929902 0.203922 0.393627
1.000000 0.283334 0.376471
0.097059 0.160784 0.402941
0.124510 0.164706 0.405392
0.198039 0.172549 0.410784
0.321569 0.183333 0.418137
0.469608 0.201961 0.427451
0.645098 0.225490 0.434314
0.817647 0.260784 0.439215
0.929902 0.308334 0.436765
1.000000 0.380392 0.422549
0.089216 0.310785 0.451471
0.113235 0.314706 0.453432
0.218627 0.319608 0.461275
0.342157 0.330392 0.466666
0.496569 0.344608 0.474510
0.668137 0.365686 0.482353
0.825490 0.394608 0.486274
0.925980 0.438725 0.484804
0.996078 0.502941 0.469118
0.033334 0.498039 0.503922
0.083824 0.500000 0.507844
0.221568 0.503922 0.511764
0.363725 0.511764 0.517648
0.523529 0.523529 0.523529
0.691177 0.541176 0.531373
0.825490 0.565686 0.535294
0.914215 0.600490 0.531373
0.980392 0.650980 0.519608
0.023529 0.694608 0.562255
0.075980 0.697059 0.562255
0.234804 0.698530 0.566176
0.394608 0.702451 0.572549
0.558333 0.708824 0.577941
0.710294 0.716667 0.585784
0.820588 0.731863 0.589706
0.898529 0.748039 0.585784
0.964706 0.771568 0.577941
0.243138 0.821569 0.632353
0.288726 0.821569 0.632353
0.380392 0.821569 0.636275
0.504902 0.824510 0.640196
0.636275 0.824510 0.648039
0.744117 0.825980 0.651961
0.828432 0.832353 0.655882
0.898529 0.840196 0.653922
0.960784 0.848039 0.644118
0.503922 0.898529 0.704412
0.526961 0.898529 0.704412
0.576961 0.898529 0.708333
0.646569 0.898529 0.710784
0.716177 0.898529 0.714216
0.785784 0.898529 0.717157
0.848039 0.902451 0.720098
0.902451 0.906372 0.720098
0.964706 0.910294 0.712255
0.698039 0.968627 0.772549
0.705882 0.968627 0.772549
0.725490 0.968627 0.774510
0.752941 0.968627 0.774510
0.788235 0.972549 0.778431
0.828922 0.972549 0.778431
0.870588 0.972549 0.782353
0.914215 0.976471 0.782353
0.976471 0.980392 0.774510
0.000000 0.000000 0.422549
0.064216 0.000000 0.434314
0.148039 0.000000 0.442157
0.271569 0.000000 0.453922
0.427451 0.000000 0.463726
0.616177 0.000000 0.473529
0.802941 0.012745 0.481372
0.930392 0.054902 0.481372
1.000000 0.129412 0.469608
0.031373 0.046569 0.488726
0.089216 0.050490 0.493137
0.170588 0.058334 0.500980
0.295098 0.068137 0.512255
0.447059 0.078432 0.524020
0.629902 0.101471 0.531863
0.809804 0.131862 0.539706
0.930392 0.182353 0.539706
1.000000 0.266177 0.527941
0.089216 0.143137 0.539216
0.120098 0.145588 0.543137
0.198039 0.151961 0.548039
0.318628 0.162745 0.558824
0.468628 0.177451 0.565686
0.647549 0.204412 0.576961
0.817647 0.240686 0.582353
0.930392 0.289706 0.582353
1.000000 0.363725 0.571569
0.107353 0.291177 0.589706
0.126961 0.295098 0.591176
0.221078 0.299020 0.597549
0.346079 0.310785 0.605392
0.500490 0.324510 0.612745
0.671079 0.346079 0.624020
0.828432 0.377451 0.628921
0.929902 0.422059 0.628921
0.996078 0.489706 0.618627
0.062255 0.484313 0.640196
0.102941 0.484314 0.642647
0.225490 0.490687 0.648039
0.368137 0.498530 0.654902
0.527451 0.511764 0.662255
0.695098 0.527451 0.671569
0.829412 0.552941 0.675490
0.918137 0.589216 0.675490
0.980392 0.643138 0.665686
0.040686 0.686765 0.686765
0.082353 0.689216 0.689216
0.234804 0.690686 0.693137
0.397059 0.695588 0.697059
0.558824 0.702451 0.704902
0.712745 0.712745 0.712745
0.820588 0.725490 0.716667
0.898529 0.744117 0.716667
0.964706 0.770098 0.712745
0.233824 0.821569 0.732353
0.280882 0.821569 0.734804
0.376471 0.821569 0.736274
0.500981 0.824019 0.743627
0.636275 0.824509 0.747549
0.744117 0.825980 0.754412
0.828432 0.832353 0.758333
0.898529 0.840196 0.759314
0.960784 0.851961 0.755392
0.503432 0.902451 0.778432
0.526471 0.902451 0.778432
0.576471 0.898529 0.781863
0.643627 0.898529 0.785784
0.716177 0.901961 0.789706
0.784804 0.902451 0.793627
0.847549 0.902451 0.794118
0.902451 0.906372 0.797549
0.964706 0.914215 0.794118
0.698039 0.972549 0.825000
0.705882 0.972549 0.825000
0.725490 0.972549 0.825000
0.752941 0.972549 0.827451
0.788235 0.976471 0.828922
0.828922 0.976471 0.832843
0.870588 0.976471 0.832843
0.914215 0.980392 0.835294
0.980392 0.984314 0.832843
0.000000 0.003922 0.562745
0.057843 0.000000 0.574510
0.140196 0.000000 0.585294
0.266667 0.000000 0.594118
0.423530 0.000000 0.607843
0.614706 0.000000 0.619117
0.802941 0.003922 0.629412
0.930392 0.035784 0.633334
1.000000 0.109804 0.622549
0.023529 0.023039 0.630392
0.081863 0.029412 0.636765
0.163725 0.034804 0.644608
0.289706 0.042647 0.656373
0.443137 0.055392 0.665686
0.627941 0.075490 0.676471
0.809804 0.105392 0.687746
0.933823 0.152941 0.688236
1.000000 0.242647 0.680392
0.081373 0.118627 0.679412
0.111274 0.120588 0.682353
0.194117 0.126471 0.688236
0.314706 0.134804 0.699019
0.469608 0.150000 0.707843
0.649020 0.173530 0.718627
0.821569 0.209804 0.726471
0.933823 0.262255 0.727451
1.000000 0.340196 0.722549
0.112255 0.261275 0.721078
0.136765 0.263726 0.723530
0.225490 0.271569 0.728921
0.346078 0.280883 0.735294
0.500000 0.296569 0.744608
0.671078 0.320098 0.754902
0.829412 0.350000 0.760294
0.929902 0.397059 0.762745
1.000000 0.467647 0.758824
0.096078 0.459804 0.753922
0.126471 0.460784 0.755882
0.233333 0.467647 0.760784
0.372059 0.475490 0.765686
0.531373 0.488235 0.773529
0.699020 0.506863 0.781373
0.833334 0.531373 0.787255
0.922059 0.570098 0.789215
0.984314 0.627451 0.785294
0.048039 0.671078 0.777451
0.104412 0.671078 0.778922
0.244118 0.675000 0.782843
0.398530 0.681372 0.789215
0.562255 0.689216 0.794608
0.716667 0.698530 0.801961
0.824509 0.716667 0.806373
0.902451 0.736274 0.808824
0.967157 0.766176 0.806373
0.223529 0.817647 0.804902
0.273039 0.817647 0.804902
0.370588 0.817647 0.808823
0.500981 0.820588 0.812745
0.635294 0.820588 0.820588
0.744117 0.824509 0.824509
0.828432 0.828432 0.828432
0.898529 0.836275 0.832353
0.960784 0.848039 0.832353
0.496079 0.902451 0.836275
0.519118 0.902451 0.836275
0.572549 0.898529 0.839706
0.642647 0.898529 0.843627
0.716177 0.898529 0.845588
0.782353 0.902451 0.848529
0.847549 0.902451 0.851961
0.902451 0.906372 0.855883
0.964706 0.914215 0.855883
0.698039 0.976471 0.870588
0.705882 0.976471 0.870588
0.725490 0.976471 0.871568
0.752941 0.976471 0.871568
0.788235 0.976471 0.875490
0.828922 0.980392 0.878431
0.870588 0.980392 0.879412
0.914215 0.984314 0.882353
0.984314 0.988235 0.882353
0.000000 0.003922 0.702941
0.046569 0.003922 0.714706
0.131372 0.000000 0.722549
0.255883 0.000000 0.734313
0.417647 0.000000 0.746078
0.611765 0.000000 0.757843
0.801961 0.000000 0.769607
0.930392 0.011765 0.773529
1.000000 0.081863 0.769607
0.023039 0.003922 0.756863
0.077941 0.006863 0.761764
0.154902 0.007843 0.768627
0.279412 0.014706 0.777451
0.437255 0.026470 0.788235
0.624020 0.042647 0.800000
0.809804 0.073039 0.808333
0.933823 0.117157 0.812255
1.000000 0.202451 0.808823
0.070588 0.083824 0.787745
0.105392 0.085295 0.789215
0.186274 0.091667 0.795588
0.311275 0.099510 0.802941
0.465686 0.110294 0.812745
0.643628 0.129411 0.821569
0.821569 0.160785 0.831863
0.934313 0.217647 0.835784
1.000000 0.303431 0.832353
0.127451 0.214706 0.812255
0.153921 0.216667 0.814706
0.229412 0.222549 0.820098
0.346079 0.234314 0.826470
0.500000 0.249510 0.834314
0.675980 0.275490 0.843627
0.833334 0.307354 0.851470
0.934313 0.356372 0.853921
1.000000 0.431863 0.851470
0.109803 0.421078 0.831863
0.150980 0.421569 0.831863
0.246079 0.426961 0.835784
0.377451 0.436765 0.841667
0.535294 0.449020 0.849510
0.702451 0.468628 0.857353
0.840196 0.496078 0.863235
0.925980 0.535294 0.867157
0.992157 0.597549 0.863235
0.044608 0.643137 0.843627
0.126961 0.643137 0.844608
0.255883 0.647059 0.847549
0.406373 0.651471 0.855392
0.566176 0.663236 0.859314
0.720588 0.674510 0.867157
0.829412 0.693137 0.871078
0.906372 0.716667 0.875000
0.972549 0.751471 0.875000
0.207844 0.808824 0.859804
0.261274 0.808824 0.863235
0.364706 0.809314 0.863725
0.493138 0.809804 0.868137
0.632353 0.812745 0.875000
0.743627 0.813726 0.879412
0.829412 0.820588 0.886765
0.898529 0.829412 0.887255
0.964706 0.844117 0.890686
0.483824 0.898529 0.882843
0.507843 0.898529 0.886765
0.562255 0.898529 0.886765
0.634804 0.898529 0.890686
0.712255 0.898529 0.894608
0.782353 0.898529 0.898529
0.847549 0.902451 0.902451
0.906372 0.906372 0.906372
0.968627 0.913725 0.906372
0.698039 0.980392 0.910294
0.705882 0.980392 0.910294
0.721569 0.980392 0.913725
0.751471 0.980392 0.914215
0.788235 0.980392 0.917647
0.827451 0.984314 0.918137
0.870588 0.984314 0.922059
0.914215 0.988235 0.925490
0.988725 0.992157 0.925980
0.000000 0.003922 0.803922
0.034804 0.003922 0.811765
0.116667 0.003922 0.819608
0.244118 0.003922 0.827451
0.409804 0.000000 0.839216
0.604412 0.000000 0.850980
0.799019 0.000000 0.862745
0.930392 0.000000 0.870588
1.000000 0.039216 0.870588
0.011765 0.003922 0.838726
0.061765 0.003922 0.843137
0.140196 0.003922 0.847059
0.267157 0.000000 0.858334
0.427451 0.000000 0.866667
0.618627 0.003922 0.878431
0.806863 0.020097 0.889706
0.933823 0.062746 0.894118
1.000000 0.140686 0.894118
0.065687 0.030392 0.861765
0.100490 0.033823 0.862745
0.174510 0.037255 0.869608
0.299020 0.042157 0.874510
0.457843 0.056863 0.884314
0.641177 0.073529 0.894118
0.820588 0.103921 0.902941
0.937745 0.148529 0.909804
1.000000 0.238236 0.909804
0.120098 0.150000 0.878431
0.147059 0.150000 0.880882
0.225000 0.156372 0.886275
0.342157 0.164216 0.892647
0.498529 0.177451 0.900000
0.671078 0.200980 0.909804
0.838725 0.238725 0.917647
0.941666 0.287745 0.921569
1.000000 0.369608 0.920098
0.123529 0.354902 0.890196
0.168137 0.358823 0.894118
0.260784 0.362745 0.898039
0.383333 0.370588 0.901961
0.539215 0.384314 0.909804
0.706863 0.403431 0.917647
0.845098 0.433334 0.925490
0.935785 0.476961 0.927451
0.996078 0.543138 0.925490
0.098529 0.588726 0.899510
0.148530 0.588726 0.901961
0.272549 0.592647 0.905882
0.418137 0.598039 0.909804
0.574510 0.608333 0.917647
0.728431 0.621569 0.923039
0.840196 0.643628 0.929412
0.918137 0.674019 0.930882
0.980392 0.720588 0.933333
0.183333 0.786275 0.909804
0.238725 0.786275 0.913235
0.349019 0.789215 0.913725
0.481373 0.790196 0.920098
0.623530 0.790196 0.925490
0.743627 0.794118 0.930392
0.832353 0.801961 0.937255
0.905882 0.813726 0.941176
0.968627 0.832353 0.941176
0.456863 0.890686 0.929902
0.480392 0.890686 0.929902
0.541666 0.890686 0.933333
0.623040 0.890686 0.937255
0.704412 0.890686 0.941666
0.778432 0.890686 0.945588
0.844607 0.894608 0.952941
0.906372 0.898529 0.956863
0.972549 0.906372 0.960784
0.686275 0.980392 0.960784
0.694118 0.980392 0.960784
0.713726 0.980392 0.964706
0.745098 0.980392 0.967157
0.782353 0.980392 0.968627
0.823529 0.984314 0.976471
0.867647 0.984314 0.980392
0.914215 0.988235 0.988235
1.000000 1.000000 0.996078
