Color/Lomography/Lomography Redscale 100 65x.cube
TITLE "Lomography Redscale 100"
LUT_3D_SIZE 9
DOMAIN_MIN 0.000000 0.000000 0.000000
DOMAIN_MAX 1.000000 1.000000 1.000000
0.000000 0.000000 0.000000
0.062255 0.000000 0.007843
0.144118 0.003922 0.030392
0.240196 0.011765 0.073039
0.360784 0.027451 0.123529
0.493137 0.050980 0.181863
0.605883 0.071569 0.231373
0.698529 0.090196 0.271078
0.776471 0.105882 0.305882
0.003922 0.019118 0.000000
0.038726 0.023529 0.003922
0.116666 0.034804 0.022549
0.208824 0.050490 0.058824
0.337255 0.074020 0.115686
0.481372 0.097549 0.177941
0.601961 0.113235 0.228431
0.701960 0.125000 0.271078
0.776471 0.128922 0.305882
0.023529 0.069608 0.010784
0.047059 0.073530 0.011765
0.108823 0.082353 0.023529
0.204902 0.097059 0.058824
0.333334 0.115686 0.111765
0.485294 0.138725 0.177941
0.609804 0.159804 0.232353
0.710294 0.168627 0.278431
0.792157 0.171568 0.312746
0.043137 0.139706 0.023529
0.066177 0.143627 0.025980
0.112745 0.151471 0.035294
0.194608 0.165686 0.061275
0.329412 0.185294 0.115686
0.489216 0.208824 0.181863
0.621569 0.225980 0.240196
0.726470 0.233824 0.286275
0.811765 0.237745 0.321569
0.041177 0.247058 0.037255
0.054412 0.247058 0.039216
0.089216 0.254902 0.047059
0.153431 0.266667 0.062745
0.309804 0.286274 0.115686
0.486765 0.309804 0.181863
0.637255 0.329411 0.248039
0.755392 0.341177 0.298039
0.843137 0.341176 0.337255
0.000000 0.379412 0.068137
0.000000 0.379412 0.062745
0.000000 0.379412 0.049509
0.008824 0.391176 0.062745
0.242157 0.408824 0.107843
0.457843 0.434314 0.174020
0.641177 0.457843 0.251961
0.777451 0.473529 0.310294
0.879902 0.473529 0.352941
0.000000 0.515687 0.094118
0.000000 0.515687 0.086765
0.000000 0.515687 0.075490
0.000000 0.515687 0.056373
0.008823 0.531373 0.084314
0.363725 0.558824 0.146569
0.617647 0.590196 0.244118
0.793137 0.613726 0.318137
0.914706 0.625490 0.372549
0.000000 0.644117 0.106372
0.000000 0.644117 0.101961
0.000000 0.647549 0.090196
0.000000 0.648039 0.070588
0.000000 0.648039 0.050980
0.006863 0.663725 0.090686
0.490197 0.703922 0.197549
0.769607 0.742156 0.314216
0.941176 0.761764 0.384314
0.000000 0.788235 0.129412
0.000000 0.788235 0.117647
0.000000 0.788235 0.086275
0.000000 0.792157 0.068137
0.000000 0.792157 0.047059
0.000000 0.792157 0.039216
0.000000 0.792157 0.039216
0.502941 0.855392 0.209804
0.933333 0.909804 0.388235
0.003922 0.000000 0.015196
0.100981 0.007353 0.027451
0.178922 0.011765 0.046079
0.276470 0.023529 0.088726
0.396079 0.043137 0.139215
0.516667 0.062745 0.193627
0.620588 0.077941 0.236275
0.706863 0.090686 0.275000
0.780392 0.105882 0.305882
0.015686 0.034804 0.023529
0.066177 0.042647 0.030883
0.144118 0.054412 0.042647
0.240196 0.070098 0.073039
0.364706 0.089706 0.127451
0.504902 0.113235 0.187745
0.620098 0.128922 0.236275
0.713726 0.140686 0.278431
0.787745 0.141176 0.309804
0.039216 0.085295 0.038235
0.066177 0.089216 0.042157
0.131862 0.097549 0.050490
0.225980 0.112745 0.069118
0.356372 0.132353 0.123529
0.500980 0.155883 0.185784
0.624019 0.171569 0.240196
0.722059 0.180882 0.282353
0.799020 0.183334 0.313726
0.058824 0.154902 0.050490
0.080882 0.157843 0.054412
0.128431 0.166176 0.061765
0.210294 0.178922 0.076961
0.348039 0.198529 0.123529
0.504902 0.221568 0.189706
0.633334 0.237745 0.244118
0.737745 0.246078 0.290196
0.818137 0.248039 0.325490
0.047059 0.258823 0.062255
0.062745 0.260294 0.064706
0.097549 0.267647 0.070098
0.167647 0.278922 0.082353
0.325491 0.298040 0.123529
0.500980 0.323039 0.189706
0.648529 0.341176 0.251960
0.761764 0.352942 0.301961
0.849020 0.352451 0.337255
0.000000 0.387255 0.089706
0.000000 0.387255 0.082353
0.000000 0.387255 0.074020
0.031372 0.401470 0.083334
0.259314 0.420588 0.111765
0.473529 0.446078 0.181863
0.652941 0.469118 0.255883
0.785294 0.481863 0.314216
0.885785 0.485294 0.356863
0.000000 0.522059 0.113725
0.000000 0.522059 0.109314
0.000000 0.522059 0.094118
0.000000 0.522059 0.070588
0.042647 0.540196 0.089706
0.380393 0.567157 0.150490
0.629412 0.598039 0.250490
0.797058 0.621569 0.322059
0.918627 0.631863 0.372549
0.000000 0.648039 0.125000
0.000000 0.648039 0.121079
0.000000 0.650980 0.105882
0.000000 0.651470 0.083333
0.000000 0.651961 0.058824
0.019608 0.671568 0.091176
0.504902 0.711275 0.204902
0.777451 0.746078 0.318137
0.945098 0.765686 0.388235
0.000000 0.792157 0.172059
0.000000 0.792157 0.156863
0.000000 0.792157 0.129902
0.000000 0.792157 0.082353
0.000000 0.792157 0.054902
0.000000 0.796078 0.035294
0.000000 0.796078 0.035294
0.514216 0.859314 0.217157
0.937255 0.913725 0.388235
0.015686 0.003922 0.062745
0.124510 0.015196 0.070588
0.201961 0.023529 0.082353
0.303431 0.039216 0.101961
0.419608 0.060784 0.150981
0.536274 0.078431 0.201471
0.635294 0.093137 0.244118
0.718137 0.100980 0.278921
0.784314 0.105882 0.309804
0.034804 0.050490 0.074510
0.089706 0.058334 0.077451
0.167157 0.070098 0.085295
0.267647 0.088235 0.100981
0.392157 0.108823 0.139215
0.524510 0.128922 0.197549
0.633334 0.144118 0.244118
0.725000 0.152451 0.282843
0.796078 0.152941 0.313726
0.061765 0.103921 0.089216
0.089216 0.108823 0.089216
0.154902 0.116667 0.097059
0.251961 0.132353 0.108823
0.384313 0.151961 0.135294
0.524510 0.175490 0.197549
0.639216 0.188235 0.247059
0.733823 0.199019 0.286765
0.807843 0.199020 0.317647
0.081373 0.175000 0.104902
0.101471 0.178431 0.107353
0.151961 0.186765 0.108823
0.236275 0.200981 0.120098
0.376471 0.220098 0.140196
0.528431 0.241667 0.197549
0.650980 0.257353 0.251960
0.750000 0.265196 0.294608
0.827451 0.265196 0.329412
0.062745 0.278431 0.118627
0.075980 0.282353 0.120588
0.107843 0.290196 0.120588
0.194117 0.301960 0.127941
0.355882 0.321569 0.147059
0.526961 0.345098 0.201471
0.664706 0.364706 0.259804
0.775000 0.373530 0.306372
0.860785 0.372549 0.343137
0.000000 0.402941 0.134804
0.000000 0.402941 0.128432
0.000000 0.409804 0.124510
0.088726 0.422549 0.128432
0.291177 0.442157 0.143137
0.500980 0.468628 0.193627
0.671569 0.489216 0.263726
0.798039 0.502451 0.319118
0.895588 0.504902 0.360784
0.000000 0.531373 0.155883
0.000000 0.531373 0.148530
0.000000 0.531373 0.136274
0.000000 0.535294 0.115686
0.107843 0.554902 0.123529
0.414706 0.582843 0.162745
0.649020 0.613726 0.259804
0.811765 0.633334 0.328431
0.928432 0.645098 0.376471
0.000000 0.658824 0.191667
0.000000 0.658824 0.183333
0.000000 0.659804 0.156373
0.000000 0.659804 0.122059
0.000000 0.659804 0.087255
0.067647 0.684314 0.099020
0.535294 0.723530 0.217157
0.792157 0.757843 0.322059
0.952941 0.776471 0.392157
0.000000 0.796078 0.253922
0.000000 0.796078 0.245098
0.000000 0.796078 0.222549
0.000000 0.796078 0.175981
0.000000 0.800000 0.088236
0.000000 0.800000 0.047059
0.000000 0.800000 0.039216
0.537745 0.867157 0.225490
0.945098 0.917647 0.392157
0.031373 0.015686 0.124020
0.148530 0.027451 0.128922
0.228922 0.041667 0.135784
0.330392 0.058824 0.147549
0.443628 0.078431 0.163235
0.555882 0.095588 0.209314
0.649020 0.109804 0.250980
0.729902 0.116176 0.286275
0.792157 0.117647 0.312255
0.058824 0.073039 0.139706
0.117157 0.081863 0.143627
0.193137 0.093628 0.147549
0.295098 0.109314 0.155392
0.422059 0.128922 0.171078
0.548039 0.148530 0.206373
0.651960 0.163235 0.251960
0.737745 0.171078 0.289706
0.803922 0.171078 0.317647
0.088726 0.128431 0.159314
0.116176 0.132353 0.159314
0.181863 0.142647 0.163235
0.283334 0.158333 0.171078
0.414216 0.177941 0.182843
0.550490 0.198529 0.209314
0.658824 0.210784 0.255883
0.749510 0.218628 0.294118
0.819608 0.218627 0.325490
0.105882 0.200981 0.181373
0.125490 0.204902 0.181373
0.171569 0.214216 0.181373
0.267647 0.228432 0.186765
0.409804 0.248039 0.197059
0.555882 0.269118 0.213235
0.672549 0.283334 0.261275
0.767647 0.291177 0.302451
0.841667 0.288726 0.333333
0.049020 0.305883 0.197059
0.064706 0.307353 0.198529
0.101961 0.316667 0.200981
0.228432 0.329411 0.202451
0.390686 0.349510 0.210294
0.555882 0.372549 0.224020
0.688236 0.390686 0.270588
0.793137 0.400000 0.314216
0.872549 0.400000 0.349020
0.000000 0.426470 0.211765
0.000000 0.430392 0.211765
0.000000 0.437255 0.212745
0.125980 0.450000 0.212745
0.332353 0.471569 0.220588
0.536274 0.497059 0.233824
0.696079 0.517647 0.275490
0.816666 0.530882 0.326961
0.907353 0.532353 0.366176
0.000000 0.547059 0.250490
0.000000 0.547059 0.242647
0.000000 0.547059 0.223039
0.000000 0.556372 0.212745
0.152451 0.575981 0.212745
0.458823 0.606373 0.226470
0.676471 0.633334 0.271568
0.828431 0.652941 0.335784
0.938235 0.664706 0.382843
0.000000 0.669608 0.291177
0.000000 0.670098 0.285294
0.000000 0.671568 0.265686
0.000000 0.671568 0.230392
0.000000 0.673039 0.170098
0.117157 0.702941 0.174019
0.577451 0.742647 0.234314
0.812745 0.773529 0.333823
0.961274 0.789215 0.396078
0.000000 0.803922 0.347549
0.000000 0.803922 0.339706
0.000000 0.803922 0.324020
0.000000 0.803922 0.292647
0.000000 0.803922 0.232353
0.000000 0.807843 0.114216
0.000000 0.808823 0.039216
0.575000 0.878921 0.240686
0.959314 0.929412 0.400000
0.064706 0.033334 0.201961
0.177941 0.050490 0.207844
0.259804 0.064706 0.209804
0.361275 0.080882 0.217647
0.470588 0.100000 0.217647
0.579412 0.115686 0.221078
0.667647 0.129412 0.258824
0.743627 0.137255 0.290686
0.803922 0.135294 0.317647
0.089706 0.100000 0.227451
0.148530 0.109314 0.231372
0.226470 0.121079 0.235295
0.330392 0.138725 0.239215
0.450981 0.156373 0.243138
0.575490 0.174510 0.237255
0.672549 0.187745 0.259804
0.753431 0.194117 0.294608
0.817647 0.191667 0.325000
0.120588 0.159804 0.251961
0.148530 0.163725 0.254902
0.216667 0.175490 0.258823
0.322059 0.191176 0.266667
0.449020 0.209804 0.267647
0.579412 0.228431 0.257353
0.683334 0.242157 0.266667
0.768137 0.248039 0.302451
0.834314 0.246078 0.329412
0.121079 0.239706 0.282353
0.141176 0.243628 0.282843
0.203432 0.252451 0.288726
0.310294 0.267157 0.294118
0.449020 0.286765 0.298040
0.585784 0.306373 0.286275
0.700000 0.318628 0.273039
0.788725 0.325981 0.312255
0.857353 0.322549 0.341176
0.054902 0.341176 0.305883
0.060784 0.345098 0.309804
0.145098 0.352942 0.313725
0.271569 0.364706 0.321569
0.433334 0.386274 0.329411
0.587255 0.407844 0.317647
0.715687 0.424510 0.292157
0.814216 0.435295 0.325490
0.888235 0.435295 0.356863
0.000000 0.458333 0.325491
0.000000 0.462255 0.328921
0.045098 0.470098 0.333334
0.171078 0.483823 0.341176
0.382843 0.505392 0.350981
0.571569 0.530392 0.345098
0.723530 0.549510 0.316177
0.837745 0.563725 0.337745
0.923039 0.565686 0.374020
0.000000 0.566667 0.345098
0.000000 0.566667 0.340196
0.000000 0.567647 0.335294
0.000000 0.582353 0.345098
0.229411 0.602941 0.356863
0.505883 0.633334 0.360784
0.705882 0.657843 0.332353
0.849510 0.676471 0.345588
0.950981 0.684314 0.388235
0.000000 0.683333 0.384313
0.000000 0.683333 0.378922
0.000000 0.683333 0.367157
0.000000 0.684804 0.343627
0.000000 0.694608 0.328921
0.229412 0.724020 0.337254
0.618627 0.763725 0.330392
0.836274 0.793137 0.341666
0.974510 0.808823 0.400490
0.000000 0.811765 0.433334
0.000000 0.811765 0.429412
0.000000 0.811765 0.417647
0.000000 0.811765 0.398039
0.000000 0.811765 0.362745
0.000000 0.811765 0.292647
0.000000 0.820588 0.156863
0.617157 0.890686 0.258333
0.972549 0.939215 0.403922
0.103431 0.060294 0.291667
0.216667 0.079902 0.304902
0.298530 0.095588 0.316667
0.396078 0.112255 0.320588
0.498039 0.129412 0.312745
0.602941 0.142647 0.287745
0.691177 0.154412 0.267647
0.761274 0.162255 0.298529
0.815686 0.160784 0.321569
0.134804 0.138235 0.328431
0.193137 0.148530 0.336274
0.272549 0.160294 0.347059
0.375000 0.177451 0.359314
0.487745 0.195588 0.355882
0.602941 0.211275 0.332353
0.698529 0.223039 0.294118
0.776471 0.228432 0.305882
0.834804 0.225000 0.329412
0.166176 0.202942 0.358333
0.193137 0.208334 0.363725
0.267157 0.220098 0.375490
0.369608 0.235785 0.388725
0.489706 0.253922 0.394118
0.606863 0.271079 0.371568
0.708333 0.282843 0.323530
0.791667 0.286765 0.313726
0.850980 0.282843 0.338725
0.151961 0.287255 0.389706
0.186765 0.292157 0.395098
0.259314 0.301961 0.403922
0.364706 0.316177 0.421078
0.491667 0.333824 0.430392
0.616176 0.352941 0.414706
0.724020 0.364706 0.364706
0.813726 0.372549 0.323039
0.876961 0.368627 0.351471
0.097549 0.387745 0.415196
0.134804 0.389706 0.419117
0.213235 0.397549 0.430392
0.333824 0.413235 0.447059
0.482353 0.432843 0.463726
0.618627 0.452451 0.455882
0.736274 0.466667 0.405883
0.837745 0.475980 0.338725
0.907353 0.474510 0.364706
0.000000 0.497059 0.434314
0.000000 0.500980 0.438235
0.036765 0.508824 0.447549
0.256863 0.523039 0.465686
0.443138 0.544118 0.489216
0.606863 0.565196 0.493137
0.743137 0.583333 0.450490
0.859804 0.599019 0.366667
0.938725 0.599020 0.381863
0.000000 0.589216 0.433334
0.000000 0.590686 0.438235
0.000000 0.598529 0.450000
0.025980 0.614216 0.468628
0.323529 0.635294 0.495098
0.552941 0.661275 0.516667
0.727941 0.684804 0.489216
0.868628 0.703922 0.391176
0.965686 0.711765 0.396078
0.000000 0.702941 0.464706
0.000000 0.702941 0.464216
0.000000 0.702941 0.456373
0.000000 0.702941 0.441177
0.000000 0.722059 0.465196
0.340196 0.754902 0.501961
0.654412 0.789215 0.509314
0.855882 0.814216 0.414216
0.988235 0.828431 0.407843
0.000000 0.819608 0.511275
0.000000 0.819608 0.507353
0.000000 0.819608 0.499510
0.000000 0.819608 0.487745
0.000000 0.819608 0.467647
0.000000 0.821078 0.428922
0.000000 0.836275 0.384804
0.655882 0.906372 0.380392
0.989706 0.952941 0.411765
0.157843 0.105882 0.390196
0.271078 0.125000 0.413726
0.352941 0.138235 0.429412
0.438725 0.153921 0.441177
0.532353 0.169608 0.441177
0.625980 0.181372 0.413236
0.710784 0.193137 0.353921
0.784804 0.200000 0.309804
0.832353 0.193137 0.329412
0.196568 0.188725 0.429412
0.255392 0.199510 0.441177
0.333333 0.212255 0.459314
0.428431 0.227941 0.476471
0.528431 0.243627 0.484314
0.629902 0.258334 0.468628
0.718628 0.267157 0.416176
0.800490 0.274020 0.333333
0.854902 0.267647 0.341176
0.223529 0.258824 0.462745
0.259314 0.266667 0.470588
0.334313 0.278431 0.487255
0.430883 0.291667 0.505882
0.534314 0.309804 0.517647
0.637745 0.321569 0.513235
0.730392 0.333333 0.466667
0.815196 0.337255 0.370098
0.873529 0.333333 0.349020
0.228432 0.340686 0.493627
0.260785 0.344608 0.500000
0.333333 0.356373 0.515687
0.429412 0.370588 0.535294
0.541177 0.387745 0.552451
0.649510 0.403431 0.552451
0.743137 0.415196 0.517157
0.832353 0.422549 0.419608
0.899020 0.419117 0.360784
0.188235 0.444118 0.519608
0.225000 0.448039 0.524510
0.300980 0.457843 0.541176
0.411765 0.471569 0.562745
0.538235 0.491177 0.584314
0.657353 0.506863 0.592157
0.758824 0.518628 0.567647
0.853431 0.528431 0.474510
0.927451 0.526471 0.376471
0.054412 0.540196 0.535784
0.112255 0.543627 0.542157
0.208334 0.553432 0.554902
0.358333 0.567157 0.579902
0.513235 0.587745 0.610784
0.649510 0.606373 0.625980
0.762745 0.622059 0.613726
0.868628 0.633824 0.532843
0.956863 0.638235 0.389215
0.000000 0.628432 0.538235
0.000000 0.629412 0.543137
0.000000 0.639216 0.558824
0.193627 0.652941 0.583824
0.428431 0.676471 0.621569
0.610784 0.697549 0.649020
0.754902 0.716667 0.650000
0.875490 0.731863 0.586275
0.981372 0.743137 0.403922
0.000000 0.722549 0.538726
0.000000 0.722549 0.538235
0.000000 0.722549 0.534313
0.000000 0.734804 0.554412
0.037255 0.755392 0.593628
0.457353 0.786275 0.646078
0.697059 0.817157 0.673039
0.867157 0.840196 0.629902
1.000000 0.852451 0.415686
0.000000 0.827451 0.577451
0.000000 0.827451 0.577451
0.000000 0.827451 0.573530
0.000000 0.828432 0.565686
0.000000 0.831373 0.553921
0.000000 0.831373 0.530392
0.000000 0.856863 0.556863
0.686275 0.922059 0.622549
1.000000 0.964706 0.419608
0.231863 0.164706 0.487255
0.344608 0.180882 0.517647
0.415196 0.196568 0.534313
0.493137 0.208333 0.550000
0.572549 0.221569 0.557843
0.652941 0.232843 0.549510
0.730392 0.243627 0.509804
0.800490 0.247549 0.404412
0.854902 0.243137 0.341176
0.278921 0.254902 0.530392
0.337255 0.266667 0.546078
0.407353 0.278431 0.564706
0.492647 0.292648 0.583824
0.576961 0.305882 0.600000
0.664216 0.317647 0.600000
0.742157 0.325490 0.570098
0.816176 0.329412 0.486275
0.878431 0.325490 0.352451
0.313236 0.328922 0.565686
0.349020 0.332843 0.576471
0.415686 0.344608 0.593137
0.497059 0.360294 0.612745
0.586765 0.372059 0.630883
0.676471 0.385294 0.637745
0.754412 0.395588 0.616666
0.828431 0.399510 0.549510
0.898039 0.399510 0.380392
0.330392 0.410784 0.599019
0.360784 0.414706 0.607843
0.423039 0.425490 0.623039
0.504902 0.436765 0.642647
0.598529 0.452451 0.661765
0.688236 0.463236 0.671568
0.770098 0.475980 0.662255
0.846078 0.481372 0.610784
0.917647 0.479902 0.435294
0.316667 0.508333 0.625980
0.347549 0.512255 0.635294
0.409804 0.522059 0.650490
0.499510 0.535784 0.671568
0.602451 0.549510 0.695098
0.700000 0.564705 0.708333
0.785784 0.576470 0.707843
0.865196 0.584804 0.665196
0.941176 0.586765 0.501961
0.247059 0.594118 0.644117
0.284313 0.598039 0.651961
0.359804 0.608334 0.667647
0.470098 0.621569 0.693137
0.591176 0.637255 0.720098
0.697059 0.652941 0.739706
0.793627 0.665196 0.746569
0.879412 0.676471 0.715687
0.960784 0.681372 0.568137
0.045588 0.676471 0.651470
0.080392 0.679902 0.655882
0.216177 0.688726 0.674510
0.384804 0.705883 0.702941
0.541177 0.724510 0.738235
0.676961 0.742647 0.766667
0.789706 0.758333 0.781372
0.887255 0.770098 0.762255
0.976471 0.777942 0.626470
0.000000 0.753431 0.627941
0.000000 0.756863 0.631863
0.000000 0.764216 0.650490
0.000000 0.777451 0.678921
0.335784 0.800980 0.724510
0.580392 0.828431 0.774510
0.754412 0.851961 0.804902
0.883333 0.867647 0.804902
0.992647 0.879412 0.669118
0.000000 0.839216 0.647549
0.000000 0.839216 0.647549
0.000000 0.839216 0.647549
0.000000 0.839216 0.641667
0.000000 0.839706 0.635784
0.000000 0.843137 0.623039
0.134804 0.887745 0.712745
0.736274 0.941666 0.801471
1.000000 0.980392 0.653921
0.325490 0.239216 0.588235
0.426961 0.258824 0.619608
0.489216 0.270588 0.635294
0.555392 0.282353 0.650980
0.621568 0.294118 0.662745
0.691667 0.301961 0.666667
0.757843 0.309804 0.650980
0.816176 0.313726 0.595588
0.878431 0.309804 0.419608
0.383824 0.340686 0.634804
0.434804 0.348530 0.650490
0.493138 0.360294 0.670098
0.563235 0.372059 0.686275
0.633333 0.383824 0.701961
0.707353 0.395588 0.709804
0.773529 0.403432 0.705392
0.838726 0.407353 0.669608
0.894118 0.403432 0.532353
0.423529 0.410784 0.670588
0.454412 0.414706 0.681863
0.508824 0.426471 0.697059
0.575000 0.438236 0.716667
0.649019 0.450000 0.731372
0.722059 0.461765 0.742647
0.789215 0.469608 0.744117
0.847549 0.473529 0.713726
0.905882 0.473529 0.610784
0.453431 0.499020 0.708333
0.477941 0.502941 0.716177
0.524020 0.510784 0.729412
0.590686 0.522549 0.747549
0.664706 0.535784 0.767157
0.738725 0.545098 0.778922
0.804902 0.555392 0.782843
0.867157 0.561765 0.766667
0.924020 0.561765 0.684804
0.462745 0.582353 0.741176
0.482353 0.586275 0.747059
0.528431 0.594118 0.760784
0.597059 0.605882 0.778431
0.674509 0.617647 0.798039
0.750490 0.629412 0.813725
0.820588 0.638235 0.819608
0.882843 0.645588 0.809804
0.941176 0.649020 0.747059
0.445588 0.664216 0.768627
0.466667 0.668137 0.774020
0.519117 0.675980 0.788235
0.595588 0.685294 0.810294
0.676470 0.699510 0.828922
0.758333 0.711275 0.848529
0.832353 0.723039 0.858824
0.898529 0.730882 0.852451
0.958333 0.734804 0.805392
0.379412 0.746079 0.784314
0.413235 0.750000 0.792157
0.476471 0.757843 0.807843
0.563235 0.769607 0.832353
0.660784 0.785294 0.860784
0.754902 0.798529 0.883824
0.837255 0.809804 0.899020
0.910294 0.820588 0.899020
0.976471 0.828432 0.859804
0.062745 0.816176 0.752451
0.128922 0.823039 0.760294
0.283333 0.827941 0.779902
0.442158 0.843627 0.815196
0.590686 0.859314 0.856373
0.716177 0.878921 0.894118
0.824510 0.894608 0.930392
0.914215 0.906372 0.949020
0.992157 0.918137 0.914215
0.000000 0.854902 0.662745
0.000000 0.854902 0.662745
0.000000 0.854902 0.662745
0.000000 0.854902 0.666667
0.000000 0.860785 0.676470
0.008334 0.895588 0.759804
0.593137 0.942157 0.867647
0.836765 0.976471 0.945588
1.000000 1.000000 0.984314
