Color/Lomography/Lomography X-Pro Slide 200 65x.cube
TITLE "Lomography X-Pro Slide 200"
LUT_3D_SIZE 65
DOMAIN_MIN 0.000000 0.000000 0.000000
DOMAIN_MAX 1.000000 1.000000 1.000000
0.000000 0.000000 0.000000
0.004841 0.000000 0.000000
0.013603 0.000000 0.000000
0.022365 0.000000 0.000000
0.031128 0.000000 0.000000
0.040564 0.000000 0.000000
0.052573 0.000000 0.000000
0.061336 0.000000 0.000000
0.074020 0.000000 0.000000
0.082782 0.000000 0.000000
0.095466 0.000000 0.000000
0.104228 0.000000 0.000000
0.112990 0.000000 0.000000
0.121937 0.000000 0.000000
0.134436 0.000000 0.000000
0.147120 0.000000 0.000000
0.155883 0.000000 0.000000
0.168566 0.000000 0.000000
0.182108 0.000000 0.000000
0.195711 0.001777 0.000000
0.209314 0.003922 0.000000
0.226838 0.003922 0.000000
0.240441 0.003922 0.000000
0.257966 0.003922 0.000000
0.275490 0.003922 0.000000
0.289645 0.003922 0.000000
0.306617 0.004290 0.000000
0.324142 0.007843 0.000000
0.341667 0.007843 0.000000
0.362316 0.007843 0.000000
0.380637 0.007843 0.000000
0.398162 0.007843 0.000000
0.419608 0.009804 0.000000
0.441054 0.011765 0.000000
0.462377 0.011765 0.000000
0.484743 0.011765 0.000000
0.507108 0.013480 0.003922
0.530760 0.015686 0.003922
0.552206 0.019240 0.003922
0.577574 0.019608 0.003922
0.600490 0.021078 0.003922
0.622855 0.023529 0.003922
0.645221 0.027451 0.003922
0.667586 0.027757 0.003922
0.693873 0.031373 0.003922
0.716238 0.035294 0.003922
0.739460 0.038358 0.003922
0.764829 0.043198 0.003922
0.786275 0.048039 0.004902
0.807721 0.054902 0.007843
0.825245 0.057721 0.007843
0.846691 0.058824 0.007843
0.863480 0.066667 0.007843
0.877819 0.072243 0.007843
0.892770 0.081005 0.007843
0.908946 0.086275 0.007843
0.922059 0.090686 0.007843
0.934742 0.099448 0.007843
0.945833 0.108211 0.007843
0.956189 0.116973 0.007843
0.968872 0.125735 0.007843
0.977635 0.134497 0.007843
0.990319 0.143260 0.007843
0.995159 0.155944 0.007843
1.000000 0.168627 0.007843
0.000000 0.008762 0.000000
0.008762 0.008762 0.000000
0.017524 0.010600 0.000000
0.026287 0.009681 0.000000
0.035049 0.009681 0.000000
0.044485 0.012684 0.000000
0.056495 0.012684 0.000000
0.067769 0.012684 0.000000
0.077941 0.016116 0.000000
0.087623 0.013603 0.000000
0.099387 0.013603 0.000000
0.108149 0.016605 0.000000
0.116912 0.019791 0.000000
0.125858 0.017524 0.000000
0.139461 0.017524 0.000000
0.151042 0.017524 0.000000
0.160723 0.020527 0.000000
0.176348 0.024388 0.000000
0.186030 0.021446 0.000000
0.198774 0.021446 0.000919
0.217157 0.021446 0.000919
0.230760 0.025367 0.000919
0.245282 0.025367 0.000919
0.262807 0.025367 0.003922
0.279412 0.027818 0.003922
0.296936 0.029289 0.003922
0.314461 0.030208 0.003922
0.331985 0.033211 0.003922
0.349510 0.033211 0.003922
0.367034 0.033211 0.003922
0.384559 0.033334 0.003922
0.403003 0.037132 0.003922
0.425490 0.039093 0.005882
0.444976 0.041054 0.004841
0.463419 0.041973 0.004841
0.488665 0.044975 0.004841
0.510233 0.045894 0.007843
0.531679 0.051532 0.007843
0.559681 0.049816 0.007843
0.581495 0.053370 0.007843
0.604412 0.058211 0.007843
0.626777 0.060662 0.007843
0.649142 0.061581 0.007843
0.671507 0.064890 0.007843
0.696569 0.069424 0.008762
0.720159 0.074571 0.008762
0.740380 0.079412 0.008762
0.764890 0.080330 0.008762
0.787255 0.085110 0.008762
0.807721 0.090932 0.008762
0.829167 0.095772 0.008762
0.846691 0.100613 0.008762
0.864216 0.105454 0.008762
0.877084 0.110294 0.007108
0.895343 0.119056 0.007843
0.908946 0.127819 0.007843
0.922059 0.132660 0.007843
0.934742 0.141422 0.007843
0.945833 0.150184 0.007843
0.956189 0.158946 0.007843
0.968872 0.167708 0.007843
0.977635 0.177635 0.007843
0.986397 0.189155 0.007843
0.995159 0.200919 0.007843
1.000000 0.213603 0.007843
0.003922 0.017524 0.000000
0.013603 0.021446 0.000000
0.017524 0.021446 0.000000
0.026287 0.021446 0.000000
0.035049 0.021446 0.000000
0.047733 0.023284 0.000000
0.058333 0.023039 0.000000
0.069179 0.025367 0.000000
0.077941 0.025367 0.000000
0.090625 0.027206 0.000000
0.099387 0.027206 0.001838
0.108149 0.029289 0.001838
0.120098 0.029289 0.001838
0.129596 0.031127 0.000184
0.142279 0.030392 0.003922
0.153064 0.033211 0.003922
0.163725 0.033211 0.003922
0.174326 0.035049 0.003922
0.189951 0.035049 0.003922
0.203554 0.037132 0.003922
0.216299 0.039828 0.003922
0.234681 0.038970 0.003922
0.248284 0.041054 0.003922
0.265809 0.042892 0.003922
0.283334 0.042892 0.003922
0.298775 0.042892 0.003922
0.314461 0.046813 0.005760
0.331985 0.046262 0.005760
0.349510 0.048897 0.005760
0.370159 0.050735 0.005760
0.388480 0.049020 0.007843
0.406005 0.054657 0.007843
0.425368 0.054657 0.007843
0.447855 0.059620 0.007843
0.470220 0.058578 0.007843
0.491789 0.062500 0.009681
0.515074 0.062378 0.009681
0.537316 0.066421 0.009681
0.559681 0.072059 0.009681
0.582046 0.074264 0.011765
0.604412 0.073897 0.011765
0.626226 0.078186 0.011765
0.649755 0.083579 0.011765
0.675123 0.086029 0.011765
0.697794 0.089951 0.011765
0.720159 0.092096 0.011765
0.746446 0.093872 0.011765
0.768750 0.101715 0.011765
0.787255 0.105637 0.011765
0.809620 0.109558 0.011704
0.829167 0.113480 0.011765
0.846691 0.117402 0.011765
0.864216 0.124143 0.011765
0.880086 0.130821 0.011765
0.895343 0.139583 0.011765
0.908946 0.144853 0.011765
0.922059 0.153187 0.009681
0.934742 0.161949 0.007843
0.945833 0.170711 0.007843
0.956189 0.179473 0.007843
0.968872 0.188235 0.007843
0.977635 0.200919 0.007843
0.986397 0.209681 0.007843
0.995159 0.221446 0.007843
1.000000 0.231127 0.007843
0.010601 0.030209 0.000000
0.018444 0.030209 0.000000
0.021446 0.032966 0.000000
0.030209 0.032966 0.000000
0.038971 0.034130 0.003677
0.047733 0.034130 0.002758
0.058088 0.034130 0.002758
0.069179 0.036888 0.002513
0.081373 0.038052 0.003922
0.090625 0.038052 0.003922
0.099387 0.040809 0.003922
0.110906 0.040809 0.003922
0.120834 0.041973 0.003922
0.129780 0.041973 0.003922
0.142279 0.044731 0.003922
0.154963 0.044731 0.003922
0.166666 0.045895 0.003922
0.180269 0.045895 0.003922
0.189951 0.048652 0.003922
0.205699 0.047671 0.003922
0.221139 0.049816 0.003922
0.234681 0.053432 0.007537
0.254350 0.053738 0.006679
0.268566 0.053738 0.006679
0.283334 0.056495 0.007843
0.300858 0.057660 0.007843
0.318382 0.060417 0.007843
0.335906 0.058946 0.007843
0.353432 0.061581 0.007843
0.370956 0.061581 0.007843
0.388480 0.061704 0.007843
0.407047 0.065503 0.010601
0.427451 0.067463 0.010601
0.448897 0.069424 0.011765
0.469179 0.072182 0.011765
0.492586 0.076103 0.011765
0.514951 0.075061 0.011765
0.537316 0.080025 0.011765
0.560049 0.081189 0.011765
0.582046 0.085111 0.011765
0.606863 0.086581 0.011765
0.628309 0.091790 0.014522
0.653064 0.096262 0.014522
0.675429 0.099633 0.014522
0.697794 0.103554 0.015686
0.721936 0.104718 0.015686
0.746446 0.107476 0.015686
0.768750 0.115319 0.015686
0.790196 0.117463 0.015686
0.809620 0.122304 0.015686
0.829167 0.127084 0.015686
0.846691 0.134743 0.015686
0.864216 0.139583 0.015686
0.880086 0.145588 0.015686
0.895343 0.153186 0.014522
0.908946 0.161949 0.011765
0.922059 0.167954 0.011765
0.932231 0.175551 0.011765
0.943505 0.184314 0.011765
0.956189 0.194240 0.010601
0.965196 0.203002 0.007843
0.977635 0.214522 0.007843
0.986397 0.222610 0.007843
0.995159 0.236213 0.007843
1.000000 0.245895 0.007843
0.011765 0.042647 0.003922
0.023284 0.042892 0.003922
0.025367 0.042892 0.003922
0.035049 0.042892 0.003922
0.042647 0.046569 0.003922
0.048407 0.043567 0.003922
0.060417 0.046814 0.003922
0.069179 0.046814 0.003922
0.081863 0.050490 0.003922
0.090625 0.050735 0.003922
0.100735 0.050735 0.003922
0.112071 0.050735 0.003922
0.120834 0.054412 0.003922
0.129780 0.054657 0.003922
0.143382 0.054657 0.007598
0.154963 0.054657 0.007598
0.167647 0.058334 0.007598
0.180269 0.058334 0.007598
0.196692 0.058579 0.004780
0.209376 0.058579 0.007843
0.221078 0.061274 0.007843
0.238665 0.062500 0.007843
0.252206 0.066177 0.007843
0.269731 0.066422 0.007843
0.287255 0.066422 0.007843
0.304534 0.070098 0.011520
0.318382 0.070343 0.011520
0.335906 0.074020 0.011520
0.353432 0.074020 0.011765
0.370956 0.074265 0.011765
0.388603 0.077941 0.011765
0.409926 0.075306 0.011765
0.429412 0.078186 0.011765
0.452574 0.081066 0.015441
0.474142 0.082108 0.015441
0.492586 0.086030 0.015441
0.517157 0.087745 0.015686
0.538603 0.093628 0.015686
0.563726 0.093873 0.015686
0.585417 0.094423 0.015686
0.610539 0.101471 0.015686
0.630698 0.105392 0.015686
0.653064 0.105637 0.019363
0.675429 0.113235 0.019363
0.697794 0.113480 0.016912
0.724081 0.115625 0.019608
0.746446 0.120466 0.019608
0.772425 0.128922 0.019608
0.790196 0.132843 0.019608
0.811642 0.134988 0.019608
0.829167 0.139828 0.019608
0.846691 0.148346 0.019608
0.864216 0.153186 0.019363
0.880086 0.158272 0.019363
0.895343 0.166789 0.015686
0.908946 0.175552 0.015686
0.922059 0.180638 0.015686
0.932231 0.189400 0.017953
0.943505 0.198162 0.011765
0.956189 0.206924 0.011765
0.965196 0.215687 0.015197
0.977635 0.228126 0.007843
0.986397 0.236887 0.007843
0.995159 0.245895 0.007843
1.000000 0.258334 0.007843
0.019608 0.052328 0.003922
0.025122 0.055576 0.004596
0.032047 0.055576 0.004596
0.038725 0.055576 0.004596
0.046814 0.056250 0.004596
0.052328 0.059498 0.004596
0.061091 0.059498 0.004596
0.073101 0.059498 0.004596
0.081863 0.062930 0.007843
0.094547 0.059927 0.007843
0.103309 0.063419 0.007843
0.112071 0.063419 0.007843
0.124019 0.066605 0.007843
0.133517 0.063603 0.007843
0.146201 0.067341 0.007843
0.155637 0.067341 0.008517
0.170588 0.070282 0.008517
0.180331 0.068015 0.008517
0.193689 0.071262 0.008517
0.209620 0.071262 0.008517
0.225000 0.071936 0.011765
0.235663 0.075184 0.011765
0.256127 0.075858 0.011765
0.273652 0.075858 0.011765
0.285478 0.079105 0.011765
0.304779 0.082476 0.012439
0.322304 0.083027 0.012439
0.339828 0.083027 0.012439
0.357353 0.083701 0.012439
0.374878 0.086949 0.015686
0.392402 0.087623 0.015686
0.410600 0.087623 0.015686
0.431373 0.092831 0.016360
0.452819 0.091544 0.016360
0.471017 0.098591 0.019608
0.496508 0.098713 0.019608
0.518873 0.099387 0.019608
0.541238 0.105270 0.019608
0.560723 0.106556 0.019608
0.585968 0.110478 0.020282
0.607537 0.111152 0.020282
0.632230 0.116789 0.020282
0.656986 0.118321 0.020282
0.679044 0.122917 0.019914
0.701716 0.127389 0.023529
0.724081 0.132231 0.023529
0.747304 0.137070 0.024203
0.768811 0.137990 0.024203
0.791176 0.142524 0.024203
0.811642 0.148346 0.024203
0.829167 0.156433 0.021384
0.846691 0.158211 0.023529
0.864216 0.166054 0.023529
0.880086 0.171629 0.023529
0.895343 0.177819 0.020282
0.908946 0.188481 0.020282
0.922059 0.193995 0.019608
0.932231 0.202757 0.019608
0.943505 0.211520 0.016360
0.956189 0.220282 0.013112
0.964951 0.229044 0.016115
0.977635 0.237806 0.012439
0.986397 0.249816 0.011765
0.995159 0.258578 0.011765
1.000000 0.268015 0.008517
0.025122 0.064338 0.007843
0.032966 0.065931 0.007843
0.038725 0.068260 0.007843
0.045895 0.068260 0.007843
0.048652 0.068260 0.007843
0.057169 0.069853 0.007843
0.064338 0.069853 0.007843
0.073101 0.072181 0.007843
0.085294 0.072181 0.009436
0.094547 0.073774 0.009436
0.103309 0.073774 0.009436
0.112071 0.073774 0.009436
0.122426 0.076103 0.011765
0.133701 0.076103 0.011765
0.147794 0.077696 0.011765
0.158885 0.080024 0.011765
0.170588 0.080024 0.011765
0.184191 0.080024 0.011765
0.198529 0.081618 0.011765
0.211397 0.083946 0.013358
0.223897 0.083946 0.013358
0.242524 0.087561 0.013358
0.256127 0.087868 0.015686
0.273652 0.089461 0.015686
0.291177 0.089461 0.015686
0.308701 0.091789 0.019056
0.322304 0.093382 0.017279
0.339828 0.095711 0.017279
0.357353 0.095711 0.017279
0.374878 0.098836 0.019608
0.392525 0.099632 0.019608
0.413848 0.101225 0.019608
0.432966 0.103554 0.021569
0.455699 0.106434 0.021201
0.478063 0.107475 0.023529
0.496508 0.108272 0.023529
0.521078 0.113113 0.023529
0.542525 0.115318 0.023529
0.567524 0.116912 0.023529
0.589338 0.119791 0.025122
0.610784 0.124755 0.025122
0.634620 0.127083 0.025122
0.656986 0.128676 0.025122
0.679350 0.136519 0.023835
0.701716 0.140441 0.027451
0.725858 0.144914 0.029044
0.750367 0.149755 0.029044
0.768811 0.150675 0.029044
0.791176 0.155514 0.029044
0.811642 0.161948 0.029044
0.829167 0.169118 0.029044
0.846691 0.171814 0.025306
0.864216 0.178800 0.027451
0.880086 0.187561 0.027451
0.895343 0.193995 0.025122
0.908946 0.201164 0.025122
0.922059 0.207598 0.023529
0.932231 0.216360 0.023713
0.943505 0.222794 0.021201
0.956189 0.232291 0.019608
0.964951 0.241054 0.020956
0.977635 0.251410 0.017279
0.986397 0.260172 0.015686
0.992157 0.271263 0.013358
1.000000 0.280024 0.011765
0.033885 0.077022 0.011765
0.038725 0.077022 0.011765
0.045650 0.079534 0.011765
0.049571 0.079534 0.011765
0.057169 0.079534 0.011765
0.065258 0.080944 0.011765
0.070772 0.080944 0.011765
0.077022 0.083456 0.011765
0.085785 0.083456 0.011765
0.094547 0.084866 0.011765
0.103309 0.084866 0.011765
0.114338 0.087377 0.014277
0.124755 0.087377 0.014277
0.137439 0.088787 0.014277
0.147304 0.088787 0.015686
0.158885 0.091299 0.015686
0.171568 0.091299 0.015686
0.184253 0.092709 0.015686
0.197794 0.092709 0.018199
0.211397 0.095220 0.018199
0.228922 0.095220 0.018199
0.241421 0.096630 0.018199
0.260049 0.099142 0.019608
0.278554 0.100552 0.019608
0.291177 0.100552 0.019608
0.308701 0.103063 0.022978
0.326225 0.104473 0.022120
0.343750 0.106985 0.022120
0.361275 0.106679 0.021814
0.378799 0.108395 0.023529
0.396323 0.110906 0.026042
0.414890 0.112316 0.023529
0.435295 0.114828 0.026042
0.455331 0.116238 0.026042
0.476777 0.118750 0.027451
0.502145 0.122671 0.027451
0.522794 0.124081 0.029964
0.545160 0.126593 0.029964
0.567524 0.130514 0.031005
0.591850 0.134436 0.029964
0.612255 0.138357 0.029964
0.634620 0.139767 0.031373
0.656189 0.142279 0.031373
0.679350 0.150122 0.031373
0.701716 0.154044 0.033885
0.728002 0.157965 0.033885
0.750367 0.162439 0.033885
0.772672 0.163357 0.033885
0.794118 0.168199 0.033885
0.811642 0.175551 0.033885
0.831679 0.181802 0.033885
0.850612 0.185416 0.033885
0.864216 0.191482 0.033885
0.880086 0.201103 0.031373
0.895343 0.207598 0.029964
0.908946 0.213848 0.029964
0.922059 0.221201 0.027451
0.932231 0.227451 0.028554
0.943505 0.236214 0.026042
0.955515 0.244976 0.023529
0.964951 0.253738 0.025796
0.974877 0.262501 0.022120
0.986397 0.271263 0.019608
0.992647 0.282537 0.015196
1.000000 0.292709 0.015686
0.038726 0.089706 0.015196
0.046569 0.089706 0.015686
0.052329 0.089706 0.015686
0.057169 0.089706 0.015686
0.062500 0.093138 0.015686
0.067341 0.090381 0.015686
0.075612 0.093628 0.015686
0.080944 0.093628 0.015686
0.089706 0.097059 0.015686
0.097979 0.097059 0.015686
0.106741 0.097549 0.019118
0.115992 0.097549 0.019118
0.124755 0.097549 0.019118
0.140871 0.100981 0.019118
0.150123 0.101471 0.019608
0.160907 0.101471 0.019608
0.175000 0.101471 0.019608
0.188112 0.104902 0.023468
0.204289 0.105392 0.023039
0.215319 0.105392 0.023039
0.228922 0.108824 0.023039
0.246446 0.108824 0.023529
0.260049 0.109314 0.023529
0.277574 0.112745 0.023529
0.295098 0.113235 0.023529
0.312684 0.113235 0.026961
0.326225 0.113603 0.026961
0.343750 0.117157 0.027451
0.361275 0.120588 0.027451
0.378799 0.120282 0.030883
0.396446 0.124510 0.030883
0.417769 0.122120 0.030883
0.437255 0.128432 0.030883
0.460171 0.127880 0.031373
0.481985 0.132720 0.034804
0.500429 0.136275 0.034804
0.522794 0.136765 0.034804
0.546446 0.139399 0.034804
0.567892 0.144240 0.034804
0.589889 0.148040 0.035294
0.612255 0.148530 0.038726
0.636152 0.150919 0.038726
0.661029 0.155760 0.038726
0.682966 0.163726 0.038726
0.705638 0.167647 0.038726
0.728002 0.171569 0.039216
0.750367 0.175490 0.042647
0.776103 0.176041 0.042647
0.794118 0.180883 0.039216
0.815074 0.191177 0.039216
0.833088 0.194485 0.039216
0.850612 0.199020 0.039216
0.864216 0.204166 0.038726
0.881740 0.214706 0.038726
0.895343 0.217770 0.035294
0.908946 0.226532 0.035294
0.922059 0.234804 0.034804
0.932231 0.240134 0.031373
0.943505 0.248897 0.032476
0.955515 0.257660 0.030883
0.964951 0.266421 0.027451
0.973713 0.275183 0.026961
0.986397 0.283946 0.024877
0.991238 0.292709 0.019608
1.000000 0.304902 0.019608
0.047488 0.098897 0.020037
0.052328 0.098897 0.020037
0.057169 0.102390 0.020037
0.062011 0.102390 0.020037
0.070343 0.102390 0.020037
0.075184 0.102390 0.020037
0.078860 0.102819 0.020037
0.088787 0.106311 0.020037
0.090625 0.106311 0.020037
0.098897 0.106311 0.020037
0.107230 0.106311 0.023529
0.115992 0.106740 0.023529
0.128677 0.110233 0.026716
0.141360 0.110233 0.023958
0.150552 0.110233 0.023958
0.162806 0.110662 0.023958
0.175490 0.114154 0.027451
0.192034 0.114154 0.027451
0.201287 0.115012 0.027880
0.219240 0.114583 0.027880
0.232843 0.118076 0.027880
0.250367 0.118076 0.027880
0.263970 0.121998 0.031986
0.281495 0.121998 0.030270
0.299020 0.124449 0.031802
0.309681 0.125919 0.031802
0.330147 0.126348 0.031802
0.347671 0.129841 0.035294
0.365196 0.129841 0.037500
0.382721 0.132966 0.035723
0.400674 0.133762 0.035723
0.421691 0.134803 0.035723
0.441176 0.137684 0.035723
0.460662 0.138113 0.039216
0.482108 0.141605 0.039645
0.504351 0.145527 0.039645
0.526716 0.145956 0.039645
0.549081 0.149878 0.043137
0.571446 0.156923 0.039645
0.593811 0.157843 0.043689
0.616176 0.162683 0.043566
0.638542 0.165135 0.043566
0.658027 0.165564 0.043566
0.683272 0.173407 0.043566
0.704841 0.178125 0.043566
0.729779 0.182965 0.049203
0.754289 0.187807 0.047488
0.772733 0.188725 0.047488
0.795098 0.197487 0.046508
0.815564 0.202328 0.047059
0.833088 0.207170 0.047059
0.850612 0.208701 0.043566
0.867402 0.216544 0.043566
0.881740 0.225613 0.041911
0.895343 0.228309 0.043137
0.908946 0.239215 0.043137
0.922059 0.243995 0.039645
0.932231 0.252818 0.039645
0.943505 0.261582 0.037317
0.955515 0.266851 0.035723
0.964951 0.275613 0.035478
0.973713 0.284375 0.030638
0.984559 0.293137 0.027880
0.992157 0.305393 0.027451
1.000000 0.314155 0.023958
0.056250 0.111152 0.024877
0.060172 0.111152 0.024448
0.064093 0.112990 0.027451
0.068015 0.112500 0.027451
0.071936 0.112500 0.027451
0.079105 0.115073 0.027451
0.085294 0.115073 0.027451
0.092709 0.115073 0.027451
0.095466 0.118505 0.030883
0.103738 0.115502 0.028799
0.111152 0.118995 0.028799
0.119914 0.118995 0.028799
0.131862 0.118995 0.028799
0.141544 0.119179 0.028799
0.154044 0.122917 0.031373
0.164154 0.122917 0.033395
0.178431 0.122917 0.032721
0.192034 0.124265 0.032721
0.206128 0.126838 0.032721
0.218811 0.126838 0.035294
0.236765 0.128186 0.036642
0.248100 0.128186 0.036642
0.267892 0.130760 0.036642
0.281311 0.132108 0.036642
0.299020 0.134681 0.036642
0.316544 0.138051 0.036642
0.331495 0.138603 0.040564
0.347671 0.139951 0.040564
0.367402 0.139951 0.040564
0.384069 0.142524 0.040564
0.404167 0.142647 0.044485
0.423039 0.146446 0.044485
0.443137 0.147794 0.044485
0.462010 0.153248 0.044485
0.485907 0.151716 0.044485
0.507475 0.155085 0.048407
0.528921 0.159559 0.048407
0.550368 0.164767 0.048407
0.571814 0.169608 0.048407
0.593811 0.171323 0.048407
0.616054 0.173897 0.048407
0.640073 0.175245 0.053370
0.664829 0.179167 0.052328
0.686888 0.187010 0.052328
0.709681 0.190931 0.052328
0.731924 0.195650 0.052328
0.754289 0.200490 0.052328
0.776594 0.201409 0.052328
0.795098 0.206250 0.052328
0.815564 0.215013 0.052880
0.833088 0.219852 0.052328
0.850612 0.222304 0.052328
0.867402 0.229534 0.051593
0.881740 0.235723 0.048407
0.895343 0.243138 0.048407
0.908946 0.249326 0.048407
0.922059 0.256740 0.047059
0.932231 0.262929 0.047059
0.943505 0.270344 0.044485
0.955515 0.279106 0.043137
0.964951 0.287868 0.039216
0.973713 0.296630 0.036642
0.982476 0.305392 0.035294
0.993812 0.314154 0.032721
1.000000 0.324265 0.031373
0.061091 0.123836 0.033640
0.068934 0.123836 0.033640
0.072855 0.123836 0.033640
0.075612 0.123836 0.033640
0.080454 0.126103 0.033640
0.085294 0.126103 0.033640
0.092463 0.125429 0.033640
0.096385 0.127757 0.033640
0.100306 0.127757 0.033640
0.108578 0.130024 0.033640
0.115073 0.130024 0.033640
0.123836 0.130024 0.035294
0.132598 0.131679 0.038481
0.145282 0.133946 0.037561
0.156311 0.133946 0.037561
0.166728 0.133701 0.037561
0.179412 0.135600 0.037561
0.195955 0.135600 0.039216
0.205638 0.137867 0.041483
0.223162 0.139522 0.041483
0.236336 0.139522 0.041483
0.254289 0.141789 0.041483
0.270159 0.143443 0.043137
0.285417 0.145711 0.045404
0.302941 0.145711 0.045404
0.315441 0.150735 0.045404
0.334068 0.147733 0.045404
0.351593 0.151287 0.047059
0.369118 0.153554 0.049326
0.386642 0.155208 0.049326
0.406434 0.157475 0.049326
0.425613 0.159130 0.049326
0.445404 0.161091 0.049019
0.467463 0.165931 0.053860
0.486030 0.165318 0.053247
0.508272 0.167770 0.053247
0.530637 0.172610 0.052696
0.553003 0.177083 0.054902
0.575368 0.182292 0.054902
0.599448 0.184926 0.057169
0.620895 0.186581 0.057169
0.642463 0.188848 0.057169
0.664829 0.192769 0.057169
0.687194 0.200613 0.057169
0.709559 0.204534 0.057169
0.731924 0.208456 0.057169
0.755147 0.213174 0.058824
0.778860 0.214094 0.058824
0.798039 0.218933 0.060111
0.815564 0.226042 0.057169
0.833088 0.232537 0.057169
0.850612 0.237378 0.057169
0.869670 0.242219 0.057169
0.881740 0.247058 0.054902
0.895343 0.255821 0.054902
0.908946 0.259436 0.054902
0.922059 0.271201 0.053247
0.932231 0.274264 0.050980
0.943505 0.283027 0.050980
0.955515 0.291790 0.047059
0.964951 0.298897 0.045404
0.973713 0.307660 0.044240
0.982476 0.316238 0.039216
0.991238 0.326839 0.039216
1.000000 0.335600 0.037561
0.069853 0.136520 0.038481
0.074693 0.136520 0.038481
0.076348 0.139705 0.038481
0.081618 0.139705 0.038481
0.085540 0.139705 0.038481
0.093383 0.139705 0.039216
0.095711 0.140441 0.039216
0.100552 0.140441 0.039216
0.108579 0.143873 0.039216
0.116912 0.143627 0.039216
0.122181 0.143627 0.042402
0.127757 0.144363 0.042402
0.136520 0.144363 0.042402
0.145282 0.147549 0.042402
0.157966 0.147549 0.042402
0.168750 0.146385 0.043137
0.182353 0.148285 0.043137
0.195955 0.151470 0.046998
0.209559 0.151470 0.046324
0.223162 0.152206 0.046324
0.240686 0.155392 0.047059
0.257476 0.155392 0.050674
0.271813 0.159313 0.050245
0.290993 0.159313 0.050245
0.302941 0.160049 0.050245
0.320466 0.163235 0.050245
0.340809 0.163971 0.050980
0.354779 0.167156 0.054167
0.372304 0.166176 0.054167
0.389829 0.171078 0.054167
0.408088 0.168015 0.054902
0.428798 0.175000 0.054902
0.447058 0.173775 0.058089
0.467463 0.178921 0.058089
0.489828 0.183456 0.058089
0.511397 0.186764 0.058824
0.532843 0.188480 0.058824
0.554290 0.190135 0.058824
0.575736 0.194607 0.058824
0.597732 0.195895 0.062010
0.620098 0.202451 0.062010
0.642463 0.206372 0.062010
0.665442 0.209682 0.062010
0.687194 0.211335 0.062010
0.712255 0.218137 0.062010
0.736887 0.222058 0.062010
0.758333 0.225980 0.061887
0.776655 0.229963 0.062745
0.798039 0.234804 0.062745
0.815564 0.241666 0.062010
0.833088 0.245588 0.062010
0.850612 0.249509 0.062010
0.868138 0.254902 0.062010
0.881740 0.262929 0.058824
0.895343 0.269117 0.058824
0.908946 0.273039 0.058824
0.922059 0.281373 0.058089
0.932231 0.286948 0.054902
0.943505 0.295710 0.055760
0.952267 0.303738 0.050980
0.964951 0.312500 0.050245
0.973713 0.321262 0.047059
0.982476 0.330024 0.046324
0.991238 0.338603 0.043137
1.000000 0.348285 0.039216
0.078615 0.149388 0.043321
0.082537 0.149388 0.043321
0.088113 0.149388 0.043321
0.089216 0.153125 0.043321
0.094056 0.153125 0.043321
0.098223 0.153125 0.043321
0.102145 0.153309 0.043321
0.106066 0.153309 0.043321
0.113420 0.153309 0.047059
0.118260 0.157047 0.047059
0.125674 0.157047 0.047059
0.135600 0.157231 0.047059
0.144363 0.157231 0.047243
0.149388 0.160968 0.047243
0.158150 0.162071 0.047243
0.172672 0.161152 0.047243
0.186274 0.161152 0.050980
0.199877 0.164890 0.050980
0.213481 0.165074 0.051164
0.225490 0.165074 0.051164
0.244608 0.168811 0.051164
0.254779 0.168995 0.054902
0.275735 0.168995 0.055515
0.287991 0.174264 0.055086
0.306863 0.172917 0.055086
0.324387 0.176655 0.055086
0.337806 0.176839 0.055086
0.355514 0.181862 0.058824
0.373039 0.180760 0.061030
0.390564 0.184498 0.059008
0.408211 0.184682 0.058947
0.429534 0.189460 0.062745
0.447242 0.188603 0.062745
0.468689 0.192525 0.062745
0.493750 0.196262 0.062745
0.511581 0.200980 0.063542
0.533027 0.200368 0.062929
0.554473 0.204290 0.062929
0.575919 0.208211 0.062929
