Black-and-White/Fuji/Fuji Neopan Acros 100 65x.cube
TITLE "Fuji Neopan Acros 100"
LUT_3D_SIZE 9
DOMAIN_MIN 0.000000 0.000000 0.000000
DOMAIN_MAX 1.000000 1.000000 1.000000
0.000000 0.000000 0.000000
0.000000 0.000000 0.000000
0.003922 0.003922 0.003922
0.015686 0.015686 0.015686
0.033334 0.033334 0.033334
0.064216 0.064216 0.064216
0.106862 0.106862 0.106862
0.161274 0.161274 0.161274
0.250980 0.250980 0.250980
0.066177 0.066177 0.066177
0.077451 0.077451 0.077451
0.089706 0.089706 0.089706
0.105392 0.105392 0.105392
0.125000 0.125000 0.125000
0.157843 0.157843 0.157843
0.200490 0.200490 0.200490
0.262746 0.262746 0.262746
0.340686 0.340686 0.340686
0.147059 0.147059 0.147059
0.151961 0.151961 0.151961
0.163725 0.163725 0.163725
0.179412 0.179412 0.179412
0.202941 0.202941 0.202941
0.235785 0.235785 0.235785
0.278432 0.278432 0.278432
0.332844 0.332844 0.332844
0.399020 0.399020 0.399020
0.255883 0.255883 0.255883
0.259804 0.259804 0.259804
0.267647 0.267647 0.267647
0.283334 0.283334 0.283334
0.306863 0.306863 0.306863
0.333334 0.333334 0.333334
0.369608 0.369608 0.369608
0.406863 0.406863 0.406863
0.461275 0.461275 0.461275
0.384313 0.384313 0.384313
0.386274 0.386274 0.386274
0.392157 0.392157 0.392157
0.403922 0.403922 0.403922
0.419608 0.419608 0.419608
0.439215 0.439215 0.439215
0.461765 0.461765 0.461765
0.492647 0.492647 0.492647
0.539216 0.539216 0.539216
0.504902 0.504902 0.504902
0.507353 0.507353 0.507353
0.511275 0.511275 0.511275
0.519118 0.519118 0.519118
0.530882 0.530882 0.530882
0.546569 0.546569 0.546569
0.567647 0.567647 0.567647
0.593627 0.593627 0.593627
0.630392 0.630392 0.630392
0.629412 0.629412 0.629412
0.629412 0.629412 0.629412
0.633334 0.633334 0.633334
0.642648 0.642648 0.642648
0.649020 0.649020 0.649020
0.660785 0.660785 0.660785
0.676471 0.676471 0.676471
0.696079 0.696079 0.696079
0.723530 0.723530 0.723530
0.757353 0.757353 0.757353
0.757843 0.757843 0.757843
0.757843 0.757843 0.757843
0.761764 0.761764 0.761764
0.771078 0.771078 0.771078
0.776961 0.776961 0.776961
0.785294 0.785294 0.785294
0.800980 0.800980 0.800980
0.820588 0.820588 0.820588
0.890196 0.890196 0.890196
0.890196 0.890196 0.890196
0.894118 0.894118 0.894118
0.894118 0.894118 0.894118
0.898039 0.898039 0.898039
0.901961 0.901961 0.901961
0.909804 0.909804 0.909804
0.917647 0.917647 0.917647
0.933333 0.933333 0.933333
0.000000 0.000000 0.000000
0.003922 0.003922 0.003922
0.011765 0.011765 0.011765
0.022059 0.022059 0.022059
0.042647 0.042647 0.042647
0.074510 0.074510 0.074510
0.114706 0.114706 0.114706
0.173039 0.173039 0.173039
0.266667 0.266667 0.266667
0.074020 0.074020 0.074020
0.081863 0.081863 0.081863
0.096569 0.096569 0.096569
0.112745 0.112745 0.112745
0.132843 0.132843 0.132843
0.165686 0.165686 0.165686
0.212255 0.212255 0.212255
0.270588 0.270588 0.270588
0.348530 0.348530 0.348530
0.151961 0.151961 0.151961
0.158823 0.158823 0.158823
0.170588 0.170588 0.170588
0.186274 0.186274 0.186274
0.209804 0.209804 0.209804
0.243627 0.243627 0.243627
0.286275 0.286275 0.286275
0.340196 0.340196 0.340196
0.402941 0.402941 0.402941
0.259804 0.259804 0.259804
0.263726 0.263726 0.263726
0.275490 0.275490 0.275490
0.288726 0.288726 0.288726
0.310785 0.310785 0.310785
0.338235 0.338235 0.338235
0.372059 0.372059 0.372059
0.414216 0.414216 0.414216
0.465196 0.465196 0.465196
0.388235 0.388235 0.388235
0.390196 0.390196 0.390196
0.396079 0.396079 0.396079
0.407844 0.407844 0.407844
0.423530 0.423530 0.423530
0.442647 0.442647 0.442647
0.465686 0.465686 0.465686
0.498040 0.498040 0.498040
0.543137 0.543137 0.543137
0.508824 0.508824 0.508824
0.508824 0.508824 0.508824
0.512745 0.512745 0.512745
0.520588 0.520588 0.520588
0.532843 0.532843 0.532843
0.548039 0.548039 0.548039
0.567647 0.567647 0.567647
0.595098 0.595098 0.595098
0.632843 0.632843 0.632843
0.633334 0.633334 0.633334
0.633334 0.633334 0.633334
0.637255 0.637255 0.637255
0.641177 0.641177 0.641177
0.651960 0.651960 0.651960
0.663235 0.663235 0.663235
0.676471 0.676471 0.676471
0.699019 0.699019 0.699019
0.726470 0.726470 0.726470
0.757843 0.757843 0.757843
0.757843 0.757843 0.757843
0.761764 0.761764 0.761764
0.765686 0.765686 0.765686
0.769607 0.769607 0.769607
0.777451 0.777451 0.777451
0.789215 0.789215 0.789215
0.800980 0.800980 0.800980
0.824019 0.824019 0.824019
0.894118 0.894118 0.894118
0.894118 0.894118 0.894118
0.894118 0.894118 0.894118
0.898039 0.898039 0.898039
0.900000 0.900000 0.900000
0.905882 0.905882 0.905882
0.909804 0.909804 0.909804
0.918137 0.918137 0.918137
0.933333 0.933333 0.933333
0.000000 0.000000 0.000000
0.006863 0.006863 0.006863
0.014706 0.014706 0.014706
0.027451 0.027451 0.027451
0.050980 0.050980 0.050980
0.082353 0.082353 0.082353
0.122549 0.122549 0.122549
0.184804 0.184804 0.184804
0.274510 0.274510 0.274510
0.081863 0.081863 0.081863
0.089706 0.089706 0.089706
0.101471 0.101471 0.101471
0.117157 0.117157 0.117157
0.140686 0.140686 0.140686
0.173530 0.173530 0.173530
0.220098 0.220098 0.220098
0.278431 0.278431 0.278431
0.356373 0.356373 0.356373
0.159804 0.159804 0.159804
0.163725 0.163725 0.163725
0.175490 0.175490 0.175490
0.194117 0.194117 0.194117
0.217647 0.217647 0.217647
0.251471 0.251471 0.251471
0.294118 0.294118 0.294118
0.347059 0.347059 0.347059
0.410784 0.410784 0.410784
0.267647 0.267647 0.267647
0.271569 0.271569 0.271569
0.283334 0.283334 0.283334
0.296569 0.296569 0.296569
0.318628 0.318628 0.318628
0.346079 0.346079 0.346079
0.379902 0.379902 0.379902
0.418627 0.418627 0.418627
0.473039 0.473039 0.473039
0.394118 0.394118 0.394118
0.396079 0.396079 0.396079
0.403922 0.403922 0.403922
0.412255 0.412255 0.412255
0.427451 0.427451 0.427451
0.447059 0.447059 0.447059
0.472549 0.472549 0.472549
0.504412 0.504412 0.504412
0.549019 0.549019 0.549019
0.512745 0.512745 0.512745
0.515196 0.515196 0.515196
0.520588 0.520588 0.520588
0.528431 0.528431 0.528431
0.540196 0.540196 0.540196
0.554412 0.554412 0.554412
0.575000 0.575000 0.575000
0.601471 0.601471 0.601471
0.638235 0.638235 0.638235
0.637255 0.637255 0.637255
0.637255 0.637255 0.637255
0.641177 0.641177 0.641177
0.647059 0.647059 0.647059
0.656863 0.656863 0.656863
0.667647 0.667647 0.667647
0.680392 0.680392 0.680392
0.702941 0.702941 0.702941
0.731373 0.731373 0.731373
0.761764 0.761764 0.761764
0.761764 0.761764 0.761764
0.765686 0.765686 0.765686
0.769607 0.769607 0.769607
0.773529 0.773529 0.773529
0.781372 0.781372 0.781372
0.792647 0.792647 0.792647
0.804902 0.804902 0.804902
0.827941 0.827941 0.827941
0.898039 0.898039 0.898039
0.898039 0.898039 0.898039
0.898039 0.898039 0.898039
0.901961 0.901961 0.901961
0.901961 0.901961 0.901961
0.909804 0.909804 0.909804
0.913725 0.913725 0.913725
0.921569 0.921569 0.921569
0.937255 0.937255 0.937255
0.000000 0.000000 0.000000
0.007843 0.007843 0.007843
0.019608 0.019608 0.019608
0.035294 0.035294 0.035294
0.058824 0.058824 0.058824
0.090196 0.090196 0.090196
0.134314 0.134314 0.134314
0.192647 0.192647 0.192647
0.286275 0.286275 0.286275
0.089706 0.089706 0.089706
0.097549 0.097549 0.097549
0.109314 0.109314 0.109314
0.125000 0.125000 0.125000
0.148530 0.148530 0.148530
0.183824 0.183824 0.183824
0.229412 0.229412 0.229412
0.290196 0.290196 0.290196
0.367157 0.367157 0.367157
0.167647 0.167647 0.167647
0.174020 0.174020 0.174020
0.186274 0.186274 0.186274
0.202941 0.202941 0.202941
0.228432 0.228432 0.228432
0.261765 0.261765 0.261765
0.303921 0.303921 0.303921
0.356373 0.356373 0.356373
0.418628 0.418628 0.418628
0.276961 0.276961 0.276961
0.280882 0.280882 0.280882
0.291177 0.291177 0.291177
0.306863 0.306863 0.306863
0.326471 0.326471 0.326471
0.353922 0.353922 0.353922
0.387745 0.387745 0.387745
0.426470 0.426470 0.426470
0.479412 0.479412 0.479412
0.401961 0.401961 0.401961
0.403922 0.403922 0.403922
0.411764 0.411764 0.411764
0.420098 0.420098 0.420098
0.435295 0.435295 0.435295
0.454902 0.454902 0.454902
0.478432 0.478432 0.478432
0.512255 0.512255 0.512255
0.556863 0.556863 0.556863
0.520588 0.520588 0.520588
0.520588 0.520588 0.520588
0.525490 0.525490 0.525490
0.533333 0.533333 0.533333
0.544608 0.544608 0.544608
0.559804 0.559804 0.559804
0.579412 0.579412 0.579412
0.606863 0.606863 0.606863
0.644608 0.644608 0.644608
0.642647 0.642647 0.642647
0.645098 0.645098 0.645098
0.648039 0.648039 0.648039
0.652941 0.652941 0.652941
0.660785 0.660785 0.660785
0.672549 0.672549 0.672549
0.688236 0.688236 0.688236
0.707843 0.707843 0.707843
0.738235 0.738235 0.738235
0.765686 0.765686 0.765686
0.769117 0.769117 0.769117
0.769607 0.769607 0.769607
0.773529 0.773529 0.773529
0.778922 0.778922 0.778922
0.785294 0.785294 0.785294
0.797058 0.797058 0.797058
0.808823 0.808823 0.808823
0.831863 0.831863 0.831863
0.901961 0.901961 0.901961
0.901961 0.901961 0.901961
0.901961 0.901961 0.901961
0.905882 0.905882 0.905882
0.909804 0.909804 0.909804
0.913725 0.913725 0.913725
0.918627 0.918627 0.918627
0.927941 0.927941 0.927941
0.941176 0.941176 0.941176
0.003922 0.003922 0.003922
0.015196 0.015196 0.015196
0.026471 0.026471 0.026471
0.043137 0.043137 0.043137
0.068628 0.068628 0.068628
0.099510 0.099510 0.099510
0.142157 0.142157 0.142157
0.208333 0.208333 0.208333
0.300000 0.300000 0.300000
0.097549 0.097549 0.097549
0.105392 0.105392 0.105392
0.117157 0.117157 0.117157
0.135294 0.135294 0.135294
0.158333 0.158333 0.158333
0.193627 0.193627 0.193627
0.239706 0.239706 0.239706
0.301961 0.301961 0.301961
0.375981 0.375981 0.375981
0.178431 0.178431 0.178431
0.183334 0.183334 0.183334
0.195098 0.195098 0.195098
0.213235 0.213235 0.213235
0.240196 0.240196 0.240196
0.272549 0.272549 0.272549
0.314706 0.314706 0.314706
0.364216 0.364216 0.364216
0.426471 0.426471 0.426471
0.287255 0.287255 0.287255
0.291177 0.291177 0.291177
0.302941 0.302941 0.302941
0.318138 0.318138 0.318138
0.338235 0.338235 0.338235
0.365196 0.365196 0.365196
0.396569 0.396569 0.396569
0.435785 0.435785 0.435785
0.488726 0.488726 0.488726
0.411764 0.411764 0.411764
0.413725 0.413725 0.413725
0.419608 0.419608 0.419608
0.431373 0.431373 0.431373
0.443137 0.443137 0.443137
0.462746 0.462746 0.462746
0.488236 0.488236 0.488236
0.520098 0.520098 0.520098
0.564705 0.564705 0.564705
0.528431 0.528431 0.528431
0.528921 0.528921 0.528921
0.533824 0.533824 0.533824
0.541176 0.541176 0.541176
0.552451 0.552451 0.552451
0.567647 0.567647 0.567647
0.587745 0.587745 0.587745
0.614706 0.614706 0.614706
0.652451 0.652451 0.652451
0.649020 0.649020 0.649020
0.651960 0.651960 0.651960
0.653922 0.653922 0.653922
0.660785 0.660785 0.660785
0.668628 0.668628 0.668628
0.680392 0.680392 0.680392
0.696079 0.696079 0.696079
0.715197 0.715197 0.715197
0.743137 0.743137 0.743137
0.773529 0.773529 0.773529
0.773529 0.773529 0.773529
0.776961 0.776961 0.776961
0.779412 0.779412 0.779412
0.785294 0.785294 0.785294
0.793137 0.793137 0.793137
0.801471 0.801471 0.801471
0.816666 0.816666 0.816666
0.836274 0.836274 0.836274
0.905882 0.905882 0.905882
0.909804 0.909804 0.909804
0.909804 0.909804 0.909804
0.909804 0.909804 0.909804
0.913725 0.913725 0.913725
0.917647 0.917647 0.917647
0.925490 0.925490 0.925490
0.933333 0.933333 0.933333
0.949020 0.949020 0.949020
0.007843 0.007843 0.007843
0.023039 0.023039 0.023039
0.035294 0.035294 0.035294
0.054902 0.054902 0.054902
0.076470 0.076470 0.076470
0.111274 0.111274 0.111274
0.153921 0.153921 0.153921
0.220098 0.220098 0.220098
0.313726 0.313726 0.313726
0.106863 0.106863 0.106863
0.117157 0.117157 0.117157
0.128922 0.128922 0.128922
0.147059 0.147059 0.147059
0.172059 0.172059 0.172059
0.208824 0.208824 0.208824
0.255392 0.255392 0.255392
0.313726 0.313726 0.313726
0.387745 0.387745 0.387745
0.191176 0.191176 0.191176
0.196569 0.196569 0.196569
0.209804 0.209804 0.209804
0.226471 0.226471 0.226471
0.251961 0.251961 0.251961
0.286765 0.286765 0.286765
0.328431 0.328431 0.328431
0.375981 0.375981 0.375981
0.438236 0.438236 0.438236
0.302941 0.302941 0.302941
0.306863 0.306863 0.306863
0.314706 0.314706 0.314706
0.330392 0.330392 0.330392
0.349510 0.349510 0.349510
0.376471 0.376471 0.376471
0.407353 0.407353 0.407353
0.446078 0.446078 0.446078
0.496569 0.496569 0.496569
0.423039 0.423039 0.423039
0.423530 0.423530 0.423530
0.432353 0.432353 0.432353
0.439216 0.439216 0.439216
0.454902 0.454902 0.454902
0.474019 0.474019 0.474019
0.497549 0.497549 0.497549
0.529411 0.529411 0.529411
0.574510 0.574510 0.574510
0.536274 0.536274 0.536274
0.540196 0.540196 0.540196
0.544117 0.544117 0.544117
0.551961 0.551961 0.551961
0.563725 0.563725 0.563725
0.579412 0.579412 0.579412
0.598529 0.598529 0.598529
0.622549 0.622549 0.622549
0.661765 0.661765 0.661765
0.656863 0.656863 0.656863
0.660785 0.660785 0.660785
0.663725 0.663725 0.663725
0.668628 0.668628 0.668628
0.676471 0.676471 0.676471
0.688236 0.688236 0.688236
0.702941 0.702941 0.702941
0.722549 0.722549 0.722549
0.750981 0.750981 0.750981
0.780882 0.780882 0.780882
0.781372 0.781372 0.781372
0.781372 0.781372 0.781372
0.785294 0.785294 0.785294
0.792647 0.792647 0.792647
0.798039 0.798039 0.798039
0.808823 0.808823 0.808823
0.820588 0.820588 0.820588
0.843627 0.843627 0.843627
0.913725 0.913725 0.913725
0.913725 0.913725 0.913725
0.917647 0.917647 0.917647
0.917647 0.917647 0.917647
0.921569 0.921569 0.921569
0.925490 0.925490 0.925490
0.933333 0.933333 0.933333
0.941176 0.941176 0.941176
0.956863 0.956863 0.956863
0.016667 0.016667 0.016667
0.034804 0.034804 0.034804
0.048039 0.048039 0.048039
0.066667 0.066667 0.066667
0.092157 0.092157 0.092157
0.123039 0.123039 0.123039
0.169608 0.169608 0.169608
0.239706 0.239706 0.239706
0.329412 0.329412 0.329412
0.121079 0.121079 0.121079
0.128922 0.128922 0.128922
0.141666 0.141666 0.141666
0.160294 0.160294 0.160294
0.185784 0.185784 0.185784
0.224019 0.224019 0.224019
0.271078 0.271078 0.271078
0.329412 0.329412 0.329412
0.400000 0.400000 0.400000
0.205882 0.205882 0.205882
0.211765 0.211765 0.211765
0.225490 0.225490 0.225490
0.243137 0.243137 0.243137
0.267647 0.267647 0.267647
0.303921 0.303921 0.303921
0.341176 0.341176 0.341176
0.388235 0.388235 0.388235
0.450000 0.450000 0.450000
0.317157 0.317157 0.317157
0.321078 0.321078 0.321078
0.330392 0.330392 0.330392
0.344608 0.344608 0.344608
0.365686 0.365686 0.365686
0.388236 0.388236 0.388236
0.419117 0.419117 0.419117
0.457843 0.457843 0.457843
0.508333 0.508333 0.508333
0.434314 0.434314 0.434314
0.435295 0.435295 0.435295
0.444118 0.444118 0.444118
0.450980 0.450980 0.450980
0.466667 0.466667 0.466667
0.485294 0.485294 0.485294
0.508824 0.508824 0.508824
0.540196 0.540196 0.540196
0.586275 0.586275 0.586275
0.548039 0.548039 0.548039
0.550490 0.550490 0.550490
0.555392 0.555392 0.555392
0.562255 0.562255 0.562255
0.571569 0.571569 0.571569
0.587255 0.587255 0.587255
0.606863 0.606863 0.606863
0.633824 0.633824 0.633824
0.672059 0.672059 0.672059
0.668628 0.668628 0.668628
0.668628 0.668628 0.668628
0.672549 0.672549 0.672549
0.676471 0.676471 0.676471
0.684314 0.684314 0.684314
0.696079 0.696079 0.696079
0.711765 0.711765 0.711765
0.730882 0.730882 0.730882
0.758824 0.758824 0.758824
0.785784 0.785784 0.785784
0.789215 0.789215 0.789215
0.789215 0.789215 0.789215
0.793137 0.793137 0.793137
0.798529 0.798529 0.798529
0.804902 0.804902 0.804902
0.816666 0.816666 0.816666
0.828431 0.828431 0.828431
0.851470 0.851470 0.851470
0.921569 0.921569 0.921569
0.921569 0.921569 0.921569
0.925490 0.925490 0.925490
0.925490 0.925490 0.925490
0.929412 0.929412 0.929412
0.933333 0.933333 0.933333
0.941176 0.941176 0.941176
0.949020 0.949020 0.949020
0.964706 0.964706 0.964706
0.031373 0.031373 0.031373
0.047549 0.047549 0.047549
0.062745 0.062745 0.062745
0.082353 0.082353 0.082353
0.106372 0.106372 0.106372
0.141666 0.141666 0.141666
0.189215 0.189215 0.189215
0.255882 0.255882 0.255882
0.345588 0.345588 0.345588
0.136765 0.136765 0.136765
0.145098 0.145098 0.145098
0.159313 0.159313 0.159313
0.178431 0.178431 0.178431
0.205392 0.205392 0.205392
0.243137 0.243137 0.243137
0.290196 0.290196 0.290196
0.345098 0.345098 0.345098
0.415196 0.415196 0.415196
0.225490 0.225490 0.225490
0.230393 0.230393 0.230393
0.245098 0.245098 0.245098
0.262255 0.262255 0.262255
0.287255 0.287255 0.287255
0.318138 0.318138 0.318138
0.356862 0.356862 0.356862
0.403432 0.403432 0.403432
0.461765 0.461765 0.461765
0.334314 0.334314 0.334314
0.338235 0.338235 0.338235
0.347549 0.347549 0.347549
0.361765 0.361765 0.361765
0.381373 0.381373 0.381373
0.403921 0.403921 0.403921
0.434314 0.434314 0.434314
0.469608 0.469608 0.469608
0.520588 0.520588 0.520588
0.447058 0.447058 0.447058
0.450981 0.450981 0.450981
0.454902 0.454902 0.454902
0.465196 0.465196 0.465196
0.478431 0.478431 0.478431
0.498040 0.498040 0.498040
0.520588 0.520588 0.520588
0.552941 0.552941 0.552941
0.598039 0.598039 0.598039
0.559804 0.559804 0.559804
0.562745 0.562745 0.562745
0.569118 0.569118 0.569118
0.576470 0.576470 0.576470
0.586275 0.586275 0.586275
0.599019 0.599019 0.599019
0.618137 0.618137 0.618137
0.645098 0.645098 0.645098
0.681372 0.681372 0.681372
0.679412 0.679412 0.679412
0.680392 0.680392 0.680392
0.683824 0.683824 0.683824
0.688236 0.688236 0.688236
0.696079 0.696079 0.696079
0.707353 0.707353 0.707353
0.719608 0.719608 0.719608
0.739216 0.739216 0.739216
0.769607 0.769607 0.769607
0.797059 0.797059 0.797059
0.797058 0.797058 0.797058
0.797059 0.797059 0.797059
0.800980 0.800980 0.800980
0.808333 0.808333 0.808333
0.813726 0.813726 0.813726
0.824510 0.824510 0.824510
0.836274 0.836274 0.836274
0.859314 0.859314 0.859314
0.933333 0.933333 0.933333
0.933333 0.933333 0.933333
0.933333 0.933333 0.933333
0.937255 0.937255 0.937255
0.939215 0.939215 0.939215
0.945098 0.945098 0.945098
0.949510 0.949510 0.949510
0.960784 0.960784 0.960784
0.976471 0.976471 0.976471
0.050980 0.050980 0.050980
0.070098 0.070098 0.070098
0.082353 0.082353 0.082353
0.101961 0.101961 0.101961
0.125490 0.125490 0.125490
0.162255 0.162255 0.162255
0.212745 0.212745 0.212745
0.278921 0.278921 0.278921
0.368627 0.368627 0.368627
0.156373 0.156373 0.156373
0.167647 0.167647 0.167647
0.179902 0.179902 0.179902
0.199510 0.199510 0.199510
0.228922 0.228922 0.228922
0.266177 0.266177 0.266177
0.310294 0.310294 0.310294
0.364705 0.364705 0.364705
0.431373 0.431373 0.431373
0.249019 0.249019 0.249019
0.253922 0.253922 0.253922
0.268627 0.268627 0.268627
0.285295 0.285295 0.285295
0.311765 0.311765 0.311765
0.341667 0.341667 0.341667
0.376470 0.376470 0.376470
0.420098 0.420098 0.420098
0.478431 0.478431 0.478431
0.355392 0.355392 0.355392
0.359314 0.359314 0.359314
0.367157 0.367157 0.367157
0.381373 0.381373 0.381373
0.400981 0.400981 0.400981
0.422059 0.422059 0.422059
0.450491 0.450491 0.450491
0.485294 0.485294 0.485294
0.539706 0.539706 0.539706
0.464706 0.464706 0.464706
0.466666 0.466666 0.466666
0.472549 0.472549 0.472549
0.482353 0.482353 0.482353
0.496078 0.496078 0.496078
0.513235 0.513235 0.513235
0.539216 0.539216 0.539216
0.570588 0.570588 0.570588
0.613725 0.613725 0.613725
0.575490 0.575490 0.575490
0.579412 0.579412 0.579412
0.583333 0.583333 0.583333
0.592156 0.592156 0.592156
0.601471 0.601471 0.601471
0.614706 0.614706 0.614706
0.633824 0.633824 0.633824
0.660294 0.660294 0.660294
0.695588 0.695588 0.695588
0.692157 0.692157 0.692157
0.692157 0.692157 0.692157
0.696079 0.696079 0.696079
0.702941 0.702941 0.702941
0.710784 0.710784 0.710784
0.719608 0.719608 0.719608
0.734314 0.734314 0.734314
0.753922 0.753922 0.753922
0.781373 0.781373 0.781373
0.808333 0.808333 0.808333
0.808823 0.808823 0.808823
0.808823 0.808823 0.808823
0.812745 0.812745 0.812745
0.820098 0.820098 0.820098
0.824510 0.824510 0.824510
0.835784 0.835784 0.835784
0.848039 0.848039 0.848039
0.871078 0.871078 0.871078
0.945098 0.945098 0.945098
0.945098 0.945098 0.945098
0.945098 0.945098 0.945098
0.949020 0.949020 0.949020
0.952941 0.952941 0.952941
0.956863 0.956863 0.956863
0.964706 0.964706 0.964706
0.976471 0.976471 0.976471
0.996078 0.996078 0.996078
