Black-and-White/Fuji/Fuji FP-3000b 1 -- 65x.cube
TITLE "Fuji FP-3000b 1 --"
LUT_3D_SIZE 65
DOMAIN_MIN 0.000000 0.000000 0.000000
DOMAIN_MAX 1.000000 1.000000 1.000000
0.000000 0.000000 0.000000
0.003922 0.003922 0.003922
0.007843 0.007843 0.007843
0.007843 0.007843 0.007843
0.011765 0.011765 0.011765
0.019608 0.019608 0.019608
0.027451 0.027451 0.027451
0.031373 0.031373 0.031373
0.042157 0.042157 0.042157
0.047488 0.047488 0.047488
0.056250 0.056250 0.056250
0.065012 0.065012 0.065012
0.077696 0.077696 0.077696
0.086459 0.086459 0.086459
0.098039 0.098039 0.098039
0.106005 0.106005 0.106005
0.116667 0.116667 0.116667
0.125429 0.125429 0.125429
0.141176 0.141176 0.141176
0.148652 0.148652 0.148652
0.163480 0.163480 0.163480
0.172243 0.172243 0.172243
0.184927 0.184927 0.184927
0.197610 0.197610 0.197610
0.208824 0.208824 0.208824
0.219056 0.219056 0.219056
0.235662 0.235662 0.235662
0.244424 0.244424 0.244424
0.257108 0.257108 0.257108
0.268995 0.268995 0.268995
0.278676 0.278676 0.278676
0.291238 0.291238 0.291238
0.303921 0.303921 0.303921
0.316605 0.316605 0.316605
0.321569 0.321569 0.321569
0.334130 0.334130 0.334130
0.346814 0.346814 0.346814
0.359497 0.359497 0.359497
0.372181 0.372181 0.372181
0.380944 0.380944 0.380944
0.393627 0.393627 0.393627
0.403922 0.403922 0.403922
0.415073 0.415073 0.415073
0.424142 0.424142 0.424142
0.436520 0.436520 0.436520
0.445282 0.445282 0.445282
0.454044 0.454044 0.454044
0.466667 0.466667 0.466667
0.472549 0.472549 0.472549
0.484253 0.484253 0.484253
0.495833 0.495833 0.495833
0.505698 0.505698 0.505698
0.515197 0.515197 0.515197
0.528799 0.528799 0.528799
0.539828 0.539828 0.539828
0.552083 0.552083 0.552083
0.565196 0.565196 0.565196
0.575368 0.575368 0.575368
0.588971 0.588971 0.588971
0.602574 0.602574 0.602574
0.615931 0.615931 0.615931
0.628615 0.628615 0.628615
0.641299 0.641299 0.641299
0.659988 0.659988 0.659988
0.682353 0.682353 0.682353
0.000919 0.000919 0.000919
0.008762 0.008762 0.008762
0.012684 0.012684 0.012684
0.016605 0.016605 0.016605
0.023284 0.023284 0.023284
0.028125 0.028125 0.028125
0.034559 0.034559 0.034559
0.038725 0.038725 0.038725
0.044056 0.044056 0.044056
0.056250 0.056250 0.056250
0.065441 0.065441 0.065441
0.075122 0.075122 0.075122
0.082537 0.082537 0.082537
0.090564 0.090564 0.090564
0.101164 0.101164 0.101164
0.112745 0.112745 0.112745
0.123529 0.123529 0.123529
0.133272 0.133272 0.133272
0.142892 0.142892 0.142892
0.154718 0.154718 0.154718
0.166176 0.166176 0.166176
0.176165 0.176165 0.176165
0.189460 0.189460 0.189460
0.198529 0.198529 0.198529
0.214216 0.214216 0.214216
0.222978 0.222978 0.222978
0.235662 0.235662 0.235662
0.245343 0.245343 0.245343
0.262316 0.262316 0.262316
0.272917 0.272917 0.272917
0.282476 0.282476 0.282476
0.295160 0.295160 0.295160
0.304841 0.304841 0.304841
0.316605 0.316605 0.316605
0.329167 0.329167 0.329167
0.335049 0.335049 0.335049
0.348529 0.348529 0.348529
0.359497 0.359497 0.359497
0.375736 0.375736 0.375736
0.384865 0.384865 0.384865
0.398100 0.398100 0.398100
0.406311 0.406311 0.406311
0.415993 0.415993 0.415993
0.424142 0.424142 0.424142
0.436520 0.436520 0.436520
0.445282 0.445282 0.445282
0.457108 0.457108 0.457108
0.462868 0.462868 0.462868
0.475490 0.475490 0.475490
0.486275 0.486275 0.486275
0.493933 0.493933 0.493933
0.509436 0.509436 0.509436
0.515197 0.515197 0.515197
0.528799 0.528799 0.528799
0.538174 0.538174 0.538174
0.558579 0.558579 0.558579
0.565196 0.565196 0.565196
0.578370 0.578370 0.578370
0.588971 0.588971 0.588971
0.605577 0.605577 0.605577
0.615931 0.615931 0.615931
0.628615 0.628615 0.628615
0.643383 0.643383 0.643383
0.657905 0.657905 0.657905
0.681434 0.681434 0.681434
0.005760 0.005760 0.005760
0.008762 0.008762 0.008762
0.017524 0.017524 0.017524
0.024204 0.024204 0.024204
0.029044 0.029044 0.029044
0.036458 0.036458 0.036458
0.038725 0.038725 0.038725
0.043566 0.043566 0.043566
0.056250 0.056250 0.056250
0.063174 0.063174 0.063174
0.069853 0.069853 0.069853
0.078615 0.078615 0.078615
0.087377 0.087377 0.087377
0.098223 0.098223 0.098223
0.104902 0.104902 0.104902
0.115563 0.115563 0.115563
0.126348 0.126348 0.126348
0.137194 0.137194 0.137194
0.146814 0.146814 0.146814
0.156495 0.156495 0.156495
0.171323 0.171323 0.171323
0.180086 0.180086 0.180086
0.194608 0.194608 0.194608
0.205454 0.205454 0.205454
0.216054 0.216054 0.216054
0.226899 0.226899 0.226899
0.239584 0.239584 0.239584
0.252267 0.252267 0.252267
0.260662 0.260662 0.260662
0.271630 0.271630 0.271630
0.282598 0.282598 0.282598
0.296998 0.296998 0.296998
0.305760 0.305760 0.305760
0.314522 0.314522 0.314522
0.327206 0.327206 0.327206
0.339890 0.339890 0.339890
0.348529 0.348529 0.348529
0.363419 0.363419 0.363419
0.372181 0.372181 0.372181
0.386704 0.386704 0.386704
0.397549 0.397549 0.397549
0.408150 0.408150 0.408150
0.418995 0.418995 0.418995
0.424142 0.424142 0.424142
0.436520 0.436520 0.436520
0.445282 0.445282 0.445282
0.454044 0.454044 0.454044
0.468567 0.468567 0.468567
0.479411 0.479411 0.479411
0.488236 0.488236 0.488236
0.494853 0.494853 0.494853
0.505698 0.505698 0.505698
0.518382 0.518382 0.518382
0.528983 0.528983 0.528983
0.542402 0.542402 0.542402
0.556005 0.556005 0.556005
0.563848 0.563848 0.563848
0.577206 0.577206 0.577206
0.592892 0.592892 0.592892
0.602574 0.602574 0.602574
0.614338 0.614338 0.614338
0.629779 0.629779 0.629779
0.643383 0.643383 0.643383
0.659988 0.659988 0.659988
0.678431 0.678431 0.678431
0.010601 0.010601 0.010601
0.012684 0.012684 0.012684
0.017524 0.017524 0.017524
0.026287 0.026287 0.026287
0.038726 0.038726 0.038726
0.042648 0.042648 0.042648
0.047487 0.047487 0.047487
0.052083 0.052083 0.052083
0.062255 0.062255 0.062255
0.069854 0.069854 0.069854
0.075858 0.075858 0.075858
0.084620 0.084620 0.084620
0.092219 0.092219 0.092219
0.107476 0.107476 0.107476
0.110907 0.110907 0.110907
0.122426 0.122426 0.122426
0.131188 0.131188 0.131188
0.144975 0.144975 0.144975
0.152635 0.152635 0.152635
0.165318 0.165318 0.165318
0.174020 0.174020 0.174020
0.187622 0.187622 0.187622
0.196140 0.196140 0.196140
0.208211 0.208211 0.208211
0.220894 0.220894 0.220894
0.234191 0.234191 0.234191
0.246262 0.246262 0.246262
0.253554 0.253554 0.253554
0.264951 0.264951 0.264951
0.276838 0.276838 0.276838
0.286398 0.286398 0.286398
0.296201 0.296201 0.296201
0.307046 0.307046 0.307046
0.319363 0.319363 0.319363
0.329289 0.329289 0.329289
0.340809 0.340809 0.340809
0.353493 0.353493 0.353493
0.363419 0.363419 0.363419
0.376103 0.376103 0.376103
0.387623 0.387623 0.387623
0.399019 0.399019 0.399019
0.405944 0.405944 0.405944
0.418383 0.418383 0.418383
0.430514 0.430514 0.430514
0.436520 0.436520 0.436520
0.447426 0.447426 0.447426
0.456802 0.456802 0.456802
0.466728 0.466728 0.466728
0.478431 0.478431 0.478431
0.486152 0.486152 0.486152
0.496936 0.496936 0.496936
0.509620 0.509620 0.509620
0.519118 0.519118 0.519118
0.531066 0.531066 0.531066
0.542402 0.542402 0.542402
0.552512 0.552512 0.552512
0.566360 0.566360 0.566360
0.577880 0.577880 0.577880
0.590135 0.590135 0.590135
0.603248 0.603248 0.603248
0.618688 0.618688 0.618688
0.629779 0.629779 0.629779
0.644057 0.644057 0.644057
0.657905 0.657905 0.657905
0.678431 0.678431 0.678431
0.015441 0.015441 0.015441
0.015686 0.015686 0.015686
0.021446 0.021446 0.021446
0.029964 0.029964 0.029964
0.038726 0.038726 0.038726
0.055087 0.055087 0.055087
0.060171 0.060171 0.060171
0.065013 0.065013 0.065013
0.073530 0.073530 0.073530
0.074693 0.074693 0.074693
0.086030 0.086030 0.086030
0.092219 0.092219 0.092219
0.100981 0.100981 0.100981
0.109742 0.109742 0.109742
0.118505 0.118505 0.118505
0.125613 0.125613 0.125613
0.136274 0.136274 0.136274
0.148652 0.148652 0.148652
0.160539 0.160539 0.160539
0.168260 0.168260 0.168260
0.179167 0.179167 0.179167
0.187929 0.187929 0.187929
0.200613 0.200613 0.200613
0.213051 0.213051 0.213051
0.220588 0.220588 0.220588
0.234497 0.234497 0.234497
0.247427 0.247427 0.247427
0.256189 0.256189 0.256189
0.270343 0.270343 0.270343
0.281311 0.281311 0.281311
0.286520 0.286520 0.286520
0.302757 0.302757 0.302757
0.311765 0.311765 0.311765
0.320527 0.320527 0.320527
0.329412 0.329412 0.329412
0.341973 0.341973 0.341973
0.352696 0.352696 0.352696
0.367340 0.367340 0.367340
0.379657 0.379657 0.379657
0.388787 0.388787 0.388787
0.400000 0.400000 0.400000
0.411520 0.411520 0.411520
0.418995 0.418995 0.418995
0.431433 0.431433 0.431433
0.440441 0.440441 0.440441
0.447426 0.447426 0.447426
0.457966 0.457966 0.457966
0.470588 0.470588 0.470588
0.476471 0.476471 0.476471
0.486152 0.486152 0.486152
0.496936 0.496936 0.496936
0.509681 0.509681 0.509681
0.522058 0.522058 0.522058
0.531066 0.531066 0.531066
0.540073 0.540073 0.540073
0.552328 0.552328 0.552328
0.568873 0.568873 0.568873
0.577880 0.577880 0.577880
0.590564 0.590564 0.590564
0.602574 0.602574 0.602574
0.615931 0.615931 0.615931
0.628615 0.628615 0.628615
0.644976 0.644976 0.644976
0.656312 0.656312 0.656312
0.682108 0.682108 0.682108
0.020956 0.020956 0.020956
0.020037 0.020037 0.020037
0.025367 0.025367 0.025367
0.030882 0.030882 0.030882
0.039644 0.039644 0.039644
0.052328 0.052328 0.052328
0.066605 0.066605 0.066605
0.079044 0.079044 0.079044
0.087133 0.087133 0.087133
0.092218 0.092218 0.092218
0.096814 0.096814 0.096814
0.102328 0.102328 0.102328
0.110417 0.110417 0.110417
0.119179 0.119179 0.119179
0.125123 0.125123 0.125123
0.134681 0.134681 0.134681
0.147732 0.147732 0.147732
0.160661 0.160661 0.160661
0.162990 0.162990 0.162990
0.176777 0.176777 0.176777
0.186458 0.186458 0.186458
0.196447 0.196447 0.196447
0.208456 0.208456 0.208456
0.217892 0.217892 0.217892
0.230576 0.230576 0.230576
0.242034 0.242034 0.242034
0.248468 0.248468 0.248468
0.264032 0.264032 0.264032
0.269547 0.269547 0.269547
0.285355 0.285355 0.285355
0.294915 0.294915 0.294915
0.304718 0.304718 0.304718
0.316361 0.316361 0.316361
0.325123 0.325123 0.325123
0.333885 0.333885 0.333885
0.344117 0.344117 0.344117
0.357046 0.357046 0.357046
0.366054 0.366054 0.366054
0.380699 0.380699 0.380699
0.389460 0.389460 0.389460
0.398897 0.398897 0.398897
0.410906 0.410906 0.410906
0.420282 0.420282 0.420282
0.429105 0.429105 0.429105
0.441116 0.441116 0.441116
0.446630 0.446630 0.446630
0.458639 0.458639 0.458639
0.468076 0.468076 0.468076
0.480086 0.480086 0.480086
0.490748 0.490748 0.490748
0.497611 0.497611 0.497611
0.503309 0.503309 0.503309
0.519056 0.519056 0.519056
0.532721 0.532721 0.532721
0.544424 0.544424 0.544424
0.553431 0.553431 0.553431
0.566544 0.566544 0.566544
0.575980 0.575980 0.575980
0.590319 0.590319 0.590319
0.600673 0.600673 0.600673
0.614032 0.614032 0.614032
0.622794 0.622794 0.622794
0.639399 0.639399 0.639399
0.651838 0.651838 0.651838
0.666789 0.666789 0.666789
0.031373 0.031373 0.031373
0.024448 0.024448 0.024448
0.027451 0.027451 0.027451
0.035724 0.035724 0.035724
0.042892 0.042892 0.042892
0.055576 0.055576 0.055576
0.069853 0.069853 0.069853
0.082537 0.082537 0.082537
0.104902 0.104902 0.104902
0.110662 0.110662 0.110662
0.112745 0.112745 0.112745
0.117586 0.117586 0.117586
0.126349 0.126349 0.126349
0.131189 0.131189 0.131189
0.140441 0.140441 0.140441
0.146384 0.146384 0.146384
0.154534 0.154534 0.154534
0.166237 0.166237 0.166237
0.171936 0.171936 0.171936
0.183762 0.183762 0.183762
0.192524 0.192524 0.192524
0.204902 0.204902 0.204902
0.217279 0.217279 0.217279
0.225061 0.225061 0.225061
0.235417 0.235417 0.235417
0.246507 0.246507 0.246507
0.256863 0.256863 0.256863
0.269547 0.269547 0.269547
0.278922 0.278922 0.278922
0.287071 0.287071 0.287071
0.298162 0.298162 0.298162
0.308517 0.308517 0.308517
0.317280 0.317280 0.317280
0.331250 0.331250 0.331250
0.338725 0.338725 0.338725
0.351410 0.351410 0.351410
0.364215 0.364215 0.364215
0.375184 0.375184 0.375184
0.381985 0.381985 0.381985
0.398223 0.398223 0.398223
0.406863 0.406863 0.406863
0.418076 0.418076 0.418076
0.430147 0.430147 0.430147
0.434314 0.434314 0.434314
0.445956 0.445956 0.445956
0.453125 0.453125 0.453125
0.463481 0.463481 0.463481
0.474571 0.474571 0.474571
0.483333 0.483333 0.483333
0.493689 0.493689 0.493689
0.504779 0.504779 0.504779
0.513542 0.513542 0.513542
0.523040 0.523040 0.523040
0.534988 0.534988 0.534988
0.547672 0.547672 0.547672
0.562255 0.562255 0.562255
0.573039 0.573039 0.573039
0.583211 0.583211 0.583211
0.594485 0.594485 0.594485
0.610417 0.610417 0.610417
0.621446 0.621446 0.621446
0.632108 0.632108 0.632108
0.646813 0.646813 0.646813
0.662500 0.662500 0.662500
0.686275 0.686275 0.686275
0.033885 0.033885 0.033885
0.033885 0.033885 0.033885
0.031127 0.031127 0.031127
0.037807 0.037807 0.037807
0.045405 0.045405 0.045405
0.058088 0.058088 0.058088
0.069853 0.069853 0.069853
0.083456 0.083456 0.083456
0.104902 0.104902 0.104902
0.123100 0.123100 0.123100
0.128003 0.128003 0.128003
0.132782 0.132782 0.132782
0.139031 0.139031 0.139031
0.139951 0.139951 0.139951
0.148713 0.148713 0.148713
0.157475 0.157475 0.157475
0.161887 0.161887 0.161887
0.171079 0.171079 0.171079
0.178187 0.178187 0.178187
0.192524 0.192524 0.192524
0.201287 0.201287 0.201287
0.208946 0.208946 0.208946
0.220221 0.220221 0.220221
0.231495 0.231495 0.231495
0.240257 0.240257 0.240257
0.253799 0.253799 0.253799
0.265625 0.265625 0.265625
0.274387 0.274387 0.274387
0.287377 0.287377 0.287377
0.291912 0.291912 0.291912
0.304596 0.304596 0.304596
0.313358 0.313358 0.313358
0.323530 0.323530 0.323530
0.335172 0.335172 0.335172
0.344975 0.344975 0.344975
0.357659 0.357659 0.357659
0.368934 0.368934 0.368934
0.379105 0.379105 0.379105
0.390380 0.390380 0.390380
0.400552 0.400552 0.400552
0.408272 0.408272 0.408272
0.419608 0.419608 0.419608
0.430760 0.430760 0.430760
0.439522 0.439522 0.439522
0.445588 0.445588 0.445588
0.457047 0.457047 0.457047
0.465809 0.465809 0.465809
0.477084 0.477084 0.477084
0.488787 0.488787 0.488787
0.493995 0.493995 0.493995
0.504779 0.504779 0.504779
0.518689 0.518689 0.518689
0.528737 0.528737 0.528737
0.534130 0.534130 0.534130
0.547672 0.547672 0.547672
0.560355 0.560355 0.560355
0.573039 0.573039 0.573039
0.583211 0.583211 0.583211
0.596814 0.596814 0.596814
0.609682 0.609682 0.609682
0.623774 0.623774 0.623774
0.633701 0.633701 0.633701
0.649142 0.649142 0.649142
0.663419 0.663419 0.663419
0.688787 0.688787 0.688787
0.042647 0.042647 0.042647
0.041729 0.041729 0.041729
0.038726 0.038726 0.038726
0.038052 0.038052 0.038052
0.046814 0.046814 0.046814
0.062930 0.062930 0.062930
0.075612 0.075612 0.075612
0.083947 0.083947 0.083947
0.101471 0.101471 0.101471
0.112500 0.112500 0.112500
0.144118 0.144118 0.144118
0.146385 0.146385 0.146385
0.151961 0.151961 0.151961
0.156556 0.156556 0.156556
0.163726 0.163726 0.163726
0.171569 0.171569 0.171569
0.175000 0.175000 0.175000
0.183272 0.183272 0.183272
0.192524 0.192524 0.192524
0.201287 0.201287 0.201287
0.213480 0.213480 0.213480
0.222732 0.222732 0.222732
0.224755 0.224755 0.224755
0.240257 0.240257 0.240257
0.249019 0.249019 0.249019
0.261703 0.261703 0.261703
0.270466 0.270466 0.270466
0.279718 0.279718 0.279718
0.288481 0.288481 0.288481
0.300674 0.300674 0.300674
0.306127 0.306127 0.306127
0.318689 0.318689 0.318689
0.325491 0.325491 0.325491
0.339644 0.339644 0.339644
0.348530 0.348530 0.348530
0.364216 0.364216 0.364216
0.372059 0.372059 0.372059
0.382537 0.382537 0.382537
0.395343 0.395343 0.395343
0.407353 0.407353 0.407353
0.414216 0.414216 0.414216
0.421997 0.421997 0.421997
0.431373 0.431373 0.431373
0.442954 0.442954 0.442954
0.451716 0.451716 0.451716
0.459191 0.459191 0.459191
0.469240 0.469240 0.469240
0.474633 0.474633 0.474633
0.487255 0.487255 0.487255
0.496017 0.496017 0.496017
0.507598 0.507598 0.507598
0.517463 0.517463 0.517463
0.526961 0.526961 0.526961
0.538909 0.538909 0.538909
0.550245 0.550245 0.550245
0.563848 0.563848 0.563848
0.573039 0.573039 0.573039
0.585723 0.585723 0.585723
0.598407 0.598407 0.598407
0.610417 0.610417 0.610417
0.620098 0.620098 0.620098
0.633701 0.633701 0.633701
0.649142 0.649142 0.649142
0.664829 0.664829 0.664829
0.686275 0.686275 0.686275
0.051838 0.051838 0.051838
0.051409 0.051409 0.051409
0.046078 0.046078 0.046078
0.044731 0.044731 0.044731
0.054657 0.054657 0.054657
0.063174 0.063174 0.063174
0.076103 0.076103 0.076103
0.087377 0.087377 0.087377
0.101471 0.101471 0.101471
0.118505 0.118505 0.118505
0.136029 0.136029 0.136029
0.162806 0.162806 0.162806
0.168750 0.168750 0.168750
0.173162 0.173162 0.173162
0.177329 0.177329 0.177329
0.186765 0.186765 0.186765
0.188113 0.188113 0.188113
0.193015 0.193015 0.193015
0.201716 0.201716 0.201716
0.213971 0.213971 0.213971
0.221507 0.221507 0.221507
0.231067 0.231067 0.231067
0.236765 0.236765 0.236765
0.249020 0.249020 0.249020
0.257782 0.257782 0.257782
0.266544 0.266544 0.266544
0.278799 0.278799 0.278799
0.284069 0.284069 0.284069
0.298530 0.298530 0.298530
0.305515 0.305515 0.305515
0.318076 0.318076 0.318076
0.323040 0.323040 0.323040
0.335294 0.335294 0.335294
0.347978 0.347978 0.347978
0.353676 0.353676 0.353676
0.365932 0.365932 0.365932
0.379902 0.379902 0.379902
0.390870 0.390870 0.390870
0.399265 0.399265 0.399265
0.404902 0.404902 0.404902
0.418627 0.418627 0.418627
0.428309 0.428309 0.428309
0.437991 0.437991 0.437991
0.443872 0.443872 0.443872
0.452206 0.452206 0.452206
0.459253 0.459253 0.459253
0.469730 0.469730 0.469730
0.478554 0.478554 0.478554
0.491177 0.491177 0.491177
0.501838 0.501838 0.501838
0.509130 0.509130 0.509130
0.524693 0.524693 0.524693
0.530147 0.530147 0.530147
0.540993 0.540993 0.540993
0.554167 0.554167 0.554167
0.567769 0.567769 0.567769
0.577451 0.577451 0.577451
0.591054 0.591054 0.591054
0.598407 0.598407 0.598407
0.614338 0.614338 0.614338
0.623590 0.623590 0.623590
0.637622 0.637622 0.637622
0.654718 0.654718 0.654718
0.668321 0.668321 0.668321
0.689767 0.689767 0.689767
0.060172 0.060172 0.060172
0.060601 0.060601 0.060601
0.060662 0.060662 0.060662
0.056250 0.056250 0.056250
0.056005 0.056005 0.056005
0.067341 0.067341 0.067341
0.080024 0.080024 0.080024
0.091299 0.091299 0.091299
0.102818 0.102818 0.102818
0.117586 0.117586 0.117586
0.136029 0.136029 0.136029
0.155821 0.155821 0.155821
0.177574 0.177574 0.177574
0.190931 0.190931 0.190931
0.192034 0.192034 0.192034
0.198774 0.198774 0.198774
0.202696 0.202696 0.202696
0.206618 0.206618 0.206618
0.217892 0.217892 0.217892
0.222304 0.222304 0.222304
0.231495 0.231495 0.231495
0.242524 0.242524 0.242524
0.249020 0.249020 0.249020
0.256250 0.256250 0.256250
0.266544 0.266544 0.266544
0.275306 0.275306 0.275306
0.284069 0.284069 0.284069
0.292769 0.292769 0.292769
0.300735 0.300735 0.300735
0.313480 0.313480 0.313480
0.319117 0.319117 0.319117
0.327573 0.327573 0.327573
0.342525 0.342525 0.342525
0.350674 0.350674 0.350674
0.362010 0.362010 0.362010
0.374694 0.374694 0.374694
0.381740 0.381740 0.381740
0.392218 0.392218 0.392218
0.403554 0.403554 0.403554
0.412316 0.412316 0.412316
0.422549 0.422549 0.422549
0.428799 0.428799 0.428799
0.438603 0.438603 0.438603
0.447365 0.447365 0.447365
0.456128 0.456128 0.456128
0.464890 0.464890 0.464890
0.473652 0.473652 0.473652
0.481128 0.481128 0.481128
0.493750 0.493750 0.493750
0.504412 0.504412 0.504412
0.514094 0.514094 0.514094
0.521385 0.521385 0.521385
0.532720 0.532720 0.532720
0.542831 0.542831 0.542831
0.554166 0.554166 0.554166
0.567769 0.567769 0.567769
0.576103 0.576103 0.576103
0.588296 0.588296 0.588296
0.600981 0.600981 0.600981
0.611091 0.611091 0.611091
0.626348 0.626348 0.626348
0.634926 0.634926 0.634926
0.652451 0.652451 0.652451
0.666054 0.666054 0.666054
0.683456 0.683456 0.683456
0.076777 0.076777 0.076777
0.071507 0.071507 0.071507
0.073284 0.073284 0.073284
0.071691 0.071691 0.071691
0.067524 0.067524 0.067524
0.076777 0.076777 0.076777
0.086213 0.086213 0.086213
0.097488 0.097488 0.097488
0.113909 0.113909 0.113909
0.122856 0.122856 0.122856
0.139951 0.139951 0.139951
0.159130 0.159130 0.159130
0.175000 0.175000 0.175000
0.206373 0.206373 0.206373
0.211213 0.211213 0.211213
0.216054 0.216054 0.216054
0.220220 0.220220 0.220220
0.229657 0.229657 0.229657
0.230576 0.230576 0.230576
0.239828 0.239828 0.239828
0.244179 0.244179 0.244179
0.254289 0.254289 0.254289
0.257782 0.257782 0.257782
0.266544 0.266544 0.266544
0.275306 0.275306 0.275306
0.282415 0.282415 0.282415
0.292831 0.292831 0.292831
0.301593 0.301593 0.301593
0.310294 0.310294 0.310294
0.319118 0.319118 0.319118
0.329535 0.329535 0.329535
0.340564 0.340564 0.340564
0.349020 0.349020 0.349020
0.357475 0.357475 0.357475
0.370772 0.370772 0.370772
0.378064 0.378064 0.378064
0.392218 0.392218 0.392218
0.398345 0.398345 0.398345
0.409743 0.409743 0.409743
0.418504 0.418504 0.418504
0.429718 0.429718 0.429718
0.436030 0.436030 0.436030
0.446446 0.446446 0.446446
0.451593 0.451593 0.451593
0.462745 0.462745 0.462745
0.472855 0.472855 0.472855
0.481495 0.481495 0.481495
0.492463 0.492463 0.492463
0.496079 0.496079 0.496079
0.505760 0.505760 0.505760
0.518812 0.518812 0.518812
0.523836 0.523836 0.523836
0.537990 0.537990 0.537990
0.549019 0.549019 0.549019
0.560049 0.560049 0.560049
0.572120 0.572120 0.572120
0.583149 0.583149 0.583149
0.594976 0.594976 0.594976
0.608579 0.608579 0.608579
0.618934 0.618934 0.618934
0.633885 0.633885 0.633885
0.646568 0.646568 0.646568
0.659252 0.659252 0.659252
0.672672 0.672672 0.672672
0.694118 0.694118 0.694118
0.085540 0.085540 0.085540
0.085540 0.085540 0.085540
0.082353 0.082353 0.082353
0.081618 0.081618 0.081618
0.077941 0.077941 0.077941
0.075858 0.075858 0.075858
0.089461 0.089461 0.089461
0.099142 0.099142 0.099142
0.112500 0.112500 0.112500
0.129105 0.129105 0.129105
0.145711 0.145711 0.145711
0.157475 0.157475 0.157475
0.175000 0.175000 0.175000
0.189522 0.189522 0.189522
0.217892 0.217892 0.217892
0.231924 0.231924 0.231924
0.234559 0.234559 0.234559
0.240931 0.240931 0.240931
0.248774 0.248774 0.248774
0.250245 0.250245 0.250245
0.256863 0.256863 0.256863
0.261274 0.261274 0.261274
0.270466 0.270466 0.270466
0.278492 0.278492 0.278492
0.285540 0.285540 0.285540
0.292831 0.292831 0.292831
0.301593 0.301593 0.301593
0.307169 0.307169 0.307169
0.319118 0.319118 0.319118
0.327880 0.327880 0.327880
0.336765 0.336765 0.336765
0.349326 0.349326 0.349326
0.358088 0.358088 0.358088
0.371078 0.371078 0.371078
0.379412 0.379412 0.379412
0.388297 0.388297 0.388297
0.399265 0.399265 0.399265
0.407108 0.407108 0.407108
0.414951 0.414951 0.414951
0.426533 0.426533 0.426533
0.432843 0.432843 0.432843
0.440073 0.440073 0.440073
0.449509 0.449509 0.449509
0.459130 0.459130 0.459130
0.465196 0.465196 0.465196
0.477696 0.477696 0.477696
0.484682 0.484682 0.484682
0.497304 0.497304 0.497304
0.502205 0.502205 0.502205
0.511704 0.511704 0.511704
0.522549 0.522549 0.522549
0.532965 0.532965 0.532965
0.541912 0.541912 0.541912
0.553861 0.553861 0.553861
0.563358 0.563358 0.563358
0.571814 0.571814 0.571814
0.587991 0.587991 0.587991
0.595710 0.595710 0.595710
0.608579 0.608579 0.608579
0.622120 0.622120 0.622120
0.635539 0.635539 0.635539
0.645465 0.645465 0.645465
0.660171 0.660171 0.660171
0.672672 0.672672 0.672672
0.697304 0.697304 0.697304
0.098223 0.098223 0.098223
0.098223 0.098223 0.098223
0.092647 0.092647 0.092647
0.091728 0.091728 0.091728
0.090564 0.090564 0.090564
0.090380 0.090380 0.090380
0.097304 0.097304 0.097304
0.107169 0.107169 0.107169
0.120589 0.120589 0.120589
0.133762 0.133762 0.133762
0.146446 0.146446 0.146446
0.161397 0.161397 0.161397
0.171997 0.171997 0.171997
0.192525 0.192525 0.192525
0.210049 0.210049 0.210049
0.227574 0.227574 0.227574
0.258640 0.258640 0.258640
0.258946 0.258946 0.258946
0.260049 0.260049 0.260049
0.268628 0.268628 0.268628
0.273468 0.273468 0.273468
0.278309 0.278309 0.278309
0.283333 0.283333 0.283333
0.290380 0.290380 0.290380
0.294486 0.294486 0.294486
0.301777 0.301777 0.301777
0.310355 0.310355 0.310355
0.320404 0.320404 0.320404
0.330086 0.330086 0.330086
0.337439 0.337439 0.337439
0.349326 0.349326 0.349326
0.358089 0.358089 0.358089
0.366851 0.366851 0.366851
0.379350 0.379350 0.379350
0.384374 0.384374 0.384374
0.392525 0.392525 0.392525
0.405637 0.405637 0.405637
0.414399 0.414399 0.414399
0.423161 0.423161 0.423161
