Black-and-White/Fuji/Fuji Neopan Acros 100 65x.cube
TITLE "Fuji Neopan Acros 100"
LUT_3D_SIZE 5
DOMAIN_MIN 0.000000 0.000000 0.000000
DOMAIN_MAX 1.000000 1.000000 1.000000
0.000000 0.000000 0.000000
0.003922 0.003922 0.003922
0.033334 0.033334 0.033334
0.106862 0.106862 0.106862
0.250980 0.250980 0.250980
0.147059 0.147059 0.147059
0.163725 0.163725 0.163725
0.202941 0.202941 0.202941
0.278432 0.278432 0.278432
0.399020 0.399020 0.399020
0.384313 0.384313 0.384313
0.392157 0.392157 0.392157
0.419608 0.419608 0.419608
0.461765 0.461765 0.461765
0.539216 0.539216 0.539216
0.629412 0.629412 0.629412
0.633334 0.633334 0.633334
0.649020 0.649020 0.649020
0.676471 0.676471 0.676471
0.723530 0.723530 0.723530
0.890196 0.890196 0.890196
0.894118 0.894118 0.894118
0.898039 0.898039 0.898039
0.909804 0.909804 0.909804
0.933333 0.933333 0.933333
0.000000 0.000000 0.000000
0.014706 0.014706 0.014706
0.050980 0.050980 0.050980
0.122549 0.122549 0.122549
0.274510 0.274510 0.274510
0.159804 0.159804 0.159804
0.175490 0.175490 0.175490
0.217647 0.217647 0.217647
0.294118 0.294118 0.294118
0.410784 0.410784 0.410784
0.394118 0.394118 0.394118
0.403922 0.403922 0.403922
0.427451 0.427451 0.427451
0.472549 0.472549 0.472549
0.549019 0.549019 0.549019
0.637255 0.637255 0.637255
0.641177 0.641177 0.641177
0.656863 0.656863 0.656863
0.680392 0.680392 0.680392
0.731373 0.731373 0.731373
0.898039 0.898039 0.898039
0.898039 0.898039 0.898039
0.901961 0.901961 0.901961
0.913725 0.913725 0.913725
0.937255 0.937255 0.937255
0.003922 0.003922 0.003922
0.026471 0.026471 0.026471
0.068628 0.068628 0.068628
0.142157 0.142157 0.142157
0.300000 0.300000 0.300000
0.178431 0.178431 0.178431
0.195098 0.195098 0.195098
0.240196 0.240196 0.240196
0.314706 0.314706 0.314706
0.426471 0.426471 0.426471
0.411764 0.411764 0.411764
0.419608 0.419608 0.419608
0.443137 0.443137 0.443137
0.488236 0.488236 0.488236
0.564705 0.564705 0.564705
0.649020 0.649020 0.649020
0.653922 0.653922 0.653922
0.668628 0.668628 0.668628
0.696079 0.696079 0.696079
0.743137 0.743137 0.743137
0.905882 0.905882 0.905882
0.909804 0.909804 0.909804
0.913725 0.913725 0.913725
0.925490 0.925490 0.925490
0.949020 0.949020 0.949020
0.016667 0.016667 0.016667
0.048039 0.048039 0.048039
0.092157 0.092157 0.092157
0.169608 0.169608 0.169608
0.329412 0.329412 0.329412
0.205882 0.205882 0.205882
0.225490 0.225490 0.225490
0.267647 0.267647 0.267647
0.341176 0.341176 0.341176
0.450000 0.450000 0.450000
0.434314 0.434314 0.434314
0.444118 0.444118 0.444118
0.466667 0.466667 0.466667
0.508824 0.508824 0.508824
0.586275 0.586275 0.586275
0.668628 0.668628 0.668628
0.672549 0.672549 0.672549
0.684314 0.684314 0.684314
0.711765 0.711765 0.711765
0.758824 0.758824 0.758824
0.921569 0.921569 0.921569
0.925490 0.925490 0.925490
0.929412 0.929412 0.929412
0.941176 0.941176 0.941176
0.964706 0.964706 0.964706
0.050980 0.050980 0.050980
0.082353 0.082353 0.082353
0.125490 0.125490 0.125490
0.212745 0.212745 0.212745
0.368627 0.368627 0.368627
0.249019 0.249019 0.249019
0.268627 0.268627 0.268627
0.311765 0.311765 0.311765
0.376470 0.376470 0.376470
0.478431 0.478431 0.478431
0.464706 0.464706 0.464706
0.472549 0.472549 0.472549
0.496078 0.496078 0.496078
0.539216 0.539216 0.539216
0.613725 0.613725 0.613725
0.692157 0.692157 0.692157
0.696079 0.696079 0.696079
0.710784 0.710784 0.710784
0.734314 0.734314 0.734314
0.781373 0.781373 0.781373
0.945098 0.945098 0.945098
0.945098 0.945098 0.945098
0.952941 0.952941 0.952941
0.964706 0.964706 0.964706
0.996078 0.996078 0.996078
