Black-and-White/Fuji/Fuji FP-3000b 1 -- 65x.cube
TITLE "Fuji FP-3000b 1 --"
LUT_3D_SIZE 5
DOMAIN_MIN 0.000000 0.000000 0.000000
DOMAIN_MAX 1.000000 1.000000 1.000000
0.000000 0.000000 0.000000
0.116667 0.116667 0.116667
0.303921 0.303921 0.303921
0.472549 0.472549 0.472549
0.682353 0.682353 0.682353
0.138235 0.138235 0.138235
0.245098 0.245098 0.245098
0.394117 0.394117 0.394117
0.520589 0.520589 0.520589
0.704902 0.704902 0.704902
0.339216 0.339216 0.339216
0.331372 0.331372 0.331372
0.500000 0.500000 0.500000
0.640196 0.640196 0.640196
0.774509 0.774509 0.774509
0.509804 0.509804 0.509804
0.497059 0.497059 0.497059
0.559804 0.559804 0.559804
0.733333 0.733333 0.733333
0.880392 0.880392 0.880392
0.796078 0.796078 0.796078
0.789215 0.789215 0.789215
0.764706 0.764706 0.764706
0.890196 0.890196 0.890196
0.968627 0.968627 0.968627
0.150980 0.150980 0.150980
0.229412 0.229412 0.229412
0.373530 0.373530 0.373530
0.491177 0.491177 0.491177
0.673530 0.673530 0.673530
0.256863 0.256863 0.256863
0.303921 0.303921 0.303921
0.419608 0.419608 0.419608
0.534313 0.534313 0.534313
0.708824 0.708824 0.708824
0.441176 0.441176 0.441176
0.426471 0.426471 0.426471
0.523529 0.523529 0.523529
0.645098 0.645098 0.645098
0.778431 0.778431 0.778431
0.569608 0.569608 0.569608
0.561764 0.561764 0.561764
0.582353 0.582353 0.582353
0.745098 0.745098 0.745098
0.882353 0.882353 0.882353
0.819608 0.819608 0.819608
0.815686 0.815686 0.815686
0.793137 0.793137 0.793137
0.891177 0.891177 0.891177
0.972549 0.972549 0.972549
0.368627 0.368627 0.368627
0.408824 0.408824 0.408824
0.482353 0.482353 0.482353
0.603922 0.603922 0.603922
0.745098 0.745098 0.745098
0.421569 0.421569 0.421569
0.458824 0.458824 0.458824
0.514706 0.514706 0.514706
0.629412 0.629412 0.629412
0.757843 0.757843 0.757843
0.511765 0.511765 0.511765
0.533334 0.533334 0.533334
0.580392 0.580392 0.580392
0.666667 0.666667 0.666667
0.792157 0.792157 0.792157
0.690196 0.690196 0.690196
0.699020 0.699020 0.699020
0.677451 0.677451 0.677451
0.772549 0.772549 0.772549
0.890196 0.890196 0.890196
0.878431 0.878431 0.878431
0.873530 0.873530 0.873530
0.858824 0.858824 0.858824
0.891177 0.891177 0.891177
0.972549 0.972549 0.972549
0.590196 0.590196 0.590196
0.608824 0.608824 0.608824
0.660785 0.660785 0.660785
0.710784 0.710784 0.710784
0.816667 0.816667 0.816667
0.618628 0.618628 0.618628
0.635294 0.635294 0.635294
0.682353 0.682353 0.682353
0.729412 0.729412 0.729412
0.832353 0.832353 0.832353
0.624510 0.624510 0.624510
0.656863 0.656863 0.656863
0.714706 0.714706 0.714706
0.761765 0.761765 0.761765
0.865686 0.865686 0.865686
0.738235 0.738235 0.738235
0.751961 0.751961 0.751961
0.773529 0.773529 0.773529
0.817647 0.817647 0.817647
0.899020 0.899020 0.899020
0.930392 0.930392 0.930392
0.931372 0.931372 0.931372
0.934314 0.934314 0.934314
0.922549 0.922549 0.922549
0.984314 0.984314 0.984314
0.858824 0.858824 0.858824
0.863726 0.863726 0.863726
0.884314 0.884314 0.884314
0.909804 0.909804 0.909804
0.933333 0.933333 0.933333
0.868627 0.868627 0.868627
0.873530 0.873530 0.873530
0.889216 0.889216 0.889216
0.913726 0.913726 0.913726
0.936274 0.936274 0.936274
0.874510 0.874510 0.874510
0.880392 0.880392 0.880392
0.898039 0.898039 0.898039
0.923530 0.923530 0.923530
0.949020 0.949020 0.949020
0.884314 0.884314 0.884314
0.887255 0.887255 0.887255
0.895098 0.895098 0.895098
0.938235 0.938235 0.938235
0.968627 0.968627 0.968627
0.960784 0.960784 0.960784
0.964706 0.964706 0.964706
0.968627 0.968627 0.968627
0.977451 0.977451 0.977451
1.000000 1.000000 1.000000
