Black-and-White/Fuji/Fuji Neopan Acros 100 65x.cube
TITLE "Fuji Neopan Acros 100"
LUT_3D_SIZE 65
DOMAIN_MIN 0.000000 0.000000 0.000000
DOMAIN_MAX 1.000000 1.000000 1.000000
0.000000 0.000000 0.000000
0.000000 0.000000 0.000000
0.000000 0.000000 0.000000
0.000000 0.000000 0.000000
0.000000 0.000000 0.000000
0.000000 0.000000 0.000000
0.000000 0.000000 0.000000
0.000000 0.000000 0.000000
0.000000 0.000000 0.000000
0.000000 0.000000 0.000000
0.001348 0.001348 0.001348
0.003922 0.003922 0.003922
0.003922 0.003922 0.003922
0.003922 0.003922 0.003922
0.003922 0.003922 0.003922
0.003922 0.003922 0.003922
0.003922 0.003922 0.003922
0.007843 0.007843 0.007843
0.007843 0.007843 0.007843
0.007843 0.007843 0.007843
0.010539 0.010539 0.010539
0.011765 0.011765 0.011765
0.011765 0.011765 0.011765
0.013297 0.013297 0.013297
0.015686 0.015686 0.015686
0.015686 0.015686 0.015686
0.019608 0.019608 0.019608
0.019608 0.019608 0.019608
0.021814 0.021814 0.021814
0.023529 0.023529 0.023529
0.027451 0.027451 0.027451
0.028493 0.028493 0.028493
0.033334 0.033334 0.033334
0.035294 0.035294 0.035294
0.039216 0.039216 0.039216
0.043137 0.043137 0.043137
0.047059 0.047059 0.047059
0.050980 0.050980 0.050980
0.054902 0.054902 0.054902
0.059375 0.059375 0.059375
0.064216 0.064216 0.064216
0.069056 0.069056 0.069056
0.073897 0.073897 0.073897
0.078431 0.078431 0.078431
0.083579 0.083579 0.083579
0.088419 0.088419 0.088419
0.093260 0.093260 0.093260
0.098100 0.098100 0.098100
0.106862 0.106862 0.106862
0.111703 0.111703 0.111703
0.117647 0.117647 0.117647
0.121569 0.121569 0.121569
0.130147 0.130147 0.130147
0.138909 0.138909 0.138909
0.147672 0.147672 0.147672
0.156434 0.156434 0.156434
0.161274 0.161274 0.161274
0.170036 0.170036 0.170036
0.181128 0.181128 0.181128
0.191483 0.191483 0.191483
0.200490 0.200490 0.200490
0.212929 0.212929 0.212929
0.225613 0.225613 0.225613
0.238297 0.238297 0.238297
0.250980 0.250980 0.250980
0.004841 0.004841 0.004841
0.004841 0.004841 0.004841
0.008762 0.008762 0.008762
0.008762 0.008762 0.008762
0.008762 0.008762 0.008762
0.009681 0.009681 0.009681
0.012684 0.012684 0.012684
0.012684 0.012684 0.012684
0.012684 0.012684 0.012684
0.013113 0.013113 0.013113
0.016605 0.016605 0.016605
0.016605 0.016605 0.016605
0.019791 0.019791 0.019791
0.020527 0.020527 0.020527
0.021630 0.021630 0.021630
0.021446 0.021446 0.021446
0.024448 0.024448 0.024448
0.024448 0.024448 0.024448
0.025367 0.025367 0.025367
0.030147 0.030147 0.030147
0.029289 0.029289 0.029289
0.035908 0.035908 0.035908
0.032905 0.032905 0.032905
0.037132 0.037132 0.037132
0.037132 0.037132 0.037132
0.041054 0.041054 0.041054
0.044975 0.044975 0.044975
0.044975 0.044975 0.044975
0.048897 0.048897 0.048897
0.052023 0.052023 0.052023
0.052941 0.052941 0.052941
0.056740 0.056740 0.056740
0.060662 0.060662 0.060662
0.066544 0.066544 0.066544
0.068383 0.068383 0.068383
0.072426 0.072426 0.072426
0.074142 0.074142 0.074142
0.078983 0.078983 0.078983
0.083823 0.083823 0.083823
0.088113 0.088113 0.088113
0.092034 0.092034 0.092034
0.095956 0.095956 0.095956
0.099877 0.099877 0.099877
0.104106 0.104106 0.104106
0.111949 0.111949 0.111949
0.115563 0.115563 0.115563
0.119485 0.119485 0.119485
0.127328 0.127328 0.127328
0.132230 0.132230 0.132230
0.139093 0.139093 0.139093
0.145833 0.145833 0.145833
0.150674 0.150674 0.150674
0.159436 0.159436 0.159436
0.166544 0.166544 0.166544
0.173039 0.173039 0.173039
0.181801 0.181801 0.181801
0.190563 0.190563 0.190563
0.199326 0.199326 0.199326
0.210417 0.210417 0.210417
0.220772 0.220772 0.220772
0.229779 0.229779 0.229779
0.242218 0.242218 0.242218
0.254901 0.254901 0.254901
0.266667 0.266667 0.266667
0.280269 0.280269 0.280269
0.011765 0.011765 0.011765
0.013603 0.013603 0.013603
0.013603 0.013603 0.013603
0.017524 0.017524 0.017524
0.017524 0.017524 0.017524
0.017524 0.017524 0.017524
0.021446 0.021446 0.021446
0.021446 0.021446 0.021446
0.021446 0.021446 0.021446
0.025367 0.025367 0.025367
0.025367 0.025367 0.025367
0.025367 0.025367 0.025367
0.029289 0.029289 0.029289
0.029289 0.029289 0.029289
0.033211 0.033211 0.033211
0.033211 0.033211 0.033211
0.036152 0.036152 0.036152
0.037132 0.037132 0.037132
0.038970 0.038970 0.038970
0.041054 0.041054 0.041054
0.043750 0.043750 0.043750
0.044975 0.044975 0.044975
0.048897 0.048897 0.048897
0.050735 0.050735 0.050735
0.052818 0.052818 0.052818
0.056189 0.056189 0.056189
0.056740 0.056740 0.056740
0.058027 0.058027 0.058027
0.060662 0.060662 0.060662
0.064583 0.064583 0.064583
0.068505 0.068505 0.068505
0.069547 0.069547 0.069547
0.074387 0.074387 0.074387
0.076348 0.076348 0.076348
0.080269 0.080269 0.080269
0.084191 0.084191 0.084191
0.088113 0.088113 0.088113
0.092034 0.092034 0.092034
0.093872 0.093872 0.093872
0.101715 0.101715 0.101715
0.105637 0.105637 0.105637
0.110110 0.110110 0.110110
0.114951 0.114951 0.114951
0.119485 0.119485 0.119485
0.125245 0.125245 0.125245
0.129473 0.129473 0.129473
0.134314 0.134314 0.134314
0.139155 0.139155 0.139155
0.143995 0.143995 0.143995
0.152758 0.152758 0.152758
0.156617 0.156617 0.156617
0.166360 0.166360 0.166360
0.171201 0.171201 0.171201
0.179964 0.179964 0.179964
0.188726 0.188726 0.188726
0.197488 0.197488 0.197488
0.206251 0.206251 0.206251
0.215013 0.215013 0.215013
0.223775 0.223775 0.223775
0.234375 0.234375 0.234375
0.245220 0.245220 0.245220
0.255147 0.255147 0.255147
0.268750 0.268750 0.268750
0.279351 0.279351 0.279351
0.292034 0.292034 0.292034
0.018444 0.018444 0.018444
0.022365 0.022365 0.022365
0.022365 0.022365 0.022365
0.022365 0.022365 0.022365
0.026287 0.026287 0.026287
0.026287 0.026287 0.026287
0.025122 0.025122 0.025122
0.030209 0.030209 0.030209
0.030209 0.030209 0.030209
0.034130 0.034130 0.034130
0.034130 0.034130 0.034130
0.036397 0.036397 0.036397
0.038052 0.038052 0.038052
0.038235 0.038235 0.038235
0.041973 0.041973 0.041973
0.041973 0.041973 0.041973
0.044914 0.044914 0.044914
0.045895 0.045895 0.045895
0.049816 0.049816 0.049816
0.049816 0.049816 0.049816
0.052512 0.052512 0.052512
0.053738 0.053738 0.053738
0.057660 0.057660 0.057660
0.059191 0.059191 0.059191
0.061581 0.061581 0.061581
0.064951 0.064951 0.064951
0.065503 0.065503 0.065503
0.069424 0.069424 0.069424
0.071630 0.071630 0.071630
0.073346 0.073346 0.073346
0.077267 0.077267 0.077267
0.081189 0.081189 0.081189
0.083150 0.083150 0.083150
0.085111 0.085111 0.085111
0.089032 0.089032 0.089032
0.092954 0.092954 0.092954
0.096875 0.096875 0.096875
0.100797 0.100797 0.100797
0.104718 0.104718 0.104718
0.109190 0.109190 0.109190
0.114032 0.114032 0.114032
0.118873 0.118873 0.118873
0.123713 0.123713 0.123713
0.128248 0.128248 0.128248
0.133395 0.133395 0.133395
0.138235 0.138235 0.138235
0.143076 0.143076 0.143076
0.147916 0.147916 0.147916
0.158456 0.158456 0.158456
0.161520 0.161520 0.161520
0.167463 0.167463 0.167463
0.175123 0.175123 0.175123
0.185907 0.185907 0.185907
0.188726 0.188726 0.188726
0.197488 0.197488 0.197488
0.206250 0.206250 0.206250
0.215013 0.215013 0.215013
0.223775 0.223775 0.223775
0.235294 0.235294 0.235294
0.245221 0.245221 0.245221
0.253983 0.253983 0.253983
0.266666 0.266666 0.266666
0.277512 0.277512 0.277512
0.288113 0.288113 0.288113
0.300797 0.300797 0.300797
0.027206 0.027206 0.027206
0.031128 0.031128 0.031128
0.031128 0.031128 0.031128
0.031128 0.031128 0.031128
0.035049 0.035049 0.035049
0.035049 0.035049 0.035049
0.036643 0.036643 0.036643
0.038971 0.038971 0.038971
0.038971 0.038971 0.038971
0.042892 0.042892 0.042892
0.042892 0.042892 0.042892
0.041483 0.041483 0.041483
0.046814 0.046814 0.046814
0.046997 0.046997 0.046997
0.050735 0.050735 0.050735
0.050735 0.050735 0.050735
0.054657 0.054657 0.054657
0.054657 0.054657 0.054657
0.058579 0.058579 0.058579
0.058579 0.058579 0.058579
0.062500 0.062500 0.062500
0.062500 0.062500 0.062500
0.066422 0.066422 0.066422
0.067953 0.067953 0.067953
0.070343 0.070343 0.070343
0.073713 0.073713 0.073713
0.074265 0.074265 0.074265
0.078186 0.078186 0.078186
0.076716 0.076716 0.076716
0.082108 0.082108 0.082108
0.086030 0.086030 0.086030
0.089951 0.089951 0.089951
0.091912 0.091912 0.091912
0.093873 0.093873 0.093873
0.097794 0.097794 0.097794
0.101716 0.101716 0.101716
0.105637 0.105637 0.105637
0.109559 0.109559 0.109559
0.113480 0.113480 0.113480
0.117953 0.117953 0.117953
0.122794 0.122794 0.122794
0.127635 0.127635 0.127635
0.132475 0.132475 0.132475
0.137010 0.137010 0.137010
0.142157 0.142157 0.142157
0.146998 0.146998 0.146998
0.151838 0.151838 0.151838
0.156678 0.156678 0.156678
0.165440 0.165440 0.165440
0.170282 0.170282 0.170282
0.179044 0.179044 0.179044
0.183885 0.183885 0.183885
0.192646 0.192646 0.192646
0.197488 0.197488 0.197488
0.206250 0.206250 0.206250
0.215012 0.215012 0.215012
0.223775 0.223775 0.223775
0.232536 0.232536 0.232536
0.243628 0.243628 0.243628
0.253983 0.253983 0.253983
0.262990 0.262990 0.262990
0.275428 0.275428 0.275428
0.286274 0.286274 0.286274
0.296875 0.296875 0.296875
0.309559 0.309559 0.309559
0.035968 0.035968 0.035968
0.039890 0.039890 0.039890
0.039890 0.039890 0.039890
0.042648 0.042648 0.042648
0.043811 0.043811 0.043811
0.043811 0.043811 0.043811
0.045404 0.045404 0.045404
0.047733 0.047733 0.047733
0.047733 0.047733 0.047733
0.051654 0.051654 0.051654
0.051654 0.051654 0.051654
0.053921 0.053921 0.053921
0.055576 0.055576 0.055576
0.055760 0.055760 0.055760
0.059498 0.059498 0.059498
0.059498 0.059498 0.059498
0.063419 0.063419 0.063419
0.063419 0.063419 0.063419
0.067341 0.067341 0.067341
0.067341 0.067341 0.067341
0.071262 0.071262 0.071262
0.071262 0.071262 0.071262
0.075184 0.075184 0.075184
0.075184 0.075184 0.075184
0.079105 0.079105 0.079105
0.079105 0.079105 0.079105
0.083027 0.083027 0.083027
0.086949 0.086949 0.086949
0.089155 0.089155 0.089155
0.090870 0.090870 0.090870
0.094792 0.094792 0.094792
0.095834 0.095834 0.095834
0.098713 0.098713 0.098713
0.102635 0.102635 0.102635
0.106556 0.106556 0.106556
0.110478 0.110478 0.110478
0.114399 0.114399 0.114399
0.118321 0.118321 0.118321
0.122243 0.122243 0.122243
0.126715 0.126715 0.126715
0.131557 0.131557 0.131557
0.136396 0.136396 0.136396
0.141238 0.141238 0.141238
0.145772 0.145772 0.145772
0.150920 0.150920 0.150920
0.155759 0.155759 0.155759
0.161458 0.161458 0.161458
0.165441 0.165441 0.165441
0.174203 0.174203 0.174203
0.179045 0.179045 0.179045
0.187807 0.187807 0.187807
0.189583 0.189583 0.189583
0.201409 0.201409 0.201409
0.210171 0.210171 0.210171
0.218933 0.218933 0.218933
0.220956 0.220956 0.220956
0.232537 0.232537 0.232537
0.242708 0.242708 0.242708
0.253983 0.253983 0.253983
0.262746 0.262746 0.262746
0.271752 0.271752 0.271752
0.284191 0.284191 0.284191
0.292953 0.292953 0.292953
0.305638 0.305638 0.305638
0.318321 0.318321 0.318321
0.048652 0.048652 0.048652
0.048652 0.048652 0.048652
0.050490 0.050490 0.050490
0.052573 0.052573 0.052573
0.052573 0.052573 0.052573
0.054167 0.054167 0.054167
0.056495 0.056495 0.056495
0.056495 0.056495 0.056495
0.059926 0.059926 0.059926
0.060417 0.060417 0.060417
0.060417 0.060417 0.060417
0.062684 0.062684 0.062684
0.064338 0.064338 0.064338
0.064522 0.064522 0.064522
0.068260 0.068260 0.068260
0.068260 0.068260 0.068260
0.072181 0.072181 0.072181
0.072181 0.072181 0.072181
0.076103 0.076103 0.076103
0.076103 0.076103 0.076103
0.078799 0.078799 0.078799
0.080024 0.080024 0.080024
0.083946 0.083946 0.083946
0.083946 0.083946 0.083946
0.087868 0.087868 0.087868
0.087868 0.087868 0.087868
0.091789 0.091789 0.091789
0.095711 0.095711 0.095711
0.095711 0.095711 0.095711
0.099632 0.099632 0.099632
0.103554 0.103554 0.103554
0.104596 0.104596 0.104596
0.107475 0.107475 0.107475
0.111397 0.111397 0.111397
0.115318 0.115318 0.115318
0.119240 0.119240 0.119240
0.123162 0.123162 0.123162
0.127083 0.127083 0.127083
0.131005 0.131005 0.131005
0.134926 0.134926 0.134926
0.140319 0.140319 0.140319
0.145159 0.145159 0.145159
0.150000 0.150000 0.150000
0.154534 0.154534 0.154534
0.159682 0.159682 0.159682
0.164522 0.164522 0.164522
0.170220 0.170220 0.170220
0.178064 0.178064 0.178064
0.182965 0.182965 0.182965
0.189828 0.189828 0.189828
0.196569 0.196569 0.196569
0.201593 0.201593 0.201593
0.210171 0.210171 0.210171
0.218933 0.218933 0.218933
0.227696 0.227696 0.227696
0.236459 0.236459 0.236459
0.245220 0.245220 0.245220
0.253983 0.253983 0.253983
0.262746 0.262746 0.262746
0.271508 0.271508 0.271508
0.280269 0.280269 0.280269
0.292953 0.292953 0.292953
0.301715 0.301715 0.301715
0.314399 0.314399 0.314399
0.323162 0.323162 0.323162
0.057415 0.057415 0.057415
0.057415 0.057415 0.057415
0.059252 0.059252 0.059252
0.061336 0.061336 0.061336
0.061336 0.061336 0.061336
0.062010 0.062010 0.062010
0.065258 0.065258 0.065258
0.065258 0.065258 0.065258
0.068688 0.068688 0.068688
0.069179 0.069179 0.069179
0.069179 0.069179 0.069179
0.073101 0.073101 0.073101
0.073101 0.073101 0.073101
0.073284 0.073284 0.073284
0.077022 0.077022 0.077022
0.077022 0.077022 0.077022
0.080944 0.080944 0.080944
0.080944 0.080944 0.080944
0.084866 0.084866 0.084866
0.084866 0.084866 0.084866
0.087561 0.087561 0.087561
0.088787 0.088787 0.088787
0.092709 0.092709 0.092709
0.092709 0.092709 0.092709
0.096630 0.096630 0.096630
0.096630 0.096630 0.096630
0.100552 0.100552 0.100552
0.104473 0.104473 0.104473
0.104473 0.104473 0.104473
0.108395 0.108395 0.108395
0.112316 0.112316 0.112316
0.113358 0.113358 0.113358
0.116238 0.116238 0.116238
0.120160 0.120160 0.120160
0.124081 0.124081 0.124081
0.128003 0.128003 0.128003
0.131924 0.131924 0.131924
0.135846 0.135846 0.135846
0.139767 0.139767 0.139767
0.144240 0.144240 0.144240
0.149081 0.149081 0.149081
0.153922 0.153922 0.153922
0.158762 0.158762 0.158762
0.163602 0.163602 0.163602
0.168444 0.168444 0.168444
0.173284 0.173284 0.173284
0.182047 0.182047 0.182047
0.189338 0.189338 0.189338
0.191727 0.191727 0.191727
0.201103 0.201103 0.201103
0.205331 0.205331 0.205331
0.214093 0.214093 0.214093
0.218933 0.218933 0.218933
0.227696 0.227696 0.227696
0.236459 0.236459 0.236459
0.245221 0.245221 0.245221
0.253983 0.253983 0.253983
0.262746 0.262746 0.262746
0.271508 0.271508 0.271508
0.280270 0.280270 0.280270
0.289033 0.289033 0.289033
0.301715 0.301715 0.301715
0.310478 0.310478 0.310478
0.322243 0.322243 0.322243
0.331924 0.331924 0.331924
0.066177 0.066177 0.066177
0.067095 0.067095 0.067095
0.070098 0.070098 0.070098
0.070098 0.070098 0.070098
0.070098 0.070098 0.070098
0.074020 0.074020 0.074020
0.074020 0.074020 0.074020
0.074020 0.074020 0.074020
0.077451 0.077451 0.077451
0.077941 0.077941 0.077941
0.077941 0.077941 0.077941
0.081863 0.081863 0.081863
0.081863 0.081863 0.081863
0.082047 0.082047 0.082047
0.085785 0.085785 0.085785
0.085785 0.085785 0.085785
0.089706 0.089706 0.089706
0.089706 0.089706 0.089706
0.093628 0.093628 0.093628
0.093628 0.093628 0.093628
0.096323 0.096323 0.096323
0.097549 0.097549 0.097549
0.101471 0.101471 0.101471
0.101471 0.101471 0.101471
0.105392 0.105392 0.105392
0.105392 0.105392 0.105392
0.109314 0.109314 0.109314
0.113235 0.113235 0.113235
0.113235 0.113235 0.113235
0.117157 0.117157 0.117157
0.121079 0.121079 0.121079
0.122120 0.122120 0.122120
0.125000 0.125000 0.125000
0.128922 0.128922 0.128922
0.132843 0.132843 0.132843
0.136765 0.136765 0.136765
0.140686 0.140686 0.140686
0.144608 0.144608 0.144608
0.148530 0.148530 0.148530
0.153003 0.153003 0.153003
0.157843 0.157843 0.157843
0.162684 0.162684 0.162684
0.167524 0.167524 0.167524
0.172365 0.172365 0.172365
0.177206 0.177206 0.177206
0.183824 0.183824 0.183824
0.190809 0.190809 0.190809
0.195650 0.195650 0.195650
0.200490 0.200490 0.200490
0.209253 0.209253 0.209253
0.214093 0.214093 0.214093
0.222855 0.222855 0.222855
0.227696 0.227696 0.227696
0.236459 0.236459 0.236459
0.245221 0.245221 0.245221
0.253983 0.253983 0.253983
0.262746 0.262746 0.262746
0.271508 0.271508 0.271508
0.280270 0.280270 0.280270
0.289032 0.289032 0.289032
0.297795 0.297795 0.297795
0.310478 0.310478 0.310478
0.319241 0.319241 0.319241
0.327574 0.327574 0.327574
0.340686 0.340686 0.340686
0.074939 0.074939 0.074939
0.078860 0.078860 0.078860
0.078860 0.078860 0.078860
0.078860 0.078860 0.078860
0.078860 0.078860 0.078860
0.082782 0.082782 0.082782
0.082782 0.082782 0.082782
0.082782 0.082782 0.082782
0.082782 0.082782 0.082782
0.086704 0.086704 0.086704
0.086704 0.086704 0.086704
0.088971 0.088971 0.088971
0.090625 0.090625 0.090625
0.090380 0.090380 0.090380
0.094547 0.094547 0.094547
0.094547 0.094547 0.094547
0.097488 0.097488 0.097488
0.098468 0.098468 0.098468
0.098468 0.098468 0.098468
0.102390 0.102390 0.102390
0.102390 0.102390 0.102390
0.106311 0.106311 0.106311
0.106924 0.106924 0.106924
0.110233 0.110233 0.110233
0.112684 0.112684 0.112684
0.114154 0.114154 0.114154
0.118076 0.118076 0.118076
0.119363 0.119363 0.119363
0.121998 0.121998 0.121998
0.128615 0.128615 0.128615
0.126041 0.126041 0.126041
0.129841 0.129841 0.129841
0.133762 0.133762 0.133762
0.137684 0.137684 0.137684
0.141483 0.141483 0.141483
0.145527 0.145527 0.145527
0.149449 0.149449 0.149449
0.153370 0.153370 0.153370
0.157292 0.157292 0.157292
0.161764 0.161764 0.161764
0.166606 0.166606 0.166606
0.171446 0.171446 0.171446
0.176286 0.176286 0.176286
0.181127 0.181127 0.181127
0.185968 0.185968 0.185968
0.192586 0.192586 0.192586
0.199571 0.199571 0.199571
0.204412 0.204412 0.204412
0.209252 0.209252 0.209252
0.218014 0.218014 0.218014
0.222856 0.222856 0.222856
0.231617 0.231617 0.231617
0.239645 0.239645 0.239645
0.245220 0.245220 0.245220
0.253983 0.253983 0.253983
0.262746 0.262746 0.262746
0.271507 0.271507 0.271507
0.280269 0.280269 0.280269
0.289033 0.289033 0.289033
0.297795 0.297795 0.297795
0.306556 0.306556 0.306556
0.315319 0.315319 0.315319
0.324081 0.324081 0.324081
0.336764 0.336764 0.336764
0.345527 0.345527 0.345527
0.083701 0.083701 0.083701
0.087623 0.087623 0.087623
0.087623 0.087623 0.087623
0.087623 0.087623 0.087623
0.087623 0.087623 0.087623
0.091544 0.091544 0.091544
0.091544 0.091544 0.091544
0.091544 0.091544 0.091544
0.091544 0.091544 0.091544
0.095466 0.095466 0.095466
0.095466 0.095466 0.095466
0.095466 0.095466 0.095466
0.099387 0.099387 0.099387
0.099387 0.099387 0.099387
0.103309 0.103309 0.103309
0.103309 0.103309 0.103309
0.103309 0.103309 0.103309
0.107230 0.107230 0.107230
0.107230 0.107230 0.107230
0.111152 0.111152 0.111152
0.111152 0.111152 0.111152
0.115073 0.115073 0.115073
0.114338 0.114338 0.114338
0.118995 0.118995 0.118995
0.121446 0.121446 0.121446
0.122917 0.122917 0.122917
0.126838 0.126838 0.126838
0.126777 0.126777 0.126777
0.130760 0.130760 0.130760
0.133885 0.133885 0.133885
0.134803 0.134803 0.134803
0.138603 0.138603 0.138603
0.142524 0.142524 0.142524
0.146446 0.146446 0.146446
0.150245 0.150245 0.150245
0.154289 0.154289 0.154289
0.158211 0.158211 0.158211
0.162132 0.162132 0.162132
0.166054 0.166054 0.166054
0.170527 0.170527 0.170527
0.175368 0.175368 0.175368
0.180209 0.180209 0.180209
0.185049 0.185049 0.185049
0.189889 0.189889 0.189889
0.194731 0.194731 0.194731
0.201348 0.201348 0.201348
0.208334 0.208334 0.208334
0.213174 0.213174 0.213174
0.218014 0.218014 0.218014
0.226777 0.226777 0.226777
0.232721 0.232721 0.232721
0.240379 0.240379 0.240379
0.248407 0.248407 0.248407
0.253983 0.253983 0.253983
0.262746 0.262746 0.262746
0.271508 0.271508 0.271508
0.280269 0.280269 0.280269
0.285110 0.285110 0.285110
0.296446 0.296446 0.296446
0.305208 0.305208 0.305208
0.315319 0.315319 0.315319
0.324081 0.324081 0.324081
0.332843 0.332843 0.332843
0.341606 0.341606 0.341606
0.354289 0.354289 0.354289
0.096385 0.096385 0.096385
0.096385 0.096385 0.096385
0.096385 0.096385 0.096385
0.096385 0.096385 0.096385
0.096385 0.096385 0.096385
0.100306 0.100306 0.100306
0.100306 0.100306 0.100306
0.100306 0.100306 0.100306
0.103737 0.103737 0.103737
0.104228 0.104228 0.104228
0.104228 0.104228 0.104228
0.106495 0.106495 0.106495
0.108149 0.108149 0.108149
0.110416 0.110416 0.110416
0.112071 0.112071 0.112071
0.112071 0.112071 0.112071
0.112071 0.112071 0.112071
0.115992 0.115992 0.115992
0.115992 0.115992 0.115992
0.119914 0.119914 0.119914
0.119914 0.119914 0.119914
0.123836 0.123836 0.123836
0.124449 0.124449 0.124449
0.127757 0.127757 0.127757
0.130208 0.130208 0.130208
0.131679 0.131679 0.131679
0.135600 0.135600 0.135600
0.136887 0.136887 0.136887
0.139522 0.139522 0.139522
0.141789 0.141789 0.141789
0.143566 0.143566 0.143566
0.149632 0.149632 0.149632
0.151287 0.151287 0.151287
0.155208 0.155208 0.155208
0.157475 0.157475 0.157475
0.163051 0.163051 0.163051
0.166973 0.166973 0.166973
0.170894 0.170894 0.170894
0.174816 0.174816 0.174816
0.179290 0.179290 0.179290
0.184130 0.184130 0.184130
0.188971 0.188971 0.188971
0.194424 0.194424 0.194424
0.198652 0.198652 0.198652
0.206189 0.206189 0.206189
0.212255 0.212255 0.212255
0.217096 0.217096 0.217096
0.221937 0.221937 0.221937
0.229718 0.229718 0.229718
0.235540 0.235540 0.235540
0.244302 0.244302 0.244302
0.249142 0.249142 0.249142
0.259436 0.259436 0.259436
0.262746 0.262746 0.262746
0.271508 0.271508 0.271508
0.280270 0.280270 0.280270
0.289033 0.289033 0.289033
0.293872 0.293872 0.293872
0.302634 0.302634 0.302634
0.311397 0.311397 0.311397
0.324081 0.324081 0.324081
0.332843 0.332843 0.332843
0.341605 0.341605 0.341605
0.350367 0.350367 0.350367
0.360784 0.360784 0.360784
0.105147 0.105147 0.105147
0.105147 0.105147 0.105147
0.108333 0.108333 0.108333
0.107905 0.107905 0.107905
0.109069 0.109069 0.109069
0.109069 0.109069 0.109069
0.109069 0.109069 0.109069
0.112254 0.112254 0.112254
0.112990 0.112990 0.112990
0.112990 0.112990 0.112990
0.116176 0.116176 0.116176
0.116912 0.116912 0.116912
0.116912 0.116912 0.116912
0.117095 0.117095 0.117095
0.120834 0.120834 0.120834
0.120834 0.120834 0.120834
0.123774 0.123774 0.123774
0.124755 0.124755 0.124755
0.125613 0.125613 0.125613
0.128677 0.128677 0.128677
0.131862 0.131862 0.131862
0.132598 0.132598 0.132598
0.133211 0.133211 0.133211
0.136520 0.136520 0.136520
0.138970 0.138970 0.138970
0.140441 0.140441 0.140441
0.144363 0.144363 0.144363
0.145650 0.145650 0.145650
0.151470 0.151470 0.151470
0.152206 0.152206 0.152206
0.156128 0.156128 0.156128
0.157169 0.157169 0.157169
0.163235 0.163235 0.163235
0.167156 0.167156 0.167156
0.167892 0.167892 0.167892
0.172610 0.172610 0.172610
0.177451 0.177451 0.177451
0.182292 0.182292 0.182292
0.187132 0.187132 0.187132
0.191422 0.191422 0.191422
0.195343 0.195343 0.195343
0.202451 0.202451 0.202451
0.206495 0.206495 0.206495
0.214215 0.214215 0.214215
0.216177 0.216177 0.216177
0.221017 0.221017 0.221017
0.226716 0.226716 0.226716
0.234559 0.234559 0.234559
0.239460 0.239460 0.239460
0.244302 0.244302 0.244302
0.253064 0.253064 0.253064
0.257353 0.257353 0.257353
0.266666 0.266666 0.266666
0.276960 0.276960 0.276960
0.280270 0.280270 0.280270
0.289032 0.289032 0.289032
0.297795 0.297795 0.297795
0.306557 0.306557 0.306557
0.315319 0.315319 0.315319
0.323346 0.323346 0.323346
0.332844 0.332844 0.332844
0.341606 0.341606 0.341606
0.350367 0.350367 0.350367
0.359130 0.359130 0.359130
0.367892 0.367892 0.367892
0.113909 0.113909 0.113909
0.114093 0.114093 0.114093
0.117831 0.117831 0.117831
0.117831 0.117831 0.117831
0.117831 0.117831 0.117831
0.117831 0.117831 0.117831
0.119424 0.119424 0.119424
0.121753 0.121753 0.121753
0.121753 0.121753 0.121753
0.121753 0.121753 0.121753
0.121937 0.121937 0.121937
0.125674 0.125674 0.125674
0.125674 0.125674 0.125674
0.129596 0.129596 0.129596
0.129596 0.129596 0.129596
0.131618 0.131618 0.131618
0.133517 0.133517 0.133517
0.133517 0.133517 0.133517
0.137439 0.137439 0.137439
0.137439 0.137439 0.137439
0.141360 0.141360 0.141360
0.141360 0.141360 0.141360
0.145282 0.145282 0.145282
0.146813 0.146813 0.146813
0.149204 0.149204 0.149204
0.152574 0.152574 0.152574
0.153492 0.153492 0.153492
0.157047 0.157047 0.157047
0.159253 0.159253 0.159253
0.160968 0.160968 0.160968
0.164890 0.164890 0.164890
0.168811 0.168811 0.168811
0.168995 0.168995 0.168995
0.175612 0.175612 0.175612
0.180454 0.180454 0.180454
0.184498 0.184498 0.184498
0.188419 0.188419 0.188419
0.188603 0.188603 0.188603
0.196262 0.196262 0.196262
