Black-and-White/Fuji/Fuji FP-3000b 1 -- 65x.cube
TITLE "Fuji FP-3000b 1 --"
LUT_3D_SIZE 9
DOMAIN_MIN 0.000000 0.000000 0.000000
DOMAIN_MAX 1.000000 1.000000 1.000000
0.000000 0.000000 0.000000
0.042157 0.042157 0.042157
0.116667 0.116667 0.116667
0.208824 0.208824 0.208824
0.303921 0.303921 0.303921
0.393627 0.393627 0.393627
0.472549 0.472549 0.472549
0.565196 0.565196 0.565196
0.682353 0.682353 0.682353
0.042647 0.042647 0.042647
0.101471 0.101471 0.101471
0.175000 0.175000 0.175000
0.249019 0.249019 0.249019
0.325491 0.325491 0.325491
0.414216 0.414216 0.414216
0.487255 0.487255 0.487255
0.573039 0.573039 0.573039
0.686275 0.686275 0.686275
0.138235 0.138235 0.138235
0.138725 0.138725 0.138725
0.245098 0.245098 0.245098
0.337745 0.337745 0.337745
0.394117 0.394117 0.394117
0.455392 0.455392 0.455392
0.520589 0.520589 0.520589
0.599510 0.599510 0.599510
0.704902 0.704902 0.704902
0.241667 0.241667 0.241667
0.244118 0.244118 0.244118
0.286764 0.286764 0.286764
0.389216 0.389216 0.389216
0.483333 0.483333 0.483333
0.520098 0.520098 0.520098
0.569608 0.569608 0.569608
0.643627 0.643627 0.643627
0.738725 0.738725 0.738725
0.339216 0.339216 0.339216
0.339216 0.339216 0.339216
0.331372 0.331372 0.331372
0.408333 0.408333 0.408333
0.500000 0.500000 0.500000
0.603921 0.603921 0.603921
0.640196 0.640196 0.640196
0.698530 0.698530 0.698530
0.774509 0.774509 0.774509
0.414706 0.414706 0.414706
0.418627 0.418627 0.418627
0.405392 0.405392 0.405392
0.436765 0.436765 0.436765
0.517157 0.517157 0.517157
0.612255 0.612255 0.612255
0.720098 0.720098 0.720098
0.766667 0.766667 0.766667
0.828922 0.828922 0.828922
0.509804 0.509804 0.509804
0.508823 0.508823 0.508823
0.497059 0.497059 0.497059
0.488235 0.488235 0.488235
0.559804 0.559804 0.559804
0.651471 0.651471 0.651471
0.733333 0.733333 0.733333
0.826470 0.826470 0.826470
0.880392 0.880392 0.880392
0.632353 0.632353 0.632353
0.632353 0.632353 0.632353
0.624510 0.624510 0.624510
0.612255 0.612255 0.612255
0.638235 0.638235 0.638235
0.726961 0.726961 0.726961
0.801471 0.801471 0.801471
0.867157 0.867157 0.867157
0.925490 0.925490 0.925490
0.796078 0.796078 0.796078
0.796078 0.796078 0.796078
0.789215 0.789215 0.789215
0.780392 0.780392 0.780392
0.764706 0.764706 0.764706
0.832843 0.832843 0.832843
0.890196 0.890196 0.890196
0.937255 0.937255 0.937255
0.968627 0.968627 0.968627
0.050490 0.050490 0.050490
0.089706 0.089706 0.089706
0.166666 0.166666 0.166666
0.238726 0.238726 0.238726
0.321569 0.321569 0.321569
0.401471 0.401471 0.401471
0.475490 0.475490 0.475490
0.557843 0.557843 0.557843
0.666667 0.666667 0.666667
0.104902 0.104902 0.104902
0.136275 0.136275 0.136275
0.197549 0.197549 0.197549
0.268627 0.268627 0.268627
0.346569 0.346569 0.346569
0.421078 0.421078 0.421078
0.491177 0.491177 0.491177
0.573529 0.573529 0.573529
0.678431 0.678431 0.678431
0.223039 0.223039 0.223039
0.209314 0.209314 0.209314
0.268137 0.268137 0.268137
0.346079 0.346079 0.346079
0.400981 0.400981 0.400981
0.459804 0.459804 0.459804
0.523039 0.523039 0.523039
0.602941 0.602941 0.602941
0.704412 0.704412 0.704412
0.293628 0.293628 0.293628
0.296078 0.296078 0.296078
0.307353 0.307353 0.307353
0.401961 0.401961 0.401961
0.482843 0.482843 0.482843
0.519118 0.519118 0.519118
0.573530 0.573530 0.573530
0.646078 0.646078 0.646078
0.739706 0.739706 0.739706
0.374019 0.374019 0.374019
0.372549 0.372549 0.372549
0.356373 0.356373 0.356373
0.420098 0.420098 0.420098
0.507843 0.507843 0.507843
0.600000 0.600000 0.600000
0.642157 0.642157 0.642157
0.697059 0.697059 0.697059
0.776470 0.776470 0.776470
0.440196 0.440196 0.440196
0.444608 0.444608 0.444608
0.432843 0.432843 0.432843
0.450980 0.450980 0.450980
0.525981 0.525981 0.525981
0.618627 0.618627 0.618627
0.720098 0.720098 0.720098
0.768627 0.768627 0.768627
0.829412 0.829412 0.829412
0.526471 0.526471 0.526471
0.528431 0.528431 0.528431
0.517157 0.517157 0.517157
0.501471 0.501471 0.501471
0.569117 0.569117 0.569117
0.654902 0.654902 0.654902
0.737255 0.737255 0.737255
0.829412 0.829412 0.829412
0.880392 0.880392 0.880392
0.644117 0.644117 0.644117
0.648039 0.648039 0.648039
0.640196 0.640196 0.640196
0.625490 0.625490 0.625490
0.645588 0.645588 0.645588
0.727451 0.727451 0.727451
0.804902 0.804902 0.804902
0.867157 0.867157 0.867157
0.925490 0.925490 0.925490
0.803922 0.803922 0.803922
0.803922 0.803922 0.803922
0.799510 0.799510 0.799510
0.789216 0.789216 0.789216
0.774020 0.774020 0.774020
0.833333 0.833333 0.833333
0.890196 0.890196 0.890196
0.934314 0.934314 0.934314
0.969117 0.969117 0.969117
0.150980 0.150980 0.150980
0.178922 0.178922 0.178922
0.229412 0.229412 0.229412
0.304412 0.304412 0.304412
0.373530 0.373530 0.373530
0.431373 0.431373 0.431373
0.491177 0.491177 0.491177
0.573529 0.573529 0.573529
0.673530 0.673530 0.673530
0.186274 0.186274 0.186274
0.218628 0.218628 0.218628
0.257353 0.257353 0.257353
0.324510 0.324510 0.324510
0.385294 0.385294 0.385294
0.440196 0.440196 0.440196
0.505392 0.505392 0.505392
0.584804 0.584804 0.584804
0.685785 0.685785 0.685785
0.256863 0.256863 0.256863
0.272549 0.272549 0.272549
0.303921 0.303921 0.303921
0.358823 0.358823 0.358823
0.419608 0.419608 0.419608
0.474020 0.474020 0.474020
0.534313 0.534313 0.534313
0.611765 0.611765 0.611765
0.708824 0.708824 0.708824
0.362255 0.362255 0.362255
0.377941 0.377941 0.377941
0.370098 0.370098 0.370098
0.424510 0.424510 0.424510
0.483824 0.483824 0.483824
0.525490 0.525490 0.525490
0.580882 0.580882 0.580882
0.653921 0.653921 0.653921
0.744608 0.744608 0.744608
0.441176 0.441176 0.441176
0.441667 0.441667 0.441667
0.426471 0.426471 0.426471
0.444118 0.444118 0.444118
0.523529 0.523529 0.523529
0.600980 0.600980 0.600980
0.645098 0.645098 0.645098
0.705882 0.705882 0.705882
0.778431 0.778431 0.778431
0.490687 0.490687 0.490687
0.499020 0.499020 0.499020
0.489216 0.489216 0.489216
0.472059 0.472059 0.472059
0.544608 0.544608 0.544608
0.627451 0.627451 0.627451
0.723039 0.723039 0.723039
0.770588 0.770588 0.770588
0.831373 0.831373 0.831373
0.569608 0.569608 0.569608
0.571078 0.571078 0.571078
0.561764 0.561764 0.561764
0.548039 0.548039 0.548039
0.582353 0.582353 0.582353
0.664706 0.664706 0.664706
0.745098 0.745098 0.745098
0.834314 0.834314 0.834314
0.882353 0.882353 0.882353
0.679412 0.679412 0.679412
0.681863 0.681863 0.681863
0.675000 0.675000 0.675000
0.659804 0.659804 0.659804
0.653431 0.653431 0.653431
0.734804 0.734804 0.734804
0.809314 0.809314 0.809314
0.869118 0.869118 0.869118
0.929412 0.929412 0.929412
0.819608 0.819608 0.819608
0.819608 0.819608 0.819608
0.815686 0.815686 0.815686
0.807843 0.807843 0.807843
0.793137 0.793137 0.793137
0.832843 0.832843 0.832843
0.891177 0.891177 0.891177
0.934313 0.934313 0.934313
0.972549 0.972549 0.972549
0.261275 0.261275 0.261275
0.282843 0.282843 0.282843
0.320588 0.320588 0.320588
0.361765 0.361765 0.361765
0.415686 0.415686 0.415686
0.494118 0.494118 0.494118
0.542156 0.542156 0.542156
0.610294 0.610294 0.610294
0.692647 0.692647 0.692647
0.292157 0.292157 0.292157
0.310785 0.310785 0.310785
0.342647 0.342647 0.342647
0.377451 0.377451 0.377451
0.435295 0.435295 0.435295
0.499510 0.499510 0.499510
0.550000 0.550000 0.550000
0.615196 0.615196 0.615196
0.701471 0.701471 0.701471
0.314706 0.314706 0.314706
0.335294 0.335294 0.335294
0.378922 0.378922 0.378922
0.416177 0.416177 0.416177
0.469608 0.469608 0.469608
0.513726 0.513726 0.513726
0.561764 0.561764 0.561764
0.626961 0.626961 0.626961
0.719608 0.719608 0.719608
0.390686 0.390686 0.390686
0.410294 0.410294 0.410294
0.431863 0.431863 0.431863
0.457353 0.457353 0.457353
0.496078 0.496078 0.496078
0.539706 0.539706 0.539706
0.598529 0.598529 0.598529
0.663725 0.663725 0.663725
0.751471 0.751471 0.751471
0.492647 0.492647 0.492647
0.502941 0.502941 0.502941
0.507843 0.507843 0.507843
0.499020 0.499020 0.499020
0.547549 0.547549 0.547549
0.607353 0.607353 0.607353
0.653431 0.653431 0.653431
0.713726 0.713726 0.713726
0.786765 0.786765 0.786765
0.560784 0.560784 0.560784
0.573039 0.573039 0.573039
0.567157 0.567157 0.567157
0.549020 0.549020 0.549020
0.568628 0.568628 0.568628
0.644608 0.644608 0.644608
0.727941 0.727941 0.727941
0.773039 0.773039 0.773039
0.835294 0.835294 0.835294
0.633824 0.633824 0.633824
0.636765 0.636765 0.636765
0.629902 0.629902 0.629902
0.616176 0.616176 0.616176
0.603432 0.603432 0.603432
0.679902 0.679902 0.679902
0.755392 0.755392 0.755392
0.836275 0.836275 0.836275
0.885294 0.885294 0.885294
0.726470 0.726470 0.726470
0.728922 0.728922 0.728922
0.722059 0.722059 0.722059
0.710294 0.710294 0.710294
0.694608 0.694608 0.694608
0.742157 0.742157 0.742157
0.813236 0.813236 0.813236
0.875490 0.875490 0.875490
0.934804 0.934804 0.934804
0.845588 0.845588 0.845588
0.847059 0.847059 0.847059
0.842647 0.842647 0.842647
0.835294 0.835294 0.835294
0.822059 0.822059 0.822059
0.831863 0.831863 0.831863
0.891177 0.891177 0.891177
0.937745 0.937745 0.937745
0.972549 0.972549 0.972549
0.368627 0.368627 0.368627
0.380393 0.380393 0.380393
0.408824 0.408824 0.408824
0.447549 0.447549 0.447549
0.482353 0.482353 0.482353
0.513235 0.513235 0.513235
0.603922 0.603922 0.603922
0.668627 0.668627 0.668627
0.745098 0.745098 0.745098
0.388235 0.388235 0.388235
0.399510 0.399510 0.399510
0.425000 0.425000 0.425000
0.464216 0.464216 0.464216
0.492157 0.492157 0.492157
0.526961 0.526961 0.526961
0.613726 0.613726 0.613726
0.673039 0.673039 0.673039
0.750981 0.750981 0.750981
0.421569 0.421569 0.421569
0.440686 0.440686 0.440686
0.458824 0.458824 0.458824
0.489706 0.489706 0.489706
0.514706 0.514706 0.514706
0.551961 0.551961 0.551961
0.629412 0.629412 0.629412
0.683824 0.683824 0.683824
0.757843 0.757843 0.757843
0.439706 0.439706 0.439706
0.459314 0.459314 0.459314
0.475490 0.475490 0.475490
0.518138 0.518138 0.518138
0.543627 0.543627 0.543627
0.593627 0.593627 0.593627
0.641176 0.641176 0.641176
0.691176 0.691176 0.691176
0.766666 0.766666 0.766666
0.511765 0.511765 0.511765
0.523039 0.523039 0.523039
0.533334 0.533334 0.533334
0.552941 0.552941 0.552941
0.580392 0.580392 0.580392
0.617647 0.617647 0.617647
0.666667 0.666667 0.666667
0.722059 0.722059 0.722059
0.792157 0.792157 0.792157
0.609314 0.609314 0.609314
0.621078 0.621078 0.621078
0.623039 0.623039 0.623039
0.631373 0.631373 0.631373
0.619117 0.619117 0.619117
0.669608 0.669608 0.669608
0.731863 0.731863 0.731863
0.777941 0.777941 0.777941
0.838725 0.838725 0.838725
0.690196 0.690196 0.690196
0.695098 0.695098 0.695098
0.699020 0.699020 0.699020
0.694118 0.694118 0.694118
0.677451 0.677451 0.677451
0.697549 0.697549 0.697549
0.772549 0.772549 0.772549
0.841667 0.841667 0.841667
0.890196 0.890196 0.890196
0.782843 0.782843 0.782843
0.785294 0.785294 0.785294
0.778922 0.778922 0.778922
0.770588 0.770588 0.770588
0.757353 0.757353 0.757353
0.750000 0.750000 0.750000
0.822059 0.822059 0.822059
0.881372 0.881372 0.881372
0.941176 0.941176 0.941176
0.878431 0.878431 0.878431
0.878431 0.878431 0.878431
0.873530 0.873530 0.873530
0.870098 0.870098 0.870098
0.858824 0.858824 0.858824
0.843627 0.843627 0.843627
0.891177 0.891177 0.891177
0.941176 0.941176 0.941176
0.972549 0.972549 0.972549
0.468137 0.468137 0.468137
0.477451 0.477451 0.477451
0.497059 0.497059 0.497059
0.529412 0.529412 0.529412
0.566176 0.566176 0.566176
0.589706 0.589706 0.589706
0.612255 0.612255 0.612255
0.706863 0.706863 0.706863
0.797549 0.797549 0.797549
0.483333 0.483333 0.483333
0.495588 0.495588 0.495588
0.513726 0.513726 0.513726
0.543627 0.543627 0.543627
0.574510 0.574510 0.574510
0.599510 0.599510 0.599510
0.624510 0.624510 0.624510
0.714216 0.714216 0.714216
0.803432 0.803432 0.803432
0.517647 0.517647 0.517647
0.525980 0.525980 0.525980
0.540196 0.540196 0.540196
0.564216 0.564216 0.564216
0.591666 0.591666 0.591666
0.616177 0.616177 0.616177
0.646079 0.646079 0.646079
0.732843 0.732843 0.732843
0.807843 0.807843 0.807843
0.515196 0.515196 0.515196
0.539706 0.539706 0.539706
0.565196 0.565196 0.565196
0.585784 0.585784 0.585784
0.615196 0.615196 0.615196
0.643137 0.643137 0.643137
0.676471 0.676471 0.676471
0.754902 0.754902 0.754902
0.815686 0.815686 0.815686
0.558823 0.558823 0.558823
0.570588 0.570588 0.570588
0.578922 0.578922 0.578922
0.596569 0.596569 0.596569
0.638725 0.638725 0.638725
0.667647 0.667647 0.667647
0.714216 0.714216 0.714216
0.761765 0.761765 0.761765
0.817157 0.817157 0.817157
0.618627 0.618627 0.618627
0.632353 0.632353 0.632353
0.641177 0.641177 0.641177
0.654902 0.654902 0.654902
0.672059 0.672059 0.672059
0.700980 0.700980 0.700980
0.739706 0.739706 0.739706
0.785784 0.785784 0.785784
0.844608 0.844608 0.844608
0.733824 0.733824 0.733824
0.740686 0.740686 0.740686
0.743137 0.743137 0.743137
0.746568 0.746568 0.746568
0.749510 0.749510 0.749510
0.744607 0.744607 0.744607
0.791176 0.791176 0.791176
0.845588 0.845588 0.845588
0.891176 0.891176 0.891176
0.817157 0.817157 0.817157
0.820588 0.820588 0.820588
0.823039 0.823039 0.823039
0.825000 0.825000 0.825000
0.825000 0.825000 0.825000
0.809804 0.809804 0.809804
0.835784 0.835784 0.835784
0.893628 0.893628 0.893628
0.942647 0.942647 0.942647
0.909804 0.909804 0.909804
0.909804 0.909804 0.909804
0.911274 0.911274 0.911274
0.905882 0.905882 0.905882
0.899510 0.899510 0.899510
0.890196 0.890196 0.890196
0.891176 0.891176 0.891176
0.941666 0.941666 0.941666
0.976471 0.976471 0.976471
0.590196 0.590196 0.590196
0.597058 0.597058 0.597058
0.608824 0.608824 0.608824
0.628432 0.628432 0.628432
0.660785 0.660785 0.660785
0.692647 0.692647 0.692647
0.710784 0.710784 0.710784
0.718627 0.718627 0.718627
0.816667 0.816667 0.816667
0.594118 0.594118 0.594118
0.608823 0.608823 0.608823
0.617647 0.617647 0.617647
0.639706 0.639706 0.639706
0.668137 0.668137 0.668137
0.702941 0.702941 0.702941
0.716177 0.716177 0.716177
0.723039 0.723039 0.723039
0.822059 0.822059 0.822059
0.618628 0.618628 0.618628
0.628431 0.628431 0.628431
0.635294 0.635294 0.635294
0.656373 0.656373 0.656373
0.682353 0.682353 0.682353
0.712255 0.712255 0.712255
0.729412 0.729412 0.729412
0.740686 0.740686 0.740686
0.832353 0.832353 0.832353
0.628432 0.628432 0.628432
0.649020 0.649020 0.649020
0.657353 0.657353 0.657353
0.674019 0.674019 0.674019
0.697059 0.697059 0.697059
0.726961 0.726961 0.726961
0.743627 0.743627 0.743627
0.763725 0.763725 0.763725
0.847059 0.847059 0.847059
0.624510 0.624510 0.624510
0.636275 0.636275 0.636275
0.656863 0.656863 0.656863
0.688236 0.688236 0.688236
0.714706 0.714706 0.714706
0.744117 0.744117 0.744117
0.761765 0.761765 0.761765
0.791666 0.791666 0.791666
0.865686 0.865686 0.865686
0.675980 0.675980 0.675980
0.689706 0.689706 0.689706
0.694608 0.694608 0.694608
0.704412 0.704412 0.704412
0.720098 0.720098 0.720098
0.761764 0.761764 0.761764
0.788235 0.788235 0.788235
0.825490 0.825490 0.825490
0.878431 0.878431 0.878431
0.738235 0.738235 0.738235
0.747059 0.747059 0.747059
0.751961 0.751961 0.751961
0.759804 0.759804 0.759804
0.773529 0.773529 0.773529
0.794118 0.794118 0.794118
0.817647 0.817647 0.817647
0.852941 0.852941 0.852941
0.899020 0.899020 0.899020
0.852451 0.852451 0.852451
0.856373 0.856373 0.856373
0.859314 0.859314 0.859314
0.862745 0.862745 0.862745
0.867157 0.867157 0.867157
0.872059 0.872059 0.872059
0.867647 0.867647 0.867647
0.906862 0.906862 0.906862
0.946079 0.946079 0.946079
0.930392 0.930392 0.930392
0.932843 0.932843 0.932843
0.931372 0.931372 0.931372
0.934313 0.934313 0.934313
0.934314 0.934314 0.934314
0.937255 0.937255 0.937255
0.922549 0.922549 0.922549
0.945098 0.945098 0.945098
0.984314 0.984314 0.984314
0.725490 0.725490 0.725490
0.725980 0.725980 0.725980
0.736765 0.736765 0.736765
0.749510 0.749510 0.749510
0.767157 0.767157 0.767157
0.790196 0.790196 0.790196
0.816176 0.816176 0.816176
0.828431 0.828431 0.828431
0.840196 0.840196 0.840196
0.722549 0.722549 0.722549
0.734313 0.734313 0.734313
0.741666 0.741666 0.741666
0.753921 0.753921 0.753921
0.773039 0.773039 0.773039
0.791177 0.791177 0.791177
0.820588 0.820588 0.820588
0.828922 0.828922 0.828922
0.843627 0.843627 0.843627
0.740196 0.740196 0.740196
0.745098 0.745098 0.745098
0.753431 0.753431 0.753431
0.763725 0.763725 0.763725
0.781372 0.781372 0.781372
0.803432 0.803432 0.803432
0.827451 0.827451 0.827451
0.838726 0.838726 0.838726
0.848529 0.848529 0.848529
0.746078 0.746078 0.746078
0.757353 0.757353 0.757353
0.762745 0.762745 0.762745
0.777451 0.777451 0.777451
0.790686 0.790686 0.790686
0.812255 0.812255 0.812255
0.832844 0.832844 0.832844
0.848039 0.848039 0.848039
0.857353 0.857353 0.857353
0.749510 0.749510 0.749510
0.757843 0.757843 0.757843
0.769117 0.769117 0.769117
0.785294 0.785294 0.785294
0.802451 0.802451 0.802451
0.820098 0.820098 0.820098
0.842157 0.842157 0.842157
0.857353 0.857353 0.857353
0.874509 0.874509 0.874509
0.750981 0.750981 0.750981
0.755883 0.755883 0.755883
0.761274 0.761274 0.761274
0.778432 0.778432 0.778432
0.804412 0.804412 0.804412
0.831863 0.831863 0.831863
0.856373 0.856373 0.856373
0.874510 0.874510 0.874510
0.901961 0.901961 0.901961
0.803431 0.803431 0.803431
0.806373 0.806373 0.806373
0.813235 0.813235 0.813235
0.812746 0.812746 0.812746
0.825980 0.825980 0.825980
0.837745 0.837745 0.837745
0.869118 0.869118 0.869118
0.895589 0.895589 0.895589
0.930883 0.930883 0.930883
0.859314 0.859314 0.859314
0.862745 0.862745 0.862745
0.865686 0.865686 0.865686
0.869118 0.869118 0.869118
0.878921 0.878921 0.878921
0.892157 0.892157 0.892157
0.906863 0.906863 0.906863
0.925980 0.925980 0.925980
0.949510 0.949510 0.949510
0.949020 0.949020 0.949020
0.951961 0.951961 0.951961
0.952941 0.952941 0.952941
0.956863 0.956863 0.956863
0.958824 0.958824 0.958824
0.961274 0.961274 0.961274
0.964706 0.964706 0.964706
0.957353 0.957353 0.957353
0.988235 0.988235 0.988235
0.858824 0.858824 0.858824
0.862745 0.862745 0.862745
0.863726 0.863726 0.863726
0.873039 0.873039 0.873039
0.884314 0.884314 0.884314
0.898039 0.898039 0.898039
0.909804 0.909804 0.909804
0.925490 0.925490 0.925490
0.933333 0.933333 0.933333
0.858824 0.858824 0.858824
0.863235 0.863235 0.863235
0.866177 0.866177 0.866177
0.874510 0.874510 0.874510
0.882843 0.882843 0.882843
0.895588 0.895588 0.895588
0.910784 0.910784 0.910784
0.928922 0.928922 0.928922
0.937255 0.937255 0.937255
0.868627 0.868627 0.868627
0.870588 0.870588 0.870588
0.873530 0.873530 0.873530
0.881373 0.881373 0.881373
0.889216 0.889216 0.889216
0.900980 0.900980 0.900980
0.913726 0.913726 0.913726
0.929412 0.929412 0.929412
0.936274 0.936274 0.936274
0.866667 0.866667 0.866667
0.874510 0.874510 0.874510
0.878431 0.878431 0.878431
0.884804 0.884804 0.884804
0.894118 0.894118 0.894118
0.905882 0.905882 0.905882
0.917647 0.917647 0.917647
0.933333 0.933333 0.933333
0.943627 0.943627 0.943627
0.874510 0.874510 0.874510
0.878431 0.878431 0.878431
0.880392 0.880392 0.880392
0.888235 0.888235 0.888235
0.898039 0.898039 0.898039
0.909804 0.909804 0.909804
0.923530 0.923530 0.923530
0.939215 0.939215 0.939215
0.949020 0.949020 0.949020
0.858824 0.858824 0.858824
0.866667 0.866667 0.866667
0.874510 0.874510 0.874510
0.886275 0.886275 0.886275
0.902451 0.902451 0.902451
0.915196 0.915196 0.915196
0.933333 0.933333 0.933333
0.945098 0.945098 0.945098
0.958333 0.958333 0.958333
0.884314 0.884314 0.884314
0.887255 0.887255 0.887255
0.887255 0.887255 0.887255
0.885784 0.885784 0.885784
0.895098 0.895098 0.895098
0.919118 0.919118 0.919118
0.938235 0.938235 0.938235
0.961274 0.961274 0.961274
0.968627 0.968627 0.968627
0.929412 0.929412 0.929412
0.925980 0.925980 0.925980
0.933333 0.933333 0.933333
0.933333 0.933333 0.933333
0.933823 0.933823 0.933823
0.941666 0.941666 0.941666
0.945588 0.945588 0.945588
0.968627 0.968627 0.968627
0.984314 0.984314 0.984314
0.960784 0.960784 0.960784
0.960784 0.960784 0.960784
0.964706 0.964706 0.964706
0.966176 0.966176 0.966176
0.968627 0.968627 0.968627
0.972549 0.972549 0.972549
0.977451 0.977451 0.977451
0.988235 0.988235 0.988235
1.000000 1.000000 1.000000
